Komment314/test_diploma/benchmarking/path_finding_for_benckmarking/pre_rrt_star_results/10_1_tree.csv
id;joint_1;joint_2;joint_3;joint_4;joint_5;joint_6;parent_id;cost
0;0.0;0.0;0.0;0.0;0.0;0.0;-1;0.0
1;-0.1253228635354924;-0.2886386259961799;-0.3071745990774439;0.5712891374862513;0.1844554893765428;1.0126042105103483;0;1.2566370614359177
2;0.6030472583827666;-0.128053499880429;-0.9899182902553224;1.2388291865372325;-0.1355742754322774;0.919553838949046;1;1.2566370614359172
3;0.530785893134442;0.8096574974270718;0.6449719118167377;0.4745152689998167;-0.0265380695868307;0.0;0;1.2566370614359172
4;0.1351788968107881;0.2007642780575729;-0.9600869466033576;1.9070553512469768;-0.8650952019015956;0.3975405528128233;2;1.2566370614359172
5;1.2454589162191576;-0.5506506301615361;-0.999527322110762;0.776013696312877;0.4612866590072371;1.565558595110755;2;1.2566370614359172
6;0.6706387935826117;1.1803226836132883;0.6590359253840742;-0.7169874062459404;0.0215115772864814;0.0;3;1.256637061435917
7;1.488500972871556;-0.3567345128508743;-0.0751456615020779;1.036038713963941;-0.0830502856467709;2.079432732162097;5;1.256637061435917
8;-0.3489286061000336;-0.1103958155871164;-0.9484148356454056;-0.192712338348795;0.1430070959093308;-0.6986547935967077;0;1.2566370614359172
9;-0.6418868658686501;0.1837452132444134;-1.0237314559205577;-1.1495028518297783;-0.4288624811420395;-0.3003612784200479;8;1.256637061435917
10;0.1739107719689168;0.6971200389314667;1.291188632876297;0.7940856825622655;-0.9764876812505142;-0.1303326820153466;3;1.2566370614359172
11;-0.1355490222225224;-0.4213089443445462;0.4104603189159603;0.1336767899884181;1.062581878170055;-0.2604506378615705;0;1.2566370614359172
12;0.8735340932487398;0.2952546861277443;-1.2137724832204229;2.282300259765185;-1.1539145551401264;-0.4606308515042008;4;1.2566370614359177
13;0.5868254560291051;-0.6346512323627941;0.2622909706220841;0.5735931840711734;1.6237923788857866;-0.954251091751532;11;1.2566370614359172
14;-0.5393447026884783;0.0777432339597366;-1.1198027014842489;0.1574058804700103;0.6753942737008231;1.4607138849879944;1;1.2566370614359172
15;0.939339334137421;0.2670728249245755;0.7509487274356904;0.603540428179475;2.0592336161847107;-0.4933041505963361;13;1.256637061435917
16;-1.0452886211882404;-0.2361723790088714;-1.5319603097954635;-1.966622264684584;-0.9889473244316406;-0.2804311695980784;9;1.2566370614359172
17;0.6966210067760967;0.7527087152788884;0.6464897225011897;1.392861540654969;2.704416374176906;-0.0093805964939105;15;1.2566370614359177
18;1.8803089927449967;-0.7134435371218706;0.2539505788422667;0.0448954385725333;-0.5387354344313656;2.07145970541222;7;1.256637061435917
19;-1.2876077499103604;0.3844755378518851;-0.5671573609371889;0.8211503854276383;0.6605562921984273;1.8837512404315195;14;1.2566370614359172
20;0.5549226929538451;0.9321090630915988;1.0018470236588868;2.142142141846539;1.9985155167357729;0.5744666060297411;17;1.256637061435917
21;1.8707263322458667;-0.8904970394610079;0.9470962729630892;-0.2249345161587066;-1.194185146649902;1.319912334246809;18;1.256637061435917
22;-1.7284429461695043;0.5054219577636867;-0.4136804745586082;1.5977099944399311;-0.1750865965624832;2.09652806925813;19;1.2566370614359177
23;-0.5259933541695314;-0.4372728433590483;-1.096496289764652;2.2475396068745823;-0.1049860211914954;0.2472289212916894;4;1.2566370614359177
24;-0.8920916339641505;0.6456022170833038;-0.6286192238889106;0.4536932364387417;1.5442283669464305;2.5431736475157107;19;1.2566370614359172
25;0.5745114033872432;0.1146040083504438;1.503350779712127;0.4804068978102156;2.4963109104142105;-1.2998295806909828;15;1.256637061435917
26;-1.7643843188160262;-0.1289844198304469;0.2097181424125739;0.1621046102075504;0.5720110951049769;2.089815662166526;19;1.2566370614359172
27;0.2781436035410582;-0.106793122176564;-1.6985023396246983;1.1658102071378305;-0.4991108310464062;1.8325381553223723;2;1.2566370614359172
28;-0.7871919998215519;-0.3756130469913766;0.4263168215411991;0.3705320602422512;1.1148467896753989;-1.3060732036988203;11;1.2566370614359177
29;1.517516892427242;-0.2853186523889672;0.901652999613328;0.8485470349294209;-0.3993313704759239;2.4950395348975345;7;1.1260522376328224
30;-1.6465818949526696;0.8521953687589556;-0.959348528549344;-0.8051580710419883;-0.4244585096369803;-0.3130541087997848;9;1.2566370614359172
31;1.853503997303101;0.263275339418511;-0.9926798203385708;2.624856993194483;-0.8022079727722986;0.1119496331678097;12;1.2566370614359177
32;1.7675451492159011;-1.0447484881357123;-1.1513834681462494;1.6101578703519597;0.9616215616412824;1.260209337261678;5;1.256637061435917
33;0.3407470667586241;-0.8393085276596158;0.0517790182200991;-0.0513936477875906;2.2531097900925383;-1.7578264123290197;13;1.256637061435917
34;1.2567693402857838;-0.2279789279148472;1.1026283713049243;-0.0749676010352565;0.3144465209537864;2.8192467418846405;29;1.2566370614359172
35;0.8491431305276033;-0.2837419599739651;-0.5468728934651316;-0.6846393254589533;2.567957036438975;-1.3660318906691211;33;1.2566370614359172
36;-2.2067643441702467;0.6753259063392802;-0.2461389207277029;-0.9041342288509048;-1.1499870959469185;0.1219097597797283;30;1.2566370614359172
37;-2.586379730323194;0.058736523530195;-0.7283084454507308;-1.0452153607928711;-2.0349815738591164;-0.0167979670440346;36;1.256637061435917
38;2.556398634880277;-0.5940886229832228;-1.059444746156308;1.0793454322193867;1.6424491083130144;1.2567674067336372;32;1.2566370614359172
39;-1.6429330501706203;-0.4571421004239319;0.193038804976203;-0.210652624622853;1.61097800197588;-0.8567887485758255;28;1.2566370614359172
40;2.488335921492033;-0.2031353272467629;1.3875754209291131;-0.8840314559350975;-1.0378531776471522;1.050916728930236;21;1.2566370614359177
41;-0.2260026250024258;-0.419269030011286;-1.8383979733788087;-2.5814314257623154;-1.1255790781740784;-0.8999634082116611;16;1.2566370614359177
42;0.8760110566764223;-0.3177656317644877;-2.137535345551331;-2.51477619857256;-0.6914570364395547;-1.1683131349667428;41;1.2566370614359172
43;-0.3524026426102377;0.1667653175891542;0.0286048380258302;0.9164846925339976;1.597240201612733;-1.9440215764112696;28;1.2566370614359172
44;1.7813230502279032;-0.4962384500143865;-1.7917486774315037;1.1273035227186183;2.25978381370512;1.4784625154145676;38;1.2566370614359172
45;-2.7436445190083125;-0.2497129413070025;-0.5240645636960976;-0.0560139782705684;-2.5712682265828906;-0.4059317560522146;37;1.2566370614359172
46;0.8479597234821217;0.8151961975755648;1.5366143040696592;1.6051323391538523;-1.1560072159659454;0.4701629743424277;10;1.2566370614359177
47;-2.223977187937967;-0.4959100639924708;0.7908700612966741;-0.5070027299766473;-0.0412065754584404;2.3577682204311827;26;1.2566370614359172
48;-1.876498148057344;0.2850547235661625;0.1397431577940042;-0.696417258451383;1.9095894871050407;-0.0532021638543665;39;1.256637061435917
49;-1.830370369931926;0.7049968294080221;-0.1071685307168418;-1.4036252812039751;1.830342449487232;-0.9660377994758652;48;1.256637061435917
50;-0.2536520873128887;-0.5998168791413805;-1.0439285003358196;-2.1532833310521164;-1.6130076339557111;-1.6025981312293862;41;1.2566370614359177
51;-2.7060227901906275;0.8890272293995849;0.5711754020640585;-1.581289052399299;-0.8580976668903486;0.391109790766917;36;1.2566370614359172
52;1.2729606819281276;0.5125075994808852;-1.2928655731378975;1.4624016414841;-1.9015346823009305;-0.8280147929087742;12;1.2566370614359177
53;-1.7687104674432512;0.7564079016414074;-1.3456093840329668;1.4166650459029269;1.005832202240172;1.5238867118035329;19;1.256637061435917
54;2.073691812009112;-0.0183172103524725;-1.9803405339458051;1.5755383455565923;2.277535530075413;0.4643362748475239;44;1.2566370614359172
55;-2.8485201300873664;0.2181578052712657;-0.2525325855300124;0.9214428386830344;-2.4554259496029966;-0.9597041800312744;45;1.256637061435917
56;1.489569214376345;-0.0449258579185811;1.786520271061234;2.1316203674319403;-1.4330286975966755;0.5763725665563671;46;1.2566370614359172
57;0.2008136061498097;0.746042291859277;-0.2976441405398942;1.0323571215351062;2.2450303729167382;-2.5749175674484173;43;1.2566370614359172
58;0.6173344934334266;-0.1595435440934525;0.4079660388146986;-0.5721100540972992;0.9697233634097826;2.899759250043388;34;1.2566370614359172
59;-2.4774367732614326;0.2223749843640268;1.015159851347392;-0.4209981544877724;-0.948428960054894;2.701579767722089;47;1.2566370614359172
60;-0.8825206766805708;-0.758640535651356;1.1103650467334076;1.2798855798602569;0.969258446682803;-1.633635910409827;28;1.2566370614359172
61;1.0171296901271187;-0.6916680610242378;1.5591443550961146;-1.0804949433371889;0.0961111116323978;3.0180921580883595;34;1.2566370614359172
62;-1.965890466490104;0.6779458666684997;-0.4299627289999437;0.2923475121696265;2.1155893390874243;2.725097954809468;24;1.256637061435917
63;-2.384132118241232;1.2288987270609522;-1.0997032942369491;1.2109969181718911;1.7832803119220806;1.0043190369173696;53;1.256637061435917
64;-0.5232263803187025;-0.6217337174268436;-1.758032168214498;0.2935723697523821;0.8785598066402963;0.6717560283464811;14;1.2566370614359172
65;-2.544202375187519;1.476748273917199;-0.1228086734156976;1.7097744212119377;2.218533249914295;1.319814839392435;63;1.2566370614359172
66;2.8207290653636408;-0.3172671969464965;-0.4931748340276674;0.2312372393092492;2.2525329038141115;1.399892065633746;38;1.256637061435917
67;-2.434068869705768;0.924444363016964;-0.0007417984236417;-1.9988356890852208;-0.0557302930884553;0.9900217337020863;51;1.2566370614359177
68;1.0659328011402465;-0.1206573274714307;-1.6485532612115068;-2.790619270958808;-1.1578643859020572;-0.1826732126262388;42;1.256637061435917
69;-1.7046624933346963;-0.6564426300967817;1.1868808575467404;-0.8252776168969623;1.198807477194448;-0.8721194631351729;39;1.2566370614359172
70;-2.2046097169405106;0.6343615731383067;-0.948198382084594;-1.503630541501322;2.3676418911372688;-0.3117677306813693;49;1.256637061435917
71;-1.2688798149620149;0.2706056616644098;-1.481844783718659;-1.4267765207071983;2.2578419496955737;0.2063894288326099;70;1.2566370614359177
72;-2.436240700588246;1.094779074099509;0.1318223046943783;1.0264039828411966;-2.555058678435792;-1.6467451709095997;55;1.256637061435917
73;1.8542707981037647;-0.4014741383520289;-1.0867624944430838;-1.0664651979163309;2.6355586801598667;-1.0296504853182562;35;1.2566370614359172
74;1.3946084367771747;-0.9285660024904686;0.3229808968809652;1.2196999549133989;1.4588623427436032;-1.580268922799115;13;1.2566370614359172
75;2.1097266274428583;0.2986772019022115;0.000157948196516;0.0470657310010348;0.0824912218560966;1.8439121396597693;18;1.2566370614359172
76;-2.237681614172651;-0.6723438835277062;0.7736709090389255;0.7025514977425665;0.5563816093425563;1.4193553534710528;26;1.256637061435917
77;-0.7069921978473812;1.27627568001707;-1.4515751372648125;-1.4330479262344722;2.7120461792727517;0.4180253423836247;71;1.256637061435917
78;-2.588514609001193;1.5101611234499412;0.8057093181730568;1.2553226453536817;-2.1178877130395217;-0.818638172930983;72;1.2566370614359172
79;-1.9682311559281784;0.4200792759371203;-0.03132540820705;1.4021981315788692;1.951392201300493;3.033310926214612;62;1.2566370614359177
80;1.4050161993667754;-0.218394308873622;1.5226593906983186;-1.710805146241101;0.8227080888422191;2.4907142633609407;61;1.2566370614359172
81;-2.37883385875834;0.2778614303941112;0.8505436466631577;0.6323698122563782;-2.5858990822242194;-2.132247278621331;72;1.2566370614359172
82;1.3987053884406109;-0.0405589256611795;1.6159842255444814;0.3754386077101181;1.3723809981533155;-0.4559027338662976;15;1.2566370614359177
83;-0.0373377183863482;-0.8315708563452605;-0.1795280441068941;-0.501390610300778;-0.729876705218379;0.2643664923891441;0;1.2566370614359172
84;0.4308664399867883;-0.1484502665870264;-1.7537558789400416;0.617345255406264;-1.5912440604202636;1.5928396485800826;27;1.2566370614359172
85;1.195681285914847;-0.6280462850557197;-1.9412291506779007;0.466829453378119;2.5932065469739958;2.284096424503955;44;1.256637061435917
86;1.546819128320329;-1.2538691054968067;-1.0392383311056237;-1.1772395666093227;2.2982013806299166;-1.8231828038167093;73;1.256637061435917
87;0.4181719223455842;1.2232982171749038;-0.0635114281809432;-1.0710268840614896;-0.7635626205910215;-0.4997901163973284;6;1.256637061435917
88;0.7934029971090114;1.355623246214248;0.5696542865228488;-1.8789262294129176;-1.3205236653277472;-0.260995954940102;87;1.256637061435917
89;-0.9007928882539864;0.3581502711596695;0.6512096845750205;-0.5797296296117268;0.8674057333844942;-1.4201862172931483;28;1.2566370614359172
90;1.3223702893324196;-0.8249763839673542;2.1186248679190203;0.7278222174126623;0.918798198157043;0.1568286328163429;82;1.256637061435917
91;-2.143593132214008;-0.2501261771423301;1.9213478452437804;-0.3591483445364641;1.7052418597018049;-1.3283973391406925;69;1.2566370614359172
92;0.2530836451617221;1.4218021606985085;1.057424668682813;-1.5358465046636045;-1.97004854173486;0.4498527244882458;88;1.2566370614359172
93;2.1382979977545347;-0.1592222743123887;0.5680763396778952;1.6335626578224005;-1.0189351892922935;2.752790225192106;29;1.2566370614359172
94;1.181389740336436;-0.9020887038573566;0.7402110909639279;0.1485689114027463;-1.9404597869456848;1.923721304754811;21;1.2566370614359172
95;-1.7609795873938543;0.203081448515779;1.944226763300908;-0.4384649416822018;2.087386756599225;-2.3649768767743518;91;1.2566370614359172
96;1.659326976875768;-0.1630386293618315;1.348583129350661;-2.3962292490258426;1.432054904330184;1.6907228919234178;80;1.256637061435917
97;1.343799847362206;-1.1639708359299006;1.2020555383349532;-1.2849265939336398;-1.3800960345901014;1.2603558388156502;21;1.2566370614359177
98;1.3651751899828752;0.3305719228187131;-1.506419283722486;-3.047882753814675;-0.9311904562598472;0.8888748371733128;68;1.2566370614359172
99;-2.238955908014557;1.5465443590289052;1.4236033739860487;0.7363882219658959;-2.290641403956846;-0.5684258973158348;78;0.931155758102032
100;1.3183571390315814;-0.0200974075876546;0.8663574800800511;-0.2903334768269417;2.4297680661943626;-1.3586225674619397;25;1.2566370614359172
101;2.46908093295763;0.6329668797065707;1.5604773867779973;-1.2519230374607877;-1.498043014775603;1.759919590257615;40;1.256637061435917
102;-2.297464293231846;0.2560443956123943;-1.408527203633578;-0.1059634094937219;2.497726162587552;2.895174634894526;62;1.2566370614359172
103;2.393034209537411;0.4987852045058365;-1.7431890180663374;2.1799954527931478;-0.678866007983151;0.7873753296192919;31;1.2566370614359172
104;-1.2967722565741109;1.342978368536807;-0.8041117091380094;1.3445856226828852;0.7728160606481569;0.7117079019031272;53;1.2566370614359172
105;-1.6238062943579998;0.3530811709073306;-2.3193916907814995;-0.5847265471681031;2.105848496450915;0.3192021031029761;71;1.2566370614359177
106;-1.9516196676063824;0.975384577487764;-2.387987175196399;0.0176573112748369;2.338216152055961;-0.4949521733619319;105;1.256637061435917
107;2.4068811838856727;0.3672576502321227;-2.3811770933883776;2.619731871526215;-1.2346762529269195;1.5950408156620692;103;1.2566370614359172
108;1.0883223515454166;-0.7960836785880632;1.4833695396873767;-0.1740160831911813;-2.688589552893306;2.509549261233944;94;1.2566370614359172
109;-2.224834479999967;0.8878712655726331;-1.672690726866806;0.7443201158469144;2.68942929867786;1.269372644999476;63;1.2566370614359172
110;0.4351037899153428;1.043642878642555;-1.893355157507401;1.0994683623867538;-1.89358737870828;-1.148415139762243;52;1.2566370614359172
111;2.0211848565730373;1.0212803939619135;1.7589187459677933;-0.8525783813950567;-2.2016358204504614;2.490563457006308;101;1.256637061435917
112;1.6196634953367857;-0.3251867760385218;1.5846924950780883;-0.9542020645914596;2.3460600615980858;-2.015538038018429;100;1.256637061435917
113;0.7207578597518545;-0.4524571239063805;-1.4437035004678251;1.2585705270081902;-2.411954784882375;-0.6930186992465512;52;1.2566370614359172
114;2.3548425827264405;0.8368830804965353;-0.1961186326079619;2.6561973500987244;-0.5975422668019237;-0.4549634918745988;31;1.256637061435917
115;2.227644012308509;-0.1412463055521109;0.6295952152695192;-2.7350009669849547;0.6646705081608103;1.878043037840114;96;1.2566370614359172
116;-2.1853642434433787;-0.4824845704150959;-0.3587387289805472;-0.345228116757277;2.526639276706364;0.3236975893384911;48;1.2566370614359172
117;-2.4607791107194825;-0.6793419752625596;1.4185234099853488;1.3336087257272902;1.3838336530932858;1.5941992273843857;76;1.256637061435917
118;1.4776811460589556;-0.9309435281129588;2.5048198979122662;-0.3709493295928385;1.128181317657582;-0.2219845162250621;90;1.256637061435917
119;-2.3437162683189703;-0.1978742507356865;1.968095732385872;-0.8720677804124534;1.2910891677881682;-2.8710580883699084;95;1.2566370614359172
120;2.028023556304084;-0.4673227770280121;-1.0820888891887432;0.3400842348539199;-0.3943841607305909;1.7409504355085688;5;1.2566370614359172
121;-2.49932869016121;1.3120490771246052;-0.3170508894310473;-0.9284801817183976;-0.4304085623990307;-0.7742527330515555;30;1.256637061435917
122;-2.670837905913757;0.8802045179508668;0.2379129384461722;-0.8069141817697089;-1.4525809665015748;3.0206092670983224;59;1.2566370614359172
123;-2.227553647350698;1.0837346305222464;0.7080020503918357;-0.5310436316185662;-2.0812972516403967;2.2151039829742096;122;1.2566370614359172
124;-1.7564065987269517;0.203274838187926;0.4927619916244276;-0.3713169161448229;-1.6930523022368107;0.2913019941763198;36;1.2566370614359172
125;0.3580420484610788;1.6278038928599607;-1.5064417540029358;0.247245938638582;-1.314294764778038;-1.0056246367794706;110;1.256637061435917
126;-2.3308401652624555;-0.2019082238246482;-1.0339080236466636;1.4941559889600478;-2.8227801589347528;-1.207073633454269;55;1.256637061435917
127;-1.824905010132922;-0.2412852311189882;-1.4503611468475606;-2.568438945313123;-1.3961426267006618;0.3803706874967263;16;1.256637061435917
128;-2.415704133994105;0.1202720046317025;-1.7509696526730956;1.4852354804373538;-3.079589682423918;-0.2647750476927553;126;1.2566370614359172
129;-2.9601345343255;0.5297496178071602;-1.7080764164088311;-1.3127147875891625;2.01100981807858;-0.8180536238455227;70;1.256637061435917
130;1.8620711576626956;-0.4368822919480372;-0.5049404171825703;-0.2089070004172112;2.916849196778418;1.2968268852121974;66;1.2566370614359172
131;2.3897240902302808;-0.1575170119505463;-1.000831608133531;0.0354672868137466;2.741246212257116;-1.0397610756545836;73;1.2566370614359177
132;-2.0370982428357465;0.3507567059515201;2.2733378720609645;-0.7460619097046034;2.622059845971784;-1.0241260824018952;91;1.2566370614359172
133;1.8760074441137675;-0.5252355495093379;-0.3036899155565136;-2.086377858607597;0.7307909067810898;1.7687923657511089;115;1.2566370614359172
134;0.8252855076906762;-1.3440139249450376;-0.8789389185951797;0.024523135879445;0.6623552532211971;1.1738220913637172;5;1.2566370614359172
135;-1.9627844702112272;0.2148793040158976;-1.855530111672203;-1.0278335135527708;1.8540657280526316;2.856746625155284;102;1.2566370614359172
136;2.477024539507221;1.157313603201951;0.2629021094872504;2.514152486778983;-0.1384613113975986;-1.464864697560651;114;1.2566370614359172
137;-2.463190485758993;1.008576425707974;0.0511288345899308;-0.5690739006518732;2.36880424433724;0.637086275331668;48;1.2566370614359177
138;1.1045692461318453;0.9453558429199798;-1.6149219746914008;1.7965777842100858;-2.5706549262943184;0.0088289831963464;52;1.2566370614359172
139;1.30078133044601;-0.6707237358173405;-0.5363453491117371;1.1241217110535635;-2.584327069578964;-1.262212568036135;113;1.2566370614359177
140;-2.304002737142577;-0.2813346400124038;1.452955032299866;0.3640760813728212;-1.6409822691864322;2.789316255764572;59;1.2566370614359177
141;-0.388576460690827;0.8099338174826544;1.498902938604522;-2.0314040950656427;-1.440775648422533;0.7189548602815835;92;1.256637061435917
142;-1.654117888509699;0.2236902124082008;0.7932550750041264;-1.132758515483409;-2.3174919936962475;2.507533286708908;123;1.2566370614359172
143;1.9418174051299315;1.2381167559196251;-2.347342886975112;2.222069211983682;-0.8178046422825453;0.5153206746286871;103;1.1001352305187395
144;1.8555280146158413;-1.235356641510853;0.2838343973363791;0.7914150697168878;-2.513535309908446;1.6714112805913686;94;1.2566370614359177
145;0.6557822685584865;-0.1505856528343525;-0.7261539649277045;2.749287959497549;-1.6939515106828706;-1.2257831204921046;12;1.2566370614359177
146;0.1939608077094813;0.7463925677390405;-2.052874720974692;0.4799978100417928;-0.93349180634673;1.5423470881209105;84;1.1833815553566214
147;-0.1659888442226777;-1.2732070389450447;-0.3857270938369079;-0.0195939208926789;-1.4794202570795385;0.9931198388948236;83;1.2566370614359172
148;0.8068653721102734;-1.8084840441243824;2.4504886375915738;0.93463437498401;0.9009762719397356;0.367412417954123;90;1.1960771793765708
149;0.6199167205450484;-1.0631312900709255;-1.8812178417723755;-0.3430358600450925;3.172331519944848;2.536017027965881;85;1.256637061435917
150;2.685890947813525;-0.5930585346025052;1.681700027830669;-1.3247674573467223;-1.6002313884290809;0.1615113945481913;40;1.2566370614359172
151;1.530969021746662;-0.5694988864597863;1.8555680920790356;0.7316012429968545;2.28691230793854;0.0552193502719556;82;1.2566370614359172
152;2.121413913504444;-0.5495656371317288;-0.9270509974753988;2.010558481004002;0.2501700608997589;1.5767246882505972;32;1.089688060866207
153;1.5376924821992466;-0.8635272108811679;-1.848025920684519;-0.2773512692414788;-0.3184689525154494;2.19711370865114;120;1.256637061435917
154;2.86454869296056;-1.0576629937844106;1.0834102895849838;-1.9184307420217148;-1.3092881055572023;-0.5708314967753353;150;1.2566370614359172
155;-2.0300623018297963;-1.4841535882633226;1.097849668385567;1.6007722616279954;1.4734270705204575;2.3449741726112805;117;1.2566370614359172
156;-1.533941642027396;0.7295713712097951;-1.736621561469893;-1.0280806238579647;0.1352465349588484;-1.0774458039500996;30;1.256637061435917
157;-1.3211106181975834;0.2563199906836685;-1.7894026029245709;2.1292457514498304;1.1026117987131876;2.167791353111627;53;1.256637061435917
158;-1.8827373177861029;0.9196675874616976;0.516677546146103;-2.777843176628513;0.1612350922098226;1.5845786983794172;67;1.256637061435917
159;1.6388050207243827;-0.5972895995784303;-1.2149428872466743;0.8328527027066444;-2.4082600103051783;-2.2019743747043026;139;1.256637061435917
160;2.6752900548880354;0.802774263573037;-0.3043645882373338;0.7282403524887755;0.7222583328588948;2.0417152479509806;75;1.2566370614359172
161;2.04876279392563;-0.13895102684023;-1.3061141063910982;-2.7612675895179466;-1.8609048607972665;-0.1613367480460816;68;1.256637061435917
162;3.0860705156448587;-0.8933143337811423;1.7186985754621928;-0.1401150491780226;-0.8642356240244258;0.8222121609167556;40;1.2566370614359177
163;1.4208253364146093;-1.0090700119850242;-0.1275291194909681;1.33243830625655;0.8608691314335903;-2.579620408171068;74;1.2566370614359172
164;0.0443172674446268;-1.4968116807253875;0.9483694727628528;0.9875056865385242;0.8580183237088906;-1.4075638928578145;60;1.2566370614359172
165;0.6243339358653179;1.4664580924299124;-2.15773096105372;-0.3368562494003554;-0.5213129102928316;-0.7089435812247489;125;1.2566370614359172
166;2.52396194579868;-0.5066185061600454;2.104908216832521;-2.3604124528694297;-1.4976098108480378;0.2480415548618897;150;1.1416554931454796
167;-2.6120154907748354;-0.3178259256638509;1.4340714664991416;-0.964119571554274;0.7886315957791012;-0.2455722338958285;69;1.256637061435917
168;1.8757141513857167;-0.1234834716545511;2.025822045305096;0.0355130580165936;2.6107083963672846;0.8570850951323988;151;1.2566370614359172
169;-0.2818222094419433;0.7236177961069921;0.1034538528452355;-1.8158903619531688;-0.6114678748568556;-0.9831456573749164;87;1.256637061435917
170;-2.6751608999394803;-0.7881923984884757;0.9381840674207832;-1.0911701823641289;1.3518191546911802;-2.962674753319956;119;1.2566370614359172
171;2.422626791947898;-0.2440259110898168;2.1669624955687583;-1.1735596086615845;2.7072929327587985;-1.375105145631101;112;1.2566370614359172
172;-2.9028152400998417;0.2105842751448398;0.8923020268133754;-1.1750451493755834;2.0048832649071886;-3.26946858962166;170;1.256637061435917
173;2.2151953992980533;0.1617202905419987;-0.9511046642375012;0.5520908891627352;3.4406847788112307;-0.7554938855956463;131;0.9857827237488992
174;2.7595418601789468;0.7118932697813461;0.2112684225079871;-0.3439642792405818;0.4277338171667896;1.025703854542524;75;1.2566370614359172
175;-2.1671280261684305;0.4599954615469562;0.6960771495123002;1.405490441929136;-0.4992561002319413;1.9914931677165848;22;1.2566370614359172
176;-3.077388669304102;1.271481098537396;0.2930817298291399;1.7629310787308996;-1.4169085028258006;-1.3395464987678447;78;1.2566370614359177
177;-2.3891996904454635;0.6088533266466358;-0.4414058021333062;2.298628210992362;-0.312064968344212;1.3084791706617342;22;1.2566370614359172
178;-0.5830795043412286;1.4099625467124952;1.6398144647780817;-1.9060050664975263;-1.0087389435460663;1.4696689252018946;141;1.0879679251221193
179;-0.591190699816587;-0.1816882969077139;0.1281902778745378;1.2049028057178703;1.318846065788235;-0.1147234117341654;11;1.2566370614359172
180;-2.7532826601940164;-0.4779764815429663;1.429100388759248;1.0878842288947037;-2.242829674397782;-2.588005925253189;81;1.2566370614359172
181;-0.6663172683044511;0.4629701291085357;-0.7744878974992453;1.3537715745843506;0.2369420322494236;2.35523988721561;19;1.0585769368349691
182;-1.744887451007136;-1.2688659270269391;1.4546439430425024;0.6939341694170333;-1.391685882569617;2.4424000423880337;140;1.2566370614359172
183;1.8503376612587807;0.1506406298291819;1.2537672836626998;-2.795940163474728;0.1342859264542414;1.0552633118851888;115;1.2566370614359177
184;1.257824114765021;-0.5284727038013608;-0.380472026059601;1.1360612638552;0.124470629061324;-1.7569620816345617;163;1.256637061435917
185;2.512470881011678;-1.5632460179352077;-0.7669375975747439;1.2274246939789215;1.0320209229124184;1.4384467128229923;32;1.0745985194993042
186;-2.727377607621073;0.1760245414406286;1.258932918514443;-0.3513265527139428;-2.141992884462272;-2.4725268094790787;81;1.2566370614359177
187;-2.4145006949112973;-0.9621488571299476;0.9855560650579026;2.162842380295379;1.8932595577013955;0.9921931210653838;117;1.2566370614359177
188;1.5032340764451466;0.5517277991690571;0.0953149307867182;-0.6346938486270284;0.9791077699196384;3.331796511715453;58;1.2566370614359172
189;0.637321081445896;0.613752842368224;1.4562663099914637;2.824855089836056;1.6631369520840036;1.402671826795413;20;1.2566370614359172
190;1.8067588196658444;0.1490695477439425;-0.5820333456234532;0.3259009056826329;0.4057173976892703;-1.5504254627545635;184;1.2566370614359172
191;-3.3420112945571256;0.6449747637026804;0.4645440367386821;1.35915548074964;-1.0449905935513877;-0.453067849653523;176;1.2566370614359172
192;2.966829341641426;-1.2687670570389544;0.5100856838311638;-1.6791974773253135;-0.8018744692564272;-1.5092920397674685;154;1.256637061435917
193;-2.650206445900781;-0.8333054329839765;0.0951832318354597;-1.3538438899073235;1.1273788594627283;-2.0986970557129787;170;1.256637061435917
194;2.617028373801348;-1.0509386581102191;-0.2356372385928722;-1.7394931408225718;1.267709162038045;2.352247197287989;133;1.256637061435917
195;3.0037694178849548;-1.0781297959143947;2.43235915599469;-1.2910097980619677;2.504618691988774;-2.023467605669231;171;1.256637061435917
196;1.8357921438809035;-0.861386190492184;1.395160442471982;-1.3790067733675235;1.621713872667858;2.9547981408525885;80;1.2566370614359172
197;1.8007234912168713;-0.5083273854089809;0.806146595890144;0.5801469197116107;-2.766165990929666;0.8551422659869281;144;1.256637061435917
198;1.7068633114767229;-1.4699435237294958;0.7988375138129942;-1.4724136295865595;0.7769994754899898;2.616709774179673;196;1.256637061435917
199;2.8647858841745246;-0.5055372014858901;1.3655182519209932;-2.5093719736565405;-1.495622789360556;1.193601796562593;166;1.256637061435917
200;1.3209008592817435;-0.0653283088307959;-0.7288451834020186;1.6682707233020937;-2.3002926580454703;-2.701193402271586;159;1.2566370614359177
201;-0.5705805621283735;0.2950963987171296;-1.7811745963992331;2.642033046504761;0.0983259247024608;-0.0207607411934755;23;1.1295646904370478
202;-0.9825911805788704;-0.0844806124518334;-0.9193551701584864;0.2638323860972744;-0.5395916352389553;-1.1325457198532054;8;1.1250243416386208
203;-0.5524724722780721;-0.0215773365047984;-1.4617552306860135;-2.4682660812533657;-1.5251157466603618;-0.2431704043374563;16;0.9134325384786106
204;1.7587726244854205;-1.0383627867033376;-0.786207984732223;0.3719685282759177;-1.8980499131624615;-0.8946800870753866;139;1.2566370614359172
205;-2.7964378831520413;-0.5185001643930208;-0.2575980556799818;-0.3292381716481092;-0.342517967311286;2.186768341487964;47;1.2566370614359172
206;-2.3775924660599763;0.5534455641859026;-1.694796082408598;-0.4124222273495572;-0.5127208754570791;0.1895332077460125;30;1.2566370614359177
207;0.7415196530737478;-0.6564597306870434;1.3540468557136025;1.602445621682525;-1.057495330527857;0.7700227774074023;56;1.2566370614359177
208;0.9016596344308332;1.5176180987258596;-2.656101005181565;1.3389839613560182;-1.2179730446548354;-1.351408145054188;110;1.2566370614359172
209;-1.4288479400006722;1.120406874704715;-2.280702398339856;-1.9260385528336013;-0.1169568893727544;-1.576826080565595;156;1.256637061435917
210;-2.345372562207889;0.9441827866743524;0.7636344573348913;-1.191342751509781;2.695863032189384;1.3849223966937567;137;1.256637061435917
211;0.3608784949773989;-1.2795637546988592;1.663159101592549;-0.7215964665573538;-2.1077136065655337;2.8924640401077397;108;1.2566370614359172
212;-0.6937463576938521;0.4336203614094281;-0.7015203390657605;2.514629642735282;0.3167577694392702;-0.5821702078678244;201;1.256637061435917
213;1.3375672794484084;-0.0191405885807622;-1.0186200021161569;1.4209394932432489;1.3355791819790794;1.8933826326610763;5;1.2566370614359172
214;-2.760558886484566;-0.7424341083881569;1.528176157844699;2.4519912208439245;1.8031536114039808;-0.0202016451992381;187;1.2566370614359172
215;1.8316609649791644;-1.7147016936818351;-1.1382750994647224;0.7496528520876065;-1.8824717364775063;-2.138099284330614;159;1.2566370614359172
216;-3.1015925408574505;-0.8795317192575622;0.6496353855451372;-1.423438795397636;0.91454753452093;-1.636629550639365;193;0.8814479394767575
217;-3.020052941268712;-1.120709324670531;0.8197449907403032;0.4452593058083581;-2.7997000117538344;-2.609902230447978;180;1.2566370614359172
218;2.226645599768302;-0.0251566986569055;1.7846348117077522;1.7225188529492197;-0.8076648449585441;2.6085856902325126;93;1.2566370614359172
219;-2.5066635729165925;0.3344413568458588;0.2587790842229268;0.3058300466525935;2.948303245693217;2.7524162453739143;62;1.256637061435917
220;-1.0429640836650786;-0.231947594625109;-1.9772632530910323;-1.2185676763397892;1.3575598917995664;2.3712609309148336;135;1.2566370614359172
221;-0.4123073047996552;-0.6979736900143262;0.1288026185730508;-1.5019609234743156;-0.9620353570896316;0.6855004669561048;83;1.21897932997763
222;-0.6853506243181993;-0.9486044722793542;-1.2889568884073173;-0.5749020419112596;1.4970452410948272;2.5448264064642823;220;1.2566370614359177
223;1.4990069733746467;-1.2463850905296951;0.4108904050403782;2.158242577834638;1.3718029960551794;-2.046887645952002;74;1.1071633693692822
224;-2.2633080514601094;-0.5721670395643308;0.9495804998260378;-0.6818774113432331;-0.3696116738932354;1.1711113218853917;47;1.2566370614359172
225;-1.622805061088199;0.327717204554025;-2.0005783425842005;-1.2076902993362053;-0.0698166701796272;-2.139360102655633;156;1.2004287534978226
226;2.507699003486681;-0.6154151671184387;-0.4652314464194271;0.1311476161202552;-1.2958964480764437;1.4405760125653606;120;1.2566370614359172
227;-0.6967868142617478;-0.4137568660797442;-0.6966694333109845;1.4419775970114868;2.161706756941175;-1.8916556776335187;43;1.256637061435917
228;-2.7056467775298896;-0.0392737285313594;0.5840883215708187;-1.427091309917501;2.963767369315536;1.9528709376177693;210;1.2566370614359172
229;-1.7042345029216974;-0.7059489490289595;0.5411675346980802;-0.7027801266170148;2.581346338493491;-1.3133806768437313;39;1.2566370614359172
230;1.8448694362214488;-0.7575600482630589;-0.1342047603486832;2.376273960102283;0.5262542238557777;-2.946310292062299;163;1.2566370614359172
231;-0.9789163722526532;0.7765388110102274;0.1670899637742584;0.0350094521778788;0.4657909672115323;-2.2103849214100486;89;1.256637061435917
232;1.5814380257063367;-0.2653889313750176;1.638576338507198;-0.178683578294537;1.589303548148742;0.8416722749735113;168;1.1602070733594667
233;-2.549250219558992;-1.4276611512429676;1.4374293948658907;1.1719074129652465;-2.202333912674757;2.297429953825601;182;1.2566370614359168
234;-2.5949145150280715;1.0835181602718325;1.352235160025697;-1.6049313025656111;3.071635010815986;0.4690947300839758;210;1.2566370614359172
235;-2.190392635627537;0.7223472792612269;1.9603588198845967;0.4198211924337267;1.6432899997759831;-2.801974444862536;95;1.2566370614359177
236;-0.3633744468024317;0.7557037142307118;-1.9638974535589824;1.3103936330514752;-1.120828507227537;-1.6088912938362374;110;1.2566370614359172
237;1.1418719408781453;-1.566265550410523;2.418925595669449;-1.102632255159762;1.8411296094198453;-0.330159413605111;118;1.256637061435917
238;-2.4837129181982345;0.3679975383963147;1.929767025364052;1.5084429293523036;1.238047959281232;-2.933435168228701;235;1.2566370614359172
239;0.3490069261320694;-0.9258580862612764;1.7723778477001042;2.4266025139422114;-0.9938587592666516;1.4730234703370533;207;1.2566370614359172
240;-2.45611941259602;0.152281815230329;-0.7078615806460132;-0.4848550715832125;1.246694401319166;0.0982078833137523;48;1.2566370614359172
241;-0.3209386259221458;-0.446713094475001;-2.19612020583132;0.2636370949669276;-0.4185370908914607;1.6410711705610108;27;1.2566370614359172
242;-2.560658872532516;-0.941984134087006;0.2359593142376927;-1.546722365878354;-0.0730028749209624;1.0774857994701563;224;1.2566370614359177
243;3.208196379501023;0.0235351550910587;2.091836314333769;-2.2336592522222287;-1.7262821995502988;0.6846610697299907;166;1.0041934950145923
244;2.69817647829678;1.0412167903052325;0.3211624298572849;1.7748653233386489;-1.2096105135781177;-0.4314497156417236;114;1.2566370614359177
245;1.371505821447628;-0.458663876520711;-1.4452145666286331;-0.2741212142489824;0.0426834409586489;2.090671391864293;120;1.119612406069025
246;2.2090791657896465;-0.233976510417942;-1.274779159702761;-0.2734785171703601;-2.123164386525959;-0.7418951599670707;204;1.256637061435917
247;0.1581549754126643;-0.1134222855388368;1.1136663852236353;2.4012490600324137;-0.3737254251901092;1.725117433631393;239;1.2566370614359172
248;2.1962800600943835;-0.9439226350749716;1.7969339963701003;-0.3774111840704878;1.8812976101465264;-2.5352280101766085;112;1.2566370614359172
249;-2.645905764157672;0.3364239390342664;0.6836898252365623;-3.0922868244574904;-0.414614857464238;2.0297375460277207;158;1.2566370614359172
250;-0.2311264929359931;-1.2147555752331165;-0.8315984768034748;-0.86172733434155;-0.9730586805194434;1.6311521224607426;147;1.2566370614359172
251;-1.880906144714668;0.287431490019438;1.867827368061863;0.8012950331329395;-2.199557625440343;-2.2623315693742674;81;1.2155686481871637
252;0.2709630582566817;1.3723880341275316;1.557190283159551;1.2631212488059078;-0.6019669346847492;1.1852806007887493;46;1.2566370614359172
253;-1.6573310905187322;-0.6029706505975543;-2.0195680281915034;1.0492135223774937;-2.715089558896078;-0.5577025429332032;128;1.2566370614359172
254;2.2041989365641657;-0.4489240901846826;1.5288366515311522;-1.487176199123734;-1.6239352327328538;-1.1085339342991785;154;1.2566370614359177
255;-2.475608483293459;-0.7387574672765955;-1.7063628287460064;1.6616333826177212;-2.8277585561765988;-2.095725872154639;126;1.2566370614359172
256;0.8889631043668045;0.3280056263185243;1.7137351773885787;-3.1390226649807014;1.1889370353005742;1.7098898389142363;96;1.256637061435917
257;-0.5657989160909083;1.4164625807126667;-1.7386915500208828;0.825301488973905;-0.2206121630536872;-1.5372169942502576;236;1.2566370614359177
258;1.998713445081112;-0.4221100039172248;-1.6659356254103637;-1.1404874970111378;-1.375566074621938;-0.931308909725844;246;1.2566370614359172
259;2.5693318777248817;0.1241063656190464;0.5285494570440924;-0.5039099991456244;0.7495387827204738;3.2847475803868225;188;1.256637061435917
260;1.1270184928881797;-1.1608782855824389;1.6054919107458645;-0.5282175889099839;3.0179166352871927;-1.9464680605324944;112;1.2566370614359172
261;-2.795815092165679;1.1056332602715475;1.6154771845743;-0.762249128609987;2.6151091609039203;-1.000550411979746;132;1.2566370614359177
262;2.501228763419472;-0.5565445244335602;-1.9422628199802177;-0.9045037227670204;-0.2564070321094248;1.809242990432372;153;1.256637061435917
263;0.3462294397226252;0.7419675876006028;-2.278770233480645;-0.0303450775389874;-1.0940193123915671;2.646287150696014;146;1.256637061435917
264;0.5144652343881513;0.6976419372436722;-2.1006601793745365;-0.892306544485198;-1.1308887341721223;2.699501437862586;263;0.899533169138931
265;2.5392240251796627;-1.3701711779700354;0.2785545175999319;-0.165723494031861;-2.6556170758762003;2.067885963903111;144;1.256637061435917
266;2.722051579345963;-0.2870968387034299;-2.003582313858284;0.0495075482762946;3.0010048456276577;-1.655166274094679;131;1.2566370614359172
267;2.4138428707275703;-0.1880677890274323;-0.7651430686265297;-0.3176558034804305;0.7111312750965559;-2.2960473710938216;190;1.2566370614359177
268;0.4182757698947712;0.2821189008438428;2.552735985809278;0.1039555610112168;2.8320913433379995;-1.7133419419410774;25;1.2566370614359172
269;-0.3212224700232957;0.2342987026049662;1.7786914349374077;2.539230258693148;1.227633130407573;1.0269825457784376;189;1.2566370614359172
270;2.617675643565715;-0.1219628924931149;-0.5615793741011528;-1.0091583757718563;-2.379009679871892;-1.275095843820082;246;1.2566370614359177
271;2.694368623318446;1.4490464413666506;-0.1169824382461016;-0.9860082756124926;1.140870448728298;0.9712853020512874;174;1.2566370614359172
272;-2.151048731932228;-1.2531602269608708;1.9293527900698704;0.0506233890158512;1.7765740159627263;-1.9608043155686783;91;1.256637061435917
273;-0.8321604654256568;-0.3756355248415645;1.6898627971666076;2.005419099530311;0.2159477827361565;-1.6482724282183177;60;1.256637061435917
274;1.9531288575474848;-0.105290055009951;-0.985485290630072;-1.3310960375689656;0.6354460510905413;-2.823955595111039;267;1.2566370614359177
275;-1.0277624611712362;0.4843292722251779;-0.7495430092080989;1.118475925115171;2.2892531680979467;-1.1572742510132223;227;1.256637061435917
276;-1.43264782521777;-0.6644409938717957;-2.202885819051104;0.1295501693341394;-2.2058315879132406;0.0637037291461748;253;1.2566370614359172
277;-2.4309266105316887;0.3329214976036905;1.5428438104777376;1.9934471869509705;0.1859330080750902;-3.2219406388895706;238;1.2566370614359172
278;-0.9648633220747737;-0.5856187099583899;-1.7113447286180556;2.710256409645684;-0.7060466504072327;0.8884028734978272;23;1.2566370614359172
279;0.5840461609510306;-1.0640104565298236;1.0898608513087351;2.449159177422125;-0.506568197636678;0.2241268045648668;207;1.2566370614359172
280;-2.366524597883104;-0.3345477248932557;1.5771723188642457;-3.219337639246895;-0.0237119715265496;1.7405629411270036;249;1.2566370614359172
281;1.9142065471774288;-1.295544534968179;-1.2586192853958365;2.435968711299233;0.4878050235025677;-2.821602903275904;230;1.2566370614359172
282;-0.628119540344295;-0.6789941953813174;-1.724972964614372;-1.3302506686598985;2.3696252020103925;0.6375495362030197;71;1.256637061435917
283;-0.5869492251740698;0.9458495246385176;-1.5975076154530914;1.988385199571281;0.893093058250992;2.849061704055368;157;1.2566370614359177
284;1.0978560457162434;-1.2428069062034222;1.943838683001363;-1.4889285310332598;2.3670643583798467;2.811874014700642;196;1.256637061435917
285;2.2163046214196327;-1.0733195265495097;1.531506379282134;-2.854551477471388;-0.6887776367555669;1.3898973360294435;199;1.2566370614359172
286;-3.1164392260415887;0.9271196844224804;0.3482367189563841;-0.4409072684273655;0.0712881880406492;-1.1179183790841456;121;1.256637061435917
287;0.1172829623624523;1.353902788162266;-2.182373364543419;0.4409547544133441;0.301577144090937;-2.238190949870165;257;1.2566370614359177
288;1.2836433220086008;-0.9104916380554444;-1.0112915372218882;-1.6448291758668416;1.3145574359598684;1.9770483199325664;133;1.256637061435917
289;-0.4338465514833788;1.3893042490810914;-2.427472926533201;-0.2195016373258828;-0.5857145193975897;1.687560242203037;146;1.2566370614359177
290;-1.4704346449689127;1.4118863920583415;-0.713786024353472;0.7815463981379123;1.8429797688613083;-1.614281708645655;275;1.2566370614359172
291;0.655540005359157;0.1159756394439077;-0.8557491589667292;0.2204501716165337;3.0057155093331955;-1.2032440268793083;35;1.1532476939729286
292;2.6996212977706637;0.7248154128152715;1.1222984364969433;1.4882549072917537;-1.358643426516949;-1.2875160355803656;244;1.2566370614359172
293;1.8927794988901516;-0.3450252901944791;1.4677731646990924;0.5533666351884068;2.468138722434958;1.821371208413329;390;1.1358474826214138
294;0.7068513163343466;0.9615477080889128;-1.2058822902760808;1.5061011386872267;-2.9272789874524867;1.0295268375962163;138;1.256637061435917
295;-1.8366968856466477;-0.283737095481058;1.4352319477732505;-1.3822761990107586;-2.8163258966939804;1.755808271265236;142;1.2566370614359172
296;-1.0900212004263938;1.1137865184402862;-1.9461210323580704;-1.9588019808624009;-1.151863989516694;-2.106201634402301;209;1.2566370614359172
297;-0.4071229458003922;1.7421818206295685;-2.6430976606356;1.4467027545977278;-0.5754359808574435;-1.8805473451626875;257;1.2566370614359177
298;-2.819690687564487;-1.5270257231547866;0.3492138663415653;1.3596501473036169;2.1072847323206543;0.9881971378670932;187;1.2566370614359177
299;-2.0530300336868943;0.6932060668881994;0.9903354957984598;1.4648093327244067;0.2110840806250095;2.186576994712463;175;0.8367515255985105
300;-0.8250538473635802;1.624621041498507;-1.5056634205771116;-0.5786551551803822;2.609499713262511;1.2549395153487075;77;1.2566370614359177
301;-0.0637307736392709;1.3131653447116114;-1.7946184937201672;-0.5358415644053884;2.25393742294965;0.2406304038872289;77;1.256637061435917
302;0.898162967938267;-0.2044338767910311;1.2518845404320298;1.298735244528033;0.5093999049938764;2.689644227050774;29;1.2566370614359172
303;1.9404002789794597;0.8632037551650495;1.348810156146055;-2.8385506387683863;0.9801923445953044;0.4748559092719079;183;1.2566370614359172
304;-1.3976174192812043;0.6930791841159907;-2.0996632846617667;2.3487583284322744;0.7604485273908539;-0.353784761060952;201;1.2566370614359172
305;0.9486214995833718;1.217109984293185;-2.7259867277274425;-0.4173767355852242;-1.314844004106186;3.037540871125454;263;1.0678368818294248
306;0.4455097309291988;-0.1306130446845784;-1.696165925717004;-0.848166408211477;2.6659953897924757;-1.5545556788251622;35;1.256637061435917
307;2.6341364784248245;1.484576492693502;-0.1372765986788792;0.5613015368469894;0.2636661441864861;2.9617669028872875;160;1.2566370614359172
308;-2.322587250422093;-1.563845652110962;-0.3749376401776975;2.01981446865717;2.372490637891448;0.4403626173636548;298;1.256637061435917
309;0.0566076718114959;-0.5652779032174372;0.4378032101445658;-0.8543929692248823;2.3175712310033374;-2.548605054514822;33;1.2566370614359172
310;-0.5034144608240942;0.2458830643814881;2.054726786902036;-2.623959908834623;-1.2247186053154344;-0.0166078475699234;141;1.2566370614359172
311;-2.023689021046062;0.3764477178422979;-0.9308680559063218;-1.8751145000210696;-0.1701605024584785;-0.2955692988045241;30;1.2566370614359172
312;0.2703248343491256;0.2554295712778876;-2.251058739513838;3.0475235059669226;0.4165517431939474;-0.6404058565056758;201;1.2566370614359177
313;2.8676336944107472;0.8184411146663197;1.7170675918578675;2.2239151735183067;-0.3612791870382678;2.571303777971428;218;1.2566370614359172
314;0.3829967342749318;-0.6627762108064117;0.2170357670026422;2.4047408150892284;-0.3589736647711676;-0.5453835250787389;279;1.2566370614359172
315;-0.2283365935636685;-0.6633448810965205;-0.456213668519857;-1.2248018673340362;1.552815153613309;2.132563736543047;222;1.2566370614359172
316;-1.901826292166396;-0.7300904216296232;1.1775465366075946;1.7466951603420635;2.7352830226744143;1.3969579799653908;187;1.183031325503663
317;2.7820756552705674;-0.0791996141820749;-1.1344648998775846;-1.752943346740569;0.8066122205823112;-2.010410718775995;274;1.256637061435917
318;-2.0064139156496914;-0.8668578425131014;-1.5653914178263535;2.26170344322143;-0.2728182354776542;0.9592874514852562;278;1.256637061435917
319;-2.070160748296108;0.4253778255004152;1.7513132160047364;-1.0629212867564095;-1.6104342682013055;-2.704185304525226;186;1.2566370614359172
320;2.9234963422560645;-0.3287927683843085;1.5778832523611972;0.8692640775729265;-0.4713412580128832;1.0246487804770446;162;1.2566370614359172
321;-0.1569700794843549;-0.6501203651216193;0.8526331448940778;-1.861806737121519;1.7359958868801977;-2.582172145240848;309;1.256637061435917
322;-1.3609809519558078;0.3666813317647287;0.4624326863518932;-0.124433463799158;2.80865393709381;0.205844054247013;48;1.256637061435917
323;-2.0290202290143693;0.8885042710803928;0.2151237561236854;0.5164029308559152;-2.3274911689910045;2.5327854800581022;123;1.256637061435917
324;-2.2014219936940416;-1.0768866072945855;1.980483020416828;0.4379474903965056;-1.8874458479642848;-2.839312382756476;180;1.2566370614359172
325;-1.3705757995419536;0.5450311491151212;0.599054026586228;0.2004782557100018;3.247242539002739;2.585555592686144;219;1.2566370614359172
326;-0.8765234817196464;1.431161518336059;-1.9230306603742984;0.1188049483306266;-1.582550950019422;1.8247666320703984;289;1.256637061435917
327;2.759120709661089;-1.0246447340602731;2.138581023773861;-0.8185943674109611;0.0215749676914794;1.0057795720710174;162;1.2566370614359172
328;1.381109858186976;0.0937343786445225;1.3039853286306176;2.4472779700418434;1.227277083215377;0.7703997704871692;189;1.2566370614359172
329;-0.4516773643415586;0.4008009043720128;-0.1046793123093203;-1.258660143126525;1.911833156343889;2.511024618050688;315;1.256637061435917
330;-0.868038192447099;0.9342433620557494;-2.620903631180053;0.4573749032524941;2.709299565650398;-0.3608225522814642;106;1.256637061435917
331;2.8308061098489423;0.48205697466483;2.2286601638266244;-0.5783160451825493;-2.6832189079851863;2.8147380019409205;111;1.2566370614359177
332;2.4059349261744263;-1.5124053773032011;-0.1883167548695259;1.059617606144919;-1.4444314576010449;-2.003771212413356;215;1.2566370614359172
333;-1.3626837645873495;1.1183808657251528;-0.3488035937378484;1.2552018696145295;-2.69315088583282;2.8238940770286973;323;1.256637061435917
334;-1.5633175700637474;1.0256780012243432;-1.6470929680276951;2.604393860510787;1.525392423445556;2.877579725713708;157;1.2566370614359172
335;1.927387742243972;1.1290941993012351;-2.487618646475602;3.0028951873900565;-0.5021772641404254;1.8673074435817063;107;1.2566370614359172
336;2.428173674099265;-1.3169584328116448;1.116421618803788;-1.4214612929457624;-0.6631943407233409;-2.422178112874364;192;1.256637061435917
337;-0.039407146331261;1.1408149943743244;-0.2871831175152105;1.654484946060982;-2.767595194176101;0.7155628062411046;294;1.2566370614359172
338;1.6955110306245702;0.0700961142675831;0.9258797120026804;-2.7555144045328257;1.481987397111545;-0.1978868191580758;303;1.2566370614359172
339;-0.364004939026437;0.8337418470314562;-2.257169851988785;-2.3570631835646108;-0.1226119235133733;-1.997184566757884;209;1.2566370614359172
340;1.7841556419776132;-1.6689216637693818;1.3806017067805656;-1.8521805439176784;-1.441053740650661;-1.9977680229451429;336;1.2566370614359177
341;-1.0735416033997152;0.4665868968055183;0.8922467240752491;0.0442430082986672;2.2220367695370147;2.016929520793867;325;1.2566370614359177
342;-0.9143209036988816;1.386213102606998;0.7622092079528673;-0.0879184405795656;3.237299673025973;-0.0495967352755453;322;1.256637061435917
343;-1.760363357933616;0.8812845586182763;-0.4493960195449796;2.785533840309511;0.0440095984399011;-0.4097917754276604;212;1.2566370614359177
344;0.36976163029323;0.6538935925930256;-2.504936839444849;-1.701465520467186;-0.7231781815372245;-2.3927870504330504;339;1.256637061435917
345;0.4708177091782465;0.8808871385516398;1.1532733392384111;1.6153817696717965;-1.5926859462551146;1.4305367537234637;46;1.186007105557456
346;2.003032974316928;-1.406132177375618;1.3186146784766617;2.471052298841346;0.8301267199640519;-2.3373164609325388;223;1.2566370614359172
347;1.1985181419724416;0.7640735594463564;1.8225851441369323;0.3421898151616653;-1.0461545211467964;0.052391349968878;10;1.2566370614359172
348;1.3241938147201158;-1.197146883186563;-1.4142174181995022;-0.7920739310415515;1.4137480238634597;-1.1485439074140855;86;1.256637061435917
349;1.5212562345459817;-1.3994930785337645;2.044119770095317;-3.148047606915681;-0.8439416173484942;0.6046159019235581;285;1.2566370614359172
350;-1.5413629389259105;-1.3896796170202306;1.8392861246479837;2.0906103446840043;0.7394861372123027;2.2897868030690383;155;1.2566370614359177
351;2.2150459575833668;-1.4935406805178302;1.8852254357296383;2.420305236049124;-0.2662115575795835;-2.3684021369751718;346;1.2566370614359172
352;1.5836091056391566;-0.0812964860324897;0.7441107583690539;2.7487488573323406;-1.2814286486961937;0.2961536513995816;56;1.256637061435917
353;2.6252086880937098;-0.7122192163237822;-0.9946523608090028;-0.3661907988685294;-1.9647911866152288;2.202747239648741;226;1.2566370614359177
354;0.391050158059085;0.8998240393771493;0.4203202942032898;-0.1003903078553419;1.8636725677930324;-0.9781379556616884;15;1.2566370614359177
355;-2.2858820874086003;0.0371865603690126;2.3265910441091604;-2.685185808052608;-0.3045832242580027;1.6466951228710534;280;1.0389109806745076
356;2.4048707424252305;-0.1114230961162706;0.7247681473400696;1.3717277993591046;2.2687606187206395;1.849764839858134;293;1.256637061435917
357;-1.7753478456985543;0.1245010305086746;-1.574540709518678;1.3645591376101451;1.96617061457614;-1.369914661328124;275;1.2566370614359177
358;0.327969775628718;-0.8172496246596674;-1.7408841049041284;-0.3233030321050197;2.8968630615065143;-2.428094521208275;306;1.256637061435917
359;-2.567156511138569;-1.5031353266018364;1.1633767366155048;0.7015635560212126;2.236545583586869;0.3540481536092456;298;1.256637061435917
360;1.68829602995187;-0.3167611437037014;2.398258718639108;2.9322045816212063;-1.626309191977832;1.2192050272997386;56;1.256637061435917
361;0.0752511959246231;1.6040405440415475;-0.4236936545130548;0.5893758275559424;-0.8577047145160288;-0.9785957760725208;125;1.2566370614359177
362;-1.7923876159728882;-1.4840474160263757;2.2676391330285077;-0.2481874893970033;-1.0908113320912798;-3.0805203064711373;324;1.2566370614359172
363;-2.923165666609025;-0.8635842221287238;1.8724237913579715;-0.8733170363451077;-0.5963506294553239;1.516221786656859;224;1.256637061435917
364;0.3588018632880227;1.158948280297367;1.7449053885655832;0.523298471670014;-0.1934962905131784;-0.7932101503737182;418;1.1425013429081907
365;-2.9913264059988665;0.5407610338321722;0.6340539518270307;2.0087963375191245;-0.0936589390313836;-0.7522292452720729;191;1.256637061435917
366;2.9173567076768605;-0.784236701468441;2.6038145164361817;-2.695864664856345;-0.5323240912268683;0.0154621053846782;166;1.2566370614359177
367;-2.2018278677673724;0.3461251230535123;1.5697646762803286;-0.2889404276936026;0.8168479757750835;0.4579731700602125;167;1.2566370614359172
368;-2.5648584259667784;-1.084929422184773;-1.7585226081090393;1.348417863772299;-2.1946624169675792;-0.2499132923613185;253;1.2566370614359177
369;1.9004329285003507;-0.5558870675732941;0.2334417107844325;1.535997015757412;-2.962373938323997;2.2689424842879307;144;1.256637061435917
370;-2.704625801868757;-1.27295300377083;1.5821643977045023;2.482344546216101;1.475550184802786;2.6052819598480337;155;1.2566370614359177
371;-2.358122719136744;0.3397457699223448;0.5914561584865772;-0.5826917231915592;2.437523128323837;-1.4563987649425143;229;1.256637061435917
372;0.5016594566625621;-0.7747187106437827;1.102661709563487;-1.199976039741648;2.729248025424389;2.5249410590939085;284;1.2566370614359177
373;1.4126738641639789;0.2491665800154478;-0.4822003497710584;-0.3764177602670355;3.0718818704555355;-2.1562565390647914;35;1.2566370614359177
374;1.1721545839337022;-0.8440938163415762;-1.47102100095938;1.4232241950208462;1.2487733748253746;2.7051833376199395;213;1.256637061435917
375;1.9261580666762268;-0.5611946958430986;2.8908956444604343;3.4465211889802023;-0.8933486916805347;1.347829418168862;360;1.0850410831561246
376;-2.478217352824966;1.594193433155522;-0.403250217774745;2.4077257250164745;0.2289324565726676;0.7660023467206893;177;1.2566370614359172
377;1.9872504574252716;0.4863228102639099;-1.58219081952311;1.417944462329394;1.7465858477400815;2.53759355240218;213;1.2566370614359177
378;1.0048180844982957;-0.9837840370566662;0.5772949204123092;-2.157759898425451;-1.881002939101908;1.090976820023435;97;1.2566370614359172
379;-1.5473779405672274;-0.5571174430465661;2.421527530127647;-2.0758968860047733;-0.5075476503076072;2.155724194385844;355;1.2566370614359172
380;0.3797553973102157;-1.078730035149014;-0.9132607473585757;-1.058546847963981;2.886480176442297;-0.7733245979649184;35;1.2566370614359172
381;-0.6678163295129484;-0.196956410981567;-1.7632356137118772;-1.5875082627409014;-2.107202728174015;-2.0070424233461237;50;1.256637061435917
382;-1.306875733656601;0.675201062867424;0.2357730425516227;-1.2076739127261409;-1.3860550409332824;2.2415930457503457;142;1.2566370614359172
383;-0.7176319999923437;1.786776224499511;-1.3521324631836098;1.1512700862780711;0.1848927421615829;-1.907555992484056;257;0.8470266441813288
384;0.5321099057205169;-1.3696819561227078;-1.6002166495640484;0.7078671722313474;2.650918250560193;-2.130279381767164;358;1.256637061435917
385;1.885065728546606;-0.3275073666389633;1.1604333787347232;1.498699882434328;1.6389272213019797;2.1190480129229496;356;0.9960016586065952
386;2.86293799442231;1.3892016070811173;0.2038598096577668;1.0186318573971649;0.253201042005922;1.2433457101379677;160;1.256637061435917
387;-0.614938273551568;-0.4583144043377825;-0.9374192041211058;-0.6451500067352294;-1.371218895302568;-0.1726400329614956;9;1.2566370614359172
388;-1.825582647008269;0.2071857740672591;1.2872274493816194;-0.5273436069334859;0.5407528096972753;-2.8367126943064243;119;1.256637061435917
389;0.8907801029608706;0.6728765239957961;-1.9783846190929784;1.2684158241214258;-2.9366972529342585;-1.4803438192908822;693;1.1920038465317362
390;2.170643266040315;-0.0882682798666589;1.809889276048943;0.4771973444805782;2.565103851339596;0.8140134578527486;151;1.1665045931619946
391;2.575182895421206;0.0786043391173118;-1.178741298160177;-1.478698006778731;-2.973767533005253;-2.037992066563021;270;1.256637061435917
392;-0.331621403418771;0.6652833394732443;-1.788149811993009;1.5213860634475505;-2.804464028985421;1.2715721403745406;294;1.2566370614359172
393;-0.5083586644756777;-0.3581432399451958;0.3776652003010991;0.0048932833698416;3.1814891743215146;0.6106702280162635;322;1.2566370614359177
394;-0.7744877316366625;0.3827640054364929;1.7906679350514094;2.0849584082164982;-0.2031394149536907;-1.4374155454763955;273;0.9028171871791624
395;0.4870254616929179;0.6077372437148602;1.6644014404744352;3.110592479033352;1.5074788658328897;2.588975420100431;189;1.256637061435917
396;2.321154468136555;0.5457066053892157;-0.2118412015599886;-0.0429109338647965;2.099623461853491;-1.2387150757110608;131;1.2566370614359172
397;2.511776439311952;-0.2894380513543308;-1.0195816424101694;2.222499450827898;0.2469482882973372;-3.118597612500131;230;1.2566370614359172
398;-2.577198071091168;-0.0002894131757935;-1.7022067083761028;1.1998721313704042;1.8626443940466824;-2.3007541586377087;357;1.2566370614359172
399;-2.684632315459636;-1.0313991645890688;0.5320816928198873;0.9215333645625272;2.7827336770472635;0.4212621946380392;298;1.125575369976636
400;-1.8028280667315213;-0.4839128902328655;2.5168846616135943;-0.9611835877598248;-1.034625332376931;-3.152039500495394;362;1.256637061435917
401;2.2661466478809418;-0.4056601920584272;-1.93762023982142;-3.1175802090726306;-0.8554947108126453;0.719088019186787;98;1.2566370614359177
402;0.938270055022319;-0.5074072625669177;1.425313829723578;-1.8896890826441723;-2.598479779526484;1.2959211619925683;378;1.2566370614359172
403;-0.5117954535925823;0.5574023167201362;1.2549871080984738;3.0921605756146757;2.0485568273731043;2.245122708312425;395;1.2566370614359177
404;2.5665818528558937;0.8202653395562581;1.8297216719164389;0.9805432680569308;2.1868238056872675;1.2613274039550042;390;1.2566370614359172
405;-1.8467126749430207;-0.207220197430875;-0.1972827395864146;2.072705457090803;-0.9151741816844964;2.583469370831577;22;1.256637061435917
406;2.4208324744555094;-1.0837576191489695;-0.9817128670620208;-3.34996878770949;-0.5020487015181473;0.667074171592295;401;1.2566370614359172
407;-0.4264727913978075;-0.0010871832912413;-0.2709070481241525;1.8853115321040712;-2.9860426152950352;0.5602849643784935;337;1.2566370614359177
408;1.8152199997840768;-1.4236215748080168;-1.8029323813944795;1.343230177821128;0.0063440243729199;1.4183151385110575;32;1.2566370614359172
409;-2.985285000745426;0.5834014458853471;2.132700629121004;-0.7885517015846789;0.334513864704653;0.789450265621427;367;1.256637061435917
410;-0.4910401496503728;-1.5393088794779377;-0.0225060775855893;-0.0071861581474258;-2.5551479828794625;1.329860932617274;147;1.256637061435917
411;-2.243158123464739;-0.7684036796312281;-1.4913070880209256;0.6583115425687471;-2.168359258063677;-2.2868109730728703;255;1.2566370614359177
412;0.7533648916351378;-1.57678180912757;1.0934735672247171;1.4020637612258744;0.5982847864991203;-1.3290925261905546;164;0.88072505134297
413;0.0053602723314779;1.5141346111020926;0.1381111420119527;-1.699397453421775;-0.4322907290125818;0.2734849393216241;87;1.182453329995061
414;-3.2223799898420715;1.301816382743776;0.5982027177124095;0.3143726855114907;0.445840754797513;-1.926803542989785;286;1.2566370614359172
415;2.568981370578012;0.3281180689822079;1.178170550180847;1.2035912678633165;2.87105299102915;0.4825340038038666;390;1.209235718173869
416;0.3973868719169713;0.1212911412122474;1.0457563400096406;0.6697663444270108;-1.656957458146259;-0.9420498692136065;10;1.2566370614359172
417;0.0885436395391492;-0.9837737660900536;1.9411702146826015;1.389950507728464;-1.5807165621856258;0.1519644607478046;207;1.2566370614359172
418;0.4426877348139074;0.9028623507253608;1.3471578947171583;0.1104448992141301;0.477584952354703;-0.1196440436705863;3;0.954209378151806
419;0.0855656647274688;0.7711999951142343;-1.1936212865997486;0.0461406519464234;-1.4298330485301276;-1.513002641810687;125;1.1032203467528303
420;-1.4803370176983828;1.417113943113265;-1.1210941931556406;-2.514638856163196;-1.414172388252596;-1.580508637485896;296;1.2566370614359172
421;-2.531466339435736;0.8875663834020178;-1.3593936418590766;1.6780152648763071;-0.8035018381960832;1.417307645485209;177;1.2566370614359177
422;2.8522666712829903;0.6175600198663147;0.9287561263720984;2.5716029191352336;0.4035412877743254;3.0309506541333047;313;1.2566370614359172
423;0.5615205189845573;-0.3780253347749001;-2.3366702615940933;-3.124885748535012;0.3357433635268674;-1.0704758484357275;42;1.256637061435917
424;-0.1052350172734565;-0.6861359026032378;1.334538423634379;1.1866320342858625;0.4971482116587684;-2.463014464119215;60;1.256637061435917
425;-0.9392264888990612;-0.0686195012405689;-2.4012102254775805;1.353614429221922;-1.569335875456909;-2.0257282033845123;236;1.256637061435917
426;-2.786411655780552;0.7202558387137614;0.2785571665592212;0.1643692194653653;-3.0253699236362634;-2.8236057401378423;81;1.2566370614359172
427;3.104034511873688;-0.6050764923617141;1.8293799619859092;1.543680969962906;0.0661708616412587;0.210276654921109;320;1.2566370614359172
428;2.546946311969524;-0.6297463476216675;-2.042552211670096;1.6124788101340786;1.647190193061986;-0.2964206888910397;54;1.2566370614359172
429;-1.509908968853746;0.2898354881428074;1.5575946595585668;-0.9621426986868348;3.1694224498652503;-1.6866301994018331;132;1.2566370614359177
430;-1.445358897543819;1.5887685256516453;-2.0719435587713577;-0.3937643552034485;2.9505408888654783;-1.0449557465914303;106;1.2566370614359172
431;-3.2779068011566013;-0.8671232468565441;0.7482304099091421;-0.1778840397802991;1.934019572910332;-2.984416572560724;170;1.2566370614359172
432;-0.7342731182156395;-0.1034268826874001;-2.0122897971444376;-0.4884791194397908;0.0995699838330876;-0.2410490244854542;8;1.2566370614359168
433;0.7619265455640952;1.4742753123090742;0.7536694488610046;-1.5422098133118496;-1.6409747836969943;-1.407355052377498;88;1.2566370614359172
434;-2.852724549553907;-1.0124634331138016;-0.389340944267146;-0.3629036034971563;2.0371955404391;0.8117154151129236;116;1.097821871132176
435;2.6301128682916897;-0.4235719854908352;2.262070027186473;1.152644901082018;-0.0360841766536543;2.9396124156246355;218;1.2566370614359172
436;2.656376355835949;-0.9973681508389738;1.4282043246099485;3.151017755872623;1.0933061700527196;-2.6224824081628606;346;1.1040342192474284
437;0.6211258317001296;-0.4356318538126893;-2.12212942890564;-1.2402552890585143;-1.4988069661084154;2.862466626609712;264;1.2566370614359172
438;0.1584963980328615;1.390084349570229;-2.180527977508305;-0.5790995134660306;1.9711201617458896;-0.8964941591959472;301;1.256637061435917
439;1.555985707847663;-1.7467094288183942;-0.787904727223906;-1.3137484879918802;2.338319937494434;-0.81059849689246;86;1.1626329402538518
440;0.8854522230471198;-0.8030219550940133;2.4697599226670106;-2.773480713636554;-1.0177390072047592;1.28830935098965;349;1.2566370614359172
441;3.198116102001837;-0.0534577566214055;-2.033054902955275;-1.2887832883357169;1.346218081312902;-1.7082495544234093;317;1.2566370614359172
442;2.4678211031698822;0.1690702707950807;-2.1649325876755974;1.132360871097266;1.3743840589277836;-1.0805472966595098;428;1.2566370614359177
443;-2.589806746173103;-0.9735779744949704;-1.6861788384497112;1.634587536680051;1.924255266312712;-2.9630658874202584;398;1.2566370614359172
444;-0.0569994950551791;0.532916524215381;2.124823788895075;-2.902243516191307;-0.7246112631634203;-0.998951710970824;310;1.256637061435917
445;2.660491404060569;0.4463862260020962;-1.0059173298671968;3.180943788398678;-0.8433278640251716;0.6753928480393749;31;1.1460039828687414
446;0.5029028702384514;-0.528584212283793;-1.3583363885225492;2.7896773600352187;-0.2539053821385172;-0.109871821768181;23;1.2566370614359172
447;2.513822058930974;-0.517482611090709;2.27628756117223;1.074022478070341;-0.5070056671526829;0.8925988574522297;320;0.867087416901386
448;1.356315230748354;-1.3162946081083429;-1.3438479735316282;1.94793520723516;0.8278822451604333;-2.233442418959405;281;1.0093062909021475
449;-1.243724678459655;0.219183057371586;-1.860642562888973;2.108613576782522;-1.4621020718971345;-1.2978195245619015;425;1.2566370614359172
450;1.9860604628561305;-0.6810972615777566;0.7438848622293754;2.656544718007676;0.7410788103812396;0.6328732835066855;328;1.2566370614359177
451;0.751775573797886;-1.062202415434731;1.928914767122746;0.9942866665732288;3.0166977242140387;0.4048868881929877;151;1.2566370614359172
452;2.8076338655127886;-0.6919384966300579;-1.2508077057440707;-0.3620458693437918;-2.5962418595385053;-1.8015939727627488;270;1.2566370614359172
453;3.030006262803602;1.4267820592597875;0.6335748451831456;0.913574002814558;-1.5831466172721032;0.1528546954675052;244;1.2566370614359172
454;1.3768618084669697;-0.4865901212493619;0.953419602434802;-2.225185368635091;-2.532840927213336;2.319048840250199;402;1.2566370614359172
455;-0.5855023057563815;1.0330290710281738;-0.6466251217208465;1.042351830866279;0.5686911293143317;-1.790512302030438;383;1.1208020566277033
456;-0.154173496184333;-1.5197056389110366;0.7453371158752622;1.6846678496076066;-0.168457745450165;0.3192481496425357;279;1.2566370614359172
457;-0.2122079526129238;1.3136734155932124;-0.1398603213969584;1.496004029405176;0.0624494751680543;2.797727703895372;181;1.2566370614359172
458;-2.410500119170857;-0.4131444271829358;-1.8781007165958277;-1.697247369256662;-0.3652810189446297;-2.399804275749465;225;1.2566370614359172
459;1.053449609342425;0.0125453570210422;-2.0288892696283773;-0.7956095133579991;3.252303826011355;2.503148237439546;149;1.2566370614359172
460;-1.6397162480169207;-0.9724082903558062;1.680309420115365;-1.343966604701818;-0.3104986263757071;0.9381827905256436;224;1.2566370614359172
461;-1.8379522658843903;-0.8308426604241533;-1.9798548207298656;1.344544103274346;-0.0634976298819024;0.6265294347476607;318;1.0941574848307656
462;-0.2843620908855469;0.6533345152864455;0.0325425030339455;-1.282362765362127;0.8822708738390106;-1.9053178085940643;89;1.2566370614359172
463;-2.9480335632902737;1.360906492755969;0.7664264208808099;-0.7294698506355667;-2.8951723509137324;1.6878070030754977;123;1.2566370614359177
464;-2.295648368513899;-0.2789725160955811;-1.9499785372041227;0.5775456635397576;2.5300185832334208;1.5565723362380448;109;1.2566370614359172
465;3.0230686249624696;0.3339312969920058;-1.735924320226498;-1.6755752548671847;1.251212430639834;-0.6351679527401451;441;1.2566370614359172
466;-1.8011306951900707;0.6168342725932366;2.3160409837224707;-2.058683833124209;-1.2751424532644056;-2.921493523473875;319;1.2566370614359172
467;-2.8539410024477485;0.4967526511502388;-0.3912734153348967;-3.233774611924362;-0.8628491576375203;2.395352093661056;249;1.2566370614359172
468;-0.4876833861648315;0.9014999687333576;-1.307907453756378;1.9787609758918052;-0.4953210349083437;-2.132465606802678;236;1.2566370614359177
469;3.17721504018603;-1.304715450671762;-0.1536199674841031;-1.0957182118120157;-0.0458714348712235;-1.0837471629964994;192;1.2566370614359172
470;0.0905767206635662;0.5426138417023857;-0.1681356349314147;3.1009873523773543;-1.5644710653186875;-0.653671463311857;145;1.256637061435917
471;2.138995727908508;0.5355027437492301;0.4600678670992136;2.9946186929860814;-0.1748858272072775;2.456095096366491;422;1.2566370614359172
472;-2.418926579215211;1.0007902597159737;-0.0892288594330447;1.1225638512401412;1.8203445111250964;-1.5540918893187512;290;1.256637061435917
473;-3.204754694326118;-1.567649978066506;0.7680802749821776;0.6353263207101987;-2.7997970513273;2.4369093206488817;233;1.249658832140936
474;-1.1754779516599818;1.5023554408340434;-1.7996171101824632;-3.120896675825508;-1.197382105791739;-0.8033396586318309;532;1.2018253119640885
475;-2.8859540083747826;-0.8104608153360442;-1.1068042681811807;-0.2400587396574428;-2.313254830936198;-2.7207176938820554;411;1.2566370614359172
476;1.8691486736292384;0.0063233394674626;-0.215030029552217;3.2573420321394573;-0.0577932496422974;-0.436333510208598;114;1.2566370614359172
477;2.6328101131216584;-0.7166566087751349;2.3170747547078685;1.971028970135492;-0.7162951528781767;-2.8268153931338498;351;1.256637061435917
478;-3.260002792247712;-1.738999437380996;1.3231695623040312;0.0570582784340135;-2.6707236789291677;1.8082025473500705;473;1.0425273029531503
479;2.667103886917129;0.2908586878756251;-1.6284286251639777;-1.2948815179847726;-0.9834251403413458;-0.5393527906587842;258;1.1347768673210663
480;-1.984923775267312;0.3087724706475487;2.5779498577439925;-2.929969908425647;-1.1590308251248125;2.3191088810383964;355;1.2122938117865156
481;0.8199878401741579;0.5323400116919409;1.0360774968630462;3.114846161038394;-0.7230990672786595;1.4304952708131031;247;1.2566370614359172
482;-1.95214111817221;1.1353277795569048;-1.398167281393461;-1.6173682256122115;-0.0792127028095941;-2.6756587596278734;225;1.2566370614359172
483;-1.1263767452307616;1.5693785417528103;1.4637758470438902;-1.4206386603087524;-0.1498058980238784;1.9738665381088103;178;1.2566370614359172
484;-2.5413920464794764;1.627205387879605;0.0902223656343984;-0.071148761721163;-2.901717280402016;1.015361568194054;463;1.2566370614359177
485;2.0443883999509804;-0.0164936640689474;2.760274548818648;0.1599289763528856;1.9493797988076729;1.501823213891863;168;1.2032623892737198
486;2.624553291340585;-0.0180504007160257;-1.685585068404971;-3.071471571624856;-1.4035985041921644;1.6857185222015452;401;1.2566370614359172
487;0.8913905230161351;0.8135751478796758;-1.1859603942430177;-0.1819525392692207;-1.1265772378850432;-2.3984054137319224;419;1.2566370614359172
488;0.5728864531911249;-0.7549974077416723;-1.6093176737668362;2.674757520751351;1.0544673035854928;-2.2488008583506054;448;1.256637061435917
489;-1.1340002190583651;-0.6766569386214234;-1.9599620434852096;-0.5150529642255619;-2.6829724770341183;0.7682435456096923;276;1.1348588297909787
490;-2.884849065025903;0.5070166103467433;0.0808153038923704;2.801748956109004;-0.8226683841424545;-0.4354344126769198;365;1.2566370614359172
491;1.1108943952064474;-0.4480502825048739;-1.9673793959152392;-0.7081956699005588;0.659476666696605;-0.8476363998111422;348;1.2566370614359172
492;2.7887214043822737;1.36494592038203;0.1559955732030669;2.661913938895902;0.2974196464489117;-0.022457318584656;114;1.2566370614359172
493;0.5404095152421773;-0.0409416895472596;2.380565357515672;0.8684841070966488;2.1697229593688334;0.1575104408984446;151;1.2566370614359172
494;-0.0568874499408186;0.6898447452930924;2.275310361868456;-1.2470095445598726;-1.245672300268134;0.642525030097448;141;1.1774672472205732
495;-1.7824626067745348;1.3999917572695155;0.1043865818019833;1.6479394998266703;1.7822950245835427;-1.6341486508443754;290;1.233541116048748
496;2.335275044094146;-1.3944729925251524;1.0303492731529351;2.1165426279248787;-1.0626833366636774;-2.056288385574871;351;1.2566370614359172
497;2.847377746771014;-0.7855070589585562;-1.6642022441972883;0.3682751711355511;-1.5425261151954806;2.4436944736715174;353;1.1308540427815044
498;1.094069385225816;1.2108550392141328;-2.4167549373778767;0.206630316024901;-0.930385405772459;0.9540719679196256;146;1.2566370614359172
499;-2.2598730955067974;0.6930555902645692;2.218344404908945;-0.3440413859263681;3.0816751189752045;-2.4972707741240114;95;1.2566370614359172
500;-2.079479527506103;-0.2503042300787984;0.7587538471677804;1.7591318626081622;-0.1480386694332718;-0.954832684486752;365;1.256637061435917
501;2.605356199834854;0.504289289907336;2.141891121390404;-0.4861793778639738;-0.8232562166192325;0.510858341341536;40;1.2566370614359172
502;0.8473180592721936;-0.162547318018617;-2.122491983986352;-2.96607844447298;-0.2852189103375967;1.4029539706575944;98;1.2566370614359172
503;0.2720315265232331;-0.3376222988338566;-1.3109324139664031;-3.285752007875325;0.9692321830723188;-0.9505748385748924;423;1.2566370614359172
504;2.4574042076532208;-1.6397905134833828;0.6404974623782644;3.1419945791660218;-1.5785395017207355;-1.8708247400870213;496;1.256637061435917
505;-1.1275259299798424;1.049493132083923;-1.826236659330968;-0.5023689966107426;-2.2132306798463297;2.584688106928709;326;1.2566370614359168
506;-3.072394195618533;0.9397999832382404;-1.1169522496465094;-0.7585070625150802;-2.604659930776064;-0.1110037974610911;37;1.2566370614359172
507;-2.4657364118774305;-1.5520895982976546;-1.713598664904188;-0.6519080653436494;-2.568642233270642;-3.22021603403686;475;1.2566370614359177
508;-0.6876078000857347;0.1004640894988006;2.306944362554031;0.2952978539044978;3.0113693022430392;-1.2728946900761111;268;1.2566370614359172
509;-1.2323126864175944;0.1817686062769652;-1.9339817129752164;-1.8915881980281728;-2.6019061803312096;-2.8734704846899324;381;1.2566370614359177
510;2.210500751125928;-0.8958102340770929;-1.42792595121319;0.8348415507357114;1.013286154383767;-0.4004957559665783;428;1.2566370614359177
511;-3.010663463629124;-0.6517405686209478;-2.153939275445385;2.301494732886784;-0.4514162661861631;1.3393860229328003;318;1.2566370614359177
512;-3.225491082513452;-1.7091912770726756;2.1360550316636977;-0.3145326513259552;1.9766054502334416;-1.934945166099005;272;1.2566370614359172
513;-2.8536912225970483;-0.9775068146014632;-0.0960334479037416;-0.9693164662871896;1.5602073316187337;1.7586210099880812;434;1.2566370614359172
514;-1.0356589821012958;0.9391447928146764;1.2411670278238598;0.4234667134710872;0.872176423574531;-1.927919786267532;231;1.256637061435917
515;1.564809858037501;0.1400543649554642;-2.4528050551206744;-2.698799083925027;0.1889885752327514;1.2840197075529984;502;1.012879726168174
516;-3.272403110235832;-0.1581555759163723;-2.053582277969269;1.49303132879837;2.2992701301401404;-3.353739183649754;443;1.256637061435917
517;-1.388041533547593;0.0802225425802585;-1.812387949996164;3.255903938072476;-1.1573367619214558;-0.9407288499400032;449;1.2566370614359177
518;0.7031232237166455;0.9735955613124998;-1.797442250077125;-1.2679990111831485;2.759798264066444;-0.0488628120407999;301;1.2566370614359177
519;-0.4048601613522088;-1.280847747291981;1.576277817552299;2.8301449966206764;-0.6546627891308503;-0.1638150876150076;279;1.2566370614359172
520;1.907856073220932;0.1204472631460262;-2.543098158566238;-0.2884225066723385;0.6146889717305719;-0.5142720515611441;491;1.2566370614359172
521;2.424583577171956;0.1890996960577334;-1.1052778846849605;2.001041488590744;2.9289052712594223;0.2595930315964907;54;1.2566370614359172
522;-1.2501685002343013;0.5179885245130681;-0.0280928676330655;1.8702179772605063;0.8858938417206945;-0.8462275763834155;212;1.256637061435917
523;2.119146531085443;1.0071170546459187;-0.1589961463731561;3.0623336223465087;-1.126469568139096;2.707064167920377;471;1.2566370614359172
524;0.1960858870205822;0.2122617043137714;1.8329145833942524;2.7121032880334104;-0.6637826417807833;-1.4097594746367323;394;1.256637061435917
525;3.135525295050603;-1.1963629709889354;1.8034611067202089;1.6711660886631583;1.156198608054947;0.0571734072683674;427;1.256637061435917
526;1.1992728569273643;-1.6866509274566326;-0.3937277816120585;0.1531505543250154;-2.009112357161983;-2.640325919345274;215;1.256637061435917
527;2.355507786883755;-0.1482221534559085;-0.5925482215931186;-0.0545824093234085;-1.7089878687500584;3.1323076607602336;353;1.2566370614359172
528;0.3372544729527142;0.459470002531701;-2.473588085775511;-0.6167761210560048;2.045194821769486;-1.00933940500065;438;1.0017596372575663
529;-0.5074952648630324;-1.1776360352504571;-0.3489313505543001;-1.8004484949539306;-2.2419475796743584;-1.1809982579733662;50;1.256637061435917
530;0.9080035213324344;-1.3526077126564848;0.3288144005928197;-1.4870414363836515;-1.3073353279963795;0.3208908580910437;378;1.2566370614359172
531;0.4062633463770917;-1.176166071117082;1.6127914101493732;-0.1988137630973672;-0.2637588314175536;2.7701110974242464;61;1.256637061435917
532;-1.1187316019531588;1.13771884282463;-1.632726597604923;-2.633114424060158;-1.025696322623136;-1.809790902953564;652;1.219586340716614
533;-1.026493391717723;-0.1535587973093088;1.7420885193783338;2.5200059254673333;-0.9030432249550964;-2.176669262118092;394;1.256637061435917
534;-2.527125617925888;0.2024229829341474;-1.8291643164296052;-2.539970234606976;-2.181396591947862;0.7384486737452813;127;1.2566370614359172
535;2.8893228652319034;-0.0712298359865291;0.1282650513412252;-0.6093473137082445;0.0697482130416956;-2.5076369111838264;267;1.2566370614359177
536;0.4884246146448173;0.5189343138208359;-1.2493351297097277;0.1262684472038549;0.6109817201880771;-0.4329145779696486;8;1.2566370614359172
537;-3.013636226445968;0.3425118423866994;-2.101442478476619;3.037848176216338;-0.3015082955632808;1.491521828085556;511;1.2566370614359177
538;-0.6933970567334736;0.8145348221595112;1.7170020019629544;0.4533138570092063;1.7664686090585755;2.525315685580021;341;1.2566370614359172
539;2.8429919452377947;1.4301551425411216;0.1910732552978701;2.57703110460432;0.5992604618650654;-2.3689750541590957;136;1.2566370614359177
540;-0.1156742082409224;0.5676979021778692;-1.3379153289516497;-2.597756164328568;-1.629330103821808;0.1555507213966623;203;0.8602216002938071
541;1.2002035491904972;-0.3609743714476613;2.4357919143492905;2.567453214776282;-0.5459400417141449;1.0260785825698044;360;1.256637061435917
542;-2.1996649056400357;1.057131392656557;-0.4163496272854692;1.4492133913091956;-2.18190978390878;-2.5971402935373336;72;1.2566370614359172
543;2.2201045746134707;-0.2216582912662483;0.7844343130640726;1.1110752210044506;1.9518069693710305;0.0996933745020294;415;1.2566370614359172
544;-0.0566538143299401;-1.3117108894123228;-1.307519444440886;1.4096342518431422;1.916241503672727;-2.381307087241596;384;1.2373022597045051
545;1.157947813772786;-0.7027329372881251;1.1810096670276835;0.2823054402042322;-2.955436682010072;2.7168842190108897;108;0.6537645342434438
546;-1.07377395821237;-1.4102766192101783;2.0396908784085714;1.3153427625989005;-1.5948355102485416;3.024678388724034;182;1.2566370614359177
547;0.0414434075112374;1.0216764823610394;-0.9128614654084168;2.7485742932278234;0.8047767548173166;3.201314592625672;283;1.256637061435917
548;0.2806011228725208;0.8690202556464975;0.0686859679979577;-1.9045814648087176;1.187011965724143;-1.0496874330253632;462;1.256637061435917
549;-2.823030136942122;-1.3156653207962627;2.4128548798330973;1.1587345183044444;-1.2382588736525917;-2.7509854085694;324;1.2566370614359172
550;-1.5529076471124623;-1.2648209856507129;2.2268975508322137;-0.9257745909625312;-0.8576495082680298;0.6421297268564559;460;0.9765784999783372
551;0.3533853256701615;-1.3551770112543724;-1.69679657565087;-1.599736737082262;1.1783458977882462;2.045319861791248;288;1.2483149014549908
552;-1.6700770447230973;-0.3950040749414394;-2.22135960783552;-0.5569471497024832;1.2687322428371437;2.807451591450731;135;1.0762183096611957
553;0.105250034389834;-1.5068303389784212;-0.183839125976051;-0.0226258723054276;-0.6453878193610123;2.017970212774277;250;1.2566370614359172
554;-2.652536540289666;1.658768438357183;1.154458976442532;1.5414771776885794;-2.9326999979547206;-0.92875027557549;78;0.951702378396862
555;-2.1958137823596253;1.214903238940953;-1.8717990748764095;0.0133260537863208;-1.3340396135128998;0.6600763312955804;206;1.256637061435917
556;1.7069914473615144;0.6467008588342711;1.364233446141928;-1.898442326629312;1.533260664304131;-0.7610709647665593;338;1.2566370614359172
557;0.3816263287918382;1.2474509369102291;-1.9473822827735408;-2.1975617791312247;-1.4367178501475366;0.7042397934615987;540;1.2566370614359172
558;2.9020375054344205;0.5012906128697956;1.6934508458975626;1.0133798555400215;0.409725135062939;0.8368639439800112;320;1.239017861643927
559;-3.2133939970980934;0.0083202473279509;-0.8960226213861834;-0.6272825515595655;2.3911373751833938;3.2599299827612827;102;1.256637061435917
560;1.67565254687839;-1.2719630391131405;-0.3915234393139186;2.2551042641389927;1.6171393119759558;1.57007925570208;32;1.2566370614359172
561;-0.6274716854052791;0.9653642501276546;-0.5032424778988908;-1.5956884884365188;-0.9405655901167146;2.331782257093973;382;1.2037768610018142
562;-2.2329968320516684;-1.27598619237407;0.7394985073893319;-0.2582727377617806;-0.9848615107984268;0.4777508027812511;224;1.2566370614359177
563;0.9134707601482646;-1.24079961116699;-1.1069505197255314;-0.2835640410305851;-1.3874459169901967;-2.179028840859826;526;1.2566370614359172
564;2.402395973173035;-1.171820431399136;-0.6186787354947663;3.02381158904042;1.8374530785853416;0.978552824395472;560;1.2566370614359172
565;2.1398186968900035;-0.6282225025218641;1.2097524444781769;1.2218972323896349;-1.880468725352009;2.5638021359802714;93;1.256637061435917
566;2.948810610803581;-1.3407380782436455;2.0435644372897106;2.2187370297559137;0.9912573492147638;-2.270081707432145;346;1.2322623362974752
567;-0.8180095227138722;1.2546574613850583;-1.2695601415838815;-2.052315680511566;-0.239221080930582;2.745915327332201;561;1.2566370614359172
568;-3.0674096945593323;-0.1930411647963359;2.4306152612771323;1.4290351090899498;2.0544124547469345;-2.9253850646987907;238;1.256637061435917
569;-0.2550183105760638;1.5842333670753963;-1.1513711206176231;1.9832512012613743;-2.9699786803009647;0.0521161647862298;337;1.2566370614359172
570;-1.828739069180088;0.0537274805170445;-1.971724972519929;1.2338987563769972;0.049856523384828;0.6459215234597131;461;0.8989343255364253
571;1.546554076497754;1.261937105605858;-1.5083035071863384;-1.91686621817012;3.0957435992721782;-0.4576795453036666;518;1.2566370614359172
572;-1.0328702002926675;0.1681041272209071;-0.1718779826454384;-0.8509032395900544;0.290713416673426;0.0052832074249446;9;1.2566370614359172
573;1.3633537046518944;0.0186156265254035;-0.9147188638208068;-1.7190121878042697;-1.3546847199617045;-1.217249727665724;258;1.256637061435917
574;2.543342530776188;1.3632525063431875;1.3813316402990217;2.451921796292947;0.7860608214668896;-2.236275267355157;539;1.2566370614359172
575;-3.4532937765413507;-1.057575496843565;1.4666269236731782;0.755611703967285;1.0951982670458125;1.4173211502128007;117;1.2566370614359177
576;2.172527137510452;0.0023193723975796;-0.9255881441643514;-2.8550890949975445;0.841001658264003;2.24110349047068;133;1.256637061435917
577;0.2751290042581356;-0.1108541316150823;0.7555488478246999;0.413205869430149;0.3867242229860014;1.4506494073584622;1;1.2566370614359172
578;0.0066349778030763;-1.3731029165687407;-1.1258704460272189;2.4482729776610093;0.3309879313434201;-2.509574090153723;488;1.256637061435917
579;1.6575347840559638;-1.0585608483652464;-0.1276223939785782;3.3348187022542546;0.441059377408044;-2.631232112128547;230;1.0728837426067912
580;-1.8454241824366684;-0.3329984594289925;-2.03225820449468;-2.42764834350975;-0.010442311114236;-1.8656815162984064;458;1.137621173953236
581;-1.5365536955707153;0.111636400927334;2.1110141673751346;0.4488853109664562;0.3768743355715354;0.2329234358582505;367;1.2566370614359172
582;2.9154763530066528;-1.7178379699652109;-0.3801397216233311;0.486099256710019;1.2781790799397723;0.6427993141403873;185;1.2566370614359172
583;3.1529587421945084;-0.6470960023445966;-0.3675123373269139;-1.3150330068118423;1.3571261753792918;-2.200223307595297;317;1.2566370614359168
584;3.1338538715879904;-0.3179861401335534;-0.2442112354990365;-0.2273550840506034;2.7582564219847003;0.42365286658763;66;1.256637061435917
585;0.3727069804080745;-0.3451593770075747;-0.5087283748552811;1.064496215550598;-2.0975098985380454;-2.316949036854172;200;1.2566370614359177
586;1.465472810967649;-0.3629896805731845;-0.858062502852037;-1.6546707214512255;-2.3984014673659884;-0.6459430100867207;573;1.256637061435917
587;-0.2307016182946591;1.1344745278515815;-1.6864999865586048;-0.4712020780615632;2.1193500360001263;-1.937958330097616;438;1.2566370614359172
588;-0.4324485656505946;-0.7915549950986265;2.04844514869359;1.3630036263802998;-1.2815614824870118;-0.0455808320571389;417;0.6701737715624623
589;-2.4775086148473537;0.8240449719028907;0.5977016000295899;2.1949452064140726;0.3396224493861226;-2.6069212409421123;277;1.2566370614359177
590;0.473292457594943;-0.0226218709818602;-0.8451486225636957;-1.566878578969118;-0.5511198184292433;-0.0322508072591627;9;1.2566370614359172
591;0.703980206649188;-1.648123138604796;0.400522605170253;-0.0581473839210276;-2.767980478823279;-2.924889062700639;526;1.2566370614359172
592;-0.1663658952789388;-1.5341207460777209;1.234990864942966;0.983119860490028;0.0094573335215353;-1.2450933006666738;164;0.9350951110623706
593;1.146270785728425;-0.6087512059397184;-1.0014280456420166;2.943562883116405;1.638715408849304;1.457752532906487;560;1.2566370614359172
594;1.7546099092809575;-1.5416420338462762;-0.014474185250066;2.814889498176859;0.9876407419736954;2.3753007041401;560;1.2566370614359177
595;-1.4774253868251284;-0.9429838145249946;1.1441044921829435;-1.150449155556117;0.0643749271145034;-0.646530027306829;69;1.2566370614359177
596;-1.6000492089545155;0.523943708579063;2.4856357760614376;2.569212733513729;0.1953127370235774;-1.4749198617760166;394;1.2566370614359172
597;-0.4920710489919888;0.587542257630058;1.366532984017813;-0.9799190149246192;-0.1782865290486022;2.0649125291945145;483;1.2566370614359177
598;1.711769187017973;0.1137889197045989;2.1948133439422954;-0.9455648600703946;0.0438187538037773;3.169208154231436;61;1.2566370614359172
599;1.857645229499802;-0.9718085376490254;0.5057753626242356;1.0987761465468773;1.3553948983843784;2.822151227763016;385;1.2566370614359177
600;2.424223082680534;-1.7151542986703197;1.3066758965782992;-1.5411355041566503;0.5005647175899759;2.2766325241755965;198;1.014605635647836
601;1.4114944881260818;0.627131278711132;-1.470158124785746;-3.257144100627468;-0.8244146911085795;-0.0622604474732176;68;1.026527570704437
602;-2.510005966314016;-0.2221339955761661;0.8995710258146846;-2.2651162418469144;0.7655900351920556;-1.6991849432777402;216;1.2566370614359172
603;2.67865719286848;0.9750483971680112;-1.701254979004471;-1.9499001588413252;-0.6382406852190275;-1.2859331689523306;479;1.256637061435917
604;1.9404553775960685;-0.6820873415369757;-0.7020860677766211;-0.6530365314511956;0.9099804062921616;-0.7563350503005826;348;1.2566370614359172
605;-2.9910087710919235;-0.5731339220687403;-0.9248118003664404;-1.0657555373416991;-1.0574719243533677;2.385521591790772;205;1.2566370614359177
606;0.5617073824954444;0.0729511493995007;-1.880741631148404;0.1017021649223623;2.396691703263534;-2.958834650104605;358;1.2566370614359172
607;-3.2380161822911044;-0.0770475632022294;-0.6945360903049718;2.445773706161745;-0.2299656844012409;0.7646775481124551;177;1.2566370614359172
608;2.8451735689884425;0.3742111761354669;0.3496613196558527;1.1622857621917004;-2.0488395100713146;0.0622594742112201;453;1.2286620293848358
609;-2.5408240157275057;-1.3293740530600715;1.123331828941097;2.2539350205005477;0.5290492485797735;3.230230025179601;370;1.2566370614359172
610;0.8059638454866747;-1.141177585547992;2.118636043404881;-0.8083143306022159;0.443562810093057;-0.7460127586801728;118;1.256637061435917
611;-2.4833390568300544;-0.8530301976976417;-1.754459948962128;-0.783893782206637;-0.7536086074761082;1.7666749020000676;605;1.256637061435917
612;-2.289261895132178;0.0559784804095709;-2.0176043197596005;-1.0298225844612527;-0.8147296243626799;2.5293755433013128;611;1.256637061435917
613;-3.11564130475526;-1.1744195545819829;-1.431120818320699;-1.2581018890924065;-0.2602169569562584;2.9081090008690307;605;1.2566370614359172
614;0.8510202276234922;-1.4053317777397285;1.2432531602554229;2.0729028379587287;2.0153488641854835;-2.1873295210150685;223;1.2566370614359172
615;1.9632977840331487;-0.5349170339799999;-1.001126791043229;2.9772149158943315;-1.6721451824225098;0.3332023345768468;31;1.2566370614359177
616;3.228486847798704;-0.7329756085391469;-2.0915965262946488;-0.8724752303001434;3.0371968668872755;-2.169698622607487;266;1.2566370614359177
617;-1.2119661581070122;1.4026802736307284;-0.06306972938304;-2.030168615960294;-1.819796083255822;2.5364947981520807;382;1.256637061435917
618;1.8466501117529517;0.369135446469098;-1.5943770702966549;-0.8141603233588584;0.1561435069311179;-2.134740996016152;274;1.2566370614359172
619;0.7891181721023096;0.466806889869618;-1.999298243818814;3.0148395973176343;-1.6741781586204063;-0.8044937298305027;12;1.2566370614359177
620;-1.2711157999490572;-0.7717878391849664;1.796350349215815;3.400525754359978;-0.958513804766231;-2.310669917064652;533;1.1141543640037173
621;1.7307612766071907;-0.561799435566312;0.1756439446357004;1.5303757828799105;-2.034309499311824;-3.2079526397203746;200;1.2566370614359172
622;-0.3941844712594777;-0.4029048205703434;2.0363353057542235;-3.4639721884547665;-1.6904947325778572;-0.4892319229984971;310;1.2566370614359172
623;1.1552336715645075;-0.3685241524844678;-1.3697547935993175;-2.9493667246749427;-0.547309173848546;-2.004650686712708;42;1.256637061435917
624;-2.7891437942352493;-1.5153215224479784;2.334403408621007;0.4137736837276426;1.3091805322824288;1.5306013844768025;575;1.2566370614359172
625;-0.9373181037586226;-1.435824602313702;1.9699311141568885;-2.3700878116387414;-0.5647587998955018;1.780122425673467;379;1.2566370614359177
626;-1.1963913828186827;-1.526502768186671;2.010980774988407;-0.1553441699687552;-1.8168035740333688;2.422335010407462;182;1.2566370614359177
627;-1.3365207815499118;-0.7284681901811135;0.9815829419201209;-1.5713558075707552;-2.3855060437618745;2.9097165172931114;142;1.1839281135371438
628;0.1748281799887285;0.9382868431212232;1.6474806522668402;2.880444388948079;-1.1102999589224405;-2.298280790254849;524;1.2566370614359172
629;1.8735613244595928;-1.543480873559874;-1.169191024001312;1.419543072209284;0.4551667104194311;-1.943193605808928;448;0.9230501949614216
630;-2.836556081784412;-0.6666828165436294;-1.4713413653466254;-2.030852459306533;0.4955379546102035;3.17926379948714;613;1.256637061435917
631;1.1984691931983924;-1.5678695155151352;0.2698535169928602;-0.034504784691717;-2.7851700452923462;-2.3253794525818394;526;1.091384967850893
632;0.7696137105190319;-0.1364066935936745;-0.821890769871205;-0.807583050276286;-2.93056336869049;-0.4421912975445926;586;1.2566370614359172
633;3.28658345608321;0.6600757116186652;1.2420995227249056;-1.913253832168468;-1.5156872588405537;0.1380846221687846;243;1.256637061435917
634;0.4076876666292848;-1.255404066174152;1.806831046191224;1.2802819654301087;1.4057716250271866;0.9377725685297224;148;1.2566370614359172
635;0.6417976940899472;-1.1763703945815915;0.9860400067293996;-1.2363342400011648;0.2125387867668507;-0.568246843461631;610;1.2566370614359172
636;2.88548126210468;1.512485074967547;-0.4838463581353535;3.2344008300504257;-0.2441292587268524;-0.0645486639206378;114;1.196848554919922
637;-1.6065953797528345;1.375021450531878;-0.119301930652274;0.027441521812886;-0.39595283440099;-2.258284060528157;231;1.2566370614359172
638;-2.286287981452029;1.1163178779243208;-1.9159685245450868;1.471277641862489;0.579425581999947;2.3433989689119694;53;1.2566370614359172
639;2.7734716760648936;-0.005560755150695;0.2096511533509424;1.606858243865664;-3.173020042077322;2.950207420991789;369;1.256637061435917
640;-0.0283162583318668;0.2513817183304812;1.3704249195494502;-2.9050057237823808;-1.3139218134389683;-1.7622602466586652;444;1.2566370614359172
641;2.374942173865213;-1.2031651090740163;-1.2131222319386754;-0.5017548294953618;-1.0037618525265006;2.361583317298376;353;1.1482918484800648
642;2.2481695918184883;0.1980716441603515;-1.7904345284778624;0.8486749225298867;-1.490937879506663;2.386428696913511;497;1.2566370614359172
643;-2.499403112772599;-1.363220961863863;2.258507643618513;2.428921111578829;0.3091603953035796;1.8594211818547;350;1.2566370614359172
644;-1.4641487902658423;1.251198166187434;-1.4775166817585013;1.2826266254839171;0.1866339092855268;-2.4224375924916064;383;1.0687436601237184
645;2.067195608324863;-0.3029176571352332;0.7155295618335531;3.297993348650841;0.0874986675416689;-2.6864732015664945;579;1.2566370614359172
646;-0.5248177257564489;0.9527076164472704;-1.702341492109757;-2.1281549547837626;-1.0931050335618235;0.0621723650611572;203;1.1846606033561633
647;0.5755224478212557;-0.9995079128694144;-1.5540079663913526;-2.901582879958931;-0.5430277319807296;2.0440168909839462;502;1.256637061435917
648;-3.103878192738242;-1.5817306116126233;2.3267818400392377;0.7215891207003604;-0.4798724823203932;-2.965965988061577;549;0.9846510063794748
649;-0.950073566376362;0.5605215729972216;-0.696665781026919;-0.9008339035460752;1.8485628724012624;1.6039763766223178;329;1.256637061435917
650;2.737764722232724;0.912143628201194;-2.28333687570466;0.9938925599609166;-2.164168930324513;2.051386042690352;642;1.256637061435917
651;1.78615568252907;-0.360892817265074;1.7353442759877278;-1.0243998222899902;-0.7338343998630137;0.1409066638979573;40;1.2566370614359172
652;-1.1657491663456807;1.7422353521146188;-2.250136682359916;-1.9255804207886424;-0.6160412881835303;-1.5449831324620542;209;0.8407885009770616
653;0.9286157269287658;1.264164693617529;-2.713215989464442;0.5246857361942294;-0.4090034868501275;2.611300027519312;263;1.2566370614359172
654;0.5765877135645996;1.063623922620419;-2.454559164949361;-2.4057062787705545;-1.369891653926437;0.3052385437877146;557;0.7321356247455869
655;1.534412780011491;-0.7733124126534551;-0.3617724639290239;1.6244442183232477;-1.4687537203342695;-3.203418080560977;621;0.8371556842635071
656;2.381875511651381;-0.8100003135170013;-0.794094731412401;1.02796816064982;3.020369803100407;-1.2580098910889312;131;1.2566370614359172
657;3.0138560110724533;0.8996771282258487;-0.6193601958970325;0.6410026331316605;2.370081243989726;-1.755483143383538;396;1.2566370614359177
658;-2.8526132185543016;-0.6195319998888017;-1.3089338308401952;-2.1725106654795674;-1.7056327789469932;1.1453479651958325;534;1.2566370614359172
659;2.01443517401508;0.6791579709726234;1.4496885521115708;1.6251461015695798;-0.402134872897437;-1.0291752181100728;292;1.2566370614359177
660;-3.133807567754101;0.6582213327321315;-1.90694460447182;2.9166789586933284;0.2067692823477727;2.3054620173623;537;1.0428181834627188
661;1.5398186564171354;-0.7267834534377801;0.2465121233859837;-1.8268574493070355;-0.851408832334255;0.8985031508044228;530;1.2060679441729916
662;1.6049582570818646;-0.6892821892094946;-2.405354779952948;2.314775462932876;2.56875915859243;0.1523879955053737;54;1.2566370614359172
663;2.670435223071964;0.2259453299670056;-2.6660592552351283;-0.8796568249813677;-0.5396330428843915;-0.4450259019006858;479;1.207958070334068
664;-2.2090968430407174;0.7108894362423721;-1.8774009589552447;-0.6173868970997136;2.996032867728329;3.0795382589164886;102;0.9891354394592552
665;0.3568721275667113;1.569959758045229;0.6862878468454349;0.3699384237573906;-0.4114316814694551;0.4554278825852156;3;0.9881834329249228
666;2.450066799061971;0.2569468353264584;1.7038967022437448;0.0594143989676455;2.7817905403699434;2.5341660805843462;293;1.2566370614359172
667;-3.300528415397919;-1.7046305650185365;0.1911711937382873;1.4218506121283854;1.5068266086826283;0.0253929202911989;298;1.256637061435917
668;0.2625926018360773;0.155628857245073;-1.6338259639597057;-0.1392319458253237;-3.083760133245751;-0.1145019176740219;632;1.2566370614359177
669;1.864838609418772;-0.1347281066764105;-1.8930500184358263;2.154465046502413;3.0650819811164087;-0.092977469461164;54;1.1535921889141898
670;-2.1904127417069663;1.2566507291436098;0.035170903375833;-0.2392319352780795;1.3113335781648234;2.505840570987794;62;1.2566370614359177
671;2.506906129411068;0.0151202145064865;1.1924390402144325;2.996144643522753;-0.1096390018616036;-1.723548115193093;645;1.2566370614359172
672;1.5909294662402595;0.5303680573830868;-0.8948978193196981;-1.9598349419964989;1.1781862682173625;2.4554165407928235;576;1.2566370614359177
673;0.2602400270436675;0.1262062384773936;-1.451444077921526;-3.151000044643209;-0.665597137691205;2.397216291191593;647;1.2566370614359172
674;-2.6118564597432385;-0.4343664454475559;1.7909793252673816;-2.1358646071056278;-2.540501989667094;2.185976406641248;295;1.2566370614359177
675;1.6493474731614113;1.5005263296567426;-2.438371508666867;-1.96574582375374;-1.1635503187449934;0.2730593534472457;654;1.256637061435917
676;-1.591236988516428;0.9713467078454197;0.4070569326133095;2.696782154098639;-0.2351621327644211;-2.2152600608773216;589;1.2566370614359172
677;-0.5733938591201235;0.778164883008071;0.5976574330144311;-2.551205999364882;-1.9971344018318435;2.741075913473219;617;1.2566370614359172
678;-2.6439394437220214;1.5034578770238085;0.0893195293986027;1.0949259607196125;2.5836164519555176;-2.366867224626707;472;1.2566370614359172
679;3.0035166113820155;-1.2430322835964318;-0.6240166030212517;-0.1991951956559239;1.811537806526288;0.0443283396300071;582;1.1852995339509065
680;-0.7551313015219333;-1.6749443611584658;1.5107417578871014;1.113494437245711;1.3484576817924094;-2.1333879870683568;60;1.1989046979428013
681;-0.7551963938216144;0.0082072389892001;0.8977906839624576;-2.2464246444250264;-1.1714484098199982;1.2862767101707842;141;1.2566370614359172
682;-1.427637542113323;-1.7912881177719302;2.3202634475760457;-0.1482122351950227;-0.6788416255025813;2.1676065191265863;626;1.2566370614359172
683;0.3768880920660579;1.3920708403197852;-0.3887063587256278;1.96521187362835;0.6515383596293718;2.025166811186263;457;1.2566370614359172
684;-0.1441232675997834;-1.7620828345151411;0.9362128292852824;2.036857371200854;2.574669182419708;-1.9568028356334253;614;1.256637061435917
685;2.120316330605053;-0.1014372985592711;1.0117233700638582;3.068992347133826;1.6176792519992649;-2.8066903862979187;436;1.256637061435917
686;1.754719949645407;-0.06362953950278;-2.2323761846272747;0.0506636004582484;2.324672367065406;-1.9444671472818629;266;1.2566370614359172
687;0.8824475247201475;0.6465264589986196;0.1759128708705949;-0.955589618486402;0.9410296143122808;-1.610602125266411;462;1.256637061435917
688;-2.370874743535058;0.3754792405187804;-1.749393842774942;-2.1486012350846537;0.2575923623597697;0.4330224036879685;311;1.2566370614359172
689;-0.3780852520736086;-1.0592055801259324;2.291592766616783;-2.06163600075884;0.3828407216096308;1.6127908911624873;625;1.2566370614359172
690;2.158303502801142;1.0152440052185052;1.410761669531165;-1.715487606098448;0.5007189969791405;0.5911976264302227;303;1.2566370614359172
691;-2.9418889029853155;0.6818078149466985;-1.8476600573031463;-2.4114720709051447;-2.236575192208333;-0.337376477450489;534;1.2566370614359172
692;-2.3819729936902707;-0.668715663801548;-1.4242738006051332;2.574475878985929;-0.385667811833108;-0.1669256521248848;318;1.256637061435917
693;1.8501611352457177;1.0546504757240975;-1.969074639451391;1.2853789089345231;-2.3605288579393737;-1.3307931139699518;52;1.2566370614359172
694;1.0984309260490963;0.8374622848878229;2.367978152945869;0.6595899996272204;2.1080117921017134;-0.5122296676005172;493;1.256637061435917
695;-2.867774019525636;-0.0722426628179867;1.105998114702296;0.2416889998964492;2.356107555705966;2.2933365540900086;219;1.256637061435917
696;-0.1947332504216109;-0.1959336395000133;1.5800160184522185;-1.808907277295424;-1.2664042442627874;-1.440184312978002;640;1.2566370614359172
697;0.4907936098857399;1.3378747679053336;2.0224619825497445;1.2887698354393229;0.003980743394667;-1.1262726615822234;364;0.9286271566382986
698;0.9261858790257004;-0.9537345044543376;2.280747016281996;-1.40331862639093;-0.6133333691667423;-0.9254809868098572;610;1.2566370614359177
699;-0.1668318937792953;-1.6148068518175405;2.772538748299726;-1.2379716053663017;-0.1593328351037389;1.7615581945083143;689;1.256637061435917
700;-0.8828068404742939;-0.7766769893778014;1.235182758404838;-1.847875029790888;-1.921506360100108;0.9522903479639112;681;1.2566370614359172
701;-1.7496217221386554;1.3026066331135142;-2.3600609345814463;-0.7822598904210434;1.4361617179511483;0.7345992486678709;105;1.256637061435917
702;2.8758022744709817;0.6899974368308819;-1.5317418746382545;-0.1214095256606272;-2.557855654226268;-0.6891900172454632;246;1.2566370614359172
703;-2.7116287047100283;0.8340120127273748;-1.562856403030367;0.4362800623660134;1.5513052724403316;-2.7076728674311177;398;1.256637061435917
704;1.2660398779840278;-1.2398297221101793;-1.1239751348296418;-0.9606903893327552;0.7353442450625156;0.592442601990631;134;1.2566370614359177
705;2.453472896742161;-1.0945000426233324;-1.7300839876756808;0.4331016536617988;-1.4160148255102785;-2.512013802016648;215;1.2566370614359172
706;0.7738113417477704;-1.255136555587473;1.3194865513733487;-1.8127749527791457;1.124455697779024;2.647757586361166;198;1.193875644891041
707;1.154211858099615;1.1352432496497658;1.55618630783101;0.450162714106421;1.7199822132483469;1.52655665885959e-16;694;1.0989071796588803
