Komment314/test_diploma/benchmarking/path_finding_for_benckmarking/pre_rrt_star_results/10_2_tree.csv
id;joint_1;joint_2;joint_3;joint_4;joint_5;joint_6;parent_id;cost
0;0.0;0.0;0.0;0.0;0.0;0.0;-1;0.0
1;0.1944392676103595;0.2877750975647663;-0.1511415025947959;-0.1454379530800287;-1.1569682536367452;-0.2755795287771806;0;1.2566370614359172
2;0.7958099101792521;-0.2870513486431203;0.1974968400940467;-0.8890371944463639;-1.0230307764370437;-0.7167561800389549;1;1.2566370614359172
3;-0.6366311220709887;-0.3665545539039831;-0.8033567128425512;-0.2819759354916536;-1.1439409511308305;-0.1486369943459197;1;1.256637061435917
4;-0.512757773342113;-0.4638554369046966;-0.4151807077241921;0.8790361567100092;0.3949363478278786;0.0;0;1.2566370614359172
5;-0.6635501138519653;-0.2902807852848947;0.1445471269399278;-0.7701302270774347;0.458369289557248;-0.4800814223666449;0;1.2566370614359172
6;-1.056145016361357;-0.0008719040037094;-1.3801903936284754;0.2246748142134327;-0.966928518820209;-0.9540285249540188;3;1.2566370614359172
7;-0.1343751311903205;-0.630973817530122;-0.8317023439233795;-0.0262470900385193;-1.5014159169088568;0.8823668894809173;3;1.2566370614359172
8;-0.7872188851614228;0.229773711217435;-0.4437738617616127;-1.6013473774859297;0.5027798377392191;0.0242698700625636;5;1.2566370614359172
9;0.743210873477159;-0.5526169411082875;-0.4261996266786827;-0.5003389110013191;-1.4178635607929866;1.5200683901019474;7;1.2566370614359172
10;0.6233303758584451;-0.5249282979337793;-0.8459535148837016;0.7331191829563041;-2.06935655742718;0.5751591211096414;7;1.256637061435917
11;-1.9153064407607432;0.5032241341079905;-1.159867939785144;0.1828147911669017;-0.9711125937518704;-0.2215302084519504;6;1.2566370614359172
12;1.2610612346217946;-0.6142660133927424;0.2151787100787426;0.0426626467374423;-0.8314271509800997;-1.308802867872963;2;1.256637061435917
13;0.5255040112363405;0.7480266398820336;0.7566199353542881;0.3899720450477498;0.1374280243667812;0.0;0;1.2566370614359172
14;0.7493107002368458;-0.2285280891855118;-1.1858612612166846;-1.301306823608397;-0.9928286677649952;1.793520133634097;9;1.256637061435917
15;-0.6148146296472191;-0.2123923133815264;-0.9422952424217068;0.8088830523739633;1.1151590220729624;-0.8390444020010411;4;1.2566370614359172
16;-0.3869448904537405;0.2324513937487172;-0.2554389127585147;0.6796612750860788;1.7959715116057673;-1.4533331216867689;15;1.2566370614359172
17;-1.3920688386402402;-0.2463397277287127;-0.372641442337599;0.9952586095196292;0.7642669405503197;0.779046427706857;4;1.2566370614359172
18;-0.30779146100286;0.5912714456946988;-0.5274456475665842;-1.044676986250946;1.3321493161505606;0.4867293960418455;8;1.2566370614359172
19;-2.0510488990346074;0.22365658537694;-0.3919558687009717;1.162904805883658;1.1720208023257392;-0.0749113837980123;17;1.256637061435917
20;-1.1373009840282362;-0.3428118790472998;-0.4163752728967799;1.1362744045131177;1.863361922286071;-2.12134290795533;16;1.2566370614359172
21;-1.9538438066639965;-0.2532891584584174;-0.1079969691039443;0.4160301460058257;1.3469897988803636;1.4990388270491848;17;1.2566370614359172
22;-1.9690449727063093;-0.6023347170119044;-0.7369811173379703;1.867699868650719;1.694647706676584;-0.0397966465809309;19;1.2566370614359172
23;-0.9377367505935904;-0.2934788432533683;-1.4216034460163662;0.248767149090033;-1.6387870216703468;-1.9668503436937228;6;1.256637061435917
24;-1.48737590747663;0.8573506180414538;-0.6315231275503582;-1.836390782735136;-0.1434543216417167;0.4566473629921267;8;1.256637061435917
25;0.1756096225593773;-0.0276439969790546;-0.0820295621907713;0.5142647485500426;-2.619865434464441;0.131476731770735;10;1.2566370614359172
26;-2.4050509762741688;-0.5365854574506788;-1.0974741925759313;0.5223140028714222;-1.2864697001701315;-0.4202264801943561;11;1.256637061435917
27;-0.4822455056777254;0.8285763252472602;-0.9571607218926592;-2.0705039966949794;1.0124663420809787;0.644035178224158;8;1.2566370614359177
28;0.8779178770585592;-0.7198155907739616;0.360575795139062;0.3618373867308975;-1.213656362994575;1.8791940318068967;9;1.256637061435917
29;-1.864910597146544;0.1376665034295175;-1.6404388159396883;1.89582557094842;1.524532787801338;-0.4577978138399409;22;1.256637061435917
30;-0.6763618840255563;-0.2159313027910324;0.4919791949092817;-0.0879125889626144;-2.7351371416901538;0.4667944633085281;25;1.256637061435917
31;0.5064167576876244;0.8129611380112758;-0.4742768547054011;-2.6025693396407483;1.293772918980337;0.7217272018728502;27;1.256637061435917
32;0.6949383838463877;-0.3934332649536726;0.8323976580276531;0.5716451492300667;-1.1834205528718045;-1.960871458279872;12;1.2566370614359177
33;-2.0628037560642034;-0.197929992092466;-0.7864172371828868;-0.0781232112623172;1.314871334998654;2.425713850959116;21;1.256637061435917
34;1.0198090194235354;0.3963434326945755;-1.54371529934469;0.4666423646921299;-2.09959543388885;0.6951757680386124;10;1.2566370614359177
35;-1.3949002965058592;-0.0062906115324616;1.0085876599731007;0.1600013245192467;-2.5297279094459624;1.271997212414974;30;1.256637061435917
36;-0.2942617323336207;-0.159415628075333;0.7292619048819086;-1.5576970140507718;-0.1676244320200224;-0.2124694810468141;5;1.256637061435917
37;-1.3227249850336087;0.0016043770105354;0.0886693681301519;1.1149424313746752;2.1140712408344804;1.515922348699442;21;1.256637061435917
38;-2.2067603325764305;0.4166300268223212;-0.4546206653723731;1.6590793955620158;2.181573672259136;1.6878707244434907;37;1.2566370614359172
39;1.3928162746967363;1.0407976479134682;-1.7676277005733354;-0.3476663701298699;-2.2336825669344007;1.2369009916480465;34;1.2566370614359172
40;-0.0293553864781234;0.8709844278951375;0.1534797885235627;-2.0071618296413867;0.2342519461035831;0.0131380502655437;8;1.2566370614359172
41;0.5244893391360768;1.1794828844079412;0.7500778435918253;-2.416262933616718;-0.5743793058978841;0.0065069029803244;40;1.2566370614359172
42;1.9325297491277764;-0.6891189193395253;0.4599378267596786;1.0687140021274015;-0.8464427848410572;-1.2100612742231782;12;1.256637061435917
43;-1.6061635399659375;0.3340676449714965;-0.9624615258571588;-0.2640625184007782;-2.1522978038182203;-1.998925917764512;23;1.2566370614359172
44;0.2719374340469754;0.8020115015074425;-1.3677336749583355;-1.1048364194822853;1.5317154335779617;-0.1834272868950273;18;1.2566370614359177
45;0.0220183553321094;-0.6665306008915308;-0.9594234294580752;1.7929241164459222;0.3832036238214784;0.3471958731814521;4;1.256637061435917
46;1.4078116346595997;-0.6476178863008387;1.4453507305675062;0.2076775757706683;-1.8549138317124716;-2.17824561388661;32;1.2566370614359172
47;-0.1572572096824901;-0.0127118570598768;0.0755606660846383;1.037109460582815;2.331717741041769;1.9245992452453184;37;1.256637061435917
48;-1.3703079928244282;-0.4066189413121713;-0.6061651589038983;-0.8420456868566203;1.978169930200978;2.4270768269082064;33;1.256637061435917
49;0.559012862956351;-0.9159040091065002;1.4965812539069103;1.1183271264924333;-0.4778875809384458;-2.184271258337416;32;1.2566370614359177
50;-0.8765497035688825;-0.206115665294567;0.3258501727271524;2.0407279228367488;1.5365830988923612;-2.250727762944435;20;1.256637061435917
51;-2.109658985042645;-0.1921749844237751;-0.2324954917468203;0.3442649904171729;-2.377065743883423;-2.307575136373386;43;1.2566370614359172
52;-1.954079634866184;-0.3980728068734836;0.8981479019952581;1.1267577007593277;-2.2907812892442303;1.6022267760371425;35;1.256637061435917
53;0.1887784387042504;-0.6467561052624932;2.3120934323796147;0.5830694380298489;0.1156277961308622;-1.9277538670828296;49;1.2566370614359172
54;2.272753021337884;-0.5788744854148721;1.7329740626214984;-0.1627036486382508;-2.043283643350448;-1.4226697883423065;46;1.2566370614359172
55;1.223071575055454;-0.2661096562076703;-0.1369361449357083;-1.3072496735379682;-1.9661078717557328;-1.1858021400054166;2;1.256637061435917
56;-2.3311989832273747;-0.7246731421191245;0.8918916617372632;0.5284734520611591;1.5171378782976774;1.0829069071587214;21;1.2566370614359172
57;-2.9944290527765025;0.2921594978521559;-0.5659745293029369;1.5873709586714084;3.138523155596273;1.5882329694618478;38;1.2566370614359177
58;-0.2837500352263786;-0.5768094604771029;-1.9560457244699412;0.9730106249520584;-1.3170041039685996;-2.363663188986203;23;1.2566370614359177
59;1.3900023974281708;-0.0210811257472369;0.5626438583016946;0.992255580261397;-0.7740312292178329;2.323206910475033;28;1.2566370614359177
60;-0.5048064262803977;0.0470121874674793;0.8345822457980215;-1.8235502192033404;0.1303650757697158;-1.3620899163827689;36;1.2566370614359172
61;-0.5809449021017954;-0.913246450722662;0.2200448489818348;0.6372916422409709;2.225506087587732;-1.7225368790684366;20;1.2566370614359172
62;0.1659673994758389;-0.972914457221956;-1.049528929228509;0.5131600873816345;1.3377270914912742;-0.3464649517937607;15;1.2566370614359172
63;0.1953085265805319;1.2400804345332794;-0.8449211243011719;-0.883102879502123;0.8520832730249563;1.2268062343555026;18;1.2566370614359172
64;-2.5747311333434806;-0.4723279659961498;0.4834870766992084;0.958565138267264;-1.7610382831488711;-2.4295315450569004;51;1.2566370614359172
65;-0.7445252451078689;0.1744520602743624;-0.8125350164710454;0.320050812514144;-2.9094015086087976;-0.0594612246580139;25;1.2566370614359172
66;-0.0819133823293292;0.1600539133940872;-1.465211318353683;1.7509335724872086;-1.5845028799265837;-2.0847493738022176;58;1.256637061435917
67;0.2117526898048362;-0.9722084536672576;2.0519729961173;0.6559608816794515;-1.0100893178663346;-2.99043232499393;49;1.256637061435917
68;-0.7102842311679997;0.4296033896219354;-0.7176834267464525;-0.7341823361111063;2.4734976501328285;2.845188265212376;48;1.2566370614359172
69;0.5312495251933544;-0.1592197200185668;-0.4667502957096681;-1.3296579904856214;-2.1688800967504074;1.8750435833336128;9;1.2566370614359172
70;1.229966036558771;0.5831531087429043;-1.266766932945482;-1.136746174770738;2.264563764658864;0.0717975414755575;44;1.2566370614359172
71;0.56734235894048;-0.7589600764372866;1.1380398471270594;1.1955757149362978;-0.8847680705033854;1.6082516025492533;28;1.256637061435917
72;-0.6047328319448048;0.579353487545057;0.8418944183285526;-1.891525903535916;-0.1597884610374472;0.7345773627911225;40;1.2566370614359172
73;-0.1367035300751136;0.6590689776425575;0.4031474959452833;0.3493801251164076;2.4728661282159354;-2.030832372848404;16;1.256637061435917
74;0.9400202918277388;-0.7587609286128185;-1.6917765295855092;1.464261949367305;0.6422280504897396;0.4754502238565798;45;1.256637061435917
75;-0.605359021062808;1.1495402382115971;-1.6439964714838098;-2.580128099808599;0.8117857708745035;-0.1861630920871516;27;1.2566370614359177
76;-2.51888370005071;-0.465367786148169;-0.1596409718663594;-0.0237107340282804;-0.7499622228669576;-0.7294067222717984;26;1.256637061435917
77;-1.6031692796414103;0.3023000977274134;1.2596737328423473;0.8173795381422452;-1.7969234584427372;0.6329824912611803;35;1.2566370614359172
78;-0.9952808233400362;0.1616185604131815;-0.9791495947092907;-1.0036946143226877;1.2487233912172713;3.073805092578149;48;1.2566370614359177
79;-2.088914572744431;0.7195956342794714;-0.2238458144503497;-0.8510356297123262;-2.631962436706415;-1.720919530423806;43;1.2566370614359177
80;-2.0925480668986194;-0.3084525899203975;0.5648582198485318;0.210659752622121;-0.4856544715539332;-1.5797390467541033;76;1.2566370614359177
81;-1.4657147766223406;-0.1014647929653111;1.127236385824096;-2.242742123373737;-0.3842179786135596;1.0798189943850691;72;1.2566370614359172
82;-1.1024242714862098;0.1094129898222274;1.1949829256303817;1.539487681537675;1.7752323495049969;1.5171271583320354;37;1.256637061435917
83;-0.248569570030804;0.2138561252471301;0.2238712546367258;-2.647225795513462;1.476940364594067;1.0784487151737092;31;1.256637061435917
84;-0.0642080026026246;-1.1022518886215429;2.398538849290242;-0.4211041878960178;-1.3085018805235655;-2.648607818545325;67;1.2566370614359177
85;-2.383128077840545;0.9280943701919132;-0.2962242411967039;-2.3001587527067207;0.1554843611125999;1.05237352977168;24;1.2566370614359172
86;-2.6114352009686668;-0.8465137433695692;1.2109068586131746;-0.6039277728803815;1.7483988420531171;0.8634202996326447;56;1.2566370614359172
87;0.1339699243462239;-0.3311057279686948;-1.93647374085838;0.7758843059894481;0.1813941496070973;0.4549039514607937;74;1.2566370614359177
88;0.2314828608607791;0.2087417676415547;-0.5737645273160896;1.4120897336952336;-1.81689462419818;1.1122769690625895;10;1.2566370614359172
89;2.0977593948486515;0.0401520491482639;-1.63270010335415;0.9572776308555384;-1.9673671837533255;0.5397350375309025;34;1.2566370614359177
90;-1.81675333619896;0.2782778093289178;0.5472318799351721;1.613962172243345;-1.5640369516330788;2.065001507422643;52;1.2566370614359177
91;-1.7245267925262735;-0.7246081464611984;0.1861065300379868;1.3858110218367088;2.5394012059379536;-2.575492888582393;20;1.256637061435917
92;-0.4263412575372;-0.4968922479485547;0.9612722613214768;1.2846228138716724;2.7428646780888237;-1.3407411727539138;61;1.256637061435917
93;-1.8317543570973576;-0.0352028625697501;1.8840458662466504;-0.0757832158186418;-1.7190601013057347;1.101313944304776;77;1.2566370614359172
94;-2.025982355900132;0.4391716145430405;-1.8715931198106703;-0.5080647335822912;-1.4845663520111072;0.3399702895435258;11;1.2566370614359172
95;0.428837461286277;-1.397562133243179;0.943094485879981;1.8770825213134;-0.6076941592069068;-2.840997549203619;49;1.256637061435917
96;-0.8866022743957099;0.7799617487392805;-1.270006672398547;2.1422897791707927;-1.5695988808819414;-1.4882260269521868;66;1.2566370614359177
97;1.669826623879837;-0.306843688383428;0.6020351314879588;-1.1146503878615066;-1.0949083743995789;0.0546845631799811;2;1.2566370614359172
98;0.0206513791531444;-0.798334842301087;0.6887475271309251;-0.907784813327146;1.1481249318024969;-0.2310424904694663;5;1.2566370614359172
99;0.8055635838646631;-1.0570313932980422;0.2044788249922806;-0.5552416908798087;0.8673866506155661;0.4460903015231545;98;1.256637061435917
100;1.7878539630987975;-0.960032754785132;-0.9611438699198268;1.5071789646340796;1.1213170749297294;0.7091427036546619;74;1.2566370614359172
101;-1.1209358810528447;0.3431754210187495;-2.129777803928101;-2.822996769829283;0.3082654733993928;0.1523507236017589;75;1.256637061435917
102;-2.0635325758613514;-0.1365785480269889;-0.1813884984535624;2.02738930227962;-1.0255205965659897;1.469752482661392;90;1.2566370614359177
103;-0.3310889322586634;-0.470130057556527;1.372185968095832;-0.187411084756033;-2.163906555153763;-0.0664390585229525;30;1.256637061435917
104;-1.0214574738862383;0.7180977147956822;1.1199959608723524;-2.51509872231155;0.1575672116907958;-1.9111002415045304;60;1.2566370614359172
105;-1.024831760732054;0.5290860207060123;-1.7826983188253318;-0.2604226108910225;1.3662017079006905;2.592882922268985;78;1.2566370614359172
106;0.2264239324284822;-0.151270098334257;1.0206925979907868;0.3902471666261037;-1.1889219990052653;-1.1272901304487486;32;1.0204886569586793
107;-2.6417374199787296;0.1291188704587875;1.7317079628394698;-0.7145792272525223;-2.357866955424253;1.3394759315466098;93;1.256637061435917
108;-1.3811062311848163;-0.606782579168088;1.2631514594565636;1.7508525745276065;2.232275449967336;-1.0470030844630758;92;1.2566370614359172
109;1.4668561439029966;-1.3463093325424589;-0.3809656834747352;-0.6585021157543494;1.1558181891668853;1.2344724346338756;99;1.256637061435917
110;-0.3541237163886725;0.7117890445725392;1.0203772640908209;-3.039467929685073;-0.369233185901285;-2.666981814017936;104;1.256637061435917
111;-1.21498615090341;0.5726531202981886;-0.4642625459420631;2.6173152559638533;-1.540576189805862;-2.231602613131121;96;1.2566370614359172
112;-0.8695545675255419;0.4546304356372954;1.681540137298632;-0.2314192473367522;-1.8009590120553989;-0.5188126371289857;103;1.2566370614359172
113;0.6156893684966516;-0.1751548247159789;1.5902608538483165;0.0210692194975664;0.6282034036050526;-2.20135160820648;53;1.256637061435917
114;0.1375927878981994;-0.4481428282306275;-0.8342706472257888;-1.8294702309768447;0.6842319241275331;-0.139548943546737;8;1.2566370614359172
115;1.538411698066791;-0.7149418868584967;-0.4265889066835271;1.7278503192415056;-0.3966988646793076;-1.231991002448057;42;1.2566370614359172
116;1.4948671976278187;-1.4323087614368333;-0.1962994603938907;-0.6158575319685823;1.0110719594601874;-0.4360781330654001;99;1.2566370614359177
117;-1.092203525075639;-0.2679492587290592;-2.5527042218116125;-3.2214609930337783;1.1343307201515382;0.5822501277511589;101;1.2566370614359172
118;-1.0183779938873871;1.638178455537712;-0.6775304511720094;-2.209568691953628;0.8353802989136405;1.3563212902846342;27;1.2566370614359172
119;2.200504532946233;-1.0427532779663475;1.9725996356307307;-1.195915359231351;-2.24318309431165;-0.9824122713376656;54;1.256637061435917
120;-2.0799581558746114;-0.0532759717078157;-0.3418404278928959;-1.2643729307471685;2.4002356459990635;1.702981002255178;48;1.256637061435917
121;-0.2543731039257988;-1.2955648147734276;0.8405924771058138;-1.1660323983302257;1.279646330447304;-1.3030564876086492;98;1.256637061435917
122;2.0830566976707425;-0.0724517219563425;-0.0735014515750368;2.4606152584429006;-0.6003306844761961;-0.8237952265351994;115;1.2566370614359172
123;-2.158431798285631;-0.7334052542639963;0.5680452965040999;-0.3582891690789143;-2.550039159653097;1.2060768844458205;35;1.2566370614359172
124;-1.9438898566992928;-0.1497430050706279;1.7885047162233418;1.456204801851643;-1.401990443189852;-0.011200101396003;77;1.2566370614359177
125;-1.1979020189824785;1.0494012756712767;1.0500535206314576;-2.347562787226323;-0.9823656304428496;1.014593515568776;72;1.2566370614359177
126;1.7470189229222428;-1.4674156735175934;0.4331985821620989;-0.534779739781335;1.89386405346686;1.747401669553719;109;1.2566370614359172
127;2.891139832514891;-0.6581107300361556;1.7909337099072598;-0.0502694259229263;-0.997831758116338;-1.1372128669263035;54;1.2566370614359172
128;2.180950115349549;0.8075542705618433;-0.7816318713778578;-1.5268453568791105;1.842428803755164;0.3140345732730355;70;1.2566370614359172
129;-2.479014920737662;0.8224545912081386;-1.3062330380459697;0.4481964896302124;-0.686156203870196;-1.214712486301022;11;1.256637061435917
130;1.5971022553486098;-1.3417698790135055;1.0590246072426126;-0.4102065139523108;2.6975933150440863;2.4457693399855245;126;1.2566370614359177
131;0.4031885862847214;0.2536539423586985;1.2596949529106076;-2.9309312233718354;-1.220699467159804;-2.707957509176785;110;1.2566370614359172
132;0.5266011033071458;-1.1500967326136504;1.499400318322839;2.021769262096265;-1.4527880410179204;2.14552724506802;71;1.2566370614359172
133;-1.6555572575479889;0.1748197636370497;1.1355175680499094;-2.565821471031064;0.6864540832669827;1.544551039159319;81;1.2566370614359172
134;2.606137057569771;-0.9730001920217036;2.151862270421333;-0.8256619119869252;-0.4143799131058636;-0.5655173531316495;127;1.2566370614359172
135;-0.413463331466329;0.6605016739401263;0.5106850972151047;0.798207760551693;-0.9814866903965972;-1.330116852349153;106;1.2566370614359172
136;2.31310760659214;-0.9294735325135574;2.1882418588908945;-1.0664845848963955;-2.007329972683062;-2.077808786035658;54;1.256637061435917
137;-2.223320349043702;-0.4592417244953548;1.4804278861018147;-1.9797011172090069;-0.3963439341334068;0.2533298398975475;81;1.2566370614359172
138;0.8180619027057731;-1.102265698495157;-0.3572724284056152;0.4252821895807736;1.7879890887777217;-1.0154195581452294;62;1.2566370614359172
139;1.9221652778353329;0.1636430507110369;-0.9155009969930092;-1.6079274618363544;1.6693067687611245;1.335346946379102;128;1.256637061435917
140;0.517805763908295;0.7521935002533509;-1.862096954594081;-1.190472923805091;1.1694765943593546;-1.2479731973814014;44;1.256637061435917
141;-1.802491877717221;-0.2473592321627627;1.5036952103347705;1.2537195525377876;-1.1622859167094468;2.375868479091425;90;1.2566370614359172
142;2.207006167196746;0.2018218635244192;-0.6320898897549082;2.851692843910217;0.3290379708047772;-1.223618206045017;122;1.2566370614359172
143;1.6189611921956018;0.1341758198948176;-0.4939751755989671;0.6261865017950503;-1.1838330023608334;2.613417194616252;525;1.05310654227846
144;-1.7230377312977765;1.0798040541733906;-2.3323287911134094;-2.423666482939069;-0.3162314214243782;0.4413150308103801;101;1.2566370614359177
145;1.3407003033417202;-1.208862968899973;0.5851247212254449;0.2411240655236969;2.355669929819622;-1.239773494420555;138;1.2566370614359172
146;2.0754910673955367;0.2364613148063645;-0.6797939717609941;2.99903175045258;0.934156954829781;-2.3055087612606857;142;1.2566370614359172
147;1.5144742329993126;-1.4483400000849664;-0.041224177973548;-1.728577736566895;0.9193017973263722;-0.9909465031573678;116;1.2566370614359177
148;2.699469147666274;0.1903691597175991;1.553814947461153;0.3412960775673231;-2.570636886015946;-0.9316513456960548;54;1.2566370614359172
149;-0.7915083490440814;1.2925114525299273;1.3832965310925631;-1.576386303404016;0.2149691990702288;-2.403548998449014;104;1.2566370614359177
150;-2.557779853751355;1.0833269270795922;-0.2827024419741694;-2.625861811843192;0.7905733704681865;2.0598123333911755;85;1.256637061435917
151;1.8034014968049037;-0.7081030351294924;1.7145742542025335;0.3785989037135369;2.4187339059883435;2.51871974453368;130;1.256637061435917
152;-2.163236241013713;-0.5851354182100934;1.2787620379396412;-2.7368035794764274;0.4818371227893766;2.3521678514085917;133;1.2566370614359172
153;0.9044146763474356;-0.4848608985452162;-1.31127492474836;1.110589721844182;1.8610850627494813;-0.0361435910498508;62;1.256637061435917
154;-2.4418635547650323;0.3691720872364193;-1.8535888345573248;-1.355868064891126;-1.7364715300837206;-0.446622830929952;94;1.256637061435917
155;2.4903890627815044;-0.535206900694224;2.463592660310111;-1.4698509645230535;0.0857796239179576;0.2166342984564268;134;1.2566370614359177
156;2.474327905234204;-0.899738548111292;2.5835330782722075;-1.217935341406024;-0.6406780113207752;1.1333717421096925;155;1.2566370614359177
157;2.165392488141165;-0.4122724511894694;2.4181862350899994;-0.2800083005067015;-0.3331058045198051;1.6277653520954516;156;1.2566370614359172
158;1.0766336799587797;-0.5434745355079835;-0.2885009428546569;1.0972869163494987;-0.0866099777187365;2.3193539355325843;59;1.2566370614359177
159;2.705495163632086;-1.0265714157436592;1.729158159835812;-0.3322943937921633;-0.9356515725207912;1.3641222985665458;157;1.2566370614359172
160;2.3375438261919688;0.8208391700837024;-1.165347027275304;-0.9748669571714992;1.5477670831187953;2.0401377591885197;139;1.2566370614359172
161;-0.8548379617455901;-0.0793863920995616;-1.2372011211083178;-0.8259909078872817;-2.7462399848298333;-2.314662618864186;43;1.2566370614359172
162;-2.008775629429158;0.281405242865935;1.2688569793146935;-3.016994045535595;-0.1828477761487076;-2.0650429796829908;104;1.256637061435917
163;-1.755633720430049;-0.3557095910214771;-0.2104344894478446;-0.8791842681725739;0.6176837060547303;2.4066523975629304;33;1.2566370614359177
164;-2.764578036445505;-0.2137792240937427;-1.8489691783619835;-2.3065600857202058;-1.8414131885785727;0.0227495422742557;154;1.256637061435917
165;-1.6714369432618;1.1202594120358007;-2.300324306171983;2.087182569205455;1.4223906462180012;-0.7639292354469729;29;1.2566370614359172
166;2.3166981393279915;0.9871607994649754;-1.7855067858436513;-0.4701992362320106;-2.7115437387368013;1.929011407973804;39;1.2566370614359168
167;1.303666497277423;-0.4183429064636298;2.366958528337179;0.7110375306253608;-2.254442294159343;-1.6748885748097284;46;1.2566370614359172
168;1.4473024913413657;-1.077534047480782;-1.046326402563215;-1.863399973941653;-0.8920204743249679;1.9533702766070735;14;1.256637061435917
169;0.4435786287684954;-0.8062230625556294;0.3759168455693264;2.704682582429636;-0.2408647188804333;-2.5442462551613665;95;1.2566370614359172
170;-0.0603712480735056;-1.2852245386028744;-1.3447511609206635;-0.2895909290657219;-2.0574874044976803;0.1725559583530806;7;1.2566370614359172
171;0.6464107035920635;-1.1211655920020651;-1.6464687366311777;-0.2942736967295547;-1.6432669242967943;-0.716289702597607;170;1.2566370614359172
172;-2.334621984992592;-0.5246056236174779;-1.996620223298785;-1.3339454229062222;-1.671052733949989;-0.5221828763576087;154;0.9172060130941218
173;-0.9522712246134956;-0.4695794516186212;1.437056056072235;2.6129866235383363;1.7088630208705555;1.5942909626813315;82;1.256637061435917
174;1.6992457698204673;-0.8218262130359311;-0.5259776598970695;-2.231207783661422;-1.9783734218912568;-1.3816888816054165;55;1.2566370614359177
175;1.8958049782788329;-1.564611444416233;0.1131699139150167;-2.017801181150248;0.9830058786819188;-2.134912661583339;147;1.256637061435917
176;-0.7845584939231295;0.0806965180253639;-2.1332615868846325;2.2303424875994717;-1.3960693992972792;-2.69096526713764;66;1.256637061435917
177;1.684298604213024;-0.0523763959012382;2.112721955973414;-0.912023338910433;-2.701287082183376;-0.8349891821627118;119;1.2566370614359177
178;0.8601773230458002;-0.0654724991053699;0.269158317403853;1.4701565290606444;-1.34748724952083;-1.5735747127306727;32;1.1984740612701044
179;-1.4640998054057306;1.354408319311063;-2.466816661514519;1.428079707135601;2.183363449543074;-0.1005240726051744;165;1.2566370614359172
180;-0.5848667403192981;-0.3483671607550789;-0.4668316438669209;-1.3874031670473237;1.9066961004638263;0.0766001685748836;18;1.2566370614359172
181;1.97740804398206;0.3537206818816073;1.062412540896296;1.4953194344773608;-0.2641737796025054;1.7480388314582582;59;1.2566370614359172
182;1.669083631975354;0.0403720308675875;1.9220057411094285;-0.0247441786944695;2.806124984107916;3.3218979188195323;151;1.2566370614359172
183;1.6678843338880442;0.5369088906421403;-1.833104746064945;-1.0714930638100983;2.119164153060914;2.558157911240609;160;1.2566370614359172
184;-2.310375881725682;-0.5974484259429544;-0.5706413867211106;2.0413691794707467;2.2170294297689788;-2.9122427730755147;91;1.2566370614359172
185;-2.775109524231921;0.9374150502473892;-1.8249237713329247;-1.0606505680791127;-1.7210366571264757;0.9773487727415182;94;1.256637061435917
186;-0.2296207890980629;-0.3029826496991744;0.4091318665402941;2.083206102629517;-0.5551310650675316;-2.3296152397634216;169;1.1129305598406416
187;2.4845017012399104;-0.6089743721131574;-1.6886610559391402;0.8887105367282864;-2.396344221692784;-0.3637845295794176;89;1.2566370614359177
188;-1.529994451651993;-0.2430724600714951;-0.8362986368166119;2.4709273416723287;1.460236558658864;-3.041586360383561;184;1.2566370614359172
189;-2.6213729160980264;-0.7400483716156555;1.5966463264505786;-1.155998381231742;-2.744139836284639;2.0184244147533548;107;1.2566370614359172
190;1.2152319116236687;-0.8328007684238872;-1.131569595086057;2.4514230747565806;1.6577947381099376;0.8722456208404575;100;1.2566370614359177
191;0.6042089017883985;-0.3612907301195966;-0.3175455301781901;-1.6745512343076454;-2.96020177529674;-1.008789758118971;55;1.2566370614359177
192;1.544239974838892;-0.670354723041475;1.8324895684755296;1.5707226564041004;2.400806956767145;2.7928777939569187;151;1.2566370614359172
193;-2.473165032398552;-0.5425105579499431;1.7884375735931588;-1.2170812405390437;0.0088318376395097;-0.5646886133394922;137;1.256637061435917
194;2.3039465609985137;-1.5629478173957787;1.1162453942351565;-1.6715730128239554;0.945973446510852;-2.6689057515947567;175;1.2566370614359177
195;-1.4828996174433855;0.0637270038140446;0.8615997329705876;2.726722102791899;-1.4303812463867691;2.323304997331085;90;1.256637061435917
196;-2.506692824979384;-0.7781726885047455;0.1348749868196416;0.4508169115527233;2.244096663108869;-2.554506907910709;91;1.2566370614359177
197;0.1784933908857721;-1.2234736338867511;1.4108572184580048;-1.63055203544223;0.9853113333626377;0.3195358235660513;98;1.2566370614359172
198;2.540519779783855;0.2186893235686711;-2.115114276347722;0.4522340515961196;-2.6984262682951647;-1.0174999506543472;187;1.2566370614359172
199;-2.1282438227730447;-0.3645783947362788;1.2136391147613392;1.1321297149239102;2.938034587599957;-2.661759048896825;91;1.2566370614359172
200;1.1638890571408549;-0.0807467111137744;0.9719777818057596;2.111523909567432;-0.8911147387349022;-0.9627724531790024;178;1.2566370614359177
201;0.3183479742897754;0.7836580097826007;-2.1108050771241604;0.3360562598497193;-1.774134917272122;1.3969652165151232;34;1.2566370614359177
202;-2.4846989355132525;-0.593405116674207;0.9661963454338868;2.900805201467292;-1.7479743901673706;2.363322807765826;195;1.256637061435917
203;2.614113963928345;0.6849280177491163;-1.6721761270604851;0.5474707551712075;-1.3868765648951475;-0.0850122898675333;89;1.2566370614359177
204;-0.0143012507670313;1.1877480286744202;-2.803682343535492;0.2500742509253147;-2.6050166264090686;1.460456396859587;201;1.206570183216484
205;1.6910444835397116;-0.5631202725883244;-0.783085793729106;0.2269882789521861;1.387841177990108;-1.3970011088920729;138;1.2566370614359172
206;-2.756168099322516;0.2655253924413645;1.7882270635436386;-2.6304292189841827;-0.8585095526239996;-1.6847897157087728;162;1.256637061435917
207;-1.2277116911288888;0.932225947344246;-0.4429204643960862;0.963802655161226;-3.263197569705958;0.2491538977289529;65;1.256637061435917
208;-0.8264432504582276;0.2108421375134085;1.0587124528499263;2.67573620104982;-0.4198279665468134;-1.9202621431309583;186;1.256637061435917
209;0.5788376395568052;1.0558592631135342;-1.1445741805864484;1.8679016114722744;-1.293662234289492;-1.7119228870143703;66;1.2566370614359172
210;2.9063936667525474;0.8449678538171277;1.3951256416397173;0.384532371088105;-1.9158993128586093;-1.73917009761141;148;1.2566370614359172
211;-1.3181612372345222;-0.1526213545870385;-0.5810032644731145;-0.7829499021392091;-0.9049219099891024;-0.988319602446247;3;1.2541386156560397
212;-2.514066370747895;-0.1617651105992898;-1.629197139539542;0.650346993723889;-2.2763176176374684;-0.0357249629808051;26;1.2566370614359177
213;1.339207706097542;0.7887550241333718;-2.2091835827455437;-0.6487847871447612;1.0856130761131912;-1.942358215927228;140;1.2566370614359177
214;-2.423177187910613;1.1896939348863036;-0.2437070612744227;-1.541048934237364;1.119896381119137;1.050915554484784;85;1.2566370614359172
215;1.3361343282413585;-1.0419497693534463;-0.1762000377267367;1.836806627496797;1.5022007190558426;0.003088801889595;100;1.2566370614359172
216;2.6423359707663923;-0.361442735201324;1.7872490386411617;-1.321619182297848;0.0281782573429124;-1.358643864396189;134;1.2566370614359172
217;1.598309292426605;-1.2822499864156045;1.5565850501542924;-1.066056922012998;2.845334655307738;1.5097891190971826;130;1.2566370614359177
218;2.7290763430070264;-1.2374738120952908;0.4931907627048925;-2.143097509031896;0.5151981269791854;-1.549955002077077;175;1.2338941482235597
219;-1.922560304645473;-0.368637874141596;-0.4741238456090465;0.0429828139079039;2.359544126727557;-2.1400748350402807;196;1.1096034672206327
220;-2.3925630596299143;0.9722539219018502;-0.4508973498210338;-1.7351119726819049;0.1393881685898298;-0.3330913351140139;24;1.256637061435917
221;1.015915898872128;-1.3142093299973463;1.876573110708554;0.4733929451685044;1.8057869495224836;2.943813599228065;151;1.2566370614359172
222;-2.60609860357086;0.7556421186921227;-1.190535592088665;-2.3900638576533044;0.7017363554140472;-0.773950063145509;220;1.256637061435917
223;-0.7717955978056242;0.9577953477758152;-2.2020707868786658;-0.922066071905248;2.1430092801659937;2.2548853238805053;105;1.2566370614359172
224;-1.2993222387258203;1.654370650529993;-1.5848207578288265;2.52797165289298;0.8048042864341884;-1.0241969437318152;165;1.2566370614359172
225;-1.1719938134084615;0.9520333511738382;-2.6899866590242194;0.5787973081348617;-2.392818528118805;1.5920224846410964;204;1.2566370614359177
226;2.262164844127057;0.4249452853007691;0.1792599939769777;2.424587486862261;1.1435367726244647;-1.0746408749778464;142;1.2566370614359172
227;0.3975910570238303;-1.1685519138469684;-0.5056040678101481;-1.0610966547634897;-0.8854658534656898;2.2100728283329354;9;1.2566370614359172
228;0.1578772399615197;1.2280436381228632;-2.136914416667561;-0.6944607204049368;0.4062297073982699;-0.6831225496211379;140;1.2566370614359172
229;1.299989460032685;-0.0637537990487158;1.5464817690374757;2.101335703078981;0.0666379117789994;-1.522125521449421;200;1.2566370614359177
230;-0.834723735920152;-0.8093036102118276;1.5604416199076392;-0.3918848646466971;-2.6217613558046398;1.3260132744747524;35;1.256637061435917
231;0.3023902007277166;-0.6390694450000172;1.1515762003112948;-0.3986379315033837;-1.2495624476315337;2.0691705049662;28;1.2566370614359172
232;1.3705797917558753;-0.4522236858815562;-1.003972826392579;2.93821664377152;1.5853361517854831;-2.579598188162002;146;1.2566370614359177
233;-0.0183079568401064;-1.3348864664633049;2.5646936714569444;0.6634502063769259;0.934102185816031;-2.495697754870948;53;1.2566370614359177
234;-0.1116348981935562;0.5874166987792426;-0.0958329379255806;-1.4860826325360312;-3.1386748374692086;-1.232684937199509;191;1.2566370614359172
235;1.012426215221717;0.3267433951022179;1.3902481218643068;-0.9145907569184264;0.5717743480711839;-2.702536038169484;113;1.256637061435917
236;2.90033351071147;-0.1358400402644159;2.596155383330817;-0.7461105580769329;0.726849510576439;0.2934216773420102;155;1.1339260523473575
237;-1.998968631390819;-0.6527669312435749;0.93378015082211;-2.832814227836104;-0.9645277574677132;1.5979629320308943;81;1.2566370614359172
238;2.8529640645017778;-0.5371082284582575;2.6868700551410893;-0.9532461310228134;-2.8124309213508765;-2.551201449819048;136;1.2566370614359172
239;2.1800191754069997;-0.1040427883178218;-0.9945698577620024;0.5229648926782317;2.2078224947628624;-1.9667302491459917;205;1.2566370614359172
240;0.4839821624307306;1.4849033473057878;-1.2571565093415753;1.8654857103820064;-1.6255367212195633;-0.7695798722980559;209;1.0972274319879716
241;-0.211530297894474;1.0253794695609164;-1.376333693698943;-0.2015853172360133;0.7192883992846779;1.89772773097964;63;1.1942570800189631
242;-0.0365735903195981;0.1937340348441846;-1.6785467954341164;-1.8758537605624024;-1.107265371355228;2.2376803604913387;14;1.2566370614359172
243;2.18061764208844;0.876497616923536;1.3019522268145023;2.421424077788477;0.1593035253301767;2.16054912262038;181;1.2566370614359177
244;-0.4971248833502975;-0.4830040147884303;0.4986421454698522;-1.9766794678337685;-1.183009772825691;-0.6290443744164909;36;1.2566370614359172
245;0.7647319257884699;-0.7751893607888468;2.2729125816821485;-1.3781933719476394;2.7204564737319643;1.477755638086489;217;1.2566370614359177
246;-1.802841345651789;-0.2497024464563711;1.4530142098059022;-0.2873270024986518;-3.116016537818145;0.48961652687402;35;1.2566370614359177
247;-0.7015033189218682;0.2339821636090283;0.9050909989951612;0.765425705452764;-2.832201985268985;-0.1471292224580261;30;1.219928564380626
248;-2.998756425452359;-0.1305939103310514;1.813986207194144;0.6761398751656218;2.574079792096792;-2.40526476965585;199;1.2566370614359172
249;-1.1122857702793267;-1.115738568169997;1.7519366700325965;-1.1109218753728451;-2.397673321337838;0.5978877485442494;230;1.142370286770252
250;-1.973266299824875;-0.5448096965861715;-2.3165760374358864;2.090616628309278;2.1914207180629504;-0.8600133933921905;29;1.2566370614359172
251;-0.8009660617899724;1.05796167423861;1.4519489022458592;-0.9374129077620604;-2.6090243569123106;-0.4393459632929707;112;1.2566370614359172
252;-0.6048767450694859;-0.091225292998632;2.311337900430419;2.441821977357957;2.2078797507422308;2.116419427949586;173;1.2566370614359177
253;1.039500326180096;-0.0381952933709198;1.8705164088581556;-2.610886261011698;-0.4598054065901183;-2.8939056123170084;131;1.2566370614359172
254;1.2451198562165835;-0.6215930863923347;1.054472841988016;-1.143843359814295;-1.328034733652048;-1.327475132275962;2;1.2566370614359177
255;-0.1031530184437015;0.9051933206306526;1.910267777727646;0.389337356403077;-2.141341128658208;-0.0337936926331249;112;1.2566370614359172
256;1.6384782597167864;0.2136837800356263;-2.032201143342612;0.7981215381692465;2.1767933571446787;-1.789058369504952;239;1.2566370614359172
257;2.50523889896265;-1.3411849424798352;1.7226837314532153;-1.1965227809978598;-0.9491291524640464;2.19655139031755;159;1.2566370614359172
258;2.157689292552255;0.0225609487865761;-2.279181921375931;-1.302315578953095;2.866529232696743;3.071826636453426;183;1.2566370614359172
259;-2.704513327189402;0.7679999676912904;-1.7515497896979102;-1.9653465203409648;-1.9183749884978556;1.3966164314269829;185;1.0355054742020164
260;-1.0814218731440457;-0.204803060842971;0.132267358749999;2.5450874722759296;-0.5194499939165191;-3.073033622362024;186;1.2566370614359177
261;-2.1629716810415496;-1.1794506289831217;2.142014680107565;-2.763737576118812;-0.4474862818762953;0.2112812762370169;137;1.2566370614359172
262;3.081278611624651;-0.2406489552627022;-0.6573149690919868;0.1094493918513475;1.7690104739074166;-2.4872251760688098;239;1.2566370614359172
263;1.2305295395636726;-0.6181629081371697;-0.3394549296400662;-1.207531283939531;-2.0402757177702613;2.7871056353830466;69;1.256637061435917
264;0.5374191009225946;-0.5644402788415928;-0.4006817650000593;-0.5562204886187032;-2.868818487471585;2.442855672291889;69;1.2566370614359172
265;0.0692052479546824;0.3524141751742898;-1.0796136236881893;1.5418289655252169;-0.5434030429830281;-2.577697854046615;66;1.2566370614359177
266;-1.2895458772454989;-0.5299790743368789;1.3881818883270096;2.9347917773102714;1.332160569457317;0.6812783591566975;173;1.0949183979160673
267;-2.645643331809574;-0.0172485584249292;1.1466773771405605;0.0616858514111106;-1.7569745469178186;-2.779932106335537;64;1.2566370614359172
268;-0.9430188409236137;0.5102982727974089;1.085542827672125;3.2369348681185555;-1.287538831519783;1.4530360607456807;195;1.256637061435917
269;-2.7153939935615514;-0.3206848832282061;-0.3889840265745112;-0.666591629314914;1.981887682537372;2.860495266127706;33;1.256637061435917
270;-3.193822892067646;0.806629126945289;2.001809316159965;-2.9129234067517262;-1.541245340298988;-0.975386280038964;206;1.2566370614359172
271;-2.098081568862233;-1.105005728203282;2.1942080655448013;-1.7119092317876912;-0.5405497472616446;-1.2055659214938754;193;1.2566370614359172
272;-2.248821997308521;1.355950902033581;-2.0723292999527203;2.3775189521410227;0.296543639729274;-0.759805023399883;224;1.256637061435917
273;-1.7413738517797035;-1.1095250330203748;1.6874349676826543;3.17781975996587;-2.135710766778216;2.477178165245697;202;1.256637061435917
274;-1.420524455241186;0.2271082734790634;1.3126808412930784;1.3165195023439458;-2.7896088519331874;2.270753630274968;52;1.256637061435917
275;1.993344229565437;-0.3716582857105051;1.575510326764822;2.6353326671536914;-1.2628325346087272;-1.1351383713877263;200;1.256637061435917
276;-1.1218316866832532;1.4063544127128589;-2.1264623856057434;2.074254717223988;-1.396242660304252;-0.8855333019779237;96;1.256637061435917
277;1.63586901672932;1.017993172604604;-1.1814996955648382;-0.5327971202790203;-1.2303085371568026;0.8695276826931593;39;1.256637061435917
278;0.2536904159135886;1.1027540954259292;1.4965247338720244;0.6996830311228767;0.8650250355207806;-0.4545823241723537;13;1.2566370614359172
279;1.58598261808601;-1.4325927712521966;2.119718154757463;-0.5584069067976452;1.7898650759552928;3.2846391376415944;221;1.2566370614359172
280;-1.9432967355120447;-0.4578982359764075;1.2632739537691169;-2.217589787283581;-0.2338188006106419;-2.6868172161844;162;1.256637061435917
281;2.384818440978687;-0.94537656713328;1.3666464659002866;0.2832596789581788;-0.5451228495764212;2.2623852400918043;159;1.2566370614359172
282;-2.553241082279528;0.8256145799924673;-0.2871118394347908;2.7614265807626754;1.9650871856484224;1.7293979101876853;38;1.256637061435917
283;2.1240832894145054;0.9742900741202108;-2.7731122629102147;-0.1556851540551072;-2.877580379240245;2.5911437772075763;166;1.2560005026170746
284;-2.467794461608966;1.3176538636066455;-0.656543957312552;-0.3839273824235799;-0.866055473130176;-1.6237745062932325;129;1.2488273465269253
285;0.6617969925971854;-0.8282606305170661;0.7631681926177581;2.8268490646124667;-0.4296769361736045;-0.9696161060955464;200;1.256637061435917
286;1.9751372714888231;-0.7403116406034971;0.8918187520596474;0.8142157113048649;2.137242218578284;-0.5420055083946915;145;1.256637061435917
287;1.3155216052786634;0.5148492025872695;2.200636065445123;-0.1750986643367786;-2.585817125152277;-1.0351743619789304;177;1.0305026144353946
288;-0.1852241438200492;-0.2654820933593779;1.1336039986329725;-1.0628700089653431;-0.3921385220887089;2.2275952663004617;231;1.2566370614359172
289;0.8721246413248234;-1.39433223853167;1.2931080594601962;-2.6314301828642144;1.210443358910216;0.3696693497609723;197;1.2566370614359172
290;-2.539325123964617;-0.6994382057299777;1.8750522943835;-1.9673178596537335;0.8980983983388132;2.903244013655913;152;1.2566370614359172
291;1.0074446889376456;0.8503274239210421;-1.9380654185653112;2.25543239237279;-0.6505222606699556;-1.3122331474518316;209;1.256637061435917
292;-2.366053366226009;-0.7496047249407191;0.5972401315553191;1.1508364144848455;2.4725525819866143;0.6466410993331171;56;1.2566370614359172
293;-0.0532390399210048;0.2976606524532754;0.7463210522693106;-2.8353217786382627;1.0911608636146886;1.68170416429318;83;0.9307277072030608
294;-0.3336767388380857;-0.8675543729273182;1.0320698652010023;2.629459440647861;2.517841712154039;1.1259301648969386;173;1.2566370614359172
295;-2.423314196276152;-0.2381884266019112;1.9860484417975688;-3.057888169167206;-0.3759932935067392;2.5799869735930585;152;1.2566370614359172
296;2.3601486387454265;0.4820579607523659;0.2467715646086549;-1.4363560295770883;-1.5952992800970287;0.0433431528232392;97;1.2566370614359177
297;-0.7713143877324469;0.287299884887421;0.7350764479117322;-0.414581564282654;2.953790103584259;-1.694541809372916;73;1.2566370614359172
298;-1.817990348323764;0.9257414443809446;0.9792470655607748;2.67611540586674;-0.8324029764549128;2.914745667691625;195;1.2566370614359172
299;-0.5379992064435746;0.8485127331981956;1.4033137761608243;2.160726354010225;1.3039830504655234;1.767880994123446;82;1.2566370614359172
300;2.672705230544701;-0.6906781871350376;0.1438183760892917;0.7747376313972458;-0.3734197358489429;-0.4219178158034267;42;1.256637061435917
301;1.9170980345891795;0.2714455800242072;-1.0166415372988753;-0.3391160554496752;2.980476345780471;-1.7983468489244478;239;1.256637061435917
302;1.4365988641276144;-1.6006083374828248;-0.8908006872266218;-1.99484245913094;0.0863826306022373;-1.2428492595343328;147;1.2566370614359172
303;-1.038831079095631;0.0950122327568969;-1.7880756232806805;-1.6770770269545523;-2.080985450166651;-2.5255997220198987;161;1.2566370614359172
304;0.9454720778408108;1.3031438815879015;-1.64228470261883;-1.1622592598500394;-0.293252351940902;-0.6625835601763752;228;1.256637061435917
305;-0.283879314681219;1.293863801298394;-1.8243102832021216;1.2245734649633186;-1.7236828810216074;1.683429085454214;201;1.2566370614359177
306;0.9697843303119132;-0.5239207935437995;1.1849330739228967;-0.1631551282109221;1.1788402792744417;0.6825973191016881;99;1.2566370614359172
307;-2.343726319792988;-1.1820226564477077;0.6220963922203603;-0.5097393674303684;2.639742682155456;0.3686078442358891;86;1.256637061435917
308;2.130252451093843;-1.3318320504095174;1.7576309756626538;1.3744735505812171;2.1010832799607497;-0.1673690604076035;286;1.256637061435917
309;-0.7859614246594867;0.4359965557849421;-0.920617045677883;0.7635129472903386;-2.025401898810195;-0.577458817208979;65;1.1524928139203807
310;3.0112766596680465;0.4467255062317014;-0.0496325811527537;-0.8307882437358056;-1.1212170530579966;0.7322545428682055;296;1.2566370614359177
311;-1.2537966330695995;1.084078735392313;1.3468358621200431;-2.56689015439181;1.026527196037174;-1.148222161981287;104;1.256637061435917
312;2.709155565410362;-1.420625449888879;0.2180285053000333;-0.5605846799022143;1.4397324826774909;1.1164968274184897;126;1.2566370614359172
313;-2.5215386603949823;0.8799428038781021;0.9402748855699375;1.0614378156105142;-1.353903635778888;2.530288092146;90;1.2566370614359177
314;1.1558799261226775;1.0740724766037697;-1.8265270170950565;-1.7367916870026108;3.076370491507433;0.0566319105788735;70;1.256637061435917
315;-0.3702343915499041;-1.0080594256216469;1.6517451026113663;-1.3061082634122516;-1.268028510532578;-3.014724092314676;84;1.256637061435917
316;-1.6022740999526062;0.1373630419691278;-0.9637208777874886;1.0688741150265788;-0.4051048392092138;-1.041094933568672;6;1.235601715696142
317;0.8239362284809919;0.3521376297400254;-1.8217092811287772;-1.1122483390762077;1.0136001294220311;-2.810042834074206;213;1.2566370614359172
318;-3.052368301072528;0.1521127961809523;1.4089101879085106;-1.4523891064079602;0.6377186119764718;3.1046058179970686;290;1.2566370614359172
319;0.9694071905148448;0.0904977785606206;1.4455034391271562;0.1796570707858885;-1.0910252513316672;-0.2703976846532637;106;1.2566370614359177
320;-2.03118066928163;1.072522282223654;0.8449662188082601;0.9772579158616698;-1.571757574880016;-0.1116366382562364;77;1.256637061435917
321;3.141312826430123;-0.8822240833104068;1.06022178936941;-0.6813751600297395;-1.983888740512271;-1.3356291183603717;54;1.2566370614359172
322;3.1047554303341958;0.5741646310610219;0.4535726049163919;-1.8388808430119097;-2.421204015724596;-0.3162430862678809;296;1.2566370614359177
323;0.7261741486369373;-1.3040830084010844;0.9722364669862484;0.2081111961191979;2.447328574172758;3.385751436756584;221;1.256637061435917
324;1.776277641322184;0.700384576499856;2.032450934479036;1.7003141355643647;0.5886378892567504;-1.207625105402624;229;1.2566370614359172
325;-2.197717286615933;-0.760713601335255;1.4449144501391396;-0.3988845570875205;-2.784183422408844;0.8295685368820404;246;0.8094755640822083
326;2.1108985090091146;-1.3590010134562198;-1.5576408945859963;0.7340721489933264;-2.182831883706649;0.5252320979874278;187;1.256637061435917
327;2.0074760367573967;0.1067293901774825;-0.9109506795854944;3.050293163774943;-0.1043004303397212;-2.956066514755741;146;1.2566370614359172
328;-1.1292014509168176;-0.0653199652697177;-0.0624950034943933;1.6186895071494256;-1.235990283651356;0.7801035918098774;102;1.256637061435917
329;-1.8899114871916365;0.9842762387549256;-2.332631010535867;0.098335150104025;-1.975021203649052;-0.325356438021;94;1.2566370614359172
330;2.9554326142059177;-0.9452399453602824;-0.1766376029379514;-0.7692550911695732;-1.9287413370903752;-1.330246064613937;321;1.256637061435917
331;0.6875332842331654;0.0217414926978602;-0.4784505609555927;2.7364027081832107;1.466430737466284;-1.8333407469210967;232;1.256637061435917
332;-2.743838385100609;0.2361199041656896;-0.8790549936237189;0.5811850400014964;0.6615741319611067;2.6641732105703584;33;1.2566370614359172
333;-3.130061302034448;0.4113629255230119;-2.0329177083851286;0.7422488711759467;0.6770992956209012;2.460024507074228;332;1.2566370614359177
334;1.0162659036300783;-1.3886722903118096;1.3254852365812575;-2.498377884772383;0.2318907217832129;1.1325661359695882;289;1.2566370614359172
335;1.812080142244014;-0.274422216476481;2.428389296325967;-0.8819720112576246;-0.2483423471124674;-1.8074481457746008;216;1.256637061435917
336;-0.2770839729097415;-1.0849733387252394;2.534024349931564;-1.5424799488208665;3.0505531425894734;1.917820381911706;245;1.2566370614359172
337;-2.4796387701849274;0.942034042178818;-2.532146419061608;0.5839626386300066;-2.082478812070953;0.6454094653960257;329;1.2566370614359172
338;2.487496624775703;0.4399071184736501;0.8961263365595711;-1.122090710087546;-0.1539150103325087;-1.144329484099186;216;1.2566370614359172
339;-0.936541998551646;1.3231435208380635;-0.1541721543884064;0.4262456858862707;1.7209026103250524;-1.3675388928000558;16;1.2566370614359172
340;-2.712418387268837;1.295354743701388;-1.1134799201359982;-1.6395261939370604;-0.7362764152907507;-0.6568546173991222;220;1.235501922972506
341;-2.326541442661637;0.4442805707069752;-1.0532211578718504;-1.532060352709916;2.896309204868671;1.0344282374865073;120;1.2566370614359172
342;2.2778182255250243;0.2891055536222892;-1.163593765099212;-1.025713925718368;2.809410040963233;-2.7608594462452305;301;1.2566370614359172
343;2.503335924230661;-1.3856559115166591;2.6718667555728146;-2.295706091123397;0.2687257066064697;0.5277958399158693;155;1.2566370614359177
344;0.8609927612492627;-1.4036593876920147;-0.4396990622722263;0.1585267732152168;-2.4252105552613967;2.195926365501272;264;1.2566370614359177
345;-2.454640051837973;-0.3560429954154794;1.2172269870643442;-0.988215146756739;-0.0126047343233874;-0.614034083550037;193;0.6454990719403831
346;1.741514981150932;-1.2880886517749337;-0.9650367628561694;0.7513637102198235;-2.6332019333973777;2.5419971422544965;344;1.256637061435917
347;1.353780563324141;-1.3575983875878923;0.1805217634414826;0.928220516815338;2.2550419836250324;3.379485804995904;323;1.256637061435917
348;2.658608297911092;-1.0075785611859591;1.3966179151545557;0.2859398432999067;-0.031372211092301;0.8483124036227714;159;1.2566370614359172
349;-0.9671685478745288;-0.9568077581164468;1.8088411282440249;0.728844369446146;2.9056156953289314;-1.4869250043857658;92;1.2566370614359172
350;2.5707464243509763;0.6352200029958587;-0.1536123726965632;2.998198453745405;-0.7391642785767458;-3.0129310125074755;327;1.2566370614359172
351;-2.795631445647729;-1.0566502642054327;-0.7608734974232184;0.0674548671740824;-2.330733099040153;-2.250067720142664;51;1.2566370614359172
352;-1.352328769737282;1.3319005778553314;1.3640752834432728;-0.6949688401211285;-0.388049742551978;-2.753073835645876;149;1.2566370614359172
353;-0.4851397203296724;1.36577949006039;1.120336175019882;-1.2164035030402809;-1.0341643927360755;-2.47521582475098;352;1.2566370614359172
354;0.7890095194798645;0.4201355584917845;1.8373051430348133;1.9884378013994075;0.2539669549462462;-2.4975592468788697;229;1.2566370614359172
355;-1.56184561339246;0.1531752504321494;0.4396543276968181;-0.990149287328656;2.8629919633751677;-2.4082721034427084;297;1.256637061435917
356;2.4494153462733297;-0.2562431746764069;1.6061734616665682;0.2522850482563766;-1.5073291187928493;2.602804977231417;281;1.2566370614359172
357;2.59530288744321;1.0338361624292425;-1.0060721125741707;2.9956727868855824;1.2275853328393176;-2.9987308089924087;146;1.2566370614359177
358;-1.8232216556608765;0.819413129131085;0.9329971020118182;0.8076753629390387;-2.752822787113147;3.0842100287827248;274;1.2566370614359172
359;2.86654486129272;-1.158536654406951;2.001022467160793;-2.251746924959137;-0.8992392518508482;2.667481173454892;257;1.256637061435917
360;2.2089046026225683;0.9684355830390642;-1.6419122657519067;2.7077516398051946;-0.4773252817193385;-2.883688352506528;327;1.2566370614359172
361;1.6542934360983756;-0.5487559134877026;1.0081813797205952;-2.8055204960214457;0.6620465818818113;1.426752584890445;334;1.2566370614359177
362;2.7938374315985874;1.2925799065708612;0.9244963721572697;0.9827357141406838;-1.2716383540303784;-1.1294981232442758;210;1.256637061435917
363;-2.3984213482471626;-0.9990951661444382;2.031504703288121;-1.4791745868866488;1.558029913564486;1.0499747825587742;86;1.2566370614359177
364;-0.5514952371477178;1.1455204493666349;1.1780594293546247;0.1278444544778877;-0.0179813510570595;-2.519641672407606;352;1.2566370614359172
365;2.0135771951265498;-0.8165137526240949;0.191096338705503;-0.0694952665426536;0.6060594077757916;1.0823846426635055;109;1.2566370614359172
366;-0.7975061203685931;1.4611378937106911;-2.0852580534891314;-0.2282393483719847;0.2888406441996407;1.299970104265347;241;1.256637061435917
367;2.798432785136223;0.9864759185617088;-1.3981081789329983;0.0035689997019899;1.2722374594650545;2.541985634860507;160;1.2566370614359172
368;-0.3872649657105167;0.1101382016433532;-2.065802144745532;0.8286174182232352;-0.8374511120043522;0.6898558696406426;87;1.256637061435917
369;-2.384634727809756;-0.0586146677685171;1.6062407678446835;0.2660264034083222;-3.087237963604061;-0.4450663333714083;246;1.256637061435917
370;2.083154532194961;0.3362871184125781;0.1951712442933558;2.2894692140908965;-0.4547940314988694;2.133438670382584;181;1.2566370614359172
371;2.374620683665706;-0.6646253043003663;-0.301828181366449;2.4186162527478725;-0.3630908319737045;2.6027590782883547;370;1.2566370614359172
372;0.159380390624763;-1.1578448305357054;0.2539623579729198;0.6542470121659782;-0.8040818898957947;-1.4889805671441876;32;1.2566370614359172
373;2.2040034079702573;1.2339464358445185;-0.0552816858753927;-1.1410390660478889;1.2928400518772611;1.7836226043774626;160;1.2566370614359172
374;0.6208631385305629;-0.473398495751348;1.640415210044822;0.6253045439497436;-0.3026102343628155;-0.2221721120217751;319;1.1401658554674228
375;-3.069198587891916;1.417775996830092;-0.2522335942624029;-2.688258417103431;-0.5317622879793746;1.546125877345295;85;1.2566370614359172
376;-3.064764405742941;-0.0715814172027954;-2.541363011091346;0.1820271657045003;1.1732042586348264;1.7367315775596857;333;1.2566370614359172
377;-2.016654172644231;0.8995387894093518;-2.129691374957368;2.700134689200936;-1.6508642004988558;-1.140482419142931;276;1.256637061435917
378;-2.9698054374941383;-0.536983045035818;-1.0534697498157009;0.980075244487226;-0.2635488678631262;-0.3718511749796987;26;1.2566370614359177
379;-1.8356253568926677;-1.1717566266201958;1.1938775614444537;1.937919675833109;1.254812859961767;-0.8059070329636463;108;1.256637061435917
380;1.2418886797521955;0.3816203998757729;-2.043833411539891;-0.6629993439012629;0.4920643803149693;-2.219917627993884;213;0.795054469461221
381;2.2388711546625006;-0.8653669588905067;-1.516632029136981;-2.6087642970698117;-0.87642522718502;2.314676675151053;168;1.2566370614359177
382;-2.7887166549547717;-1.2812042151385097;0.6028452998644839;-1.0437557174739398;1.987057802779152;-0.4436370115590566;460;1.2066843793669109
383;-2.8800854905820814;1.4318932196219565;-0.8921406236157048;-0.5790614120750557;0.0016383490677282;-2.365142521086294;284;1.256637061435917
384;2.6655408506030978;-0.4617436039068949;-1.311841931394491;2.3764863020676383;0.0633347457334833;2.1031595436849515;371;1.2566370614359177
385;-2.30252026330353;-1.5799879068678642;-0.5711710824164445;-0.3332137447189943;-1.4051341697391544;-2.15604614253917;351;1.2566370614359172
386;1.2251110667310678;-0.2285623598518904;-0.5785112351646244;-2.981225854405667;-1.6255179823182606;-1.9407748712315944;174;1.256637061435917
387;2.181622214912573;-1.3183518685235769;-0.4352488127184481;1.368032501066533;2.519725900401397;2.879876902897889;347;1.256637061435917
388;0.3409571560281238;0.255534018482994;-1.7091061601785065;2.2821354365922284;0.0624772262095012;-3.007228312424944;265;1.256637061435917
389;-1.6587364134205589;-1.3324916744431925;1.4964043660325042;-1.551082867245261;-2.6333787046760606;-0.3607315736151938;249;1.2566370614359177
390;-2.759368785711308;0.0598876543934082;-1.0095273037110597;0.1174281069590045;0.8986640600783274;1.7041034269195183;33;1.1548338837210772
391;-1.7118160320460931;-1.436219290574404;1.6570224440512782;-1.1661707566472024;-0.7566922936973534;-1.190126653931597;271;0.9445942702457244
392;0.4373909559701627;-0.3775323990504574;-0.9083480493883764;2.71658507372923;1.4017591476329114;1.6345696306792172;190;1.2566370614359172
393;-2.7201026076371844;-0.8682144194446159;0.8824856903759817;-2.6765508258556543;0.1705817052172911;0.2299554932017494;137;1.2566370614359172
394;0.0591022887612485;1.5521862561250184;-1.8656455130334435;-0.0357681138119408;1.6002139239425068;1.734491890052273;241;1.1917904633695948
395;-0.0553750576188014;0.2710211222803015;-1.741854304587397;-2.588718448262142;0.5804152665226348;-0.8507503679220807;75;1.2566370614359172
396;1.2715896480002724;0.2761052435001739;-2.1047808519403395;-2.201748231233629;1.269574826365273;-3.0107904909016905;317;1.256637061435917
397;3.088587153301518;-0.2702477506739387;2.6301358921709936;0.3388502166096805;0.4449946498185215;-0.2241641778413283;236;1.2566370614359172
398;2.322008350382837;-1.4613853641907448;0.8799528680207556;0.030687355302783;1.4590504521572591;1.3329116974332418;126;1.100389221480402
399;-2.187696471203094;0.396729324196442;-1.3533866770017218;-0.7632208466149157;2.557668595346093;0.1616701555385142;341;1.2566370614359172
400;-2.171154965862963;0.2552971943472679;0.671442000739048;0.1378212308066257;-1.165137772175052;0.8505841328008024;77;1.2566370614359172
401;0.1435402662342408;-0.6452308196840303;-0.7428412021329194;1.3573369916918625;2.3066323481599778;2.486400614110743;47;1.2566370614359172
402;-1.8993763073481635;-0.7801125161266188;0.7097760245053657;0.0071302868608408;2.703806369744831;0.7838483822620089;307;0.9001941526055087
403;-1.1900773430044087;0.8985030037668329;-0.882167667049853;-0.5117023000565142;0.6876018360458915;1.3838132401440637;241;1.256637061435917
404;-3.367586192059812;0.1271968365418647;0.4495562307882583;-0.4792094492865717;-2.208812529035201;-2.546763588973953;267;1.2566370614359172
405;-2.4223703657078026;-1.0773515428101688;0.4818188191353946;1.5030834894487193;-2.52483153608816;-2.986295607354999;64;1.256637061435917
406;-2.758315560271668;0.3336485463045717;-1.2035328584897085;1.55860133630117;0.1626458356924793;3.173935246875762;332;1.256637061435917
407;2.074322250179059;-0.6196518851512265;0.0109175994414332;0.6933687137466483;2.6287773159817687;-2.2580491004047256;239;1.2566370614359172
408;1.6815741213029152;0.8707806830462919;-1.4463634617799717;1.14745430792913;2.168823894097264;-0.9643157275649482;256;1.2566370614359172
409;-0.8350491948272066;1.781471421209986;-1.44517668236427;-1.8085477529322864;0.6323182903180247;-0.8643724929332536;75;1.256637061435917
410;3.259981212057036;-0.4326717294200384;-0.3779571317409142;-1.4532453939939456;-1.5520967431604402;0.9833243139562228;310;1.256637061435917
411;-0.6752726957771048;1.100245105601659;-2.5549267778017355;1.6124273498302433;1.7626952227053456;0.720195339286694;179;1.2566370614359177
412;0.0544483711981547;0.8047010923934563;-2.746945588133385;-0.1024632608121299;-0.0630562328491412;-0.5347243470956662;228;1.074600755848103
413;1.6401421920988928;-1.7456810403562704;-1.1082504053553188;-2.887222484410904;-0.5254516930011088;-0.6963211269358487;302;1.2566370614359172
414;-0.2342089398221683;-0.6126173897614141;-1.577263222927267;-2.567409785444741;-0.571233692224524;1.8999877573811643;242;1.2566370614359172
415;-1.842894431902473;-0.8884611477844822;1.9101652215957603;2.682823353761965;-1.1444029311592647;2.103898481444181;273;1.2148394235476214
416;2.192547680307936;-0.7369093750753837;0.8257110168480878;1.0626766407297927;-0.6634184496064175;-1.8000377825161291;42;0.765042427673376
417;-1.7877855503105131;-0.5990906608975687;-0.238096614481451;-0.2155512582235897;-2.11174871983384;-1.9007445946671813;43;1.200879946567291
418;0.8059846553378254;-1.2018468235873978;-0.3044412926922879;0.4275856990856592;0.3000370630052709;0.3396473646450295;99;1.2566370614359172
419;-2.3328641702987256;-0.2124367159377164;2.07280995410949;1.073548572550536;-3.1235174137557253;-1.270717732761654;369;1.2566370614359172
420;-1.4514111840190007;0.4154964074220199;1.5355754843022844;-1.0194085744888235;-1.2601825153189004;1.0068847149481774;93;1.2566370614359172
421;-0.1430952221701014;0.622731516666768;-1.4814012048930756;-0.1765385176086452;2.184095189653723;0.0894951148262038;44;1.2566370614359172
422;1.0876607511630736;0.6673607180713513;2.1122219702277283;1.2138212394279746;-0.4917994318705701;-2.053660291260376;354;1.256637061435917
423;-0.098282084204111;-0.6069486063772129;1.6899419924165373;0.9828452554817994;-1.521951738047353;-0.530562596055089;106;1.256637061435917
424;1.3282106954273285;-0.6397612695029213;-1.1517413136019188;-2.5113428969727423;-1.7822594587976766;1.624213464026778;168;1.2400160695373568
425;0.1841739528417181;-1.5255854677214316;-1.2458494799631532;-1.2921284967404394;-2.71923563072515;0.2662957077997862;170;1.2566370614359172
426;0.7189362426844079;-0.3059320759123967;-1.8060451194276232;-1.5983261285732553;-1.0875796726895888;0.7492996200929936;14;1.2566370614359172
427;-0.8452353929614351;0.8888398490331628;-0.9648034698531348;-2.0506909246602016;-1.8007113546891849;-2.400791155174816;303;1.2566370614359172
428;1.1984236645806852;0.3554092794672208;-1.320342018340243;-1.9234611598612168;-0.2036313912865869;1.7015529353084924;14;1.256637061435917
429;1.6167076682349857;-0.6681305301383827;-1.784977717300858;-0.5226260334050006;0.7811648623486978;-2.627815151312752;380;1.2566370614359172
430;0.0041073109784401;1.0177177473699268;-2.237918764236077;2.2166978598629923;1.6987827235248183;-0.0804587734404189;411;1.2566370614359172
431;-2.924016226543482;-0.0069821911712529;1.8733259034902936;-3.2571173811482974;0.4395629718031686;1.8333631149311709;295;1.2566370614359177
432;-2.5193957641948423;-0.3572957523165939;-0.9148938109250788;0.1388685462371554;1.3826115208697145;-2.39488053021622;219;1.2566370614359177
433;2.3457089340701094;0.467579825018989;-2.362531232507479;1.43389943124618;2.267838125464176;-2.4911108097104435;256;1.256637061435917
434;1.3876528103795496;-0.5090846876014361;-0.7155315471187271;0.5977628099205881;2.4101192710936648;0.5715931805917887;153;1.2340137945984468
435;-0.1548664300746438;-0.3114380323558974;0.6195183981742127;0.1887721486170235;-1.1105681604957591;0.3491602692960869;1;1.2566370614359172
436;-2.840293129684187;0.591054006536367;-0.4550373670658418;-0.7603316217479459;2.834802208340764;2.0637399599968886;120;1.256637061435917
437;-1.053987177339715;-1.3189310808899088;1.4160620710918246;-2.0471972258619857;-2.445032759273883;0.0029928120896701;249;1.179089522933808
438;-1.73655786649162;-1.2252832050503348;-1.857487558046537;1.7715293448787215;2.884236322435971;-0.3428197758524842;250;1.2566370614359172
439;-0.013924128415318;1.089578130528127;1.171051650301392;2.865033514246792;-0.3380037592105671;-2.2229561571046683;208;1.2566370614359172
440;-3.018587197776277;-1.450557432038745;1.068200426453508;-2.5925096554078397;0.6616219767248018;2.3193553467632797;152;1.2566370614359172
441;-2.605175975192941;0.1186149458923196;0.625143316718434;-0.1840145364587814;-2.211799450982498;0.6390364050736057;123;1.1811399655970147
442;-0.3163915925664384;-0.6337094986196179;-1.869190476851974;-3.2949123917456262;1.7418736414554057;0.6244099156766321;117;1.256637061435917
443;1.3106810851029187;0.5816930817094527;1.35958244579245;-2.926561907618959;0.8157478649622809;1.2804839665990286;361;1.2566370614359172
444;-1.8993856584655096;1.1107600081684486;-1.9209307018921669;-0.5090389809620253;-1.7922156776521914;1.462581295444589;185;1.1623039582306125
445;2.610013186297702;0.8426759819193611;-1.4825701914463447;2.500029690539299;0.3582287932701242;-0.8258843445927051;142;1.2566370614359177
446;-0.0703067369173364;0.7674526578956422;-2.7334526483785604;1.0089090573137396;-0.5912223759242708;-0.7535746559606458;412;1.2566370614359172
447;-2.986334434336128;0.1695265358024962;-2.414293081580696;-0.3518597195715015;1.7676273269193885;2.6642722189294465;376;1.2566370614359172
448;-0.2545661327597424;-0.1579102561944841;-1.433750570419856;-2.4256254017061045;-2.537982980005528;-2.598932920496778;303;1.2566370614359177
449;2.2179944470624826;0.5720526952697923;0.5337224973326391;1.7751106076439067;-1.256033529044635;2.8292856614043527;370;1.2566370614359177
450;-3.1950433296938834;-0.623666074333753;2.1151411765178936;0.2241933630895164;-2.504299155980614;-0.4955066690328452;369;1.2566370614359177
451;-1.2785888926073803;1.4506972702876983;-1.3174649291481506;-1.0932006215938803;-2.3977127241343013;1.5409924103420345;444;1.2566370614359172
452;0.6827892377815945;-0.808659245445573;1.273274267208481;1.9991875569586173;1.8406987158315176;2.881681088591293;192;1.2566370614359172
453;2.611527147882264;-1.2283169234920306;-0.9171155815542532;0.1489262424950411;0.9081047212599054;-1.5845032447979943;205;1.2566370614359172
454;-0.427948482262049;-0.7169087545779099;0.9432809964976852;-1.5028414616077768;1.3621795607749057;0.1214024443712217;98;0.8926301369513935
455;1.0703303090299372;-0.4626580466467656;-0.4513346607941633;-1.855168840646369;-2.076524190990038;-0.7504899313650588;55;0.8140709349526231
456;3.019209662383219;-0.1489239629025809;0.6229018289603725;1.534450817692073;-0.8242679579287298;3.235600742582936;449;1.2566370614359172
457;-0.3771002716231875;-0.2001371188609951;-1.9707654207118457;-1.338842234161408;-0.3298190818568789;2.8120042763020314;242;1.2566370614359177
458;2.30107354200261;-1.5698256169641702;-0.3655488228258343;-0.399648682197017;-2.5256266708961768;-0.8895423470733193;330;1.2414029448440005
459;-2.4597203955876523;0.1825885563213304;-0.208653866305848;0.5872836635329873;1.8564466022684207;0.3754143842206466;19;1.0976658287827614
460;-3.1067259073531552;-0.6661833533713734;1.2201025270423798;-0.7281055852347921;2.007933067457468;0.2603724906687266;86;0.8510941762455846
461;2.9144854062235885;-1.1625626376837253;1.876732833598619;0.5820144844780221;-1.5709665719115615;0.8585513217884966;159;1.2566370614359177
462;2.697066810788847;1.1231171201481762;-2.110273661956783;1.0026835786387376;-3.164523115920708;-0.5523379280250631;198;1.2566370614359172
463;0.6877879844643635;0.1457669232285244;1.365028076714907;2.912824274709487;-1.1217479289095773;-0.2909141583633943;200;1.2566370614359177
464;-2.459866411936566;0.8610949799350937;0.9402112247496556;-1.0973977961204002;2.828904900339684;-2.4995060250145555;355;1.256637061435917
465;1.606675687368198;-0.6280096577023142;-1.2850310945866374;1.8612031548848575;-1.257184922027426;-0.9640781512512956;115;1.2566370614359172
466;1.6687856739947122;-0.2023810319129892;-1.507523936618374;-1.8157733497482127;-2.1260549875239847;-1.573177385871778;174;1.256637061435917
467;-2.769626117575815;-1.0538588294595646;-0.9628391491124694;-1.0960278479785288;-1.933996521205718;-2.4190145847229343;351;1.2574216386560662
468;-1.307704498289362;-0.4482132007530924;0.5715756163395486;0.5846311971815732;0.917111256721188;1.4822982265213165;21;1.0633966382071176
469;3.203560043520329;0.8183532734112312;-0.940507262393828;-1.603874681391724;-1.1719439221010215;0.833066516973265;310;1.2566370614359172
470;-2.3480635158932617;0.4166636126997777;1.8624113447611244;-2.991485084265717;-1.4289381020952432;2.45249354428349;295;1.2566370614359172
471;-2.3430068876008137;-0.954740563368391;0.9321592729330332;2.179750835359165;0.6011905801844067;0.0428590466371027;579;1.206602604764857
472;1.2524902470448178;-1.1789419063672553;2.02598555249052;-1.2379882039803969;-1.4768354097630056;-2.0312724059651748;136;1.2355057139526944
473;-0.2193283233230243;-0.6745695836390482;-1.075766136151644;-2.270461753795655;0.2776562440521469;-0.4854156851329528;114;0.8463940785083494
474;0.0153461368347833;0.8747578976255004;-0.5903591831297945;2.5358415093357065;2.0105716517456247;-2.058788051580554;331;1.256637061435917
475;-0.9414836499124144;0.4534740972779871;1.8611919292252013;-1.3670292089279494;-1.3033268938581457;-0.5854391925990564;112;1.2566370614359172
476;-0.9156316569757558;1.4474092604686573;0.9702098346506662;-1.725902769195666;-2.6610320815167188;0.3075311944679118;251;1.2566370614359172
477;-3.2965602744029376;-0.1476462790172271;2.366046129259588;-2.752664536742049;-2.231701254990667;-0.8241928527552417;270;1.2566370614359172
478;0.6118815009867616;-1.3507065585196745;2.1336015327037026;1.215919201101696;0.0551803739284607;-0.5210266851523588;374;1.2566370614359172
479;2.207800770159377;0.7422220874025207;-1.8728336091351985;-1.6389287482660542;-2.404124964717078;1.73096559127897;166;1.2566370614359177
480;1.9174023439957164;0.4519813026024186;-0.88581491220002;0.8110335966307778;-1.040353252361439;-0.5662167297505327;203;1.256637061435917
481;-2.804517144110122;-0.260306686030776;0.5456825468751191;0.0373085526620268;0.520297969525563;-1.4137268468043378;80;1.2566370614359172
482;-2.45913197639526;0.9104937236556644;-1.2026576700459095;0.1212879388267286;2.315583525112422;-0.4530048856436521;399;1.2566370614359177
483;-0.9020670203784308;0.1800773568744113;-0.9807228473680872;-1.9040616192586048;-0.947535062099186;-2.969912613202635;427;1.2566370614359172
484;-1.9880010405760475;-0.5628015760478168;1.385690364741594;0.8255993895736493;0.6602560463063931;0.5709355564945793;56;1.21345348137929
485;-1.430183262835728;0.2330008061497852;-0.6310679480340382;0.1405792695472699;-0.0805488613961769;1.3799574019991088;403;1.2566370614359172
486;0.6371113182771149;0.6208571366300811;-1.1150589625800686;2.906410805138252;0.7423420617154717;1.4646499056308464;392;1.2566370614359172
487;-0.9268917828933946;0.1945108077615057;-1.1794226853342191;0.8527727097969523;1.5433118973528617;-2.8149583774328386;20;1.256637061435917
488;1.6892471193587233;-0.0133222696409508;2.343898417704864;1.762533930502319;0.5264965081151505;-2.943520699239327;354;1.2566370614359172
489;2.2626042195663536;-1.1792517318434024;2.46759284533281;0.7389018257798947;-0.26707195881227;2.374178806051841;281;1.256637061435917
490;-0.6698338701632576;0.6255840006501372;-0.6048115945272436;-1.455787717296161;0.0107996200820217;-2.71288309310279;483;1.2566370614359177
491;-0.9727503371524584;0.6300002205055604;-1.5242743816761732;-2.322775869703446;-0.8865299206903374;2.7276988597811047;242;1.2566370614359172
492;0.2522356744443708;-0.7794812055083293;1.7069076749733632;-1.25659971827183;-1.9638098125410328;2.021578566645381;231;1.2566370614359172
493;-0.9539838343354998;0.7997872175777831;-0.9529513063681884;-3.104399138188661;-1.1424135819856116;-2.2759605542759163;427;1.2566370614359177
494;2.6394909730713905;-0.200984853269181;2.341486382573533;-2.8069475977248164;-0.9788141665033332;3.091959856519312;359;1.256637061435917
495;-0.4410993314571096;-1.4273897790385215;0.8307222675807457;-2.2244972440516597;-2.743714201625307;0.5134135059242375;437;1.0541312401968008
496;2.3393120563393315;-1.2464229195938687;-0.8075265467614332;0.8012604825328087;2.6371356471933094;0.7401247730620444;434;1.256637061435917
497;-0.1339730267580751;-0.9982327682532598;-1.94024277700388;0.5253185112932847;1.3781149420984915;-1.179160132303378;62;1.2566370614359172
498;-2.0452393558258266;-0.5841335479499146;-0.1122794380383546;0.659818252020392;-1.868224792619221;-2.228545987380395;417;1.007653499346726
499;-0.9610109282318504;1.02088873672585;-1.624217019226097;-0.8572416998356464;-2.8653152425543773;2.5028239925005265;451;1.2566370614359172
500;0.5224738668629749;-0.7093907048536041;1.61783476308858;-1.010988143081667;0.4842403085923235;-3.1461114928899345;235;1.256637061435917
501;1.9224582949513545;-0.2225160344639785;-0.5848243439150745;2.8756348991829768;-0.4883455122598104;1.942018655872608;370;1.1523171855654033
502;-2.4902581924327944;-1.272195297153557;1.410833220579227;-1.0918436428588714;0.3262921199190762;0.3226411874194481;193;1.2566370614359177
503;0.8803742184196659;0.0498726093811556;2.4532590923250144;0.4664184777954744;-2.748843320116304;-2.607098818658508;167;1.2566370614359177
504;-0.5842007470613882;1.3760339454536608;-2.6735682448714204;-0.4644793217752388;-2.9837016194324635;2.185395708206406;204;1.2476749730363974
505;2.887421031704742;0.9143723015791207;-1.4493004316095088;2.14872156146508;1.179886655530135;-2.3552322997422244;357;1.195720636485154
506;0.3836550664032335;-0.6519065681001496;2.543190974146362;0.1668317224920382;1.4929357770673153;-3.1215680475935383;233;1.2566370614359172
507;0.988754683079121;-1.2320475301896392;-0.7926061614278361;-3.252111808341548;-0.554415778669306;0.1144792238284517;413;1.2566370614359172
508;-2.797528020450052;1.052102058754664;-1.3080633996150504;-3.065153681440494;0.1464023977832464;0.0486361792904091;222;1.256637061435917
509;2.6225888173433067;1.0466101872358111;0.0836324951834617;2.7839965861486835;-1.0333890476371157;1.69546825230513;370;1.256637061435917
510;0.6997016326836403;0.8701330791667865;-0.9283855088349976;1.861681740587224;2.745484478941726;-2.102637980700835;474;1.2566370614359172
511;-2.6280830147495635;1.3494968703098125;1.0775913849358454;1.7083824162034495;-0.9806800769249056;0.3445423399956135;320;1.256637061435917
512;-2.251245470590988;0.8980692829620932;-0.3288318758633706;-1.3040144490161385;-1.171750080440192;-0.7319893941816017;340;1.1375585384821183
513;2.681179982194473;0.8597913599596816;1.1402831595360163;0.0134468957267771;-2.80745503309841;-2.467644559158616;210;1.256637061435917
514;-0.6526021723609372;0.7286139682546439;1.523149893763172;0.979517061981961;2.4611716568759587;1.835895953049368;82;1.256637061435917
515;-1.381586470436705;-0.655172524012578;-0.1925688693695687;2.4749906799173407;-0.672976352764163;2.19113106825089;102;1.256637061435917
516;1.0552097924450838;-0.7272839589678657;1.525689597164063;-1.2179612388584178;2.849343030513502;2.566700859105796;130;1.2566370614359172
517;1.6263269340591635;-0.9103845089797454;-0.9058081448167448;1.623663747144091;1.931933396115817;1.5151254883868863;100;1.1627096567539923
518;3.275458202142349;-1.293954175640115;0.9177636837540858;-1.6392984528426;1.3906357617587275;-1.2725620857614306;218;1.256637061435917
519;1.1676736860946022;1.2672928652221114;-1.8215413970306216;-1.9161038240980264;-2.653355325719313;1.448122269068963;479;1.2566370614359172
520;-3.206577065016845;-0.1472286653359331;2.120576318074074;0.987318382584081;3.0103606393438023;-1.330788137230501;248;1.256637061435917
521;-1.5527610176296318;-0.8218938703379035;1.995581983099299;0.6243691792951189;-3.1492813947972342;0.7396510063429924;246;1.2566370614359177
522;1.3744750382264046;-0.7014939471727741;-1.953951828060235;-1.7059057773930353;3.056787938437912;2.7022341491824284;258;1.2566370614359172
523;0.1866998838432791;0.265084437416874;1.7947698782844632;-1.2806532133453432;0.3141334928064044;1.8081690216618096;288;1.2566370614359177
524;1.911334072352449;-1.13611502476907;2.130465304001715;-1.1338705399797366;-2.6393759693343424;0.1582282548857763;119;1.256637061435917
525;1.461833172299162;-0.7592371829872903;0.0069725722107187;0.7030327583104985;-1.3408537069750237;2.5452417871681026;28;1.0216454529525354
526;-2.789475459775672;0.5940364452825235;-1.6157573482246108;-0.0820719592661408;1.2806252927519073;-2.620125100421001;432;1.2566370614359172
527;0.8835679633877945;-1.2382774553802414;-1.1960127449847189;1.1527372552410682;-0.5199330232419117;2.530753942453563;158;1.2566370614359172
528;-1.5567611675205444;1.3148390681789353;-0.4491768843006516;1.1662757110609336;1.0238153740790088;0.2698880873229326;19;1.2566370614359172
529;-1.355707177237836;1.3808681598331911;0.0797220431944222;-0.6088316564950464;1.0888157962594875;1.8564534309583056;403;1.2566370614359172
530;-1.5014252442640983;0.1256309678605325;2.0375802568127384;-3.212732792943427;-0.7265835096217129;-2.675427271448555;162;1.256637061435917
531;2.611466588141709;0.5979130979590164;1.919607618561927;-0.1163923712555684;-0.5197989156811551;1.8501942864895813;157;1.2566370614359177
532;2.508245020816549;1.2330267246125457;-1.122960807716935;0.0414602508463645;-1.1305776567090255;1.5242893225138994;277;1.256637061435917
533;2.0329283061280066;-1.3622283720650237;-0.6452391994807938;0.0073326630360555;-2.641863894763721;0.566577169495431;326;1.2566370614359172
534;0.7388492751751359;1.3865697166174766;0.4463984724711453;-1.3405864302956498;-0.4691852080064033;0.4860219365804775;41;1.2566370614359172
535;0.2922925445623928;-1.2864559149486152;1.8606540616458629;-1.1294787637468695;0.8417283785672247;-1.518872297610625;121;1.2566370614359172
536;-1.439207949820294;-1.051825135219263;2.266595544582339;1.42630257889021;2.732172856658668;-2.275098670115174;349;1.256637061435917
537;0.773743939152185;1.314624776217054;-0.8008838337206623;3.3395039254378505;1.6006407577811068;1.7017203155018183;486;1.2566370614359172
538;-1.2841361701897516;-0.3281129080338653;-0.6939576705269734;-1.4843630126671028;0.4512661505016958;0.3879222866744553;8;0.8771193122719686
539;-0.6166719763398785;0.7834293106833743;-2.018580091768789;-0.930360967446917;-2.9333442142155595;-1.9660818781106408;161;1.256637061435917
540;-2.4244775760299704;1.2620615144832965;0.3673261189439635;-1.4401564824123287;-2.9056399914479933;-2.3540213436627915;79;1.2566370614359172
541;1.0511715627022986;-0.675883115373854;0.5887894100354876;2.596257817527752;1.0730705872534938;2.7742738886274747;452;1.256637061435917
542;2.303718785723758;1.3164061546164478;-1.8166936381484835;0.543804955799776;1.637738256360235;-0.5061653970739831;408;1.256637061435917
543;0.7451788328753455;0.7960644716936194;-2.2056634812621034;0.2507814429610263;-1.072340587475645;2.3393096384070176;201;1.2566370614359172
544;1.95868270132131;0.3749031474087431;-0.9076304442595612;0.3646274532198583;-0.6744883977878271;2.919256874201328;143;0.8751308490581339
545;-2.0288736521587216;-0.5125687246917174;2.2652800195754224;2.239957424290923;2.830389062807796;-2.566402135268095;536;1.181119463398964
546;0.0823853015994098;0.5686690852808336;-1.0488775901902498;-1.5113438346476018;-1.392264109088107;-3.2898040728983267;483;1.256637061435917
547;1.120609384637297;-0.7637401580301783;-0.1666028936103558;-0.9174409777205662;1.2871993411342475;-1.0401722724150206;116;1.0583304819302302
548;-2.967513718567379;1.5963174836513208;0.4405051201573931;-1.899319707424268;-0.8193969206313287;2.139316346774274;375;1.256637061435917
549;-2.298932622691798;0.3508992173917173;2.1894241467296625;-0.9944789290075202;0.4060084998776987;0.0537832315689361;193;1.2566370614359172
550;-1.5088701250249008;1.0828556171449846;0.5712620071045804;-2.494441149698312;1.6906647509191564;-1.420876044875952;311;1.089608405273792
551;-2.930337977895714;1.331070576802703;-1.726445679168588;1.4579705141100407;0.4693331076787852;-0.4148519359390832;272;1.2566370614359172
552;2.3081325875752348;0.0763503330077766;-0.2450683367840578;-2.515387258419557;-1.5498886910370533;0.1029699284090489;296;1.2566370614359172
553;-0.3413996980738079;-0.5523318778848136;0.1649371422101903;2.281305253761976;2.254251721829187;1.3065111552216655;294;1.0366506353029108
554;3.0257325754992026;0.1456614621710061;0.172370263008172;0.5413286846992396;1.2157751070822056;-2.983056724444994;262;1.256637061435917
555;1.4684504655440946;0.3287284873869348;0.5829002520260751;3.0135922072465027;-1.1525151911960925;0.2689100337188742;463;1.2566370614359172
556;2.9069059156983865;-1.0422911501132066;0.2440168629890546;1.5988621263910665;-0.0771617216955305;-1.7225066759167649;416;1.256637061435917
557;-1.172454304159722;0.1250647162744238;2.447389406155968;-0.6939443894587045;0.2400088133014561;-0.219637871640817;549;1.2566370614359172
558;2.5092907476530937;-0.0576117972110664;-2.2160636896531485;2.0107403108157094;-0.2283478772671459;1.507395981914501;384;1.2566370614359172
559;1.94279187857028;-0.6663956506156733;2.7369181674365275;0.1638616483014982;0.1752388296983481;-1.607376028861781;335;1.2566370614359172
560;2.47858138787836;0.5536685200289614;2.0160977433345333;2.631332710991797;-0.1889679007813581;1.3174730612459298;243;1.256637061435917
561;-2.769160361610855;-0.822849910993447;-0.968175463998202;-2.617095630622441;-1.2828454343175495;-0.1319138885011523;164;1.2566370614359172
562;0.6177110883088961;-0.0232210274506557;-1.459041533152292;-1.438438016468381;-2.990690119868473;-1.3327822822176152;191;1.256637061435917
563;0.3097964661976785;0.2745428925793007;1.1128210736567317;2.417594195975741;0.6922641716870402;1.8476979007712688;299;1.2566370614359177
564;-2.520993148072917;-1.4110169188063084;2.2209597898211397;0.9063077407218804;-2.3429133108854083;-0.5439701650694712;450;1.256637061435917
565;-1.576849862715658;1.36146320880006;-1.1692967917400576;-3.180010760616985;-0.4551412171541078;-2.868268671559965;493;1.2566370614359177
566;2.4499110602955336;1.110184524361505;1.6460534986833508;0.1147379212836804;-1.251196612838277;1.058096539207316;531;1.2566370614359172
567;0.0844541033389264;0.2046508764130332;-1.2137695155721688;1.669916204470303;1.2835971992908046;-1.1088353053914777;15;1.2566370614359172
568;-0.2431734134630842;-0.3349422320404185;0.0113532653859591;-0.3567482878677439;1.9220307055405972;0.4901901930175896;180;1.256637061435917
569;2.233498865970478;-1.755415483229203;-0.4790640309851338;-0.0030270093600965;-2.876493003796292;0.5709874569636062;533;0.5268931891179102
570;-0.4122663942391321;0.5403574867397092;2.09152825345699;-2.43634813862084;-1.3864927554749087;-0.882260217644396;475;1.2566370614359177
571;0.3983937895290408;1.6927223973344592;-1.0080506703126952;-1.8752948438295505;-1.6427168583950222;-3.427374917503424;546;1.256637061435917
572;-2.795613456511552;-0.5037392451540538;2.5402547712329877;-3.087543347013717;-1.178480654791522;-2.014838469556931;206;1.2566370614359172
573;3.2069497893933234;0.2247001266988502;1.8352409858170529;-0.8583228744204733;-0.031602073945653;2.3880918443543;531;1.256637061435917
574;-0.1696353773288306;-0.8564969743014892;1.0677128241771543;2.0252195500773467;1.3407517480326256;1.147611882604481;173;1.2566370614359172
575;2.1858264853963973;-0.2960846157536747;0.6114846026922183;3.266048396551411;-0.4048525527753345;0.4937796024633332;555;1.256637061435917
576;-1.131206927120155;0.4546411228716148;0.858209966564808;-0.9440371409262484;0.9739464566450322;-0.4922091327223143;5;1.2566370614359172
577;0.2873424672841844;-0.116001230806422;1.839628638041917;-2.958166310854166;-1.455245528770759;-0.3179882849749733;570;1.256637061435917
578;-2.646667701927085;-0.7053936679953361;-2.0611366068689003;0.2875998114190482;2.157672605981733;2.7761406458017523;447;1.2566370614359172
579;-1.9488023677594335;-0.277752890341747;1.1972317834082873;2.455260262294192;0.7567341714957858;0.8625038745925854;266;1.0623595490960536
580;-0.6394518759454699;-1.0192098634239566;2.180190066266027;-2.012079135465648;-1.7142546303979207;-2.286872722763895;315;1.2566370614359177
581;2.922079814863161;0.1858968076972587;1.4786366875800576;-1.6175808641460303;0.7908487264280907;-0.6977366349915173;216;1.2566370614359172
582;-2.8472462438317643;0.0089372211962972;2.261418210080045;-0.5506634674865958;-0.43534003081409;-1.0842974266253644;193;1.2566370614359172
583;1.2499405451226524;-0.2588996984602364;-0.6684617827358948;-1.1434720113953436;-0.9018897740490528;-1.0557886627786637;2;1.0729709820604303
584;-0.7415668737682654;-0.7836145385981657;-2.1338818265060464;2.78810874648964;-0.6792432991159022;-2.7638458545001714;176;1.2566370614359177
585;2.698846281521776;-0.1786233367566383;0.1004698845581354;-2.4900053345578863;0.8435897341262859;-1.8231632436142189;218;1.2566370614359172
586;-0.5260372317729549;0.750514164925376;0.5091858005245411;-2.229665188992336;1.2406266739969452;1.7865444176164051;83;1.0853548218250373
587;1.9406125985078244;-1.1521614476712505;1.0892030735586542;0.8797253896303657;1.1148037016253567;2.0073725907206628;398;1.2566370614359172
588;-1.682652521076465;0.8855954292506418;2.0453498586191023;-2.175959768911173;0.9619866669382164;-0.3050674554263703;311;1.256637061435917
589;-2.289663959068554;-0.184949625763574;0.2876557979096329;1.0031974317458587;-0.7297550795672507;-2.9875639119741675;64;1.2566370614359172
590;0.4222570806318395;-0.6949420721954521;-1.116385594273828;2.569485987750345;2.266369520198005;-2.4873856688275797;232;1.256637061435917
591;3.03578745067992;-0.0169810361213014;-1.556562909254716;0.6511940088934574;1.5120111392309323;2.659697721823532;367;1.256637061435917
592;2.096373766110581;-1.0132913394162544;1.413903429415958;2.982648619146837;-0.1261295651291051;0.9986276187650264;575;1.256637061435917
593;2.345406219407724;1.3235291396749216;-0.1919556207259746;-0.9806537243665386;1.816027683315761;-0.4854155060227127;128;1.2566370614359172
594;-2.77561006791328;-1.006335506468329;1.47743492053265;1.266557022257155;2.757953275238297;1.3364973428933122;292;1.2566370614359172
595;-1.6248754111311496;-0.5984420865217491;0.5438434375514156;3.0619010088437446;-1.3441660426441162;-3.1834673691793944;260;1.2566370614359172
596;1.7850908354674768;-1.2242194722582525;2.5370137859175443;-2.5816602105899884;-0.6870481333956844;0.3737171015247182;343;1.2566370614359177
597;2.633509308931421;0.0184335959417218;0.8524345224225824;1.4786851353895951;2.3115917457567763;-0.2313286026019466;286;1.256637061435917
598;0.4518882914670096;1.0820150531109478;-1.9790860507431949;-0.8342936860565905;2.1576536269397826;1.7784910324972272;394;1.156947966074263
599;3.3140034981918944;0.8107820956760049;-0.3224430349741649;2.5877546985124056;-0.1307714004908413;-3.3017034692636598;350;1.1107440843066894
600;2.858805782104198;-0.5874624933220074;0.2663435458696644;-0.814940163484424;-2.197098181287306;0.5887980000858934;410;1.2566370614359172
601;-1.4368620265455474;0.2390459100958147;-0.3844945593820922;3.317206663383431;-0.6722395045362966;-3.276765453966591;260;1.118660730841098
602;-0.6922664304952886;-1.398769357287649;0.8661207155639115;0.4174596983593024;-2.352900103109952;1.2816709667641226;230;1.256637061435917
603;-0.8869772682227185;0.6396499862276332;-1.2910491089942435;-2.645889321646151;-1.795090330419966;1.961273248211251;491;1.256637061435917
604;0.5909549739805917;-0.8148047730127657;-0.0310647934107653;1.7845325159235932;2.732340844301954;1.6631486856953943;553;1.2566370614359172
605;0.6482530550647984;-1.076103298735873;1.321630265129438;-1.2743825126103825;0.6233922671110981;-0.9392930923224873;535;0.9306355734650216
606;2.863815389948789;0.0166958230355365;-0.4248578513869218;0.4562099472416916;0.5389011686975222;-2.137951734183174;554;1.2566370614359172
607;1.6385728116403913;0.3442041234362932;1.2671880880161448;2.7003613523593595;0.1945497243442533;-0.6029572935813374;229;1.2566370614359172
608;2.552130786062595;1.520495779331181;-0.8818890659413889;0.1446771017865127;2.0907900950758065;2.015798661082803;367;1.2566370614359177
609;-0.1977027083199532;0.5278717573884115;1.929044305523348;-1.5337309197982605;-1.1153513228306142;-2.6572335503791207;353;1.256637061435917
610;1.7231996593429462;0.0837207790212057;0.0370053934486464;-0.0486953180958803;2.916893600976588;-2.829683539223842;407;1.2566370614359172
611;2.057128447791832;-1.7069126151994751;1.4693926785461984;-0.6105374003103237;-1.7827351858963616;-2.4440396554072867;136;1.2566370614359177
612;2.7356718254795043;0.9837187210004982;-0.6042846625835637;0.179780576934414;1.015982229285083;-3.120295183715058;554;1.256637061435917
613;1.8700516781843768;-0.4543134519295341;-0.7405884549007427;2.7637896060063025;-1.6947733361309465;-1.3848342681673236;465;1.256637061435917
614;0.7431159498600076;-1.301549521255083;0.0363073935306845;2.806532061466989;0.2449805311281375;2.534283857911202;541;1.256637061435917
615;2.507845166209031;1.5333498922103048;-1.2474746797644165;1.960044790902292;-0.2912830383811593;-2.2345467581927543;360;1.2566370614359177
616;0.5743036620073977;-0.0399714213841783;-1.5307621625921342;2.7852410729048875;1.076290897242088;2.608428781124677;392;1.2566370614359172
617;1.1244657653574888;0.2827104428202985;-0.1404704380852022;2.208427933934619;-0.4094359487602637;1.4013855926365586;370;1.2566370614359172
618;2.7951975375001736;0.0663444783359485;-0.4470212241409719;-1.1898369044348451;1.264438522565491;0.0093493175563075;128;1.2566370614359172
619;1.3491172544883727;0.1905327876942801;-1.2424558159457586;-1.7053581821422843;-1.7314471515767482;-0.8023436045782828;455;1.1289213033294052
620;2.65555488243164;-0.920276121445804;-1.3864350770779574;0.0511221604647078;1.7316562913012905;3.085542989098332;591;1.2566370614359172
621;1.1862949218958971;-1.2545376110669115;-1.712401879741907;0.9359044400500696;-0.2713496735578957;1.6924217527206515;527;1.0817470843001862
622;0.1422339293401375;-1.3529016849052893;1.872650076694352;2.834112095825882;2.0519914163980904;1.515300717921547;294;1.2566370614359177
623;-0.3047582528372741;0.8294274777049115;0.633712960416696;-1.3903971354044338;1.5587290005000178;0.5438181029407813;18;1.2566370614359172
624;-0.6922242457801006;-1.2081794045615433;0.582653947759481;-1.5050047134163786;1.4860334684008911;-0.1386518710936637;98;1.080189744507686
625;-2.859725685163424;-1.3256243936050638;0.5503143255184652;1.522197479510096;-3.2185679970836376;-2.0698402816838173;405;1.2566370614359177
626;-1.6645267980753546;-0.4883335351546557;-2.3867889158912767;-1.072197764146304;-2.180274725559264;0.0451822634297668;172;1.119060725814824
627;2.192547553549504;-0.5733118930178793;-1.8003227871890597;1.512760030079327;-0.3396002770153593;-1.027318128155355;465;1.2566370614359177
628;-0.8438429041805107;0.759822254556146;-0.0052322814603503;1.3569581233604704;2.63434216873794;2.1768636120486327;37;1.2566370614359172
629;-1.3280875732482558;-1.3088590446554562;2.2641698060489706;-1.8215047796637491;1.2340516979207028;0.8024192156663195;363;1.2566370614359172
630;-2.4745581895440054;-1.0298579194704929;0.931301206554095;2.015602198952195;-3.343426113772948;-1.1007602399543577;625;1.2566370614359172
631;0.3165699573260697;1.2417661445493655;1.3385752781480658;0.5028113775379951;2.834083555731405;-1.9594212631043373;73;1.256637061435917
632;3.081800353687605;-1.7920630056474527;1.0117338770635669;-2.395830283887764;1.4072328892738042;-2.116407250538699;518;1.256637061435917
633;2.468908155571428;-1.718733125283454;2.690540890955747;-1.986996421661506;1.436915293269469;0.4459807505414075;343;1.256637061435917
634;-2.5259548627294195;-0.966380587413598;0.7831695987708721;0.1449394993902673;-1.0699006016730646;-0.8624428357273063;76;1.135102495560344
635;-3.324216661616424;-0.8412205473187937;0.7065057350071311;0.6696644971388307;1.263483549484835;1.218620847213657;56;1.0661749632881037
636;-0.3270111010935819;0.2259061675931794;-2.5950539660097127;1.7045051973520229;-0.4154383514199892;1.2701336410555204;368;1.2566370614359172
637;-1.820946978476246;-1.145742831653532;-1.5002377693169109;-0.5127278975041822;-2.0334845242715027;0.0009598952489053;626;1.256637061435917
638;-1.7664557723988088;-1.1403654100594705;-1.5428382759253276;-0.4583745964521428;-1.7779859626196082;5.421010862427522e-20;637;0.2702734339634534
