Komment314/test_diploma/benchmarking/path_finding_for_benckmarking/pre_rrt_star_results/10_3_tree.csv
id;joint_1;joint_2;joint_3;joint_4;joint_5;joint_6;parent_id;cost
0;0.0;0.0;0.0;0.0;0.0;0.0;-1;0.0
1;0.5260491165246605;0.7528326182650071;0.7495741703374852;0.3973857555992796;0.1259968430709112;0.0;0;1.2566370614359172
2;-0.2126241571168713;-0.2206838802622505;-0.0207730144997737;1.0080654549623145;-0.1920905915842495;0.6570388283671379;0;1.2566370614359172
3;1.0710806736552787;-0.2789868599162225;-0.3202809862716427;-0.489999622774313;0.0850589179570071;0.0646116605607362;0;1.2566370614359172
4;-1.0235745519059256;-0.4590018588426773;-0.2364268843519435;0.5532710040790809;-0.0540346840045606;1.4266469654713796;2;1.2566370614359172
5;1.593855437713015;-0.561204072710726;0.1319002950177998;-0.8704274842003888;0.9164562932961962;0.4956358251066549;3;1.2566370614359172
6;0.9796176897102156;-0.5211936804640073;0.4306124360803847;-1.9129406954026047;1.0640093391836591;0.544760376147768;5;1.256637061435917
7;0.7119100220450199;0.0367055922882962;0.736444289724066;-1.7818630299995353;1.1125837619375856;1.5855023031851487;6;1.256637061435917
8;0.8518829002493173;-0.6348473495680264;0.8182337046533732;-2.6409683352398146;0.2233663134246034;0.9484287824671942;6;1.256637061435917
9;0.9808460639745482;0.2153686702041714;1.007082066490526;-2.698011599322736;-0.5872467999022857;0.569447689197786;8;1.2566370614359172
10;-0.0168020474200195;0.4605785606857053;1.0733507039813144;0.6025890159944055;1.0672204653164905;-0.4076706451516289;1;1.256637061435917
11;-0.721332142404813;0.092482649960173;0.6876589538678615;1.710539948425491;-0.0165073783374579;1.0998750076494688;2;1.2566370614359172
12;-1.3647478559629331;-0.0971064017507264;-0.577620653274058;-0.3552200851224644;-0.1386463100414202;2.04538825594652;4;1.256637061435917
13;0.5764013008327901;0.1225366042250187;-0.0686963138838091;1.6556244664288198;-0.8149554323058421;0.4862017593584266;2;1.2566370614359172
14;-0.340122625146096;0.117219583034628;1.5755516387281314;0.7905104546387439;1.6591029549704204;-1.2555267609743035;10;1.2566370614359172
15;-0.7921115857333818;-0.0987361103523414;1.7925937346057734;0.193560391746367;0.8955871675053637;-1.8401572558141763;14;1.2566370614359172
16;-1.3139909634281797;-0.1236360917883431;-0.8526394178160307;1.2217227598613825;0.6279090653613447;1.1254296006416085;4;1.2566370614359172
17;-1.0742419411901314;0.3696446280289766;1.764478550410648;0.0345425343292941;2.1729485265921764;-0.93107493916595;14;1.2566370614359172
18;-0.6450437032046566;0.3867133501731011;-0.2992028415297532;-0.6292356788313438;-0.6405935676959713;-0.343057008470811;0;1.256637061435917
19;1.8934593752063416;-0.2905322026484623;-0.1162965983355305;-0.1828570030045762;-0.4745207768000893;-0.6089022786309849;3;1.256637061435917
20;1.9769627950886044;0.3225068148141838;-0.4491006708004378;0.3500878683439526;-0.4193466499021426;-1.5024984263877994;19;1.2566370614359172
21;-1.8229068910076072;0.1279894212765588;-0.7973761867509693;0.8056204222914023;1.6437822197429115;1.3459572364902417;16;1.2566370614359177
22;-1.075934584126059;0.6733039997040571;-1.4210557105223058;0.356383832359586;1.4650584267433384;1.6638711103482948;21;1.2566370614359172
23;-1.2815781853077317;-0.0421214938284694;-0.3093475718398675;-0.1625283819406597;-1.2169449761122115;-1.00635307459118;18;1.2566370614359172
24;-2.108455265938792;0.9535296444782344;-0.70606894849844;0.3596174000602931;1.266164443132079;0.66314593253029;21;1.2566370614359172
25;1.277999892428226;-0.2659943586450409;0.7468626908572378;-2.400229501132737;1.3840034946583246;-0.4477703327193785;6;1.2566370614359172
26;2.0345629250599355;-0.398689331221924;-1.0803299091029228;-0.5078550346766674;0.3266465934667295;0.0522752114590854;3;1.2566370614359172
27;2.514900343563407;0.5572436626941344;-1.1910170185945097;0.4076402591621012;0.3741853057083664;-1.7288022066801;20;1.2566370614359177
28;-1.7616648744880543;0.6909091569193292;1.1708858484468958;0.4505418262507125;1.6121107779642818;-0.5268116209716365;17;1.2566370614359172
29;2.1277034031427915;0.2156128553715392;1.3398607932920643;-1.9612621658639875;1.1003166579392054;-0.4672086250538512;25;1.2566370614359172
30;2.337780478837071;0.7186936497211538;1.3452307575286722;-1.331439951938035;0.3181913702037293;0.0557533404970006;29;1.2566370614359172
31;-2.380394287375452;1.175364988675475;-1.1642691517312216;0.7508342261332996;1.519905113922638;-0.3510496075904589;24;1.256637061435917
32;0.3859693038641442;0.6275160918816711;-0.3784509057951156;2.218397486966388;-0.4146028336393882;-0.3593303172872509;13;1.256637061435917
33;2.416715231949385;0.4214755410301605;0.5346705852072438;0.7486255484657388;-0.2642757700823807;-1.9771293833308;20;1.2566370614359172
34;2.004574264293886;0.427811200678155;-0.0971931838396562;-0.341585391954252;-1.1813793973114708;0.1160557816726979;19;1.2566370614359172
35;-0.4072420124393191;0.788006293321669;-0.5196070011966913;-0.2376203952880831;-1.60066001460699;0.1446754257952498;18;1.2566370614359172
36;1.80927967636275;-0.3017116048835583;0.5530187220572018;-2.9194118625985928;-1.021333796170785;0.9958739143398664;9;1.2566370614359172
37;-0.6168835646651002;1.0534884581067536;-0.084808737336699;0.1514455102588146;-2.3124593128153963;0.930567462840427;35;1.256637061435917
38;-0.45074863959762;-0.653354999602706;-0.4829196472005138;0.2908173432422065;-0.9086222328086058;2.021015159644709;4;1.256637061435917
39;-0.0227028413987716;0.5016413784562515;-1.8025642857274555;0.1621924368402529;1.8220171744443645;2.024000123541033;22;1.2566370614359172
40;-2.624062622660888;0.926891373412899;-1.0194186434395365;-0.1484948268688887;1.57781992476243;-1.1415524655429696;31;1.2566370614359177
41;-1.2942119330603148;0.4098230472844444;-0.6433552815797674;-0.4567999765418223;-2.412639856669945;1.0492471527039882;37;1.256637061435917
42;0.096136700096239;-0.1513200791780419;-1.3696541217910043;0.3282939997648817;2.632192724633261;2.54098159422086;39;1.2566370614359172
43;1.2910807850161166;1.0070821057016253;-1.0389593554550514;2.06491774453309;-0.3803727925511714;0.0341673483875855;32;1.2566370614359172
44;2.0825712338252944;-0.5394072936652907;0.6324940506543728;-0.1511114454043481;1.017568013822182;1.2450257258583264;5;1.2566370614359172
45;-0.0188365965491257;-0.2860818770149458;2.230656393219325;-0.572285111325318;0.7688832882859296;-2.2295310589058044;15;1.256637061435917
46;0.1970234089615561;-0.4618826130960944;2.266658500723581;-0.8051850197281796;-0.4314404607266338;-2.302466933934266;45;1.2566370614359172
47;-2.8074661247998693;0.5307381429782818;-1.3892170796178225;-0.6473512821572958;0.9322971971364614;-1.907224875473734;40;1.256637061435917
48;-1.1477118051859467;0.7756774776579107;-0.458779990568375;1.0419144800204958;2.107623806348116;1.909976029285033;21;1.2566370614359172
49;-2.937763392436597;1.3447508184638215;-1.937659935703125;1.2655855802286635;1.408558932298841;0.252510324915556;31;1.2566370614359172
50;-1.4915218599602718;1.0528680227477694;0.1060080147732404;0.4723851175127322;1.3020665608297133;2.213002580233465;48;1.256637061435917
51;0.9625650219039096;-0.780046433259928;-1.5584047178409826;0.7076638924906289;2.439166298059857;3.0060991435082127;42;1.256637061435917
52;-1.0308432991326817;0.747403858974767;0.2901522238101892;2.4753631296772887;0.5294474440175336;1.2155685292667393;11;1.2566370614359177
53;2.2974782651880346;0.0355785301433512;-0.4154805414965621;-3.138360124472308;-1.3482101828324833;1.3622847081466505;36;1.256637061435917
54;1.6974620640162448;-0.9437667107858484;-0.6003459946733993;-0.0431257105802607;-0.1986924512165824;-1.4943945248913526;19;1.256637061435917
55;2.7612066560243167;-0.1397345225159156;-0.4466075967461179;-2.8191790190230988;-1.3648029188261157;2.4714453037061674;53;1.256637061435917
56;0.1869898360829181;0.4802392749059545;-0.1603993191476572;-2.325159599114184;1.1937797336487843;1.5575564927747096;7;1.2566370614359172
57;3.283204437948505;-0.9372915936897824;-0.6601826400216491;-2.831419679182516;-2.0582996011658983;2.5920489692688204;55;1.204087202634399
58;-1.6416348240954437;0.1542686332477088;0.6339938426636061;0.7846075694296692;1.509195216167063;2.787430787729419;50;1.2566370614359172
59;1.4884920367782757;0.0002196112679289;0.5933729837718675;-2.64863159708313;1.5463796805913954;-1.6106680781607068;25;1.2566370614359172
60;2.504081941170717;-0.5029312467626725;0.1176801903281554;0.3747299893312122;0.3926025256914844;1.929138683743674;44;1.2566370614359172
61;2.169222622761005;-0.1697295686733343;-1.440185847017711;-0.8861953020303813;1.4362476208940145;0.1210415048123747;26;1.2566370614359177
62;-1.3810011705717358;1.0636553990330042;0.6772886384377089;0.5114137238134293;-2.423976921271234;0.4086939916787266;37;1.2566370614359177
63;2.672389930248385;0.983609409080326;1.0899360936594331;-1.7683371218918444;-0.331208186082914;-0.7923142118976314;30;1.256637061435917
64;1.785242720338707;-0.4703904756286927;-1.097304155372962;-2.51974924537351;-1.299984737878459;2.4657757580086987;55;1.2566370614359172
65;2.485577989686998;-0.577791478340173;0.9095484170423784;1.073729876822366;1.065394767941884;1.9990294646625808;60;1.256637061435917
66;-2.0748757373212907;1.0967483757642325;0.9126029073472234;0.7862552097049997;-1.6285214800049037;0.9856858790772948;62;1.2566370614359172
67;-1.9332126370813827;0.2004489241461207;-0.9085508849075974;-1.289841149355779;-0.5602700779867509;1.9638568434810768;12;1.2566370614359172
68;2.037482751222742;-0.3626097890379955;-0.4795235999098319;-1.1634981691525044;-1.3426775694674788;0.4409467387082643;34;1.2566370614359177
69;1.2317871216514027;-1.1905565202374024;1.20536281267268;-1.4563359021993991;1.5710321423801987;0.5034994462996643;6;1.256637061435917
70;-1.213861587946827;1.1514496158153271;-2.0591575627477647;0.6657893827291358;2.18879397334487;2.2159496425855427;22;1.256637061435917
71;-1.9539887237461024;-0.0963493948479782;0.2011724326038886;0.0019655960783443;-2.07920763690735;-1.3111058707704015;23;1.2566370614359172
72;2.007001267915068;-0.8448870343350955;-0.1896500823396218;-2.61409909516711;-0.5175538478646868;1.58446227130276;36;1.2566370614359172
73;-1.1650527271166151;0.2830618682650198;-0.7045878224395974;-1.9103753619470032;-1.3051813478252794;1.9376706146338565;67;1.2566370614359172
74;-2.4860340808574346;-0.0352535009312628;0.8892938636913403;0.6307487786960113;-2.584189815172893;-0.900684941885628;71;1.2566370614359177
75;-2.6028135958422483;-0.703600126503558;-0.6091048162908713;0.8825632670486085;2.1260290425411754;1.4195286409749597;21;1.2566370614359177
76;2.605935358719933;-0.1257418968051906;2.248012963777883;-2.3243066510956347;1.475555511657615;-0.0976656997388117;29;1.256637061435917
77;2.6988489907114817;-0.1001522221580189;0.0453014228321159;-0.1842806204123483;0.2045783364714871;2.94199944140193;60;1.2566370614359172
78;-2.1170329782038646;0.4780975615847188;-0.4837921814160709;-0.6142405303642987;-2.364803097497841;-1.8515803749544248;71;1.256637061435917
79;2.344142713111668;0.3432874908689171;-0.8859645124018796;1.2521972733891908;1.2083811623274092;-1.6842490548304023;27;1.2566370614359172
80;2.4626053361950566;1.0780550588167226;0.7542094098433388;-1.3405453566349226;-0.6692655429339048;0.3873472784616718;30;1.256637061435917
81;-0.0490679637478679;0.8276788807754207;-0.5160077825786645;2.087734103746504;0.2162305421637653;-1.3163405449301604;32;1.2566370614359172
82;0.6527770813583962;0.7331333609796301;0.2972779602858019;-2.71510182731317;1.738251318906373;-2.07397075775112;59;1.256637061435917
83;1.4944634909675794;-0.188177770128265;1.5472909927834786;0.9577732326531851;1.0781709351929225;2.1562081727827564;65;1.2566370614359177
84;2.3382149359423656;0.3258077269218014;-1.506498604193126;-2.931075180325357;-1.0142905046658068;0.9769868642643104;53;1.256637061435917
85;1.639791867584391;-0.8158207462504365;-0.6708200921871301;-0.3390392585223234;-1.15238605487014;-2.240971893186943;54;1.2566370614359177
86;-1.4034964435086863;-0.013315582136027;-0.765631350020645;-1.4042119736121066;-2.6762870471143057;-1.6842334567498245;78;1.2566370614359172
87;2.1374733987164856;-0.4301992910972715;1.04811840945692;-2.709498332887611;0.9861017012659165;-2.280212616404309;59;1.256637061435917
88;-2.5469099771210906;0.7255316978788375;-2.2920671848786824;0.6836345623444747;0.6623640621990476;0.1046599851642312;49;1.2566370614359172
89;-1.0350100426301645;-0.1500808590726009;-1.4322064002982895;-1.1208505933089483;-1.7427702956935964;2.111885251521241;73;1.2566370614359177
90;2.794639927358048;0.1988331147288874;-0.5599711713460116;0.6580214311514812;2.154902891181486;-1.6943448083921386;79;1.2566370614359172
91;2.8813123516904886;0.8791567962247365;-1.2351564547965237;0.4027997844630124;2.2063128820739006;-2.459281433440572;90;1.2566370614359177
92;0.3755752195087487;0.1369026012587661;1.7622190714732349;-2.741541284769304;-1.3132852327080915;0.897118941091761;9;1.2566370614359177
93;1.2083248272810378;-0.7626057878627881;-1.176585036783789;1.5223268827890093;2.492555049033617;2.165788349344309;51;1.2566370614359172
94;-0.6439675771857619;1.3557388556186454;0.3528851688834519;0.017926793740077;-1.000610385472765;0.0256336735315426;35;1.2566370614359172
95;1.841022039358376;-1.2842824753560205;-0.7920771075901852;-1.7196884056460764;-0.9442374451665186;0.0870151843417068;68;1.256637061435917
96;-0.630768799648976;0.3366536978205734;0.1118005286608435;-1.984302485473608;1.3536810162201174;0.7366143811255685;56;1.2566370614359172
97;-2.6492235476724826;0.8679057085478209;-1.2329125267321015;-0.2599760624012063;-1.981114332263097;-1.2947520020160332;78;1.256637061435917
98;-2.170426790656125;-0.0469391630924937;-0.3454491514172488;0.753109748772782;1.0856719404761472;3.1329138214010266;58;1.2566370614359172
99;-0.58631309102765;0.3756633192344016;1.2282691559942984;0.6678379715005573;-2.770805062154154;0.5697425037473267;62;1.2566370614359172
100;-1.5089059409360797;0.3029203655756202;-0.8325252143766196;-0.5498152922481595;-1.626460788485225;-2.564122623424171;78;1.2566370614359172
101;-0.0598794290438827;1.0408122243112303;0.4176956693292475;2.3996644707366843;-0.4320694320732775;-1.696075251948847;81;1.2566370614359172
102;-2.160603976733684;-0.1541555958625277;1.4465833774109282;1.1220665384951831;2.0651613489567078;2.424934485556141;58;1.2566370614359172
103;-0.8577886743627957;0.2932134731116161;0.2133237284482702;2.480539987518895;-0.272624355284886;-2.252709939753489;101;1.2566370614359172
104;1.0666035531253226;0.9701674863524032;-1.4810935628990585;2.322770652969346;-0.4235296969716519;1.1582450544359293;43;1.256637061435917
105;0.5263587323796534;-0.2059127694667721;1.1707800047225905;-1.0048100005864924;-0.0477646272733141;-2.171518730740784;114;0.9146795560153624
106;-0.5231638898085816;-0.3505146291104351;1.0030643227930027;2.420020266244256;-0.2695388147696447;0.2772258220111843;11;1.256637061435917
107;-2.24943526396584;-1.106105576232092;-0.864844295881238;1.7489102486075003;2.1941437365299987;0.7327605314512016;75;1.2566370614359172
108;2.845863389475725;0.870726601402038;-1.6447069074951963;1.5724020313158495;0.8766338423181679;-1.1734226084525834;79;1.256637061435917
109;-1.210079326944075;0.3873838949445798;0.2539638118907182;0.8149260004819426;-2.430717386473267;-1.3780906822984498;71;1.256637061435917
110;1.0935938409026034;-0.487779836375757;0.1573809373999805;-1.6752166832236377;-1.2877609148322169;0.4859336496168308;1383;0.9699248382939636
111;1.2805062481817262;-1.134061412;-0.5798541625853431;0.0738175076863734;-0.5186812148827644;-2.700279946732892;1320;0.9460342087391568
112;-0.3520790287223427;0.4530979085968067;-0.9714455718274762;-2.2484694806409897;-1.1914801266750463;1.1064970132202658;73;1.256637061435917
113;-1.7098226485225676;-0.6489191000579023;1.6140921548585152;0.6764315144250663;2.57691333065797;1.6233098120014255;102;1.2566370614359177
114;0.4709844872757255;-0.585207886926442;1.7617674307232736;-1.4477009187400247;0.3174339348026599;-2.2760132484282454;45;1.2335225460810806
115;-1.3606512340267092;-0.3813544560259781;1.302629171639659;1.511763490433926;0.7040819246290275;1.0053403171648043;11;1.2566370614359172
116;-1.1247567750025436;0.0706428551308796;-0.7192147534372154;-2.19600829850706;-1.8128604644806567;-2.030341096123933;86;1.256637061435917
117;1.419981702511322;-0.2791897108677829;-1.9205514819092704;-1.3229401570993795;1.2810090061577215;0.8695045872347585;61;1.2566370614359177
118;1.5781782058148628;-1.264138048889478;-0.2144111683775809;1.2121618087132895;-0.348924444301164;-2.8244350412493526;111;1.2566370614359172
119;-2.233066992864559;0.917853406521145;-0.0237779406194544;-0.3056836748958799;1.3514450503874509;-0.5424505459962801;40;1.2566370614359172
120;0.8088198989404429;-1.2341625047013896;-0.8378039908112571;0.7785678832190837;1.5311724050473616;3.0291651694519826;1899;1.1330283094367368
121;0.3625771069983441;-0.1646518532679786;1.501376641151403;0.4902001010326026;-0.2361687593935457;-0.0751696037171574;1;1.2566370614359177
122;2.676910420327981;0.0259182770817376;1.2988538270010568;1.0341262629586268;0.455696625842291;-2.390799158814334;33;1.2566370614359172
123;-0.7535435205544528;1.5514097042485595;-0.1935666915561314;0.1320789909172413;0.6005310500947925;2.5101145612366382;1905;1.0870448991459003
124;-0.2330302114232545;0.2719333509237623;0.1902164927701675;1.4171756944706018;-2.8928513198405774;-1.5537230111719835;109;1.2566370614359177
125;0.217494612727275;-0.5607128494983329;1.3412175853413375;-0.1871454666834084;0.6671784437618365;0.2422250253871388;121;1.2566370614359172
126;2.5884693401412906;0.0822286803765686;1.22303811597885;1.4637430135320475;1.813796396897228;1.4311981271202612;65;1.256637061435917
127;1.9381625369100712;0.3081950646792973;-2.3882811350082465;-1.8545876161702892;1.721368230267758;0.3496313747029113;117;1.2566370614359172
128;2.1185971225657685;-0.8515687290835955;2.0102486921950824;1.0311873525200044;0.7024057383324156;1.5328403824320205;83;1.2566370614359172
129;-1.4386521079015664;-0.3607995662129744;1.880087433939678;1.8511334135509712;-0.1420613189299868;1.6441217244695558;115;1.2566370614359172
130;-2.7105672282214;0.3218315247427522;-1.1329458821654923;-0.960314878599973;-2.751813323970376;-2.5667655445870063;78;1.256637061435917
131;-0.5198310231475185;0.3399283543354487;-1.344826365820523;-1.4046766079393151;-2.158637351899491;-2.0897504297035385;116;1.256637061435917
132;0.1676514111650762;-0.5527989042536061;1.229514666259214;0.9279967260610396;-2.871406458027848;0.3036083957467573;99;1.2566370614359172
133;-2.302818568340535;0.2206969584725112;-1.686417432212466;-1.3211754887816696;0.2197661420698808;1.4867787932473933;67;1.2566370614359172
134;-2.08950550611409;-0.401561726150029;0.1032687006506814;-0.8635929848041728;-0.8654233389315806;-0.8973501354598781;23;1.2566370614359177
135;2.3999985664188106;-0.6075245535743672;2.589090986830689;1.7736999665837017;0.2815183507794405;0.9189488652501498;128;1.2566370614359172
136;-3.0250466231873445;-0.1715911003380331;-0.9908296434765412;-1.5040522780290444;1.2488164233681482;-1.6934598205622529;47;1.2566370614359172
137;-1.273945550920618;-0.6341551802073341;0.1187727435865356;-1.3335342993054748;-2.639517344321945;-2.3074457146464566;86;1.2566370614359172
138;-2.445923063973904;0.717307336520333;1.3669803266928786;-0.3491616972986603;2.0790085843791486;-0.0639312489544827;28;1.2566370614359172
139;-2.4691110404946244;-0.3641914719876302;-0.5997022420739673;-1.63154380590957;-1.3641935947748909;1.62519828692853;67;1.2566370614359172
140;-2.723932088118758;-0.4689546692379517;0.724616084187245;-1.1684260850063015;-1.5379433224368049;-1.3880831476178936;134;1.2566370614359177
141;-2.5993025407673667;0.3762476557712161;1.2513257571779346;-1.0605771608239116;-1.4573580508860655;-2.1321857976872343;140;1.2566370614359172
142;1.169052285332968;-0.5049578216668529;-1.3051130982288477;2.401789349653549;1.820262081736149;2.684691394294346;93;1.256637061435917
143;2.3460281498854165;0.9816177084934128;-0.9356123411745764;2.6699776600447467;-0.6438112984460372;-0.1051035132334464;43;1.2566370614359177
144;-0.0006369001689442;-0.7097233787278452;1.977478989446678;-1.0174777690586756;-1.384617937134106;-1.6380862007935224;46;1.2566370614359177
145;-0.009495781832623;-0.1604164635131785;1.146171558729769;1.4380211258426514;-3.094938584868208;-2.1759117430604458;124;1.2566370614359177
146;-3.017148174308908;-1.0524642911024586;-0.3568630945737227;0.1144263043141888;1.346337615258119;1.575022545831327;75;1.2566370614359172
147;-2.538591610607892;-0.5783406822063006;0.3512914658758638;-2.186290012976273;-0.8029210311180879;1.6611147564768016;139;1.2566370614359172
148;-1.0267001685783088;1.2659459221821716;0.7636312437192985;2.8395513019782075;1.3562086500303172;0.6960647579402643;52;1.2566370614359172
149;0.2479940399000553;0.94544901836827;-0.85488519452224;-2.8767931836750607;1.681400905370366;-1.9584136047441287;82;1.2566370614359177
150;0.5716746635180476;-0.0045708664248798;0.1276420600340625;-3.120594584658637;0.8933263197590458;-2.4221842063229744;82;1.2566370614359172
151;0.0333485390937242;0.6674525106819084;-1.1460674116390308;-0.0225116385984244;-2.057468280290199;-0.7056687638789629;35;1.2566370614359172
152;-2.753413735995448;-0.1364522327452597;-0.7488482973229511;-0.1442528505567417;1.9595386651846844;-0.6802826252696894;40;1.256637061435917
153;-2.3905734578054383;-1.2980946039035848;0.0901474934705338;1.892669693101161;2.389968016692381;-0.0097579419595336;107;1.2566370614359172
154;-0.9892707184104136;0.7539884941517151;-0.5318885328636239;0.7678269282088839;-2.170055376050795;0.8741502335801388;37;0.9119433105240724
155;-2.4397998127460925;-0.3865517939670289;-1.1272289591236646;1.0606896815813542;0.2577530095225988;3.134730703240769;98;1.256637061435917
156;0.7233618250419654;-0.3816747787480695;1.6906252685736858;0.1711814062243965;-2.5384310592582557;0.8907831071070272;132;1.2566370614359177
157;0.8536542280459261;-1.4631672098578683;1.2464214445979651;-1.858801499423444;0.2416010073173369;-1.8053199351060265;114;1.2566370614359172
158;1.5028084892721325;-0.4648287531078412;0.1468986940129361;-2.506945447916834;-1.6140963867137927;-0.2968663681771534;110;1.2566370614359172
159;-0.2651890731206314;-1.0693854957726918;0.8545854358468308;0.6294201445029142;-1.9646653656914053;0.0333773808793613;132;1.2566370614359177
160;-2.12477185047992;-0.088685145023888;0.5569900842023983;-2.378469439071371;0.2073368102348003;1.3998455355612052;147;1.256637061435917
161;0.4565062040196271;-0.8180095088851208;-0.6782635744811599;-0.2846072559448808;0.8991018119180388;-0.2144691849365381;208;0.983160977139958
162;-2.2769615557411758;1.4018136217756247;-0.5377173620953918;-1.0505267429695704;1.1295345702465165;0.1466236846742467;119;1.2566370614359172
163;-0.7074513672827103;0.3288901055104494;0.0519936769432909;1.5224357594211722;2.440968472289517;1.146576141028984;48;1.256637061435917
164;-2.057521040799884;0.2970821839871176;2.050871358918074;2.518358974466889;-0.6125919140753098;1.3841728608773904;129;1.2566370614359177
165;2.6136176551071197;-0.3029172845861015;-1.2559269111202729;0.1721992445883353;1.551035678120318;-2.152144959351772;90;1.2566370614359172
166;-2.7253091493758723;0.8582731042485783;-2.3421887951123943;1.8533904660811424;1.9881465771164528;-0.4199919519575192;49;1.2566370614359172
167;0.2119942842181493;-0.8986938675445072;-1.370090033629147;-0.2471582357550294;1.5630452244432778;-0.983880340165608;161;1.256637061435917
168;-0.638162600520771;0.8943320109857793;-0.6484237452526492;-0.6330667601080217;-0.8609386768844717;0.3691932762455197;18;0.9672364790380762
169;1.960182337256876;-0.0293719820809249;0.5508869131615142;1.232350715488706;0.3097740779141142;-1.2001707636771797;33;1.2566370614359177
170;2.0852323425687245;0.024361961265764;1.3494158845918465;0.5413479463371506;-1.005579928815048;-2.2121843556692355;33;1.2566370614359172
171;0.3770817780267504;-0.3210764532146713;-0.9072268855872676;-0.1748266333047437;2.5614314966847163;-0.939252511439754;167;1.2566370614359177
172;2.337487784532504;0.7944391625733348;-1.6333416941559218;-1.1044978154794485;1.217670420343363;0.7932970948327518;61;1.2420157996401924
173;2.699717208899738;0.9615772005156028;-1.214610575930251;3.0514388261537184;-1.636273210866082;0.3901800902680228;143;1.2566370614359172
174;-1.4543214332280647;0.8661522300173988;0.3806583720079636;1.8969563110831067;0.3285571616710788;-2.6589568424408907;103;1.256637061435917
175;-1.3240529431984196;0.3353928402732037;1.8139075460777012;0.1088166675601123;1.6475469784761452;-2.571339733693456;15;1.256637061435917
176;1.812453052177329;-0.0209627293672581;-1.240367371812749;-0.6206143990835474;1.457284485187904;-1.6829022151926345;1637;1.102544043363014
177;-0.4160819548812765;-1.1722589240231946;0.3432271637517583;-0.1898849638408703;-0.3363167194292427;2.280912794185833;38;1.2566370614359172
178;1.9357703646508904;-0.4517624607879649;2.144280791100704;2.223428511104415;0.5816476316829907;-0.002559459221566;135;1.256637061435917
179;-2.7353041017766984;-0.0059155658883932;-0.3559011891537752;-2.7619203188564656;0.6295412813477157;1.6020202161346022;160;1.2566370614359172
180;-0.1352015062896573;-0.7280720434818239;-1.316673238421851;0.9916529568110442;-0.6518220361410909;1.5501413707585274;38;1.2566370614359172
181;1.916125910490837;0.7057116689135573;-1.0324774681802105;-2.9814316770227363;-1.3674905938791193;2.123169182069641;53;1.2566370614359172
182;2.7345289779255726;-0.0398765231136389;1.8713741007605529;-3.0153481293673825;1.4262733672418535;-2.604657295054807;87;1.2566370614359177
183;2.0430695426731287;-0.4741335341565903;-0.5364820924348515;-0.0932579867564098;-2.2381279079273706;-2.4470378215506354;85;1.256637061435917
184;-0.7942174340705715;-0.5622112571567601;0.3433849838628524;2.6483954782125525;0.6338938413615641;-0.1194208547352006;106;1.2566370614359172
185;2.455230690898193;-1.2715589047707825;-0.0479584467762576;0.4196876592225212;-0.5479492669458207;1.6610589231332051;60;1.2566370614359172
186;-2.492792999015843;1.2027222310635342;-2.0278774404936883;-1.8038111729556492;-0.2589186329041839;1.4855421967292894;133;1.2566370614359172
187;2.430138480504936;-0.2044098204701283;-0.9995205631471512;1.1899106171743792;2.7403372595921525;-1.012562320445196;90;1.2566370614359172
188;1.893126948057309;-0.1018557456940361;-1.8212597102036887;1.5910805612140575;2.84438130176124;1.805957935990708;93;1.2566370614359172
189;-0.5452213435173826;1.2981827255849598;-1.4910556837279807;-2.5535165536365114;1.2840052650445688;-2.3563847414639856;149;1.2566370614359172
190;-1.9953919021933355;-0.3497771076703719;1.2372330028703764;-0.4699627613730243;1.6729213970536696;0.138935940543088;138;1.2566370614359172
191;1.343748667171685;0.4271589797425552;-1.088619596648484;2.95361960507228;2.03813944629293;3.214709822152109;142;1.2566370614359172
192;0.095354668991344;-0.6051729437448801;1.2440075373531874;-1.312816257257752;-0.7170845993914238;-1.147289284316746;669;1.1931137617999563
193;-1.4437342720930848;0.4793065166964447;-0.9739666114337368;-0.7415048880921868;-3.0353951313811227;-1.7239017598464623;78;1.0843409530574566
194;2.4753527299523213;-0.2249248676921958;1.6330972828895889;1.5600078528415815;1.4888940528560544;-2.5315892890602343;122;1.256637061435917
195;-2.7626172478562;-0.356308714415595;0.7307817570085526;-1.260761703611407;-1.073457178118885;2.298174945136379;1846;1.113914438292144
196;-2.412228599281549;0.5102225006613186;2.1079670055689537;-0.0976233129415302;1.2137142933809018;-2.7884705827411422;175;1.2566370614359177
197;2.8748413083752578;-1.0499066921966331;2.256862444621701;0.9301693272306366;0.885883107046056;2.461929484102271;128;1.2566370614359177
198;2.4879902872218094;-0.5245339767377037;-0.6402618258167163;-0.5093562617346843;-1.9063978318012789;1.201500007813413;68;1.2566370614359172
199;-1.505962232418676;-0.0525546890990941;0.6152924550246753;0.4392656283737459;2.627203393831792;3.1726588784734977;58;1.256637061435917
200;-0.6096217545663037;0.9136447572395096;0.9278110235212322;-2.0045769967167733;0.6715047578560707;1.074434145208676;96;1.256637061435917
201;2.3418266172541573;0.6183368539358325;0.7047793839078804;-2.2032260674190165;0.6416895615205603;0.5981634930333188;30;1.256637061435917
202;2.5437295301533185;1.500988895438946;0.1795730876322717;-2.427537835344262;-0.5078326073046312;-0.8122917789686481;63;1.2566370614359172
203;1.0716262501351608;-0.3776090363025516;-2.18118774570634;-2.159496021499592;0.9118365801413392;1.6071044536635382;117;1.2566370614359172
204;0.5525664271617894;-1.2587510746110766;-0.7428117668625172;-0.1832655450911801;2.2069966469175126;3.378422656530374;1899;1.2462585699499726
205;-2.311538515355529;-0.070653995152591;2.0992875303698044;2.184789422473094;-1.416041706576726;2.171724502739972;164;1.2566370614359172
206;2.979339864718498;1.098790686663465;0.7238230031214417;-1.7222895438376136;0.8586259246453315;1.4125059844372587;201;1.2566370614359177
207;0.7299530670493959;-0.7816028015542078;-1.4702069535877318;-0.0948344044426419;-1.0113867480319436;-2.063143256541247;522;0.9398020024962715
208;0.449744904174977;-0.3353483742972756;-0.1942865334837642;-0.1871804493861258;0.2013447524474334;-0.2693084779998535;0;0.7075164693216905
209;1.6850338204745825;-1.0471826064560004;0.6307442456150296;-2.404249781945597;-1.8559375045533688;1.195814107603916;36;1.256637061435917
210;-1.299984812278465;-0.5871726788971837;0.3488501991239588;2.768171259715249;0.3593888488308029;-2.5813124959855185;103;1.2566370614359172
211;1.2371929799910957;-0.316930795158248;-0.59439802270812;-1.8246025043033915;-1.9493648256676543;2.7778498588881324;64;1.256637061435917
212;2.248137907724284;0.8542273770579772;-1.0270963036957097;0.8747757918569002;-0.8362435184576615;-2.165593169551052;20;1.2566370614359172
213;-2.4279264108222924;-0.9117223623876628;-0.7436533814197206;0.4181985450864791;2.2993549579224277;-1.3438316129020258;152;1.2566370614359172
214;1.525388479775589;0.3505999854932936;0.325639064329146;-0.0787218490509323;1.5562530473884173;0.9500861996372834;44;1.256637061435917
215;-0.6837170336653231;-0.0752163670028392;0.5151261317095865;-1.43989476789428;-3.263442688983581;-2.5205078558029936;137;1.1242193597106536
216;1.815072169767212;-0.5837120118521089;-0.6188195193126296;0.722232757316178;3.094914269020773;-0.2591837541260937;187;1.2566370614359172
217;2.3730735405617973;-0.074957866180374;-0.9766904614303524;-2.619155486959081;-0.1793602255936621;1.9287061090633049;72;1.2566370614359172
218;1.1478253529463005;-1.0081967651791242;-1.2733132453353666;-0.7649729542324262;2.471709561836515;-0.7888703506313497;171;1.2566370614359172
219;0.1589002167572102;1.0176925672322412;1.493729433829464;1.0831925870764016;-2.442538786845099;0.0590127204996554;99;1.256637061435917
220;2.1338710629295914;0.9154783954886068;-1.647153359115748;-0.490075812637698;0.3822624673920906;1.462187841841559;172;1.256637061435917
221;-2.452218145374176;-0.0491522356196645;-1.546756000316802;1.8769588232930796;-0.5052413458857387;2.933024503960744;155;1.256637061435917
222;-0.0747915970981925;-0.3947248617095335;-1.3506504492245668;1.7364756785652455;-1.063006681688773;2.4100127873208;180;1.2566370614359172
223;0.0023175002701793;0.4559264129534956;-0.943708344607324;1.4140494758199715;-1.684394730786322;2.850353178272159;222;1.2566370614359177
224;-0.3010269757865781;-1.134745535406609;-2.1912912688924706;0.4612698770503607;-0.8760750016491847;1.0119007315029849;180;1.2566370614359172
225;2.7258999449646564;-0.5060071348867643;-1.64936688400611;0.7362839628781783;2.537395308434974;-0.8769272740483125;187;0.9306425025191712
226;0.9576814939482396;-0.8038306791199278;1.0247555068457164;-2.291768403423668;-2.526510056031973;1.8068056422797336;209;1.2566370614359177
227;-0.7654932982676307;1.032341070435584;1.3787079216692044;-1.5476900585253723;-0.2454973658589744;1.6109090927363725;200;1.2566370614359172
228;-1.3584953192616356;-0.5144575871238313;0.1211132447767835;3.423257843806456;0.8889614656486916;-0.2889185773790035;1131;1.2147566755240922
229;2.398990653041027;0.7820432130279832;-1.728822899306344;0.9506973538651008;-1.5298887189331511;-2.6126212675848666;212;1.0986943102818796
230;1.9358667415371849;0.2243458824927912;2.0611942333324897;0.2154718269820206;0.4788098705295765;1.956752645793598;83;1.2566370614359177
231;3.174492129789852;-0.852561582991054;-0.345372486132788;0.1423787289152692;0.9305008644102232;2.919987809595699;77;1.2566370614359172
232;1.0493070247025795;0.2996234728017654;-2.0395762937664603;2.06945477258597;2.419568087974434;1.3070102484844666;188;1.2566370614359177
233;1.0070270799069452;-0.0635358042408962;-1.7338013723734087;-1.314041591131538;1.6719467494866769;-2.080664668633976;176;1.2566370614359177
234;-0.2881158856085781;0.3902052840080918;1.4107649758117722;-1.8654874645566912;-3.041636923540377;-2.103946644814967;215;1.2566370614359172
235;0.4804780695920787;-0.7457781111936076;-1.6384428349870297;-1.7668470973579158;0.8001398367397822;2.402661294424101;203;1.2566370614359172
236;-1.075071525091054;0.1435628080244632;1.906696359648269;-1.5493168642836;-3.2568572072482613;-1.3920664173670103;234;1.2566370614359172
237;-2.480777368344109;0.9083691461310048;0.7923912651978219;0.4708513579284252;-2.540527328900356;1.643871824617641;66;1.256637061435917
238;0.5775624999820559;-0.0429655653977205;2.686663337037426;0.0415408469301137;0.9173292131136366;-1.482819301652551;45;1.2566370614359172
239;-2.555220773038826;1.0446447328701878;-0.02124007392673;-0.2125777028203654;-2.6047615961284807;2.293353594925881;237;1.256637061435917
240;0.0999315972447001;0.5672578018051797;-1.4817922708820652;2.052390506179822;0.364260250810212;-2.0465563036261267;81;1.256637061435917
241;-3.3205764506533364;0.0088189022157846;0.1253804404940816;-0.1387235402766402;1.0931710958567211;1.5780244439483435;146;1.2566370614359172
242;0.125643788972827;1.584081493766255;0.0757338064436746;-0.431568277241256;0.1389808271154358;2.060838116658892;123;1.2566370614359177
243;0.4346266098947514;-0.1400284833192364;-0.263303250810185;2.653474916983736;-1.2913551016431368;-0.2312732838410126;32;1.256637061435917
244;-2.686787397108556;1.7305502435086155;-1.0291197579220643;1.511047200750803;1.811737927637594;-0.2898936551919894;31;1.042690256967228
245;2.3982804060002283;0.770772118802841;1.2343869198810482;2.493806083298672;1.7404170362596016;1.3829326809908782;126;1.256637061435917
246;3.3835531826871623;-0.9552056523082456;1.66803436852996;0.3783843834990263;1.624768490996743;2.7999293483236416;197;1.256637061435917
247;0.858724824491881;1.2668425357166753;-1.6481726852511835;2.719790885486695;-1.4050246388943832;1.7050852818028983;104;1.256637061435917
248;2.577642955366433;0.9000805607757126;-1.9204524005206087;2.425269994493644;0.2525755848767217;-1.7333018809300405;108;1.2566370614359172
249;-2.5189945681232957;0.7960358237813719;-1.8648051250957496;-0.3082469715024841;-1.19223580695987;-0.5646395637527812;97;1.256637061435917
250;0.8908849233281886;0.9434820701764088;1.4160871007385016;-2.713025371936044;-1.834111835793556;0.3764066167576935;92;1.256637061435917
251;-0.7099138669169182;-1.3059147044099868;1.6732994465379267;-0.8520397146817593;-0.7033472085707535;-2.007672512822287;144;1.256637061435917
252;2.8217206981496794;-0.339975441149741;-1.1473854603167066;-0.849554956844447;2.4542675513493557;0.0900552410617963;61;1.2566370614359177
253;0.951026481641218;-1.5177475414999255;-1.4609391529414344;1.8421575283066247;2.6611790935616684;1.3448382747203298;93;1.2336869559824668
254;-0.0004576835364477;-0.9713927115162572;-1.2266086463296748;2.341090257359182;2.6814029647654456;1.6114040788452262;1790;0.7095047678231075
255;-0.0029502414138103;-0.5682265577362964;-0.0745236059349229;-0.6690031703825142;2.590947635827105;-1.5989136289822037;171;1.2566370614359172
256;-3.163795461870716;0.4417911037680492;-0.7071336338202612;-2.1130230656208115;0.4816021037042086;-1.3143805712068677;136;1.2566370614359172
257;2.073002191236045;-0.9527557696408794;-0.030619434158321;-2.514518117658457;0.8691243419035807;-1.98603822572667;87;1.2566370614359172
258;-1.366545055208226;-0.2260668693343211;-0.1471902806907294;2.6284045527581923;-1.0424498098688098;-2.8060507606842813;103;1.2566370614359177
259;-0.997406821068937;0.6052558704325746;0.1897402133692904;-2.205636699323985;-1.4968297444140992;-1.527515264946524;116;1.216975824413291
260;-2.9097314271268133;0.4071474076670719;2.229884166763016;-1.0114842560993555;1.8129993596889145;-0.1813374168208464;138;1.2566370614359177
261;-1.1004912913954;-1.1412161249318271;-1.7698272513204554;-0.1295568412697489;-0.888160145403184;0.3691741459121884;224;1.256637061435917
262;-0.150351811118332;0.942869892437622;-1.9825280684261213;1.4060910931448831;0.7325277377964295;-1.290679154321644;240;1.2566370614359172
263;0.6899353337731846;-0.849303721103778;1.832159352491581;-1.9745588758094683;0.1637689346649719;1.1251192464913786;8;1.256637061435917
264;-1.706227395159054;1.5758838294032318;0.2116128653962939;-0.2413471162773274;0.1393468762284766;2.1168935250379617;1905;0.9667787715378352
265;2.8367585571908664;0.5182421734961595;-0.0619018336721982;-2.931410780556833;0.1898546315489252;0.5539790594359737;201;1.2566370614359172
266;1.1387815032811055;-0.2833969466643953;2.680006749124182;2.3773333007328867;0.0933220024809197;-0.6079086197680507;178;1.2566370614359172
267;1.294142737769839;-1.0985138754913828;1.6499409114852108;-3.116634945405596;-0.2393022661166397;0.7573830376534227;8;1.2566370614359172
268;1.9069122031004269;0.0074374895075496;2.012770151252174;0.5666283765112344;-2.040189096396605;-2.022558193444815;170;1.256637061435917
269;-2.3672194903647297;-0.663755195588312;0.5561330244824476;2.188393720558126;0.2807657629495398;-2.802654335610294;210;1.2566370614359177
270;-2.0714203402617204;-0.4758665626928098;2.378625639485661;1.8912002351066517;1.9855619671955576;2.4577910503140865;102;1.2566370614359172
271;-0.0359147300960366;-0.4063380931254091;-0.2276420915215129;1.459299368054418;-1.502788627468031;0.3974032057670972;13;1.0951923845596494
272;-1.8873835287088092;0.3013978927166166;-1.005462000338996;0.0999861718573758;-2.7153244587549903;-2.175505651701631;78;1.045951066917723
273;-3.022186541414446;-0.3013384382253665;-1.818872061405938;2.4399602836292016;0.2244697557289235;2.4161311261332274;221;1.2566370614359177
274;-2.6027629003048687;0.2830144474861544;2.4775943358280283;-0.6972338767215824;0.3319327234145324;-2.3220866676274627;196;1.2566370614359172
275;-0.8740423784857423;-0.0951340234867655;2.6110214410515;-0.2170693056736197;1.8640215641655176;-3.206021023824252;175;1.2566370614359172
276;0.6513218717367075;1.0082255894246104;-2.1464331834316943;2.8416798679402944;0.4882908454353616;-2.023231380779001;240;1.2566370614359172
277;0.0341998427343239;0.3341457401540169;-0.098012387806599;-2.7435279812807;0.6026678882040748;2.560607416201177;56;1.256637061435917
278;1.2094939238190148;-0.9781648661398514;0.6096141244363777;-2.6167272748530244;-1.2562986763852282;-1.2325011710413756;158;1.256637061435917
279;1.6634054379336445;-0.0321654513110268;1.7606666531649342;0.2432552322084607;-2.6936771915616324;1.6250147779901083;156;1.2566370614359172
280;-0.7046137026075634;-0.0744810744880094;-1.8272903176094928;-2.0822169609365275;-1.6312287296490782;-1.4547192168418492;131;1.2566370614359172
281;1.6898822440523893;-0.4534027609555588;0.8133645774477967;0.8797552697037582;-2.9673912707697108;1.4715159365311297;279;1.256637061435917
282;1.0740687998557057;-0.9515707603084976;1.9632511719324544;-1.9525744705966608;-3.072225682632964;2.306937010060768;226;1.2566370614359172
283;-0.6752734696396516;1.5065206158049775;1.6091656198313145;3.2052488240925;1.012472029770417;0.0396031267230998;148;1.2566370614359172
284;1.3994602905283788;-0.3797306467228702;-0.095358963164225;-1.1800188638021365;-1.255823329421237;-2.772104066057917;85;1.2566370614359177
285;2.4929253458470573;-0.0712593478804396;-0.6251826495089999;-2.795760271434565;0.7430875487036633;-2.4070815340341305;257;1.256637061435917
286;0.9506193592991924;-1.0608589223986158;-1.462476288827335;2.638557103110111;2.3322247721617027;0.5524218835093873;253;1.2566370614359177
287;-0.0421417153389074;-0.3301679744473648;1.2767577626727782;-2.9910009512585285;0.3744527332556671;1.5241308920306795;8;1.2566370614359172
288;-2.89890184449002;-0.5752114428073101;1.651018400158415;0.3072133793637197;-3.078876880159596;-0.4676634428927231;74;1.2566370614359172
289;0.7479350186056931;-0.5327324257703745;0.9067668533612449;-0.0328816910387918;-3.015434955821948;-0.13662709145953;132;1.2566370614359172
290;0.7881654275202754;-0.0387588863259395;-1.5808196445664198;0.145989388747183;-2.5948053591371503;-0.6384348788139773;151;1.2566370614359172
291;-1.802904877037803;-1.061175452046398;1.0151613653498746;1.4680631749522428;2.946964894695828;1.5351643082157345;113;1.1439957025597518
292;-1.510695914902968;-0.637284931526602;-1.462852165580825;2.4312950079885267;-0.3303097618066498;2.975954766637892;221;1.256637061435917
293;-1.4670722959547375;-0.2950168210393922;2.052271123372617;0.5855979409918215;1.6076796519921732;2.8879279222255816;102;1.256637061435917
294;3.1258113995642223;-1.1889339926974578;2.343098073630161;0.0025592727116614;0.1974949378766981;2.0681695841494787;197;1.256637061435917
295;-0.3085472734343394;0.7518075217162595;1.0430542657819122;-2.5908735488870445;0.4856278476636622;0.0396758678958391;200;1.2566370614359172
296;3.379101732657469;-0.7914402959277597;-0.3527929367041386;-0.1820702846105111;1.492109773633738;2.9121063586734475;231;0.6829273833800474
297;3.0502399825059743;0.6357060787001229;1.2367564653658163;2.054916168148403;0.3567242867690055;-2.501510235110473;122;1.2566370614359177
298;-0.5369352012507265;0.8352197786279967;1.063313586708838;2.893040598747268;-1.2372842792944878;-1.670137026514939;101;1.2566370614359172
299;-2.8325683599877864;-1.15501271129281;0.8199446392853589;1.9190109877032648;-0.517575298235296;-2.2180680612763184;269;1.2566370614359172
300;-3.0887775539735034;0.3871949957942375;-1.96027854289284;-0.2599630939221864;1.8129719952169023;-2.3843276376656624;47;1.2566370614359172
301;1.9298631804833528;1.118990828194457;-2.022143859371646;-0.7973108030374543;0.3673602137661735;0.2109856051712407;172;1.2566370614359172
302;0.8238995603102592;-0.7448218897106789;2.513946381736442;-1.280896080407773;-1.1919583422726592;-2.7926389479184994;46;1.2566370614359177
303;-0.2040684340584028;1.4131463229654384;0.9767483389013653;-1.7611350398395782;-0.9123464674573606;2.294362233147571;227;1.2566370614359172
304;2.5763225300052803;0.9758282466510922;0.1519597216525075;0.1095601442071203;-1.470709535591448;-0.6602151427620454;34;1.2566370614359172
305;2.25375234140893;1.0496735511702469;1.4029256747116785;0.0707821906579383;0.4519557689688816;2.541514101418852;230;1.2566370614359172
306;-3.0245104712380715;-0.6621000661224283;-0.9660671727807096;-2.3808108839531266;1.7822682472540017;-1.1599359787552883;136;1.2566370614359172
307;1.3905958766068958;-0.9178880320378184;-0.1511856810582744;2.837842598618392;-1.3217665464084094;-0.1185464445686153;243;1.2566370614359172
308;-2.640518582335373;0.6844678844382651;-2.5836721984758007;-1.3082234313607648;-1.0652850489190897;-0.426502209546945;249;1.2566370614359177
309;1.01611050747049;-1.3334341454821657;-0.8956630023191486;2.654600421748909;-0.8905989999504709;0.5832293100027242;307;1.2566370614359172
310;1.1653163276312797;-0.4604172929198545;0.2498093871296891;0.9859542490376174;0.0555256674926741;-3.207444069261657;118;1.1804102577970677
311;1.546982388359729;-0.5645907898641225;0.8121060576662291;-3.0960181674599183;-0.6136400589066551;-0.4511805694120727;278;1.2566370614359172
312;-0.249836279467821;1.3695273357680953;0.9812384285684184;-0.9756907673309296;0.880102497451748;0.704450614382959;200;1.2566370614359172
313;-2.23525422729474;1.4713959616056649;0.699135131935742;0.3935681611269681;-0.6480893391809461;1.9510669971648609;264;1.2566370614359172
314;-3.1779042642001105;0.3083495348750451;0.6041541067631765;0.8744586955314408;-2.272687060567443;0.963389097993722;237;1.2566370614359172
315;-1.3154694736057624;0.5752121074977011;1.7310707742754132;1.443751936478627;1.770094456035718;-0.3232723263882839;28;1.2566370614359172
316;-1.4829022780679084;0.2531740318601763;-1.6492816574305127;-1.9931185763856616;0.8790048016495625;1.6221930901003692;133;1.2566370614359172
317;0.4497374792662957;-0.0791200796450979;-0.7752073437539361;0.5543321285407945;0.6657387566271137;0.3128657653748232;208;1.227823876144778
318;-1.669796557488891;0.1027182680301005;1.80413399372646;2.618634350110397;1.9418233238566975;2.6456839871634936;270;1.1800338709498257
319;-2.4738711612600413;1.0490412184232052;1.7175233518359925;-0.9622854568645912;1.0024532183530348;0.0536427839887203;260;1.2566370614359172
320;-2.310936681058415;0.0086468275895798;1.2567447962745977;-0.0874679248193148;-2.7588766771984394;2.051019873147217;237;1.256637061435917
321;-0.3190067624657761;1.3880114372730548;-1.9947828397660168;-0.1597810723743568;1.255847804967872;2.518495969106656;39;1.2566370614359172
322;2.045893327779041;-0.6520183087617719;-1.569350283538386;-0.8710468578403125;-1.3999064124034355;1.543370919427164;198;1.2566370614359172
323;1.82212270288181;0.0121812528460061;-1.496557605155278;3.40554869108727;1.1744920154147316;2.966620584418712;191;1.2566370614359177
324;2.9305028230114107;-0.5757622106251578;-0.5147663164980357;-1.0517181024054167;2.2309173199989294;2.967055358986632;296;1.256637061435917
325;0.1057518686614431;0.6483113478987694;-1.2021907344603184;-1.1687082751311038;-1.033884933280095;-0.2153763787112343;168;1.2566370614359172
326;-1.600894263821691;-0.5051565621878261;-1.980666460472952;-2.4887038356293605;-1.0238980163840408;-1.2738046837432808;280;1.256637061435917
327;1.9124460904887923;0.5092112071034858;-2.7758752812627745;-0.9327692369227724;-0.4171720139193976;0.1399130864413868;301;1.2566370614359177
328;2.6875244543028045;1.1258273353852923;-1.5419568015035066;-2.544996391892906;-1.777618855558285;0.6869801320651843;84;1.2566370614359177
329;-0.7822358631292335;0.5058122963913725;0.7956700864268236;-1.1975696985311273;0.2972526302283734;1.1892120424366095;200;1.0090012754716582
330;-1.7887714695335717;0.0794558554202821;-0.0431298257161442;-0.0296542594941531;-2.699191189576001;2.4246757358893025;239;1.2566370614359172
331;-1.2138390234829068;-1.3954896784631394;1.7135099061278956;-1.5048257376328544;-1.3273742661734964;-2.71479076554706;251;1.2566370614359172
332;-1.6903054552289305;-0.2803314180510152;0.6280009351867387;0.881156476552719;-2.8936795774242805;2.7742123404290777;330;1.256637061435917
333;-0.7600947124300537;1.230758901159566;0.2088611373092364;-0.1226718678693559;-0.8406915132215813;1.1260382657057075;94;1.1428388854313516
334;2.8224760693867497;-1.059072056614221;-1.0661025217648208;-0.0596337664480245;-0.1861934443781395;1.7044549345951676;185;1.2566370614359177
335;1.6626926178809225;-0.456330413169195;2.0393125893406188;-1.592655118843302;-0.3739870743628365;1.102591901482223;379;1.2549153131654844
336;-2.9555259652338552;0.1912751184740517;1.7589513978670968;-1.6115660524854618;-1.975497040466782;-2.899183955532661;141;1.2566370614359172
337;-1.545012592740005;-1.2803924781596718;2.420789229786433;0.5192393008636775;1.3098613584943162;3.127114578979929;293;1.1239016558818555
338;-0.8172548689538888;0.5777163924068538;-2.223601092689876;1.4460676846611942;1.0002453961745332;-2.2232309553143685;262;1.2566370614359172
339;1.3978758560858762;-1.1942214577035348;-0.1340907492205999;1.4356520527335828;0.8178113785628082;-2.9710180068130545;118;1.2151360302839258
340;1.376952824883527;-1.3093693002754796;-1.5676578836242023;2.2950803843099865;-1.2911414598034503;1.4241123990217075;309;1.2566370614359172
341;-3.10479635268955;-0.2082329584753127;0.3565282186050074;1.6815707123605672;-0.5171341975355143;-1.637117232085178;299;1.2566370614359177
342;-0.4209864000414543;-0.4399522791119281;-1.579188190008959;-0.750248843942587;-2.4541912693236374;2.784950720476604;89;1.2566370614359177
343;-2.7507585575736684;1.320705359915471;-0.8760664199902668;0.0496673692606381;-0.8151794067194891;-0.6122379246633536;249;1.2566370614359172
344;-1.979222594873551;0.4985688690405117;0.5198509573956168;-0.443411549020636;2.958800398389041;2.781200700920654;199;1.2566370614359177
345;-2.331168944494306;-1.2301788729063723;1.376161988040878;2.410099248546211;2.474821698324044;1.3595539112273085;291;1.256637061435917
346;2.045097834375209;1.0577598323729436;-1.675510474863503;0.2324254973638882;-1.3417517619430412;-2.643748673380754;212;1.18316391089017
347;2.2976028623267;-0.470398010243002;-0.0454343949654524;0.9528697356484124;-1.8856409455088856;-2.68065594536086;183;1.2566370614359172
348;-3.027326185428552;-1.1058181271025638;-1.0300655782397334;0.0740612324655301;1.4215924443875465;2.6312858975108653;146;1.256637061435917
349;-2.9157191113113816;1.4171413172788947;-2.272848296099179;-1.0062319036231848;-0.6231839977707475;2.210429771580097;186;1.256637061435917
350;2.1410306874008995;-0.068439952841638;1.681819574707147;0.0056118052221867;1.1295052369051923;2.8732405584016263;230;1.2566370614359172
351;2.785572531269371;-1.4179099337891834;-0.5628445689576983;1.224063796967046;-0.4939846465364726;0.9306128409779424;185;1.2566370614359177
352;-2.9321648586424782;0.4388432197116909;1.017464576741827;-2.093886581029065;-0.2683699088956562;1.0397816315843125;160;1.2566370614359177
353;2.660110235484681;0.7334704166504786;1.3575030917569155;0.0584308309850839;0.4770908404251548;-2.7405782363864017;122;1.256637061435917
354;-0.9002705344763777;0.57527052806085;-2.160682110946131;-2.483634378337616;0.1375736674678933;1.9121491214474984;316;1.256637061435917
355;2.3777978849562174;-1.341433176863269;-0.6714891253271988;1.7655862045870745;-0.7426229315806169;-2.311041219186735;118;1.2566370614359172
356;0.5876360776757718;0.1913227036694379;-2.4744945122724387;-1.3334406590186676;0.9784009368288856;1.752532955611523;203;1.1627150965485225
357;0.6949266918966308;0.7560888370080108;-1.557458518809834;0.9385000867603852;-2.3154760133216707;2.759624747780124;223;1.256637061435917
358;2.014736506390896;-0.75958843478278;0.9753550703616852;-1.9708865615492088;-1.877056634373964;-0.7296896005780247;158;1.2566370614359177
359;0.3868149652143863;1.4342755864984489;-1.7844724651017962;2.6039921182196646;0.3301098475936679;1.5613964122995518;104;1.2566370614359177
360;0.0374377944695303;-0.6211850508121787;2.189966124126275;-1.1790448374003957;0.5120436997557833;1.4398522820579598;263;1.2078955390854371
361;0.1774479327798113;-1.347565772809959;-0.8026969326703217;0.1799054033986468;-0.7274532206152482;-1.4699393641751506;207;1.256637061435917
362;2.4675661777029894;-0.7948316057992445;0.64698410953298;-0.6170641449511781;0.9367657317885923;-0.1610738762382725;5;1.2566370614359172
363;2.3014520595186507;0.6607985329132124;-1.6197035307307497;3.2205438970022;-0.929206319738942;-0.8935643415802329;143;1.256637061435917
364;0.7333000218390235;1.0415893985085196;1.6933336226644706;-2.838315881524511;-0.8234332148126935;1.5124610750165706;92;1.2566370614359172
365;2.2650742169681424;-1.5432231629524615;-1.552884304096554;1.0033181768876678;2.9746671812516365;-1.0152616995545651;225;1.256637061435917
366;-1.6579029426381555;-0.0046375232563157;-1.5805295759745066;0.8168116632074661;-2.1105468127884404;-1.7037851981448768;272;1.256637061435917
367;-2.2128318610852045;0.2828769327905227;1.1618132322912629;-2.209865696332529;0.8108028238587925;2.221377195881018;160;1.256637061435917
368;2.966145198382407;1.2505712640143292;0.1160245024418642;0.7650208347808152;-0.853876495202788;0.0748278554507113;304;1.2566370614359172
369;-1.2780006639510206;0.9361725511294584;-1.5141770105797996;-0.3012452281711114;-2.603241666069158;1.7442099470640426;41;1.2566370614359172
370;1.6115902393881243;-0.205823047644468;1.2324732719323976;1.4635149328479968;2.302964706588783;-2.518756771522848;194;1.2566370614359177
371;-2.6797927293444337;1.6520389490967842;-0.3364687841954747;1.467695245868558;2.842809718638405;-0.4577327264859375;244;1.2566370614359177
372;-0.0179877911000457;1.264653794769822;1.7937175268995873;2.618990459819146;-1.657540703603126;-2.253410426205965;298;1.2566370614359172
373;2.7139421206637264;0.3782376337491258;1.6871174299178897;0.3898646379809173;-2.5024363921172936;1.1314544060875602;279;1.2566370614359177
374;2.6247176132209686;0.9284482850082536;1.6306821870112078;-1.845470535625124;0.4542374268825936;2.0630949759285664;206;1.256637061435917
375;-0.525328546214999;1.194953727800739;-0.4731815534486422;0.952436798750248;2.657235589964731;2.750033429731;48;1.2566370614359177
376;1.5003989941900466;0.5502402016078488;-1.20419237266659;1.6573730127946031;2.3065630994738493;0.649441853053397;232;1.2566370614359177
377;-0.1961088149989615;-1.1774238754377633;1.4245041907474292;-2.9312878743340205;1.061447639847183;0.9408371286607786;287;1.2566370614359177
378;2.7466710259130305;-1.239752221770403;1.238401324653483;-0.2498377697722296;0.2236097326276909;-0.717905826881057;362;1.2566370614359172
379;1.394147755963541;-0.6699192559734392;1.590516843586957;-2.075078964211636;0.6241285227302714;0.9392187903609096;8;1.1715922548598603
380;2.9272070892741318;0.8800178435319878;1.3763973073538296;-2.752665983923193;-0.3187243015870862;2.075628861035;374;1.2566370614359177
381;-2.819248829598237;-1.1357112034831065;0.9703724170652714;-1.0523397268347754;-0.1420809421214237;2.285675729626357;195;1.2566370614359172
382;1.9538893809704865;-1.0549652918194228;1.4613825869832735;2.1572376602508383;1.0187995524672808;-2.636885799988049;194;1.256637061435917
383;0.7476424278743126;0.8604050502556402;-0.9406795505619824;2.416918251657998;-0.4398265520254054;-2.0844117520491965;240;1.2566370614359172
384;-2.507269757338901;-0.4472396217998682;-1.2045222506623272;2.642829422919855;0.0959604415190326;1.4900565973790787;273;1.2566370614359177
385;2.265094505190612;-0.1251621191186603;0.3759667118310152;0.7855579643652878;-2.1472651819335296;1.789106668431717;281;1.188390408946181
386;0.6546349368575621;-0.8724360528500343;-0.200362774382315;-2.606657739600233;-2.162620427467949;3.122559330115604;211;1.2566370614359172
387;1.783455092792262;-0.7584133323380108;-2.3991731911577503;2.302074970936203;-1.3568262999486609;2.067974964033727;340;1.2566370614359172
388;0.90609185148806;-0.3738199836118995;-0.0594315957669739;-1.6801338969252722;1.1640679244240448;-0.908394840277124;25;1.256637061435917
389;-1.734767586409227;1.3988739934557324;0.9645528708342692;1.3640909425940535;-0.6109070622448058;0.9928430327745364;66;1.256637061435917
390;2.841616046179241;1.198875514572514;-1.7369378257320425;-0.3270316306420154;2.7841374627487223;-1.8617689533056812;91;1.2566370614359177
391;0.9513966648723422;-0.7985825381073474;0.8143397164711932;-0.6337759341027271;1.807923009985196;-0.175656682452621;69;1.2566370614359172
392;0.9052710590456804;0.8374044516104571;-0.5318780245806004;-2.637377855636746;0.7663388432477969;3.1443940965553074;277;1.2566370614359172
393;-3.0412808138166083;1.467172254936565;-0.3778181778030873;2.1915691419897434;2.6408668944352134;-1.3784950629575483;371;1.2566370614359172
394;-3.171476952963031;0.0594982490700572;-2.032027386823557;0.8357576767227323;-0.1368126326636154;0.2311776274815476;88;1.2566370614359172
395;-3.2036433999111007;0.9862027997707272;-1.3502189673911795;-2.6663041183050207;1.2300844131019537;-1.2788796660216593;256;1.2566370614359168
396;0.7454011822866671;-1.5371070780218856;-0.1054242204404586;-0.8864948718361281;2.6866319136105075;2.800819819477399;204;1.2566370614359172
397;-2.221163272439181;-0.8173626927515563;-0.8188929485912788;-1.21940549288718;-2.067598946290582;0.8508515882614933;139;1.2566370614359172
398;0.7995274718411971;0.2635084059511214;-0.635538768176345;0.6760350031485732;-0.3152728210399248;-1.696069836468579;20;1.256637061435917
399;1.482122497785364;-0.7031596458621805;-0.775980437215444;-3.0003065087174927;-1.8852288514784024;0.2975100604174625;158;1.2566370614359172
400;-2.529106496396886;1.5641670303981148;0.9358621963936552;0.091901768540855;-0.3488960973245736;3.06803707978911;313;1.2566370614359177
401;-0.6833928372355157;-1.6346893893103505;0.6819436932536291;0.0774212784319197;-1.9132217588389315;0.6892752726814314;159;1.1233072994307345
402;1.1397379280172508;-1.2494794434972378;-0.658814201983838;-2.503312843612419;0.3944160722822717;-1.9833152109445145;257;1.256637061435917
403;0.0968613487895039;-1.4571352036403793;1.0169400406860276;-2.138138947103767;0.412647361949866;-2.7253291074141277;157;1.2566370614359177
404;-1.2041636895726928;0.4489529689439102;-1.0027367178153708;2.721532856524893;-0.7830109926156236;-2.268299770668826;258;1.2566370614359172
405;-2.2245482772171616;-1.0067976252746655;-0.952873507596601;-2.25188878755382;-1.733342527906111;0.946556763828118;139;1.2566370614359172
406;1.6941553048070817;-0.8545164666361383;1.0525878755774487;0.5434876234796111;-1.5513453769639238;-1.9807728925502577;170;1.1682855709566389
407;2.620924609786657;-1.016806377919247;-1.1349815370320562;-0.173462986091063;-2.527241090106388;-1.7381615622380835;183;1.2566370614359177
408;2.394872452061368;-1.0729040763394635;1.986427887864144;2.469238355952493;-0.3902860375089468;1.172394577093131;135;1.2566370614359177
409;-3.196386998934318;0.3083535148224283;0.7563491909288724;0.9607311189770252;0.1668060207387194;-2.0329019233356207;1778;1.2087827265390387
410;-0.0447282802091758;-0.4498491677045123;-1.675468575968051;1.6609791308033666;0.36106878162371;-2.6236005612032374;240;1.256637061435917
411;3.2435627224257835;0.545799358529096;1.0745760032194702;1.44292371905156;1.1633489675761022;0.731530141029384;126;1.256637061435917
412;1.6474253333191948;-0.9412112585772848;-0.4417920880397279;1.62260618715363;2.765596296600333;3.020129847997833;93;1.256637061435917
413;-1.3561784699356798;0.3558436498204704;-0.5540748038350379;2.300760648215459;2.7793427563436346;1.4110710651545308;163;1.256637061435917
414;-1.865164596750438;0.7542468118171687;-0.534623478566076;1.656752378361681;1.839872332428371;0.9088729257649502;21;1.1903540028827964
415;2.764145680922065;1.1985592113547232;0.816576108967536;1.179794665802083;0.0377891484658742;-1.4193376052785855;33;1.1799658309925043
416;-1.1249109853661765;1.390817871989292;-2.0166394964799155;0.6353265882413547;1.5978824428275082;0.8817326744107215;22;1.2566370614359172
417;0.2906047789527035;0.4107077784080625;-1.6836298124876592;-2.146208677581785;-1.5866280632105378;1.806848173820356;112;1.2566370614359172
418;2.351238246742342;0.5841890309183041;0.711010555199276;1.4160008442258212;1.9785306421549465;2.4207965354124727;126;1.256637061435917
419;-2.1217003157171046;-0.4163511833325591;2.209381960773809;-1.143540452177964;-1.830382564814647;-3.166892569790119;336;1.256637061435917
420;2.968513582894759;0.8083934163093179;-1.1693686808884003;0.7054364316603869;1.0176759077046664;-0.4232629165225064;108;1.2566370614359172
421;-0.5789459567317863;-0.5785005747324576;-0.4868986305811451;-0.8658745197835186;2.6311492405897896;-2.617163316677691;255;1.2566370614359177
422;-1.3164813603149403;-0.3888847337233189;-1.8819183149307;0.2713240835996424;1.0677384070315297;1.5392262221482853;22;1.2566370614359177
423;1.8416365019142988;-0.1984793165398128;1.963029331198065;2.245408378273148;-0.6083923863804693;-0.8404095114814693;266;1.256637061435917
424;-1.1445301734204654;0.6627998990843362;0.0171618383315782;1.11284235662187;-2.632464069367522;-2.5241513191385323;109;1.256637061435917
425;-1.1871676739955226;0.2144091261686702;1.871459937928961;-1.5494659626232306;-0.7544721252554183;2.090962996491406;227;1.2566370614359177
426;1.4669942140622152;1.0087949159961578;-1.7881785031752504;-2.958334401802067;-1.988947807183448;2.695647445754944;181;1.256637061435917
427;-1.32634162544982;1.017163889012764;-0.1130055678671047;0.0818164822492725;-3.056041319692647;3.008926218337417;330;1.256637061435917
428;0.9276478070302672;0.1704370572877208;-0.1039401127012806;-2.7573445837613364;1.52923773419669;2.35259201847571;56;1.256637061435917
429;-2.826835048852651;-0.4987296995906536;1.68577960702206;1.5142286315890925;-3.089265331644232;-0.7991623773764658;288;1.2566370614359172
430;-0.4628352985188581;-1.193045122280486;1.882266152571457;-2.506668977639499;0.9135414296852532;-2.47908884733574;403;1.2566370614359177
431;-1.9871867650663535;1.282684684165174;1.0984667996730857;2.4679223373605588;0.1697649816775882;-2.770931216393096;174;1.1560489202766089
432;-2.141810864041533;-1.3848388199578732;1.2206674735510257;-0.1410632190168866;-0.2737941525750564;2.6700311366343867;381;1.256637061435917
433;-2.577210315111122;1.0627906139942933;0.7520129885172926;-2.3935848023593254;-1.2187251473006495;1.0204173178750944;352;1.2566370614359172
434;2.485917733679848;1.450987000646887;-1.160245884005542;1.163316385723509;-2.390685092245696;-2.4916356300605;229;1.2566370614359172
435;2.1503125770787195;-1.079485803739308;0.0771293815737576;1.5542804491885636;2.890562848022787;-0.3096929938617203;216;1.256637061435917
436;2.255715310527505;0.9516431886234552;-1.0497271651585238;-0.1035232025322524;-0.8757416397453046;-0.0627309153985731;34;1.194506379303744
437;-0.0674801247263439;0.9501409449807962;-1.0741814691730855;-2.860017961353275;-1.866125817253497;2.255015322828932;417;1.256637061435917
438;-1.378098827539356;-1.5084887334959127;1.7515960061659122;-2.979155439252883;1.3905918888341509;-2.896257183405077;430;1.2566370614359177
439;2.6919462442635016;-1.4421349772105283;-0.6333990905767667;-2.981268401221448;1.3528736333529758;-2.3619909304900126;257;1.2566370614359177
440;-1.6127425800520028;1.1123390573050074;-1.5568560943442382;-3.1021261958852357;-0.0290496641351527;1.8217258832289431;354;1.2566370614359172
441;-0.5427256119480748;-0.6209362271968992;-1.3939883927333998;-0.5842124895912055;3.048793958345564;-0.9057939958326732;171;1.256637061435917
442;-2.0315801350931437;1.2127946375165917;0.8798115471144453;-1.3681132975419923;3.2440458140681105;2.797542266515696;344;1.256637061435917
443;0.1242450746015807;-1.6474791353642126;0.0127651253318746;-0.2846666653834517;1.41967586618803;-0.3939165903981506;161;1.2566370614359177
444;2.9776320017119526;0.1891088561868283;0.7481755853341735;-0.6086530741684809;-0.0384091958718628;-3.0567520645494484;353;1.2566370614359172
445;1.1705071710763062;-1.5253344601258492;0.0674809701986377;-1.305032104225078;1.3244588280364975;-0.881894706850032;388;1.2566370614359172
446;-2.1980762756569074;-1.16177800889238;2.5491467428880776;-0.423510173473599;-1.2110017128916033;-3.1781137777564465;419;1.2566370614359172
447;2.191193099967934;0.935871509488816;1.0264309255491153;2.4098202520924863;2.066426954679254;2.999544237088516;418;1.2566370614359172
448;1.9081420225672288;-0.7601827335728254;1.410410520105731;1.4012698652765352;-1.436848148549778;-1.5144295172163318;406;1.0719619148473287
449;1.7862767340411287;0.0150032012719975;-1.9608083753907424;-2.147324922539064;-1.3264397606622191;1.3447890473579478;84;1.206073244283132
450;2.7051156086836183;-0.7817138179088744;0.2821720879564333;0.4946845769939754;-0.2534129684220821;-0.4977135464948444;19;1.2566370614359172
451;-0.0251961522484281;-0.5522176490830674;-1.4381184419258268;-0.3500318388974086;1.789792845211525;1.755153050773955;39;1.2566370614359172
452;-0.4736437325835634;1.4383883194502027;1.6815087250892404;3.158361599482054;-0.1205546385152618;0.5322072027779366;283;1.2566370614359172
453;3.179791352927695;-1.7252880198558858;0.1326494059320133;1.585672754579002;2.763318883842892;-0.0233528542601924;435;1.2566370614359177
454;-2.950337342763391;-0.2628695155698756;1.0644738022395648;2.2482559978940104;2.1088218158493937;1.3068175002079767;345;1.2566370614359177
455;2.120471272541028;-1.3371135785232988;-0.0021110682746149;2.5786097022305903;-1.1536412522238044;-2.795696569821668;355;1.2566370614359172
456;0.1017566338874733;-1.3502908404068703;-0.8851422591805762;1.5684861979830924;1.0301903001685018;2.594979117197268;1673;1.0531535385417696
457;-1.6716006083611497;0.221796766276939;2.0074071076590645;-0.6244729519742749;-3.016551237856123;1.5963895729834363;320;1.2566370614359172
458;2.102439039891942;-1.139321214419695;-0.3259903810853082;2.4684489694654674;-0.1505612645893732;-1.6049657988450408;355;1.2566370614359172
459;-0.931757331662211;1.1700699186361576;-1.5512363310920811;1.0529436715855671;-1.6391468945288117;0.8960558460833157;1038;1.2158286365241862
460;0.3967151994491479;0.9197650682246924;-2.3575292568919504;1.3688739528854232;-0.3120511220359466;-1.0758197679021426;262;1.256637061435917
461;1.5336297123818547;0.8630752550587071;-0.756877123837285;0.4941401487369011;-2.2720377925408197;2.6047226805411503;357;1.2566370614359172
462;-2.4875613109387147;-0.3299000658644895;2.311853034585553;-0.7654983330515843;2.6346591825814207;-0.5209214045871329;260;1.2566370614359172
463;-2.475884349167538;-1.5961229687703362;0.8133191665617213;1.9967386072982447;2.745152813531029;-0.916992201759709;153;1.2566370614359172
464;1.9342907086679055;-1.029024135509068;-1.5335053622281658;-0.5263517940184814;-0.5514232177054371;-2.7945811947982584;1320;0.7180005549913621
465;1.0970919821986915;1.3884153341085186;-2.151619652483398;-2.567722994123584;-1.0878688322000984;3.144632212994151;426;1.2566370614359177
466;1.1731899298463808;-0.1698405022855235;2.4990522189472943;-2.1462364312057307;-1.5102938973037232;-2.2671334183215226;302;1.256637061435917
467;2.585715082401427;-0.2874058015021124;-2.3059513305970096;2.3200580954849914;2.606239472663844;1.3140394325650246;188;1.256637061435917
468;-0.3668423583508379;-0.5555893787119668;1.716688011232172;0.7623547706645991;2.6664394860306726;-1.5560459051782602;14;1.256637061435917
469;2.910369200357134;0.0638392630567884;0.2186993369097315;0.2495459458970845;-1.8889576627514435;2.6541332945333784;385;1.2566370614359172
470;2.430201186971477;-0.4484398566149145;2.5307916137949604;0.5956045429814516;1.3737533822295254;0.8939963112825506;128;1.2566370614359172
471;1.315560717142157;0.3139851154673894;-1.0807253759217677;0.5629685523365004;2.393717076254084;2.9258134861002536;1899;1.1617172678127246
472;0.2593126417819449;-0.723823714480291;-0.5989215657546371;0.3933402252242404;2.80766903526657;1.7691666657434078;42;1.2566370614359172
473;-2.9290745483202025;-1.442722022704272;-0.6977560268296691;1.2083697722611837;0.3124949333612647;3.0122631636625874;155;1.256637061435917
474;-1.144727974663742;0.2174052067246989;-1.529770644092139;1.640743780188037;0.0082189591020171;1.4402188646531182;16;1.1234556280794157
475;1.143893153187833;-1.2708027269847455;0.2881760638709405;-0.532782924073634;0.952906641579204;-1.73659690479591;445;1.2566370614359172
476;2.849231396329289;0.4808116940443245;-2.382584722640305;2.273659025486481;0.6279301922271511;-0.9133421735803692;108;1.1479396145174177
477;-3.0283594981782285;-1.3483959341446077;0.3322686606705848;2.0023802955295067;-1.4194324192095624;-1.5507743513984655;299;1.2566370614359172
478;2.539843298086852;0.7727030542858841;0.4141787780728658;1.03233834483793;-1.3607005709098017;1.9173382162504395;385;1.2566370614359172
479;-0.967937472806242;-0.401338921509498;1.6316360154373724;-2.8843581535881917;0.7374703369466409;-1.8003074536614585;430;1.256637061435917
480;2.967002455427708;1.0578989011664552;-1.452127890384423;-0.3688451048464745;-0.2433551734800144;-1.4611829519734898;27;1.2566370614359172
481;2.720407025737373;0.1780410944074844;-1.2462911380691166;-0.5330223308471465;2.714706420885772;-0.5466333117578978;252;0.9283218977261238
482;2.268118226538512;-1.0015232828705685;0.9946514733342426;1.7725616060667282;-1.4389146902134582;-1.3044055015498597;448;0.7366516324989562
483;0.5771637825926954;-0.2755587959827212;-0.1831877683103386;-2.8729525529035302;-1.0522807834239247;-0.6545539677535063;158;1.256637061435917
484;0.2200128893118726;-0.5292922152056976;-0.646794725982873;-1.68055276897239;3.00547134650611;-1.672067791677474;255;1.2566370614359172
485;2.037185806944905;-1.1730842318757675;1.294777418113861;-0.3979600566800939;-0.2939323119334767;-1.3389064970052096;851;0.9072714224691872
486;-0.7429182906876144;0.5026423417614415;2.1835990666077447;-2.64824869628544;-1.238104885760544;0.8478571698363677;92;1.2566370614359172
487;0.4614732703709647;1.2042282884181468;-1.371533842152468;-1.4340680841255558;-1.18516983786513;1.4137209211871395;417;1.2566370614359172
488;-0.558784671641354;1.098750308049526;-0.8707010905189554;-1.6842047009966123;-0.5629938474251936;0.980144014355453;1137;1.0200138313899174
489;3.243599089085065;0.8997957233053615;-1.719644942614791;0.5927155401262165;2.5130625750014013;-1.3875829606189036;390;1.18135809164642
490;2.018885152464568;-1.0782124879696449;0.4140400086484875;-1.805434604977702;-1.3480511488561928;-2.992182528353487;284;1.2566370614359172
491;-1.6050012229264148;-0.2406430328224728;-2.3434934114281933;-2.541226982841829;0.0734727810439187;-0.8608547043709107;326;1.2566370614359172
492;3.0207305920990115;-1.2803635891014111;0.2662041404708604;0.6901572641934797;-0.9445294356676992;2.485465077996372;185;1.1526668805700109
493;-0.5992870241268841;0.8454280547494685;1.8876586467541197;1.5874311345883656;1.3878973662699825;-0.0113453105127545;315;0.9351312803697728
494;-2.692658261284573;0.0901426313251125;-0.8510661069427733;0.7100010962717842;2.9572157078590533;1.0172316945523083;75;1.2566370614359177
495;-1.7122827222197603;0.8813683499280162;1.061501986023658;0.597690097846344;2.044805626548037;-2.980484322567029;175;1.256637061435917
496;-3.217729837630823;1.159111931420055;-2.004046145857823;1.3862273444815991;2.60971820415803;-1.146092116568618;166;1.2566370614359172
497;3.0851213539916134;0.8574933365000509;1.799362842189654;0.9548151850784984;1.7177768529144375;0.1103025513996332;411;1.2566370614359172
498;-3.278470715942921;0.139411453833418;-1.671866801213595;-2.172483602722;0.176878085757405;-1.9832979582797456;256;1.2566370614359172
499;-1.8140946685674435;0.7148765678295701;-1.565416934285619;2.3270545135454563;-0.6280519946676676;-1.468192862524257;404;1.2566370614359177
500;2.514463532282336;-1.276784197099439;1.4729691039913526;-0.2524847574154703;1.3203324438406738;1.0436805366053203;44;1.2566370614359172
501;-0.3276378418328227;1.4047288550642467;-0.2368094576795817;-0.811174982138238;1.1206782965843805;1.6920690365751596;242;1.2566370614359172
502;1.1373652869448805;-0.0818197972697295;1.7357760807505238;1.1970076003113888;0.0147986153354927;2.621810102303828;83;1.256637061435917
503;0.9161745072156502;-0.2523400263500239;-2.1389723056260674;0.7994957574475925;-2.3344773138805666;0.2046296609389282;290;1.2566370614359172
504;-2.2881863222413426;-0.8550309065374455;-1.3760696565527717;2.9959408414886104;-1.105427065546697;2.9676418057789933;292;1.2566370614359172
505;0.2464869542767158;0.0934020386653013;2.601265320981431;-2.5897211600510044;-1.0721087545750545;-2.769058932341119;1798;1.0185858630491391
506;-0.1973963087101682;1.0306458101903384;-1.680829363944521;-1.151974081717627;-0.4526295181475503;-1.0950498506257624;325;1.2566370614359172
507;1.5820591377718207;-1.1545475011404212;0.4059439441087597;-0.5986895912866423;2.881645197514252;2.5505737608633594;396;1.1363674204753098
508;1.6116807836520095;0.5604466817279019;-1.5506737446395975;0.4292123092049359;0.2685585192535594;-1.935776118289428;27;0.9998146652123204
509;2.4012271964793888;1.3656369274893172;1.026809222102332;1.612608674825326;0.706060432390186;-2.6959077636763578;297;1.163424490800229
510;-1.81089772460646;-1.351720108400957;1.2003370439245364;-1.4928387123194184;-0.0668309541774937;1.7727242117152833;381;1.2566370614359172
511;2.9499989643499207;1.4077782484962746;1.6174177947771446;-1.5935926847213318;1.6037987713804829;1.0771771940829065;206;1.2566370614359177
512;0.177566766335131;-1.3231409414406428;-1.231520847198886;-0.5718214468569028;-1.3870509200782342;-2.808214565767722;207;1.2566370614359172
513;-2.427605554606991;-0.9561991430447996;2.5411273861611794;2.575714036317176;1.272537060597077;2.924887325570551;270;1.2566370614359172
514;-0.6512701599633148;-0.4192128019705463;0.4620438480824232;-1.4709457869242073;2.888028445797368;-3.0818603438365644;421;1.2566370614359172
515;-1.1372489933580796;-1.2126741949555089;0.8945015028588698;2.5097429241693336;0.4979989632683614;-1.6994574641813611;210;1.2566370614359172
516;1.993300942993662;0.7053867492228049;-1.630754321720603;-1.6437274491800842;-2.1516984864671107;1.4714783514288894;449;1.2566370614359172
517;1.773590793798133;-1.0110040307127202;0.3649813570719749;1.1819351852413271;1.0430736828184064;-1.2769034760953502;805;1.1706241685128589
518;-1.4628657241107648;0.4465281920303204;2.3047920574611576;0.2427878879637598;2.750920912976837;-2.838110644535225;175;1.2566370614359172
519;3.035811963521902;-0.2794226189871994;-1.959208558912144;1.0289510951720746;1.4065687552439086;-2.5405225712193524;165;1.256637061435917
520;3.126990318017973;-0.0628461277506273;1.6857411905501256;1.6622479499735645;2.509173252334883;-2.259483470142787;194;1.256637061435917
521;0.9343011527488856;-0.2394374877361513;0.6272823175008321;2.0767923686902265;2.10471745485526;-3.099806674071764;370;1.2566370614359172
522;1.191951808443189;-0.5766801076266989;-1.6306372962451134;-0.0736470205692149;-0.4234965025304096;-1.557188796610685;54;1.227682732310799
523;-0.156707999546824;-1.388713870720345;1.2336569438652552;1.625117831175117;-3.1319660168948253;-2.1072033294776715;145;1.256637061435917
524;-2.2393779720967166;-0.0891474421321423;-1.3922177836971;3.0169775614985523;-0.2053142237907833;-1.7272627884731908;499;1.2566370614359172
525;-0.2571714228093754;0.9946515310768969;2.176387120440585;-2.0258814066188062;-0.9953675430099111;-2.8633368692900447;505;1.256637061435917
526;1.9525970463675464;-0.8337066495129616;2.2830534967783374;1.303009500583695;-2.472540325209649;-2.2819580871344884;268;1.256637061435917
527;-2.145318152360168;-1.0295990706472085;1.3995075005541997;-1.307221092392895;1.385562905422403;-0.3945352340916955;190;1.256637061435917
528;1.0460263663721432;0.0987826957138122;-2.4215427925608517;1.2496926408590885;-2.2854597769379152;-0.02562433852398;503;0.6914416883530321
529;2.4099242895085897;-0.6009416740321553;-2.0466538773134784;1.6969454675323403;0.9428382409946128;-2.520513993243916;519;1.0790826573959045
530;-2.577187166392128;-1.2058411859361;1.647301570738821;-2.094401772789233;0.5785995515041312;-0.565764309651107;527;1.2566370614359177
531;-2.5290446909480964;1.013146838811046;1.1583907712672097;1.4305512197167436;2.466697032839765;-2.863721414291289;495;1.2566370614359172
532;1.774652519210644;-0.8717462695094603;2.052142466895396;-0.5864558885161563;1.5952512171608442;3.1814615620302167;350;1.2566370614359172
533;-2.718695627679764;1.1790431269949848;-0.4148048158952491;0.5225813030086065;2.285944503173709;0.5957391464033077;24;1.256637061435917
534;3.030423965550518;-0.8415586341850909;-0.1459725060550077;2.027335041132795;0.1061363047445774;-1.0249342888946735;458;1.256637061435917
535;2.436202960616757;1.309799220865779;-1.8242956275597488;-2.8492462067420528;-0.8266643183748731;2.2055872585496674;181;1.2566370614359172
536;-0.5688393480350705;0.281772643951495;-1.7571015295988412;1.888523558948572;1.249626648796383;-0.6456940215958447;262;1.2566370614359172
537;0.780399368913392;-0.5068278879219751;2.205598897084018;2.4441200159463383;-1.0600478751559868;-0.6047941035409367;932;1.1512048984899648
538;2.859052203780864;-0.8304477828538411;0.5842418989819437;-0.4473885419357964;1.7613631687991744;2.377094063594407;296;1.2566370614359172
539;2.897516611029699;-0.5369889240647011;0.6252483624577425;1.853589402604413;1.447681507529984;-2.978671317036404;194;1.2566370614359177
540;-1.1249695516712694;-0.1597751115639636;1.1315351192598688;-0.0224248949089114;-2.5081090710137133;1.0063429896044866;99;1.1499106758299318
541;-3.0155687074464623;-0.7998890211468432;1.755736000606395;-1.4611161408783129;-1.0941890216881494;-1.1911729881732416;140;1.2566370614359177
542;-1.919043501930333;1.1022477206116883;-0.914822622341312;-0.4392131798966147;2.555121292216832;-1.113994457074867;40;1.256637061435917
543;-3.367601583532553;1.4021390418772512;-1.839796907508056;-0.4496489475402435;-1.8353513798080752;-1.8881600859116456;97;1.2566370614359177
544;-2.1880363716904587;-1.749025244106409;1.1152825995487698;1.684238413639925;-0.7620886525789693;-1.5485582586036348;299;1.191068932392337
545;-2.968810099764239;-0.4872907302548681;2.525859456179256;1.561424084351151;-1.6799858773855911;2.70373947007032;205;1.2364653283193896
546;-1.1552456101046034;-1.130786744478355;1.6852909959573277;-3.1322252855461814;1.6006103756413528;0.4329628983641753;377;1.2566370614359172
547;-1.7650757598336504;1.522045673244029;1.468941285837917;-0.4930694638770164;-0.9487262402139218;3.1544006737079355;400;1.2566370614359172
548;-0.5542339694975023;1.2382227242256982;0.0137916552084695;0.0870528276722386;0.285273610479393;3.4052836385739456;123;1.0409371504570593
549;-0.634276623797138;0.4313198378934116;-2.440353860637339;2.2001477803830785;1.723730054985793;-2.8438557293028004;338;1.2566370614359172
550;1.912139612498425;-1.462504133378452;-0.4060961172665313;1.0425207977419766;-2.388851663816204;-2.9150594644390075;347;1.256637061435917
551;2.5639481744786234;0.4756622115160041;-1.7187327148578804;-2.523245388633827;0.7082157821734166;-2.46739009877788;285;1.2566370614359172
552;-2.818487121765125;0.5712310931737601;2.0549583552997763;-0.57301891204361;1.4805267481101745;-1.7347301545161635;196;1.2566370614359172
553;2.385627814562522;-1.442046750660691;0.6900274728507199;0.8799867921371946;-1.0378175522082775;-2.084543913485932;406;1.158657436048451
554;-2.338380447672958;-0.6580119165995212;-0.6188223323844213;2.788443331333142;-0.7014264446484563;0.7786393540023635;384;1.2566370614359172
555;2.229833950561415;-0.980448555331044;0.8751131917230401;-0.8646870227628621;0.1516108825409656;1.4571509165119734;44;1.256637061435917
556;-2.415253640459365;-0.79162846535667;1.683910442354517;-0.3067325724234509;2.5066802490904423;1.9143750214672093;113;1.2566370614359172
557;2.4290460625232213;0.3727473202161319;0.1897173948876062;3.014317531059868;1.5323307994057311;1.2637690431035908;245;1.2566370614359172
558;0.0612300077780256;-0.0806847442416793;-0.0726424152696027;-1.521142351742434;-3.1917646572926426;-1.7038378296950207;215;1.2566370614359172
559;-2.1496652061639576;1.0658875662395026;-1.3943533570102298;-1.4876544490362076;1.458438616936181;-0.2085753001666619;162;1.1350333586989454
560;0.0218480329131437;1.447774597829196;-2.142077828694065;2.1020551998268413;1.7166931955266889;-2.9735345519838634;549;1.256637061435917
561;0.1567141788759143;0.0197925519019621;-1.1896648730873132;2.7078511690202838;1.5649755573984168;3.011451196531086;142;1.2566370614359172
562;-3.3057422022860856;-0.0975097337522385;2.3218629713176338;-1.5653193258493483;1.407494017862279;-1.0107983095242488;260;1.2566370614359172
563;-2.5589297216604083;-0.2431893571503127;-0.0135173627313935;-2.401220513298448;1.5099860824772078;-0.7071890109521463;306;1.256637061435917
564;-2.647897669347867;0.2591699525570392;2.026279613290944;-1.6382499812974929;3.119777680862002;-0.8784656590555666;462;1.256637061435917
565;-0.7986887789988244;-0.2423206839288167;1.576971719143974;0.4511446229662917;2.141364182199694;2.8055435108256246;293;0.9925255644150676
566;-3.037364549553137;1.1811053349572078;-1.7282244634080377;-1.0413302428056872;0.474476923620223;-2.696883728097668;47;1.2566370614359172
567;-1.8525374922576203;-0.908661036688657;-1.5086697590238898;-2.9361497818651454;-0.9474627616975536;-2.23513991126479;326;1.2566370614359177
568;2.7334898132288314;-0.8695730789667587;-0.692698075304707;0.2404935409520504;2.395006704412443;-2.609846450441557;165;1.256637061435917
569;-0.3952924170320412;1.3649160084883425;1.0563263787331678;-2.63202956681636;1.2766433563060842;1.81817351451681;200;1.2566370614359172
570;-2.316969063134309;-1.7418020346070526;2.011815007681101;2.537808089485826;-0.7155098460279862;-1.3814063668377172;544;1.2566370614359177
571;-1.5822363778613775;1.1886192892322498;0.0766066655113234;0.5941631336840857;-2.74173431055278;-0.3682227518713287;62;1.0622369155658071
572;-0.444231572040813;-1.596097017381183;-0.3441014644765854;0.6188455386285299;1.1900387473016636;2.5722006835680475;456;1.2566370614359172
573;0.4782727505928874;-0.5975077725655267;-0.7808564448186669;-1.7898719318526528;-2.369879446711804;2.285433063361293;211;1.0535478905623474
574;-0.8679072365523796;0.3939050186243074;-0.2064837947556938;-1.8329809381483009;0.50304876786614;-0.0830477498931475;96;1.2566370614359172
575;2.445069031105496;-0.9128299657319452;-2.244313351271103;1.3278576945666245;-1.729171143356227;1.9915704475681049;387;1.256637061435917
576;0.8391054559083608;-1.4472426966051792;-0.2818947624807232;2.441813770377006;0.1543956409881644;0.7276250120169081;309;1.256637061435917
577;-0.5425603456369201;1.4692674915206638;0.55439035838081;0.8466485310168734;-0.175442700872531;3.261236863840491;548;1.0750625755073528
578;-1.407268767820972;0.9027868591831512;-1.2001716013930728;-1.9145626692881887;1.461446347441141;-2.396159826026409;189;1.1939039591481937
579;3.3786787321353278;-0.7021160690607399;1.7821028952662068;0.7612637343546335;1.787063374209901;3.005682129028205;246;0.5407033931877994
580;1.431366412223785;0.1071581889178835;0.4618106825340017;2.6116044361034287;2.052391225996685;1.182781441883698;557;1.2566370614359172
581;1.5750530920150738;-0.0763463242245741;2.4247653806887;2.0063694548753177;-2.9640068151149057;-1.9553607657386545;526;1.2566370614359172
582;2.06220679368097;0.909623754426062;1.419125562239258;0.0867703453285147;-2.3707207146147846;-2.244259476495458;268;1.2566370614359177
583;1.0170336403030569;-0.2819157101438769;0.7526677901623384;0.7668958743587362;2.3879486241991823;-1.813678490668178;370;1.2566370614359172
584;-2.035233486999615;1.1054114914928246;-1.5556806526554814;0.3169950792693962;-3.047502208849055;-2.846820583816169;272;1.2566370614359172
585;-1.6827679398442086;0.7787165691968387;0.0443493999995474;-0.4863676082333688;-2.206410896427373;0.3938287398077574;41;1.110393558533583
586;-1.359515532709714;0.4813546409117564;0.0837191875478651;0.3447848442823653;-1.0628589675726456;-0.2077030430328054;23;1.1634234188526804
587;-0.0453703571094281;0.2286206351611305;-1.276444021852512;2.341535046710772;-1.4634239362244683;0.0125894948612724;243;1.2566370614359177
588;-3.000667624952347;1.721764218099188;-2.688723060056042;1.6324900879346378;1.5993857008833388;-1.08156546840803;166;1.2566370614359172
589;0.5519314390348078;-0.9745986507586174;1.5450982091538483;-3.3233501783835058;1.5439016873300797;1.7007165502064736;377;1.2566370614359177
590;-2.5935792431074023;-0.7016563531700672;-1.7224969027607837;2.559204347153565;0.657744425872923;-1.604787678074039;524;1.2566370614359177
591;-3.0311808718812685;-0.7887482716330094;1.3528151566219129;-0.3809854265913621;-0.6866669091407778;-0.9019204868565712;825;0.8803076362953016
592;-0.274352380074427;-1.0446372915341688;-0.1509577010180248;0.6418542680686348;2.524409149061376;0.847890387602249;472;1.256637061435917
593;-2.834118972851389;-0.5173475252973719;-0.8487931925682598;-3.125613006197967;0.2025409761129016;0.7358415291434993;179;1.2566370614359172
594;-1.4577794447630747;0.6957551249945934;-2.138349005094519;-1.2101271678360217;1.5973038240049913;1.502144676988987;316;1.2566370614359172
595;-0.8192583897100015;0.744901437557133;-1.7026302864163851;-0.2730566888069305;-0.1336074188475877;-1.5808772338330048;506;1.2566370614359177
596;-2.1873467348249225;-0.3925265809194195;1.8410278425724755;0.0316317982667693;3.040744731106624;-2.919283734265656;518;1.2566370614359177
597;1.2451897257005338;1.513578637565581;-1.5222189927549756;2.18475560544993;0.4237458978862771;2.324768309551734;359;1.256637061435917
598;-1.552436338645096;0.6319646298398718;-2.2860844164939724;2.650481983180585;1.068186646849583;-2.645049305581213;549;1.2566370614359172
599;2.639832223831936;-1.2369297377259254;2.6036578957017094;0.6151842484728156;-3.007914731811945;-2.5678586692720837;526;1.2566370614359172
600;-2.6982169584431155;-1.2052113905880515;0.3639735235989851;-2.2984775745974906;-1.7640695971544795;2.13454491807545;147;1.2566370614359172
601;1.5891526789939867;-1.7366867779795652;-0.1322360980530494;-0.5899089580483154;2.092768003485123;-0.7969296430194278;445;1.1699315946929871
602;2.7120057642220434;-0.5618368015223854;-1.6836339918108891;-1.1903193208243807;-2.579255370000583;-1.5765391470251915;407;1.256637061435917
603;-1.0875415555044985;-0.2258444144518209;-2.3994547880179367;1.0805276944151383;1.288184711418526;0.8119779382801116;422;1.256637061435917
604;2.8595347012006065;-1.43707814441069;1.33219736658144;-2.35388907237246;-1.672111258012148;-1.0304061658158932;358;1.2566370614359177
605;0.9856174510299134;-1.693237805000008;1.0076027479275376;-2.4362448652858024;0.6841136034337425;-3.328946915385071;403;1.171594874303654
606;2.923029512499844;1.4604019398183714;-0.0098330637970657;0.8478076160795345;0.8649716315984946;-1.5084029485596306;415;1.2566370614359172
607;1.3802055167096867;0.4124471092169657;-1.5099957864531188;-0.7006605856541402;1.9879724643944616;-0.4023724467526689;61;1.2566370614359172
608;-2.45199431113794;-1.4270564364651404;0.7371288676746119;1.2143121013273337;0.1711698573681206;-1.135040947043081;544;1.2566370614359172
609;2.511565092110691;-0.6498188129101637;1.8808685449724252;0.7519872012073917;2.3133955123556658;-2.588156733936817;194;1.2566370614359172
610;1.0572386402343226;0.1841984747016064;1.824401243103689;2.1662688109639694;2.526466800461763;-2.0438680492213317;370;1.256637061435917
611;-0.5246481440834828;1.1958793461388308;-1.203162267744931;-0.2323131025255551;0.5926023949403737;-2.2953360487249834;595;1.2566370614359172
612;-1.5299936541415855;-1.0826489683953204;1.480921399402134;0.7354113007316886;-3.18160405172126;3.0536902493310927;332;1.2566370614359172
613;0.6735741976733682;-0.4344497251804294;0.5230661114208973;2.373028878476328;2.803618935004316;1.0893336272169885;580;1.2252894605599045
614;0.6756883963020425;0.4949472762828447;0.2890472210864622;2.324929550622807;2.37597764618924;1.1325943726662473;580;0.96988981686226
615;-1.1140370690863286;0.8043881447237409;-0.2539111910562611;-0.3862006663031845;-0.8827629960107461;-2.879063148317313;100;1.192153192352858
616;-2.1374646028604203;0.9820050125633328;0.9494503816279;-0.8190259905589828;2.9504006513857552;0.4454776032361787;138;1.2566370614359172
617;-2.872990661307806;-0.0858940020750218;-2.0331867106739887;3.0296403576601234;-0.8640669725427174;-2.304068114062356;524;1.2566370614359172
618;-2.939422320797844;0.6538833246123597;1.1780146492696546;-2.684401634495264;0.2369569241137829;2.8203857985587777;367;1.256637061435917
619;3.2509829616418706;-0.6876037506675619;2.301329986009834;0.9354637274899646;-0.1957608268773924;2.8285788352634857;197;1.256637061435917
620;1.0299355703315194;0.976749290442111;-0.5060217665346501;0.1437721364936562;1.201602919760617;1.2233262815923718;214;1.256637061435917
621;-2.299353815257059;1.2399973530105526;-1.6244976887409803;2.247654760936845;1.138379260052114;-2.861043339276246;598;1.2566370614359172
622;-2.9261718487939192;-0.571493679302443;-0.0967573293710036;1.8520978244253736;3.2098853896256974;-0.2452959990680683;153;1.2566370614359172
623;-0.1667330321439957;0.7382301222092116;-2.257628329361745;2.4109532649498155;-1.6381471712762252;0.5663369398219977;587;1.2566370614359177
624;-1.3981644248435263;1.2216208191456233;-2.326513602750853;-0.0155965171062973;1.9383909312540435;3.186401851919055;70;1.256637061435917
625;-2.9418626524082265;0.0490146837047181;-1.8052180359395305;3.0605610549378435;1.122043547943474;2.92501913419819;273;1.2566370614359177
626;-1.3246447655061475;1.1818198807203664;2.012582401611881;-2.3166891221725354;-0.4777895180541218;-3.022450823563558;525;1.2566370614359177
627;-2.953147634353939;0.7795233861480527;-2.2698308907490574;-0.3642582748796896;2.5806765727146144;-3.227387068581112;300;1.2566370614359177
628;3.249212498249132;0.3990111845030288;0.2493270042155152;1.6146693696002847;1.9245157660999468;1.4855244587730263;126;1.2341130009289585
629;-3.4100842752690053;-0.8930218720390319;-0.686504992285406;0.5065747075960677;2.7765501089824665;-0.9247859159281706;213;1.174467782385659
630;-1.71845583571718;-0.549981272853151;-2.185103634041845;1.2669191333775762;-1.4860692550731809;-1.1381072866008943;366;1.256637061435917
631;0.9605802990759724;-0.4872658171433701;1.7784391674896924;1.484237598771521;-0.3368066885431179;3.2482446750130234;502;0.8921923456035868
632;1.1617537943775431;-0.4076861125163573;-2.243892615632905;2.636370750261248;2.2161439256651247;-0.1431593238765729;286;1.2566370614359172
633;3.078606055146216;0.918657972561443;-0.493141254698525;-3.127459913393268;1.1566116380195897;1.0026346840221163;265;1.256637061435917
634;2.1679449450381783;0.2473171767145245;0.073180519540208;-2.587828762322565;-2.0202015072188377;1.0101162192918782;53;1.0858552082840716
635;-3.471730054854776;0.7178766378623063;2.1450930249621614;-1.233934679594235;2.12354274334542;-2.226683890924834;552;1.244448956275659
636;-2.4228094183230136;-0.4682465672235656;1.9128693269516244;-2.890054455594034;0.467429075225119;-1.109188723835116;530;1.2566370614359177
637;2.557482583311497;-0.4919989909819399;-1.3349259606274833;-1.7920050824530136;-2.1947909252337885;-1.3890164330630932;602;0.8338797620279448
638;2.851874116406296;-0.6081187831657303;-0.9717518659805662;-1.982898738397916;0.5090744611784411;2.011107932887007;217;1.1828313375814867
639;0.5873444563779773;-1.5603103210867864;0.5546563797436408;1.487253123219492;0.3490557915135138;-2.6687144840963897;339;1.2566370614359177
640;-2.447259366856666;0.5728127536137395;1.5478189281254104;0.2465557613885664;-0.6726340960381011;2.774031537944972;400;1.2566370614359172
641;-1.981049995334872;1.1724124963499216;0.3926434394676701;3.0528262043594747;0.1552895343354111;-1.9186223517153385;431;1.2566370614359177
642;0.1915511997915716;-0.6051379202478981;2.3920944755640763;-2.7680879363944544;1.5579167759202974;-2.2305013194024226;430;1.2566370614359172
643;-0.5014466128464496;-0.2189805918411356;-1.0961632226013198;-3.004323326747265;-1.8748302438682745;-1.1848839881497035;280;1.256637061435917
644;1.2366886752871986;0.6374880022320056;2.1522562093121778;1.9134655168537096;0.4397536310961765;-0.9362574803451496;266;1.2566370614359172
645;-3.048138540999641;-1.026716543903949;-1.8571135024422252;2.285378639331703;-0.7868860238326124;-2.573193903109636;617;1.2566370614359177
646;0.5102724841621508;0.3091695824729834;1.9008054618511057;0.6537704536367271;-2.5664134879273712;0.0239407510120095;219;0.9960705477641532
647;2.245862511560757;-1.2772766529836346;-1.6559922098749973;2.6206751910884605;0.8631296760686861;-2.8078201670866805;529;1.2566370614359172
648;-3.276366094212553;0.702868677653121;-1.7165273181412684;-0.6379444932799694;0.5623333097129314;-0.8653290822319868;47;1.2566370614359172
649;-2.7235143579343752;-0.1378813633494444;-1.4349700385915898;-1.5022105814899422;-0.7608227317390082;2.5689795944136526;67;1.2114689451709724
650;-0.2511103797170151;-0.7273545004380763;2.3133338920636164;-3.0956067608114317;0.3148407848069987;-1.279677299241675;479;1.2566370614359172
651;-3.4165068020357414;-0.3199655107615153;-0.0614974762620549;0.7377397464415253;0.3271443074422541;1.3098331086360149;241;1.2566370614359172
652;3.068094951790033;1.5503163326971436;0.7652805119132546;-2.8685513398520963;-1.3055126223665316;-0.4546538220145726;202;1.2566370614359172
653;-2.380581309119398;-0.3406966754988469;-0.6160660301449472;-2.135338466307095;-0.6452510357850239;3.1482792292088067;649;1.2566370614359177
654;2.262323463532216;0.7674918170097009;-0.1608622360192751;2.2667912988070404;-0.1696559696293049;0.6288311494454328;143;1.2566370614359172
655;0.6812413137947765;1.5024400611656428;1.6364059614288904;2.9149555383596293;-1.580046622347548;-1.2966839942621953;372;1.2566370614359172
656;-0.6355497127384213;-1.1539848357957714;2.4562017544817767;0.238045498351769;3.072141629231656;-1.959135126477549;468;1.2566370614359172
657;1.830973006891193;0.2257347232307726;0.4940657468484051;-1.7629306384574;-1.5662554738128918;-2.2793876937892925;284;1.256637061435917
658;-0.3144988546988999;0.7935725078281822;0.7549488777820954;-2.046691381081425;-1.818952299344207;1.8143637387954987;303;1.2566370614359172
659;-0.5176987250738596;1.371555548000129;-1.5338420653753193;-0.7750060948059354;-1.1085944365911904;1.7683898351614582;893;0.8257052110325848
660;2.138888685161996;-0.6052167370849841;-1.379739355646103;-1.1721248781277085;0.5939951085574156;-1.9326357331307584;1637;0.9426078547364566
661;2.2674913782061594;1.1252358409257854;-2.055341200016534;0.9526097255224968;-3.149906035659339;-2.434159974054228;434;1.256637061435917
662;1.1488722112271694;0.5491077782848086;-1.1436690925027162;0.2510696552637237;-2.035961862690145;2.72128446866518;357;0.9860467119095248
663;-1.794141836809274;0.4352412225798772;-2.37211712179075;-0.0466961313043102;-2.102013138174644;1.842781157955916;369;1.2566370614359172
664;-0.3440960888090426;-0.4336116166140074;-1.3711608350797184;0.9094274019519868;0.5436850006291919;-0.2591048494411273;317;1.256637061435917
665;-2.378228896356681;-0.0988602850288332;0.8274771818808518;0.5867757072960441;1.474434110361198;-1.1747357617911744;28;1.2566370614359172
666;-2.875790094338408;0.8987607753984542;1.6977936191309362;-2.555019535949156;-1.8153481255358488;-2.508350850486772;336;1.2566370614359172
667;0.1154385923367419;0.2386679252171676;-2.612248639995922;1.051150854113572;-2.9089505042129757;-0.5042128603555319;528;1.256637061435917
668;2.314569225436484;-0.3186959050333841;-0.0896469870952004;0.8819339699480236;-2.385013011611845;2.9837195610611924;469;1.1623256211786737
669;0.430408128179872;-0.3304980565976059;1.1407692163688947;-0.5195293752471835;-0.6559840954756386;-0.3777973514256931;121;1.203962545415249
670;0.2681546590954788;1.6636511675237955;-2.114067363881569;-1.2730569113582288;-0.3724451792755494;1.718504840605818;487;1.2566370614359172
671;-2.783572025301114;-0.8055214839237146;-0.6718116243878011;-0.7999798642840665;-1.9352175857449008;0.121811218393711;397;1.0310282628995502
672;1.7617987145128804;-0.3801856024581203;-2.7581730334290904;2.0092659996998723;2.470668791479265;0.2221112040157918;632;1.1030686136426124
673;-2.937383201243213;0.82150454722727;-0.416540340405141;-0.9779596150295676;-3.079060818160776;2.938540014466084;239;1.2566370614359172
674;0.1232055341702483;0.2463485337077995;-2.4174827284786526;1.5276570349338914;-0.9421924236831136;-1.86636059054882;460;1.256637061435917
675;2.2299688452859314;1.224704678181919;0.0129128567663367;2.7605795854933546;-1.4171853459965809;-0.0814499784175789;143;1.2566370614359172
676;-2.629109040379604;-0.1564400847725706;-2.732325814631104;2.068530079504649;0.8799965630859283;2.3766634363052352;273;1.2566370614359172
677;1.1135390585246032;0.581761108247184;-0.9875370850225136;0.2961980204351476;3.006528059854361;3.035299335199747;471;0.7615062441540605
678;2.7020929001515963;0.8802476474451514;-1.6244661524712365;0.0168981528878938;-0.2717803264177773;2.21697930646603;220;1.256637061435917
679;-0.6671217089976007;-1.5776802745637113;-1.4039109286838674;2.345468294031796;2.02031569719762;2.157692857290286;254;1.2565622162386147
680;1.646980740004937;0.4327488557350554;2.336691212957723;-1.9323467715300335;-1.4630660595565517;-2.111404072730952;466;0.8283620263561245
681;-0.7003489106873828;0.4021177594970433;1.7788839530083844;-0.0010728852784801;-2.255514403438452;0.2369996094725561;99;1.067972233362282
682;-3.233152510432384;-0.4383412824444274;0.0606983404105929;1.7178975667522458;0.352509138338769;1.5627109838954143;651;1.0430068956347154
683;-0.7773865264010136;0.7392812382527494;-1.886250290873142;0.8665726598974518;2.577309477647894;0.9458424424833614;416;1.2566370614359172
684;-1.8751945854495415;0.9812467939450812;-2.474517006704125;1.1704048876340305;2.1616883842109367;1.067810656075974;416;1.256637061435917
685;-0.8360956780235538;0.5800390249690879;-0.3448587337057048;2.019011872951843;-1.4418645542893598;2.572189806772319;223;1.2566370614359172
686;-2.645600999797617;-0.1850895565840341;0.7437893489532288;-0.8476490401463682;-1.7297396536968124;2.3098802942112315;195;0.8029220232558643
687;1.0285478848631258;-0.921180634075308;0.2844260601309133;0.4256934524551126;2.6546670617016423;-2.6874841601496544;583;1.256637061435917
688;1.736655105634605;0.9309034956778494;-1.069443044784605;-0.6642608631583151;3.122084567616765;3.3908545763411566;677;1.256637061435917
689;-3.194614709917769;0.4145449383325593;0.1173225852108368;2.0920317900356475;-1.3823457831012949;-2.094204027995691;341;1.2566370614359172
690;-1.617650618334052;0.7152773316820427;-0.6445811739967877;-2.448226479194031;-1.813964277110476;2.7350017597108502;73;1.256637061435917
691;-2.0059024126688945;1.1629256745009462;-1.7480849801098608;-2.278778658603642;-0.3327787362286762;0.4700830655904378;186;1.256637061435917
692;1.2004923057828998;-0.9498810855758804;-1.8578318637294748;-0.123693016766917;-1.5651200200680695;1.216787606417301;322;1.2566370614359172
693;-2.249296946430232;0.6436250038589216;1.4683275450356148;2.54858802524173;1.0291052724033372;2.648718203266078;318;1.2566370614359172
694;-1.8091698481291936;0.7595952465401716;0.2568130056039051;0.7525937566767131;-0.5915529633601682;-0.6946783592770001;586;0.9670319152495284
695;-3.0533567407512083;1.0449189929523075;0.8268188351509325;-0.4656904359019834;2.4395154550908584;-0.8809459656917927;138;1.256637061435917
696;-0.241437501261844;-0.7141567700605428;-0.0212915912131706;1.391098591246651;-1.1995854377502824;2.173494085523878;38;1.256637061435917
697;3.0763031974388646;-0.1853849987534097;-1.7825899013729969;-1.0603304796822444;1.18274890559281;-1.8805352091729843;660;1.2566370614359177
698;-1.605577511706577;0.5742244427255099;1.704757734848108;2.204827511071504;2.891121526852887;3.165699108560362;318;1.2566370614359172
699;2.525569987063277;0.897270491430179;-1.7489027298905824;1.0072448679027104;1.774085642976314;-2.055509293057841;91;1.051675880477999
700;0.4010097466883064;-1.3835700504949096;-0.3046275123061623;1.185013322448873;2.473087506738595;-2.564982299164938;687;1.2566370614359177
701;0.9881441454557776;-0.8066089231317737;0.9720158247355384;-1.7438805536098692;-0.952799470981071;0.774742648350408;110;0.9882945705651096
702;0.4603540874691162;-0.8026975689043687;-0.620132440438683;-1.135721601657113;1.0672002185022271;0.3382213958900804;161;1.0304116033730644
703;2.849457205838577;-0.5163309408054935;-0.040929138362777;2.6370905189400364;1.385537400168918;1.8921675444517083;557;1.256637061435917
704;-1.0899119621986126;-0.0667524282910164;-0.0240738219085178;2.1596260182155365;-0.2255383682011576;-0.4850391219345551;184;1.2566370614359172
705;-2.883613290728599;-0.5627428938509795;-0.0215114860771409;0.6923642244056432;-2.8217659181317254;1.050705106954123;314;1.256637061435917
706;-0.9647664245732562;0.6214031732040735;-1.4431500758023257;0.1215819159814861;-3.421020274637316;-2.93959848893686;584;1.2566370614359177
707;-2.376854710773755;-1.3786917656435371;0.8274249291645059;2.289773320376731;-0.660549590081459;-3.2967094032172075;299;1.2566370614359177
