Komment314/test_diploma/benchmarking/path_finding_for_benckmarking/pre_rrt_star_results/10_4_tree.csv
id;joint_1;joint_2;joint_3;joint_4;joint_5;joint_6;parent_id;cost
0;0.0;0.0;0.0;0.0;0.0;0.0;-1;0.0
1;-0.1806377157911554;-0.442755122072497;-0.1570374215180238;0.5907391994084499;-0.4910421124856945;0.8577404688933822;0;1.2566370614359172
2;-0.4109954296088546;-0.5511622019108773;0.5903593865951312;1.211438492928784;-0.8166108675352601;0.1762308821075487;1;1.2566370614359177
3;0.0011470881452618;-0.5945120137151818;-0.7840437279445363;1.0297671528335384;0.4632940240902626;1.020285605114322;1;1.2566370614359172
4;0.1713489724220201;0.249857825764227;-0.2884898489860139;-0.1577468058560921;1.1234019516124236;-0.3423520236776949;0;1.256637061435917
5;-0.863282619513205;0.0494668182920018;-0.4216348349188161;-0.0486137757786932;-1.0263805634706535;1.182515661693573;1;1.2566370614359172
6;-0.6950774185389492;-0.9432973685262604;-0.9327407952018868;1.6582296263810603;1.1027312299032008;0.6371393170079759;3;1.2566370614359172
7;0.8352410680720477;0.1162633456028259;0.6149636565349282;-0.3576968278682591;-0.6014456094158434;-0.0113029305041215;0;1.256637061435917
8;-0.9365467716342668;0.5171925725931322;0.2940453557932531;-0.1273403599750351;-0.2954995974185304;1.7324417385234916;5;1.2566370614359172
9;1.657138244906917;0.0012272623100976;0.5530448679281831;-1.2130180721911674;-0.9657989117741346;0.1377834139873521;7;1.256637061435917
10;-0.2393968366189502;-0.9236712965774816;0.7705846095196128;1.338979788156444;-1.1710832722805475;-0.9357623745070828;2;1.2566370614359177
11;-1.189411743901928;0.2515275610733577;-0.6946215977184079;-0.3803597329152351;-1.5339381678477604;0.1876508064870384;5;1.2566370614359172
12;0.5082393531684062;0.54110274589115;0.760496486995961;0.2069443370311557;0.6378529745104681;0.0;0;1.256637061435917
13;0.8045669342354744;0.5995042755581881;-0.4816289890155085;0.2083489894595535;0.7830139797561395;-1.2191223738914947;4;1.2566370614359177
14;1.1297943653216744;0.835288354236513;-0.8640115557608581;-0.7257265829144046;1.0608501215255843;-1.786452230813682;13;1.256637061435917
15;-0.4595925809183559;-0.0732347169375957;-0.0805227990430259;0.1919527404186038;2.045821940204266;-0.5878351542848907;4;1.2566370614359172
16;0.3798149190172761;0.6944702168897832;-1.2269732439938126;-1.5866403827217015;1.172982087912217;-1.4527600811005723;14;1.2566370614359172
17;0.4480753244412411;-0.3187990843375582;-1.1635519097427969;1.6633944535669;-0.2930124014198099;1.4514060184507565;3;1.2566370614359172
18;2.2623718571004314;0.4390227977587027;1.008085917302204;-1.5895239241804846;-0.2746242886964063;-0.3033771862508181;9;1.2566370614359172
19;-1.8620522959457364;0.6498707419362478;-1.302246821344877;0.0940814100481359;-2.1445539020370874;0.1583298785096863;11;1.2566370614359177
20;-2.285066966180472;0.3368555825746868;-1.6064820010918537;0.2445740165753653;-1.16726662524423;0.6399098950740354;19;1.256637061435917
21;0.1688365979787843;-0.9758569044478712;0.7925438793172196;1.0629815759619117;-2.0558431282140286;-1.6775855367539736;10;1.2566370614359172
22;-1.5407942353903423;1.1306166094366434;-0.7910364680094475;0.1775667256011711;-2.603902588306284;-0.7166023101405055;100;1.0730228526710848
23;-2.252027512184807;0.8353206931875407;-2.0722021353300946;0.4830567148277666;-0.7646045494409637;-0.3054321827289443;20;1.2566370614359172
24;-1.576910923076279;-0.2220238711051468;-0.0330580977911996;-0.5015907084946657;-2.033299403325505;0.8968794536957162;11;1.2566370614359172
25;-2.7451795538430277;-0.5524779284211706;-1.777133331729828;0.9772032327227368;-1.097081836313596;0.5642417546840159;20;1.256637061435917
26;-0.0481943775040635;-0.4358688235745655;1.2872007891220865;0.1224093528933815;-2.381151217334774;-1.7501128715792522;21;1.2566370614359172
27;2.18206538085604;0.3834003632676726;-0.240313785980921;-0.9347023817754828;-1.5708892277766535;0.4285067519548566;9;1.2566370614359172
28;2.72639731353924;0.0677514355146164;0.1776135472385604;0.0279151113423578;-1.291102062571779;0.4887450613784636;27;1.256637061435917
29;0.5402504161980892;-0.0299542139760942;-1.126733715042097;-2.4625782705725925;0.9539644227416144;-1.0018471014810415;16;1.256637061435917
30;-2.534017539443117;0.3708290005806116;-1.318615582354954;-0.7252061722777854;-0.4655724218338019;0.6569591850076126;20;1.2566370614359177
31;0.8536727930731136;0.2328576478804455;-0.1544698388635398;1.3117505931114262;1.008308302315337;-0.960259806169617;13;1.2566370614359177
32;-0.6174131165741419;-0.0843228898618612;-1.4531081125099254;-0.4317245986588079;-2.0624793807469937;0.7185583246383676;11;1.2566370614359172
33;1.0929643491582566;0.4422151403750077;-1.883430295452136;-1.43936622868062;0.474984468900012;-1.193731592644507;16;1.2566370614359177
34;-0.0536895021361555;-0.9245262266621654;1.200642521975512;2.172788107601399;-1.346067717852678;-0.1396197482431624;10;1.2566370614359172
35;-2.021540675497578;-0.427645956962963;0.8940223911863195;-1.158916594097432;-2.250748583451604;0.8789644772853648;24;1.2566370614359172
36;0.5066733228940317;-0.6815568549390894;-1.2377281624050802;1.9618096082665384;0.4940324910539496;2.305874505194048;17;1.2566370614359172
37;2.542235028905404;-0.0652877400101634;1.284043610421344;-2.085902045342656;-0.1702324773228931;-1.2589098402689145;18;1.2566370614359172
38;1.8533184880545155;0.7084217444068407;-0.6313804484038239;1.5837300902836762;0.780542619648674;-0.9405064216567776;31;1.256637061435917
39;-1.6850374735702134;0.238928990639802;0.68568776037568;-0.3091053320333058;-1.9332165660848133;0.0073261897434903;310;0.9744150858134962
40;-0.9308648767300358;-0.0675251461003024;-1.8188794097697656;-1.557811592682232;-1.7939418994483145;0.7999806505931928;32;1.2566370614359172
41;-1.348586267329234;0.3232417038000775;0.1675657541632146;-1.0009774258403354;0.4047749078202134;2.052003975789664;8;1.2566370614359172
42;1.9791690234385944;-0.5227159435211307;-0.6852925703573784;-0.6482795095380809;-1.949894591478319;0.970017384253011;27;1.2566370614359172
43;2.695257967143539;0.4784947313856198;1.189327044695849;0.1425245946541517;-1.8917741660189609;0.3794268116877017;28;1.2566370614359172
44;-1.4836827308463154;0.0639072618954642;1.1060737727690608;-0.5901828251382619;1.0402658544282437;1.8514221999791944;41;1.2566370614359177
45;2.9293790723137114;0.0768489078346267;2.0423971767413;-2.498906906207839;0.0820935079188533;-2.033320466287519;37;1.2566370614359172
46;-1.1947079400033025;-0.2607398564083346;0.6003953417949676;0.1440908003450807;2.1719006126383262;-1.3101562907686295;15;1.2566370614359172
47;0.3030803825418371;0.7272309414144618;-0.9278392572202466;1.8407564691905844;0.905970458539704;-1.3386237048646017;31;1.2566370614359172
48;1.343959279533597;-0.46945741047711;-0.1181898578803133;0.8710691685601648;1.7901999820713252;-0.7636930990790285;31;1.256637061435917
49;-0.3008270407430561;-0.0518554260777308;-1.628497090710101;1.9348034668637129;1.0010554413079642;2.652362626640983;36;1.2566370614359177
50;0.856390054296406;-1.032519695996421;1.6489296861396614;2.4112635964481712;-0.652425166422933;-0.1556630094437892;34;1.2566370614359177
51;-1.9096582898210368;1.0784948145999735;-1.6619833496609804;0.021471852623295;-0.2513017682916585;-1.1760449463384854;23;1.2566370614359172
52;-0.8688669284310807;0.7622197545338216;0.0281386810111036;-0.513768804420852;2.4707123704908702;-0.4353066491015349;395;1.0352464217648427
53;0.0976711727933745;-1.4319438737850725;-0.1204615347969468;1.5440505755400524;0.3053161637410971;1.3927663626082247;3;1.256637061435917
54;-0.5683517012252421;-0.4225514462918722;1.6064373163362395;2.7368297616041795;-1.649467388613236;0.5585328726623296;34;1.2566370614359177
55;-1.7212641546766352;0.2856463475704714;0.4607333000519008;0.5625781626100337;0.0575716970342522;1.2020551803703965;8;1.2566370614359172
56;2.4841925476321074;-0.4398653393944557;-0.2521746425121343;-1.200985006747034;-1.861931972823699;1.8735724701414032;42;1.256637061435917
57;-0.530012685195783;0.7883880398841349;-0.8487248163163492;-0.2856980723120729;1.6889927906360434;0.0411658970028377;4;1.2566370614359172
58;-2.09546855901182;-0.4332226006080958;1.0356458106605275;-0.502814756210815;1.8147285650454663;-1.260005786895249;46;1.2566370614359177
59;-1.9744077328931744;0.8340327972322078;0.555318069230183;-0.3602928163801329;0.0616016692919152;2.5499800374664767;41;1.2566370614359172
60;-1.4722928387649312;-0.7084250052389969;1.5922135152256591;-0.3541457993796812;-2.281338637807523;1.1290924743679778;35;1.2566370614359172
61;-0.9655261910015938;-0.2718733081012564;-2.268216130776178;-1.4795956723512658;-0.864452493198093;1.4813068212227187;40;1.2566370614359172
62;-1.7187951938127282;0.9005847046809865;-2.035193794802348;0.0334505245853302;-1.2168372725928656;-1.8388930741432303;51;1.2566370614359177
63;-2.502898212826779;-0.9765679995976588;-1.2246980101708973;1.6379860677784432;-1.0547814191660554;1.3368839762834803;25;1.256637061435917
64;-1.6988314048975153;-0.5477471081176593;1.2334881898213723;-0.5901871640477714;2.1055841900185146;1.7643067935591767;44;1.2566370614359172
65;-2.118239771136276;-0.1149200272560782;-1.6980236137391942;0.4345624257417113;-1.1703893223123796;-2.1729573986405266;62;1.2566370614359172
66;-2.2788564352918947;-1.005003783465539;1.320440760889687;-1.2352079873574382;-1.7390530677560792;0.0245067892615221;35;1.256637061435917
67;-1.8685513598847412;1.414999442595515;-0.0400268136109866;0.4251976522908305;-2.1448436607590105;-1.4614289342002709;22;1.2566370614359172
68;2.913221507233992;-0.8298999958709902;0.8022389509149183;-1.220563890792742;-1.9757436809904545;2.21682071722272;56;1.2566370614359172
69;1.7336964251640687;0.1589866380767027;-2.569503411288544;-2.088087679521674;0.0773955573007894;-0.9968358264229304;33;1.2566370614359172
70;-0.3201245736088677;0.5824686535505441;-0.4984745080207666;-1.9096695358359372;0.621774991882093;-1.823960237156748;16;1.2566370614359172
71;-0.7811037684233547;-0.6829990466311008;0.2646971772259329;0.9163831718304316;1.939566566498438;-1.993279702717861;46;1.2566370614359172
72;-1.5982607232479942;1.5737047474492012;1.3502891067125478;0.0623435235458643;0.2124125785416264;2.7891268140722287;59;1.256637061435917
73;2.6790277325399363;-0.2052712725180023;0.3630742262929071;0.0243145229533079;-0.3533713472625264;1.25595031795739;28;1.2566370614359172
74;-1.1807305278345075;0.2298348303223663;0.7430593312587322;-0.900920198942424;2.751248513736346;0.2420011287338166;52;1.2566370614359172
75;0.877318192990483;-0.1439402072944757;1.5003113472659992;0.7498703342030527;0.970883008067213;-0.1436314635736994;12;1.256637061435917
76;2.837855699567468;0.7357613789112626;-0.6303020628503826;0.8558650394394554;1.0521311175641033;-1.0148483368186505;38;1.256637061435917
77;2.7345947707746454;-0.1611655285747213;1.1947080438672166;-1.5733089213874467;-1.0099783998371294;-2.005258361393779;37;1.256637061435917
78;1.5439124234650148;0.4684371869934791;1.5502133169558776;-1.67906399036001;0.4204173835735906;0.2230115227864846;18;1.2566370614359172
79;1.8367651048893996;-0.7415941379802315;1.4473993225823258;-1.3539127718759845;-1.3838318817721402;0.1129944718254087;9;1.2566370614359177
80;0.4775642595331399;0.2831267277344202;1.7454823738209857;0.8250863161381433;0.7913109079214845;-1.2108404002461164;75;1.256637061435917
81;1.7451592130713784;-0.6990871073518882;0.3085398594127201;0.3388228244563783;2.0691530315716364;-1.6704710727630028;48;1.2566370614359172
82;-1.8086747881976533;-0.5437729764002069;-1.913184857231234;2.178466031152335;-1.4292528039148356;1.3961921661616847;63;1.2566370614359172
83;-2.4828119513291527;-0.1847780091064238;1.9514014010624472;-0.0899758281804729;2.1583057554296903;1.5105858498237406;64;1.2566370614359172
84;2.264609221163943;0.1446075325833108;-0.5176890176863095;-0.5697516890726673;-1.9892465720386767;2.712708297581719;56;1.2566370614359172
85;-0.0013306639955208;0.7228155635524486;-1.5909530679304913;1.6710077932321088;1.864641391084584;2.383020690452087;49;1.2566370614359172
86;-0.6696571550978213;0.6738580342559087;-1.2338117054701454;-0.5117064696964959;2.22712822124264;1.0695420706135947;57;1.256637061435917
87;-1.371438195248658;1.3519711292729335;-1.4390240955482585;0.7426021527393458;-0.5607624311363635;-0.1412931795413787;23;1.2566370614359172
88;3.0977531637672238;-0.2266639276086533;-0.3592768947507977;0.0291676207104464;-1.0540477945203814;-0.5162939871923423;28;1.256637061435917
89;-1.0403095990275475;0.9123178355448563;-1.6012840671575752;1.5801911794826573;2.5311079134297843;2.277113403833653;85;1.2566370614359177
90;-2.619584205669199;1.1957123375194352;-2.000320653033403;-0.1743254896568371;0.6367715369903905;-0.8297516821097379;51;1.2566370614359172
91;0.6095598814496006;1.1948590198268827;-1.4046554108292766;1.790026308113807;1.8622336111151068;-0.989103189522485;47;1.256637061435917
92;0.9886167728643596;-0.0029032085264952;-1.6394890175910977;2.0511404986253634;-0.2348878855177082;2.7366641699986;36;1.256637061435917
93;-1.467112228972686;1.2856555581268445;1.317051170920951;0.9259090772118752;1.0509414524363907;2.618881276847442;72;1.2566370614359172
94;-0.656847554362678;-0.901234435061666;1.091924325094557;-0.6180602646566782;-2.436236633168888;0.3989714512626054;60;1.2566370614359172
95;-0.7077402472385859;-0.1374052723543395;2.047442190819246;3.0190984297801;-1.4968895835824136;1.6452519301761683;54;1.2566370614359177
96;1.19817620676608;-1.191267182547694;-1.1232656800259528;2.809431444889947;0.3744579399405768;2.4923703618584985;36;1.2323246618056594
97;1.630483192754824;-0.4031995027880204;0.3602662023520437;0.552103623697755;-0.0934801355850743;0.9486999214514692;73;1.256637061435917
98;1.8240618740238723;0.1684018646158971;-2.708271856082766;-2.552343248668961;1.0123545771292686;-1.676500346478502;69;1.2566370614359172
99;1.7812987894320091;-0.236116221265377;-1.2410874215505474;-0.6751853010407116;-2.619581985842748;3.231218589540568;84;1.2566370614359177
100;-1.632143927895767;1.019039108643336;-0.4310824850651296;0.1739261072846595;-2.152690232294758;0.1763764259969232;11;1.2428807858577018
101;-0.2440105497276501;-1.361592676954947;-1.065473384664512;2.4755722280036947;0.5384746490968552;0.1936846279295547;6;1.2566370614359177
102;1.6735679462549062;-0.3382074485823508;-1.4801762325834698;-1.1460679752690848;-1.3239182483259355;1.3945424433704598;42;1.2566370614359172
103;0.1596951958571368;0.8537937964052922;-0.6720889259718966;2.563156715713492;-0.0147235170512629;-1.0105817999945703;47;1.2566370614359172
104;-2.10674002973107;1.0938913499818883;0.354955917470532;1.0965684751191254;-1.3008452308141671;-1.7779869308486786;67;1.256637061435917
105;2.34843084618084;-0.2435697147173491;0.6639998233603459;-0.0510790266913222;1.8167756652243792;-2.4863352595764363;81;1.256637061435917
106;-0.2980681321440058;0.8141452366178527;-0.3261227634789577;-0.1784909750991161;2.4097990133683456;1.7426523167837868;86;1.2566370614359177
107;-1.784604538599773;-0.5860359508843778;2.149829836143902;0.0542111618938555;-2.5213224539251025;0.1640352612860587;60;1.256637061435917
108;-3.003889056847376;-0.6284943103104013;0.6785490511036193;-1.2894388760195594;-1.2007782723767138;-0.4304649755341232;66;1.2566370614359177
109;1.515954897150953;-0.2765048701394652;-1.0404088670338636;2.4653884676480065;-1.0625699216171696;2.633526504240616;92;1.256637061435917
110;-2.6665034943584307;-0.0507834243537989;0.2240061450415295;-1.9647250930234423;-0.5164579709595287;-0.4051111713410742;108;1.2566370614359172
111;2.296381135288597;-0.5257487033339874;-0.5416727387919957;1.921729544684699;-0.4967839225809618;2.8421710722945552;109;1.2566370614359172
112;1.5554299805823706;-0.0379646089816316;1.1025621662361402;1.0010233356807374;-0.7897967943987637;1.3989421859226816;97;1.2566370614359172
113;-0.2198645543214158;0.0182378958345284;1.527737786097209;-0.3347858394294055;-1.494963698037933;-1.210446926944113;26;1.2566370614359172
114;-2.6745165691449504;0.8113512368569212;0.8696236126201345;0.0214324202336595;-1.5747864668424496;-0.0216713303774402;39;1.2566370614359172
115;1.40294995398512;-0.6003718881748417;-2.076251806962809;-1.8518203000536728;-0.6641475444553916;-1.2068656172938728;69;1.2566370614359172
116;1.8760851420902875;0.2733761123056431;0.3514568758859262;0.4405333886577469;-0.5231642216535769;2.054672969160984;112;1.2566370614359172
117;-2.88434823322096;-0.7075898402042319;0.2524499491384528;-0.5278473290129966;1.5116092565659571;-1.679081530945037;58;1.2566370614359172
118;-1.9228188062462328;1.4203101730605812;-1.6377469028543423;-0.5031733821211715;-2.8479276252618324;0.2919675692406571;19;1.2566370614359172
119;2.4511445186607776;0.0643188799745654;1.5995238284974729;1.3759547667517502;-0.8765215194044017;2.008289877020645;112;1.2566370614359177
120;0.4607378763345864;-1.460726823790174;0.9038160188194262;1.8954274225132608;0.709746587964432;1.7249058683499778;53;1.256637061435917
121;2.1034741165300823;0.1832020121685277;-2.045066004076347;-2.1245325675472357;-1.2940494377499194;-1.2547573101692386;115;1.256637061435917
122;2.6321145384689264;0.9950527931683122;0.1766186134987471;-1.5223694681639752;-2.172279360622871;0.7772451106965728;27;1.256637061435917
123;1.8392409298391248;1.0544280507126311;-1.4513882377926677;1.269266427597603;-0.0485684540953146;-0.962705973733025;38;1.2566370614359172
124;0.6719755929032902;0.0481651659584066;1.8077784905247145;1.86312764704575;0.7003650354937551;-0.7388932831213925;80;1.1855034989226152
125;2.1210674139360117;-0.5597077705015345;-0.6338261905687068;-0.0047008211941721;-2.505347377433878;0.0577328661774364;42;1.256637061435917
126;2.9207792370085355;-0.81431568606472;-0.3973653327057908;-0.1083627532513361;0.0667730367865466;1.8702506766011149;73;1.256637061435917
127;0.0504538985809561;0.2565452852940317;1.057827801135463;2.563235738909569;1.000518181256547;-0.6566988440957057;124;1.256637061435917
128;-0.2996441853526143;0.8278497849826596;1.5468151475915275;2.9313502915096628;0.7306083925087958;-1.482962096058358;127;1.2566370614359172
129;-0.0837056378851673;1.0562912562197158;-1.1658158292169003;-0.4218583489374141;2.21321133959387;2.562159420867092;106;1.2566370614359172
130;2.355131720238675;0.0081624486386083;-1.1062817899718165;2.042182146718582;1.0504376999294829;-1.5135720167129654;38;1.256637061435917
131;1.0341415192490326;0.6875314944464953;1.5531720326512597;1.3508856266340263;-0.6400269590512752;0.7407882751663344;112;1.256637061435917
132;-0.446920799530075;-1.2096682639120957;1.5350754827534026;1.6582914385257446;-0.3761757451255918;-1.304533362547662;10;1.2566370614359172
133;2.4194130730086965;0.2099688161764169;-1.5084027760059522;2.64058476032786;-0.97051888953736;2.115783374048013;109;1.2566370614359177
134;0.3791866665710882;1.1487325098678731;-2.0555289650592874;2.3752845647309684;1.228416243621714;2.7522347839318333;85;1.256637061435917
135;2.0377630850458237;-0.8278768017384358;1.243979847305165;-1.859581214312337;-1.59141599114979;2.464851419756772;68;1.2566370614359177
136;-2.5679347233759224;-0.4853675279232203;-1.5794557651147747;-1.4546645172783896;0.0243351849559693;0.5879860586272965;30;1.256637061435917
137;1.2096457409110226;-0.7289836855991492;1.369621487057969;0.7477076973854709;-2.034864199076386;-1.632304783204057;21;1.2566370614359172
138;0.1873849640790351;0.6827595504099482;-0.2619035181772084;-0.5782489601710382;2.7644119989767275;-0.9669203059383352;395;1.0466727704309269
139;-0.0111973024907119;-0.1356058477895809;0.5163797075852811;1.6203596621891518;-2.5860159325273666;-2.093136348872616;21;1.2566370614359177
140;2.3218532576804045;0.2977526856631158;1.3561997830471204;0.7319889001025155;-2.440659266554724;1.2340895570091326;43;1.256637061435917
141;2.76941927910322;0.3374982015017544;1.2979984450732804;0.222638766312737;1.152189491296247;-2.868061673573817;105;1.256637061435917
142;1.8991243221046408;-1.0783821361344397;0.0474857648460917;0.6302112518206407;1.0951728853138072;-2.227133402473994;81;1.2566370614359177
143;1.7554647600476123;0.4110802591918305;-1.1550711994333058;2.665779382653284;-1.620744170779949;1.3744382175829226;133;1.2566370614359172
144;1.456230571028755;0.7616420264654653;1.70694262920764;2.473807212003691;0.7524522333344884;-0.4757942051734889;124;1.2566370614359172
145;-1.8799483804359287;-0.1296409364621037;2.1479063495387125;3.1012055774745457;-1.8822297566508872;1.4460464285998234;95;1.256637061435917
146;2.8801489962800986;0.7237386301571371;0.3715535944990547;-2.3761240634217096;-0.1570220850714405;-0.0228748690803272;18;1.2566370614359172
147;1.9523546885568763;-0.8641225045771866;1.8776378263455455;-1.0521924905887203;-0.9757355615902348;2.8364250760740357;135;1.2566370614359177
148;2.295273268135685;-0.0476499368053634;-1.9359447999287744;2.780590135665479;1.5962195929397092;-1.7159916416210133;130;1.2566370614359177
149;2.430034825449088;0.3367326623488929;1.1643739457545292;-2.8083883443939555;-0.0559753629311935;-2.646904929589081;45;1.2566370614359172
150;2.5282207844585263;0.0970166888907849;-0.3713945138464636;-0.8530277285636071;-0.0492914379650463;1.0042012182669686;73;1.2566370614359172
151;2.7732459480934883;-0.4701293501339492;-1.6095203768077888;2.0416914954692107;2.236723527650106;-1.3852038367845412;148;1.256637061435917
152;0.0267980301491276;0.7784257392126397;1.5923785174609766;-1.2740259286085336;-1.68517289413025;-1.344158589958979;113;1.2566370614359177
153;1.627221959076425;-0.1876844852511989;1.944706802818015;0.3969868290027365;1.7761488345576353;0.0670824264749036;75;1.256637061435917
154;2.8599041424647447;0.863309699197383;-2.217471639783432;-2.210792973598255;-1.9736063269516395;-1.041586656593567;121;1.2566370614359172
155;2.457302186166193;1.2765408454722325;-1.0768111629018935;1.2064134982614996;-0.8853100680927727;-1.5135307096071986;123;1.2566370614359172
156;1.8766071123266497;-0.7171223103091082;0.9341005286167146;-0.9543277206996827;1.3374367403829577;-2.603333586395947;105;1.2566370614359172
157;-2.2653062633550456;0.3568530597818362;0.6365381863408183;-2.839333071515408;-0.5123997022391671;-0.9680247634008892;110;1.2566370614359172
158;-1.9615487535796752;0.1697242108363232;1.6762484192772362;0.3952568737318365;0.0484543798297158;1.153008981037116;55;1.2566370614359172
159;-0.7748887210015014;0.7590889669886796;-0.6004744558859092;0.983949595804258;-0.5911836960537831;-0.472075027265654;87;1.2566370614359172
160;2.0642030589697145;-0.2767600416653666;-2.450040888994384;-2.5811892995708727;0.6608198554433524;-0.1708682201045274;69;1.2566370614359172
161;0.0598754006933663;-0.6091421968024352;2.2769857041473465;-0.9697421755324996;-1.7349595618958555;-0.918665373420555;113;1.2566370614359177
162;-0.1243587757257988;1.3588186976411525;0.0468022286737877;0.1707741152938585;1.1085338446486137;-0.1390503194883645;4;1.2566370614359172
163;0.3763058021237667;-0.0833525847956405;-0.39982072568115;1.849122399732949;-2.898367571684902;-2.754142002482628;139;1.2566370614359177
164;-0.5440076815238503;1.0064517863330324;-1.0281481616191102;-2.667412545447049;-0.0278680925307812;-1.554726925279526;70;1.2566370614359172
165;-0.0500775787740952;-0.1354291168779107;-1.3944299354141316;1.2503469658643167;-3.110700306173489;-2.7122223048566405;163;1.2566370614359172
166;-0.7999584387284586;0.381243957348987;2.486102154078412;2.864582000105454;0.5235458103617008;-1.929921365510683;128;1.2566370614359177
167;-1.2629558892981376;0.9407170869465394;-0.53149192443808;-1.2128573096549495;-0.1298256275854958;2.6612295810525106;41;1.256637061435917
168;3.037764029862373;-0.0465324471223056;-0.4272770387467858;-2.1202360137198277;-0.5706005688500677;-0.3166782659856579;146;1.2566370614359172
169;-2.24751225470647;-0.3159868826771392;-2.7013005897265523;-1.6700658334917446;-0.0429133527923645;0.2160714993557853;136;1.2566370614359172
170;2.828565277486026;-0.9902760794204152;1.857124787281108;-0.830628940241765;-0.1393279198124742;3.051803925404143;147;1.2566370614359172
171;-2.69004469304316;0.0398428545750244;1.3555664945916182;-2.658480738544142;-0.7131996514252195;-1.8095760727782957;157;1.256637061435917
172;2.844940815332349;-1.3412605334478584;0.4961041632693649;-0.2671695145795449;-2.431257793000037;1.896176988365888;68;1.256637061435917
173;-0.0543775202132636;-0.3252103343484731;-2.367370821349934;0.5129620771060703;-3.234427120607227;-2.90572304870233;165;1.2566370614359172
174;1.2552034534877723;0.2825294845774944;-2.232142966650245;1.9128450737780447;0.4011413066753624;1.929385431021152;92;1.2566370614359172
175;-3.043261724412963;0.785052527191294;0.9059073440134264;-2.657187991151284;-1.1803291393955295;-2.5014084190427828;171;1.2566370614359172
176;0.0185048855919814;0.3329596639264897;-0.5831812853450274;1.3606698268272588;1.3043956690723169;2.351928175711944;85;1.2566370614359172
177;2.207780107165347;-0.2965365542073953;-2.344926005130216;-3.159792139230649;0.7166104938379658;-2.4684917375809;98;1.2566370614359172
178;2.7230561397788566;-0.794783906202979;-0.4621140860273384;-2.576667149733387;-0.082635579430053;0.3707535992865197;168;1.2566370614359172
179;2.025009404475271;-0.9940349114510864;1.1784046707942553;0.2748302545805892;-0.1905093238641791;0.3841172843069098;97;1.256637061435917
180;-1.2876896813306271;0.7086690086080379;0.1128790838998351;1.0852134771973012;-0.8449255549979293;1.2616386580432184;55;1.2566370614359172
181;-2.187501758110743;1.1780306875419178;0.2278404870672375;0.4129362217041762;-2.8542424775985293;0.688192009525992;100;1.2566370614359172
182;-0.8409878005533823;0.2862722757280497;0.9466609646291;-0.2631928442892341;-1.0746966975080967;2.414475353924879;8;1.2566370614359177
183;2.4302909085437108;0.8988350636152052;-0.7640721524774557;-1.9778460522855836;-0.1618733926794674;-0.1916597617507709;168;1.2566370614359172
184;-2.674228582402572;-0.5009291051726668;-0.0134462683323097;-1.644049090441668;-0.4125789388264182;-1.5034910203292688;110;1.2566370614359177
185;-1.859376323873326;1.537043899197575;-1.570650689882669;0.1349573704177275;-1.8009613916166685;0.933111162733524;19;1.256637061435917
186;1.3559680951144908;0.0143255912102079;1.595794720101806;-1.361734449233204;1.6097225442084313;-2.294956089114991;156;1.256637061435917
187;-0.1530952451589322;0.3511547818742084;-0.8807111943599261;-0.5187981347914948;-2.9232851008806486;0.4059910591402182;32;1.2566370614359172
188;0.4853037863889379;0.8965736025177278;-2.3672624511626497;2.0597142499515035;-0.0388535977460621;1.3162641688903958;174;1.256637061435917
189;2.804829695379443;-0.0756766179614112;-2.056150622721932;-1.4461907241752214;-1.0416755075145716;-1.959211556484017;121;1.2566370614359172
190;-0.9109793445549476;-0.8919570367114659;0.6637679981418073;1.520835580049705;1.5317459417862174;-2.903042145024169;71;1.256637061435917
191;1.0718970198319626;0.8820574489964711;-1.6650065657016206;2.8546605326327867;-0.581972766897757;2.885936518678323;92;1.2566370614359172
192;1.4646440849293283;-1.0361196306088236;1.4612031209074643;0.5153910756631642;-0.9346508494087222;0.5665849780721468;179;1.0201303623902849
193;1.136421614835546;-1.0082226754790151;0.8779106135543523;-2.4371299724530213;-1.134899401231043;2.223565333795676;135;1.256637061435917
194;1.9032450365666411;0.1775720411182861;-1.7355495922906163;1.4115946987067602;1.1381752334199922;2.256626655040748;174;1.2566370614359172
195;-1.95834976607457;-0.2892782899925499;-2.1144892822185355;-1.0169371518619206;-1.271117846155125;1.917281086190792;61;1.2566370614359177
196;0.3571654020899233;0.2121092765015754;-2.0552740913803467;-0.2736867801273733;-2.17067783638598;0.3414977699788717;32;1.2566370614359172
197;1.2876414435747987;1.4738557775459746;-2.718082642616543;1.512729709200216;-0.2550775821325708;1.681115607771813;188;1.256637061435917
198;1.0463093732149336;-0.9874686364510356;-0.6736583142142017;2.944716227657312;1.1266056789005972;3.3458130046805405;96;1.2566370614359172
199;1.5848509315967223;-0.943529386056778;-2.2676818647519394;-3.0993794035932374;1.1029095631291994;0.4675342988958327;160;1.256637061435917
200;1.960903211333341;-0.3877518427617009;-2.383802660719875;-2.98637862838499;1.3163007651854028;1.4956605994441643;199;1.2566370614359177
201;2.8176068382718515;0.4071610921110459;0.0040547595313987;0.7725049846265393;0.8416816279457013;-1.3072643487444844;76;0.8046997908667134
202;-2.118093126464893;-0.3866498309784471;-0.6691260684753483;-0.3692591099939021;1.5051957720551852;-1.7994709565046456;117;1.2566370614359172
203;-0.4287670186242228;-1.3857462401264389;1.1102754062799542;1.8309611918260016;1.3005826413344617;2.3465384306893315;120;1.256637061435917
204;0.0618209540305494;1.0222537581285247;-0.6913018377919994;-0.1405664591351395;-2.774639799922441;1.344896467181096;187;1.2566370614359172
205;-2.230107891699421;-1.2090097385357712;2.101862377934289;-1.9642213937779205;-2.2480226225370883;0.3905826774984027;66;1.2566370614359172
206;-1.6979777645851406;-0.369605081450622;-0.3919260091795279;-1.416455105067049;-0.5694244925054197;-2.1273328124201725;184;1.2566370614359172
207;1.7693990158856063;0.4778171968837484;-0.2494538615418464;-1.4846994398630242;0.993581603301338;-1.4966057953352752;14;1.256637061435917
208;1.8342343475909493;-0.8731807872095481;-0.3052963792744675;1.6771136251656231;0.3797347989112177;2.241461327624368;111;1.2566370614359172
209;2.8714773848261204;1.2180033864455384;-1.6301329425139686;-1.3580098703890655;-2.546163139813723;-1.2721687072345154;154;1.2566370614359177
210;2.0912034787418645;0.0517929863652696;-2.229526084377033;-0.8883848671228963;-1.3811004268538614;2.1828452663840423;102;1.256637061435917
211;-0.5058799606135723;0.9897820953830624;1.1624982650119535;2.145774166017434;1.3551075207112473;-0.0078310215664413;127;1.256637061435917
212;-0.2759066917981202;0.1128844111321673;1.9616296952123629;0.0208347893729233;-2.903969582819504;-2.448427205442891;26;1.2566370614359172
213;-0.8767585203146223;0.9092097252113926;-2.407091651588802;-0.0119323549731044;-0.6006228985548256;-2.430457759760047;62;1.256637061435917
214;-1.8511020898094253;0.0301809355588836;-0.1107425049051151;-0.7401533404915995;-2.601858699794066;1.808397582924684;24;1.16441402878305
215;2.191679833386776;-0.991539094153872;0.0356572666601554;1.6061269433535237;1.4833240251462532;2.554771177617799;208;1.2566370614359177
216;-1.2389915191225886;-0.572507025172346;0.3194655248225958;-0.5868807115626472;-1.9453522665939216;-0.7070449605874112;39;1.256637061435917
217;1.7162985477717452;-1.2322223281548748;1.83017417745152;2.483395005608641;-0.28464938672219;-0.9471814336004172;50;1.256637061435917
218;-2.5045082689497358;-0.4295380494753182;-0.1765498651916826;-0.5790675568739443;-0.2569758526412772;-0.9032958304425792;184;1.256637061435917
219;3.046064048263544;0.3408637188867763;-0.2421197946616202;-2.7154024075396688;-1.4976430006585946;-0.7422110058390134;168;1.2566370614359172
220;-2.7943862898784926;-0.2309688879212589;-0.6389840877786404;2.034884438680358;-0.7354418108348493;1.9162685365027765;63;1.256637061435917
221;-0.7187860065155193;1.0893899304677557;-0.6534177741563939;-2.084894641615546;-0.533961463372735;-2.452407288188572;164;1.256637061435917
222;-2.8053317761616463;1.1227071988135346;-0.5761347601284375;-0.8765521708658692;0.1028211270663171;0.4497157169414479;30;1.2566370614359172
223;0.7764774766718141;1.2492443888995697;-2.040154062851025;1.0346937761320354;2.477147464512984;-0.5465959754363331;91;1.2566370614359177
224;-2.5876489401482896;-0.7401385663971425;-1.3649589005105909;1.1642063113252916;-0.8204644994159306;-2.6225503588716577;65;1.2566370614359172
225;-2.2639505545985563;-0.35855089658048;0.4017028259892418;1.2684746178634845;0.5550335165928145;0.8550747460280019;55;1.2566370614359172
226;-0.9018120764750648;-0.3205844166037812;0.5975391154466053;1.7435341473824388;-2.119155145536421;-2.8086831047856795;139;1.2566370614359172
227;2.362866204733717;-1.4135997165959329;-0.0980956755726505;1.2856067821629484;0.5971357339798573;-1.4835400437599908;142;1.2566370614359172
228;-1.816840648706615;1.3757021601816295;-1.7855729208906634;1.1073427832311884;0.2081426535331071;-1.4530109128446165;51;1.256637061435917
229;2.339173226863089;1.0496087666858844;1.4869329779545182;1.0684102720881647;0.7913869209390401;-2.943688316935545;141;1.2566370614359172
230;-0.087382460496194;-0.4667948714806224;0.4116571878748312;-0.681414319814298;-2.483828109829854;-2.1417669780863715;26;1.2566370614359172
231;-2.172048245446683;-0.2699293793709821;-0.5069949598904507;-0.4200472030274713;1.78652116116432;-3.005535624822285;202;1.2566370614359172
232;-0.111516393374125;0.4852229567977907;-0.3362399742798304;-0.8377044107938897;-2.273154571844888;-1.93187125446703;230;1.2566370614359172
233;2.417544702743735;-0.0955854065115308;0.8070018584903557;-1.2766139067089266;-1.0915821844050384;2.808388114596977;135;1.2566370614359172
234;1.2766531405089134;-0.6533604305869483;1.951132983876072;-0.3796586202107134;1.3524117536980966;0.7428128152216397;153;1.2566370614359172
235;0.8101436625468654;-1.5851406850533625;-0.9280524298185276;2.862939374012763;1.3754528806419437;2.012298565165872;96;1.256637061435917
236;-2.140817479239125;-0.0207458595738802;0.7314658137157276;0.9121521474110682;2.070167210297721;-1.404860772217778;46;1.2566370614359168
237;-1.4179297499770978;0.493939041449889;-0.0544857213780755;-1.1773453208179006;2.002152737490492;0.427348541197288;74;1.1974980624643805
238;-0.9843449949056196;-0.0231457752576597;-2.064575214991756;2.8743152826686336;-1.327792993773771;1.0628078546481154;82;1.2566370614359177
239;-0.5962326285038446;-1.1707334997961585;1.6132607164632136;1.1949880789297307;2.220523663979609;2.379914881145902;203;1.256637061435917
240;0.4587151376817441;-0.938671536730946;-0.3457138998015737;-1.1933901195255767;-2.8539643640843457;-2.434197310950678;230;1.2566370614359172
241;3.049352885651509;-1.1601090656200892;-0.7596347154126742;-0.1866772390343787;1.209189403547164;1.8935967754570089;126;1.256637061435917
242;2.540489745099947;0.7587817016636167;1.644523999382479;2.2332099500254605;0.9947830979980988;-2.7674363458542404;229;1.256637061435917
243;1.6523799567363586;0.6987088613932639;-2.3853768098807278;-2.2705618411897386;0.7836145296683572;-0.1510937878316059;69;1.2566370614359172
244;2.604482517884908;1.1774492524405429;-0.2669199762541844;-1.1319052818106712;-1.9622391665823145;2.8439700747834533;84;1.2566370614359172
245;-0.7230504013841311;-0.1608034629336936;1.988682634703393;0.8673265550592935;-2.188033252132356;-2.721280928586906;212;1.256637061435917
246;-2.717454597950133;0.411373423673654;0.1626353592283815;-3.294660981028332;0.0647020993138463;-1.225788156872521;157;1.0192185426356415
247;-2.573248865959834;0.5621589208952655;2.4600988146487763;3.27027434426254;-1.187540520177367;1.5520774611330304;145;1.2566370614359168
248;2.690505743133686;-1.0095173557370325;0.2046096102215147;2.0527865723863767;0.2981068087121642;1.5937338145060846;208;1.256637061435917
249;1.3110583234720352;-0.2806772680077816;1.6577390464973178;-0.1176697070449052;-1.511941539619852;1.0272346162840744;192;1.2566370614359172
250;-1.9425092798584291;0.3165603652079524;-1.5661989427765084;1.5036652611594992;2.062466241173884;1.8487055636651035;89;1.256637061435917
251;-1.849992128475399;-0.2658748371942311;1.4755176074719636;-2.017618954777624;-0.9006586869746238;-2.375042340997679;171;1.2566370614359172
252;-2.530984961564884;0.4280056032511053;-0.0595021804176438;-0.2561611497319793;-1.401444100984905;-0.4210966797113846;114;1.139068177083859
253;-0.7943983437999163;0.6144490587567132;-1.756164457477892;-2.561913728302378;-1.7772484379316529;1.0880636903901404;40;1.2566370614359172
254;-1.5820983917275122;-0.7691936949343287;1.462078820800247;-0.3241770245847193;0.8450628351429481;-1.0393181790662425;58;1.2566370614359172
255;-1.407147307801545;0.0760039070359312;1.0496337935154705;-0.88111263121726;-2.5715503148734644;-1.0512132143466917;216;1.2566370614359177
256;-1.9890919742025008;1.402617605745032;1.4849772435689457;0.3222702740397648;1.9696716746327283;2.381500701791041;93;1.2566370614359177
257;2.788654220185749;0.1650218604272802;-0.4168092203296904;-2.093892390377566;1.1357449227145069;-1.3446836649056926;207;1.256637061435917
258;1.3856525623498133;0.333791258144648;-2.559733493743988;0.7939937179956528;0.7990539180368779;2.5899687461463743;194;1.256637061435917
259;-0.8686509982764491;0.8513644162512471;0.8419014300056803;0.4528860909176285;-1.676558721195624;3.025262409522969;182;1.2566370614359172
260;-1.2127314151108703;-1.0130447623546088;1.3654545919150711;1.0238660098993315;-0.2569311760853552;-2.017641955632297;132;1.2566370614359177
261;2.611986619162059;-1.0004319910676849;-1.893656828499475;-2.352721038105233;0.9025863706317772;-2.6436783666454944;177;1.2566370614359177
262;-0.5163177740129397;0.3893997308134166;-1.009690376721784;0.7471040811836316;0.5184910788853664;2.6894144593829243;176;1.256637061435917
263;-1.389716656454388;1.639502075342243;-2.112777429874825;-0.3471675529440164;-3.1181328494346;0.102252251065576;118;0.8314069867385492
264;-0.643220796115656;1.3144220762793362;-1.6262483405836652;0.0505535112416145;0.159284914285782;-0.2636605469893091;87;1.2566370614359172
265;-1.0975712246054088;0.4031802187899625;0.9919152873347185;-1.965640275394328;3.2101857321307032;0.6107708566887728;74;1.256637061435917
266;-0.2303781234909858;0.0481812112304287;1.9722612123599663;2.7268073955042977;-0.789337202169111;2.496781825959265;95;1.256637061435917
267;1.6016914484731943;-1.1862284982675189;0.3434458136899125;0.3436399268424515;2.8606037600744814;-2.5033042398410155;81;1.256637061435917
268;2.064316909364168;0.7254072292511957;-0.9956358639821028;-1.3951120066214393;0.2632787601794943;1.43758611778185;150;1.256637061435917
269;2.0547944080794065;-1.6353647872378427;1.5743905570643486;1.867429713650668;-1.0567659166404024;-0.4362695260417573;217;1.2566370614359172
270;-2.148269034228832;0.3272488510381224;-0.5336164294724818;-0.039597631343001;2.474475478366222;-1.8445496515226427;202;1.2566370614359172
271;2.908592047293697;0.915868784820708;-1.423635034472008;-0.3520068806860602;-2.895174458769704;-1.8289286073968176;209;1.2566370614359172
272;-0.1626344933048465;1.785848479218218;-1.3209061131494388;0.1069643271023606;-3.3051972145292234;1.799336071949167;204;1.2566370614359172
273;0.1973472722664068;-0.8083830286215272;1.8135016148876428;1.3035701131439477;1.47863481332435;-0.2568061235329952;75;1.2566370614359172
274;0.4083287743234308;-0.6100437851294633;1.4833155834688554;-2.781544476477936;-0.573077709128901;2.523049806102459;193;1.256637061435917
275;0.1807935396825125;0.6822262889206865;-0.8457130932834862;-0.9914235221004684;3.0096731436629915;-1.9706100514407716;138;1.2566370614359172
276;-0.6715035877274316;-0.7539135813804343;-1.574465695804049;-1.7304261302272117;-0.589734092997753;2.281712220907285;61;1.2566370614359172
277;2.295368705846581;-0.2532960909110801;2.138983405123527;-1.555087604572125;0.7822888697763536;0.2470926757519379;78;1.2566370614359177
278;1.4941835696798431;1.240719124731706;-1.6115577451789471;-0.5987164072223496;0.3367321334915943;-2.213862281724941;14;1.2566370614359177
279;-0.6489541121690485;1.0925747349741457;-0.8692797200900391;-1.216580042057109;-2.5747424517799318;-2.5665269534366355;232;1.2566370614359172
280;1.3681594574361633;0.0913618330010319;-2.515576714788905;-0.8894069453680646;0.2287976633651952;-0.5821772029995284;33;1.155638963695317
281;2.6640112902557327;0.7706057099384002;-1.7236182625910086;2.23874492116348;0.0160211801770239;2.2705102898998764;133;1.2566370614359177
282;-2.338798356939073;-0.5017823593257826;-1.0086633980591726;-1.9876071306463488;-1.1943580896874348;-2.3594818932942725;206;1.2566370614359172
283;-0.416466293785949;1.0197719120955742;-2.041703163882996;-1.5575789199960823;1.3719764631171454;-1.820215614554044;16;1.2566370614359172
284;-2.564918032856821;-0.20741050156574;-0.1685439272261067;1.9235401185823968;0.3953303874973926;2.0327535519603765;220;1.2566370614359172
285;-0.2582310145747173;-0.9379056328902724;-1.2232966716370095;-2.50121112109654;-0.7378594896581365;1.484768627786934;276;1.2566370614359172
286;-1.1558925514945724;1.458982060785463;0.7968314337685002;0.7254924705081928;-2.851973081856047;0.567617473988229;181;1.2566370614359172
287;-0.1674788295164084;0.1603242090909297;1.5424051686441247;-2.899030480851289;-0.879566951978549;1.7862423246440953;274;1.2566370614359177
288;0.4538926501557146;-0.2960314816591669;0.3391212809275304;-0.1150287785999249;-1.6311964646637251;-2.59338967683798;230;1.2566370614359172
289;-1.9016224984412011;0.128297061555704;-0.5747136958276766;0.686932672742985;-0.3181001004734298;1.7434468586314702;55;1.2566370614359172
290;0.5208917560923059;-1.3610735244508552;1.311298390542965;2.878557587327274;-2.002188408304478;-0.4825044204879278;34;1.2566370614359177
291;0.7621265631900385;-0.1055630485090364;-0.9465270889619664;0.9879162119029816;1.931793674569112;1.9405066792971053;295;1.2367540962965744
292;2.8012512455823675;-0.6478096536798201;1.0315961360979284;2.49781216356186;0.2588918824774034;0.8503985100086147;248;1.2566370614359172
293;0.8319013264909474;-1.0933506833567057;-1.9081456300688968;3.009685265389166;1.4329859421630236;1.419526423880249;235;1.256637061435917
294;-1.3520839587842644;0.5265380133550045;0.4370268998094521;-0.4511846112988824;0.3520076831155289;3.1957193026150827;59;1.0027007990915835
295;0.4672762033077672;0.0031872333137988;-0.3946693415298917;0.0284764081400928;2.334497541654209;1.731807802499839;106;1.1387391629125438
296;-2.779046533442687;-0.8499826241038867;1.5378007137422458;-2.0216650917881647;-1.265387604624564;-1.6204438972171558;171;1.2566370614359172
297;-2.709453605009007;-0.914267754949972;-1.6356084259390131;-1.4545417287741678;-1.2685236911776805;2.368431311857237;195;1.256637061435917
298;0.6164389301128353;1.4092746395606073;1.0502737283913683;0.8038514712542799;-0.5218195162690696;1.3043679168988866;131;1.256637061435917
299;-0.220517483880107;-0.2220728033584512;-2.3068496069601867;3.07950121790642;-1.1289772110064322;0.1595878313064133;238;1.2566370614359172
300;-0.3547262510506098;0.7264005189059481;0.3782125964346684;-2.582793982736832;-0.5856419936427435;-2.452225367086984;221;1.256637061435917
301;2.139308548220607;-0.442895190644734;0.4111448582770789;-1.416917753681061;2.276492844312234;-2.859508543238346;156;1.2566370614359172
302;0.0687266168050044;1.1740480325013225;-0.1130533502273856;0.5658353698920923;2.550186349631607;2.57688214539132;106;1.2566370614359172
303;-2.4953118563996504;0.0188311069535131;0.797472320304108;-0.9821686646223722;-0.3525007456745428;2.712438464252453;59;1.2566370614359172
304;3.3134296673074464;-0.6024808857451065;1.2716158173345786;0.0437650643899728;-2.750413760593218;2.0140767858605995;172;1.2566370614359172
305;3.27461154408244;-0.4651603226920106;1.9073596253242784;-1.965833263197796;0.2779888891753584;0.5611844988665654;277;1.2566370614359172
306;0.7681708051272598;0.8407660778005507;-2.0263616908702127;-0.4036868675296436;2.467410050792276;2.5233552978637963;129;1.2566370614359177
307;1.4431789711138958;-1.1934057212761076;1.5296032102671642;1.9895493802003597;1.0781710825613964;1.8041552689525235;120;1.2566370614359172
308;-1.0333633842757304;1.0000990393021194;-1.4385106897504814;0.4322552989321324;2.6851266289084275;0.6249149758075806;86;1.256637061435917
309;1.6944894918537483;-1.064428701812719;-1.0527081921835333;-0.8749229957391823;-2.537128421219426;-0.3990668305955117;125;1.256637061435917
310;-1.237878292944633;0.364936486576001;0.0885462094278492;0.0033626438110346;-1.9478884342754323;0.5357445903487577;11;1.0336001996658173
311;0.3422166072717103;1.1493707644109266;-0.4391356879430533;2.633412587667709;0.9053825236727084;-2.068190551341196;47;1.2566370614359172
312;-2.387107628398179;1.3956695324847983;-2.207650412316573;0.2724153399683504;-1.5526471869899343;1.824361059699633;185;1.2566370614359172
313;-0.1209521899328905;0.9521273750172888;-1.4757134063802728;-0.8039658201250093;0.1474620160766825;0.3860400929909104;264;1.2566370614359172
314;-2.308742682009109;-1.444902544038754;-1.087952147820567;-0.046426878707118;1.883434588080925;-1.8132590020422183;202;1.256637061435917
315;2.5527965999402125;0.6976236040840265;-2.153170764507561;1.1113307114679718;-0.5065691333400834;-1.42688112309644;123;1.2566370614359177
316;1.6653893049475443;0.1594706718402752;-2.1240245425869904;-1.4017875199490843;0.8467719893188898;-1.0513521506922818;33;0.7908289204572112
317;2.3559749400826733;-1.3069874350140147;1.0045257784859845;1.6441179342991636;2.199164306664969;2.5624750138853973;215;1.256637061435917
318;1.8317522852057184;-0.6543628228365828;-0.8422231593180499;1.4337775977871487;2.1390378227724693;-0.1767929037707791;48;1.2566370614359172
319;-2.9893433582649007;-0.3295907856372722;1.802078178804072;-2.875062525738245;-0.065580840404633;-0.9804890329687712;171;1.2566370614359172
320;-0.2977983105166744;-0.3974246445148806;0.891583684593046;-1.3749045883387976;2.61329647982353;-0.1326473817902521;74;1.2566370614359172
321;-2.036203337833188;1.1610066780215151;-1.92167741664266;1.966806359316224;-0.6434185609290148;-1.503646773422957;228;1.2566370614359172
322;-0.1639061178736632;0.2543213701475159;0.8683696420977239;-0.8800132837451891;-1.050988063465364;0.1392430600041835;7;1.2566370614359172
323;-0.8996058704925249;0.9905922494884388;0.4687240483579201;-1.166476284248262;1.2471869568568057;2.375194795494486;41;1.2566370614359172
324;-1.4331253213512274;-0.0729990362415702;0.8447971312001512;1.6054922040252178;-0.0812644894267304;-1.9361235087019883;260;1.256637061435917
325;0.744281889966329;-1.3816658938372457;0.8779548159323639;-0.3101968922360644;3.0047290169891103;-2.2353206052163577;267;1.256637061435917
326;1.854002364900607;-0.2498764470809492;2.7563770180321905;-1.0135130928045026;1.2710935505544765;0.5003475276061048;277;1.0827565755417938
327;2.531451883265321;0.2338371079657799;-0.0466212159860844;0.9245190691757594;-1.965768257008072;0.0368665681527113;28;1.2566370614359172
328;1.9461965764490845;0.7925583110827075;1.9309563659351052;1.480496743868378;-0.5380331989134267;2.755605550514221;119;1.2566370614359177
329;-0.0783528160080415;0.4799199261515337;-0.7131944928460571;2.469235098438751;0.2240667240994669;-2.6909585211884823;311;1.256637061435917
330;3.2518914640669805;-0.8734405552159713;1.6760959119923609;-0.1529971751567556;-0.2706471376716835;2.1152783761032703;170;1.2566370614359172
331;-0.1317248402270404;1.2574474646020692;0.1339525579373008;-0.947492160304425;2.673614053507797;-2.2462531188915795;275;1.2566370614359172
332;1.0873335649148634;-0.8140871774873023;-1.940243735725004;1.4827422469382867;-0.7972313842993227;3.162823863094824;92;1.2566370614359172
333;0.438967374844495;-0.9042814678594436;1.9730854875573307;1.4563510862043303;1.8345548608629727;2.6765647400540487;239;1.2559431816327022
334;1.5181904008350426;-1.3116365222718394;1.7029045315296718;-1.5061481783053636;1.454914749010769;-2.169904789436297;156;1.2566370614359172
335;-1.3433313251906918;-0.8938791756976006;1.3616985255329634;-2.247657745737763;-2.451139250043316;0.5455720166388749;205;1.2566370614359177
336;2.648853168572377;-1.171555336538894;2.189650467867193;1.7312370912651878;-1.8256751796802635;-0.2852826270195499;269;1.2566370614359172
337;0.4435640319271896;0.157407099330654;-0.9417973173000938;-2.2360159532631414;1.6001880417376153;-0.9058315761108466;16;1.130110790575391
338;1.3971051358725453;-0.1781080565397572;-2.188354533532936;-1.893079397246614;0.7207738474797432;-2.3742204568950083;98;1.256637061435917
339;0.876964775721357;-0.6268321771331572;-1.7938095324247554;0.6853808767375623;2.308915368247971;1.3551935624158733;291;1.2566370614359172
340;-2.4037087289865293;0.4096064424296057;1.570853476306026;-0.0335607393378904;1.6345328672737431;-0.7756021960870312;58;1.2566370614359177
341;-1.986523596124575;1.2363101560704406;-0.9456297798172884;0.0681553457817449;2.620359334254612;1.1098185263412597;308;1.2566370614359172
342;2.777519643286404;-1.460309517703947;0.4205153937761169;0.4994970572460933;0.3353430247588616;2.0456162720209288;126;1.2566370614359172
343;-2.317910247914731;0.5070540753271052;-0.5819530224506826;2.075376224051752;2.347055210273814;2.007886673282884;250;1.2566370614359177
344;2.745780355274368;0.5477371403930532;-1.9786181039917112;1.7273455500994217;-0.277940249432399;1.2170338701580918;281;1.2566370614359172
345;-0.7252627067876881;-0.8286508022291692;0.8028979294137145;1.4485724637965909;-2.0528352931526097;-0.3089481323163106;10;1.195212099948258
346;-1.3659074510407638;0.1734020318541714;1.4412972052761368;0.2163117499201711;-2.3453844701577267;3.1235941592074417;259;1.2566370614359172
347;-0.9157581811143304;0.0046035882016522;-1.8431945431220784;0.942756972040256;2.6084757359878874;0.2453913423003257;308;1.2566370614359177
348;-0.1874572746401037;-0.4009573357116032;1.603430518541706;0.5291669261593918;2.832124980738765;2.335043280706377;239;1.2566370614359172
349;-2.218228428728906;1.126993754069826;-0.1403760135709392;-3.310607914235708;0.58710954674626;-0.5528708209349127;246;1.2566370614359172
350;2.699190983666617;0.3805201016397844;-1.216153887297185;-3.001269349747064;-1.4773904489375391;-0.8361641736088139;219;1.0777723495639089
351;-2.8955390866649293;-0.8682165050616935;-1.3102955339750535;1.9644104705469627;-0.3131332872821608;2.643489385544784;220;1.256637061435917
352;1.9120331180350705;-0.4302278109661003;-1.3872013227725328;-0.7670692917343453;0.7498986825154764;-1.5154632461844808;316;1.2566370614359172
353;1.547771705855408;-0.1556859826601494;2.293163758974097;-2.119741544932808;1.4103025004546164;-0.2760716601404403;277;1.2566370614359177
354;-1.7998318553293229;-0.0107636056891326;-0.6660909200776043;1.4732137182738558;0.5232748594224369;0.6108118921680508;225;1.2566370614359177
355;2.1789570850362594;-0.1546549798270133;-2.192717332627693;-1.8090728664558084;0.0445059792874058;-3.08336065895314;338;1.2566370614359177
356;-1.5642466074789525;1.4800130211308449;-1.6158204781648529;2.220196018952638;1.9411066678145985;2.750853754652898;89;1.2566370614359177
357;2.5493767865222576;0.78216793343874;1.2416591536028738;1.6028134956675055;-0.7046318857137611;1.1178243479858263;119;1.2357037488819351
358;3.083905061914223;0.0425019148188556;1.0783963617874277;0.8895635388855954;-3.018802563143584;2.5485961773466053;304;1.256637061435917
359;2.646373529685972;-0.0472087035820996;1.174815066085115;2.582651798847261;0.2969764181265699;-3.065151889263068;242;1.2566370614359177
360;-1.1403515229703345;1.4467213816650415;-1.6206955510600194;-2.8947467169243675;-0.9854537816471316;1.1915406534066892;253;1.2566370614359172
361;1.0212957723556235;-0.472924384514378;-2.3547281578049013;2.914859231592004;0.0801960478393371;2.753808231899946;92;1.256637061435917
362;0.6992506327338961;-0.5071616540954901;1.701000648565862;1.2391371678838858;-0.7204045766058053;1.8531510225151528;112;1.2566370614359172
363;3.132398680352067;0.3066645649590078;2.185538796246948;0.5692539582621965;-2.6079814431849533;1.6581070442244727;140;1.2566370614359172
364;-0.7695786368750182;-0.3299599675661882;-0.3657219182563322;-1.0540987418838097;-0.319650975757666;2.1241425092095385;41;1.2566370614359172
365;0.8952496241554879;1.1606885449882625;-0.7864476472208066;2.243343712532573;-1.1502844698874115;2.927708454075342;191;1.2566370614359172
366;-2.0707534874360345;1.4054905593507852;0.7519793990300306;0.213059063444712;-0.5702902401218578;1.8596215914760057;59;1.2566370614359172
367;1.676807252605241;-1.372750309488988;1.9153806814004264;0.0552927820456738;-0.9793272397695658;2.965060290628462;147;1.2566370614359172
368;0.6281845979881999;-0.3372241337315417;-2.097829883556749;-3.194808703341584;0.9156537004009966;-0.0050109015079802;199;1.2566370614359172
369;-2.145023923782336;-0.655091711390774;-0.9972696862645836;2.3811949490099;0.6871430619779785;0.3212288230781881;354;1.2566370614359172
370;-0.1692265188314526;-0.4830150295650969;1.5821167092346748;0.9708893882600644;-3.1666497073182085;-1.378140410121753;26;1.256637061435917
371;2.529267374271296;-0.115152403543759;-1.1106280992288504;1.3675654785646587;0.566190112290337;-1.18855730121219;38;1.2325027222648302
372;-1.8748819627082471;-1.2388711925085771;1.9455820780111837;-1.1330876388888644;1.8779341220454504;1.29863821976926;64;1.2566370614359172
373;-2.39088483881439;-1.0915071401294518;-1.0437022102383215;-1.7266198175055656;-1.615685396379691;-1.3686289323851937;282;1.256637061435917
374;2.306829404475224;-0.9374261144254146;1.5914470407479662;-1.0652054665534132;1.918988510376058;-1.5414669695329384;334;1.2566370614359172
375;2.6126248364688243;-1.5376216438157446;1.7283115833241025;0.1506100085928603;0.5968824322435027;0.4074456598769496;179;1.256637061435917
376;2.220569556647201;-0.3725378872215307;1.1234237057629244;-2.3882701365229355;-1.683902287008406;1.4471159450934812;135;1.2566370614359177
377;-3.011135393067353;-0.8649641374477599;-1.3654299390263704;-2.5207462110201635;0.2579720864354391;0.6291303279700975;136;1.2566370614359172
378;0.5043046791916728;0.6356386763703148;-2.4843784799868907;1.9543256955388315;2.6440525217847286;-0.306530976064952;223;1.2566370614359172
379;3.112263337834805;-1.1897305030512368;0.5408795197577253;0.5191636896723385;1.252703992477305;2.6878705750447547;342;1.2058948454614902
380;-2.680494687218743;-0.0796070113652149;1.3072912545276525;1.7413632846260327;1.976803702037948;-1.91135636660065;236;1.256637061435917
381;1.135612926742207;0.3822802200191112;-1.6174466350031875;-1.8079425465400445;-1.0479036150960137;1.8819164592104365;102;1.2566370614359172
382;-0.1414607364962482;-1.6540884126164537;1.5741311075083049;1.3095477887047169;1.9135295956882228;1.365130742868295;239;1.2566370614359177
383;2.88178613348715;-0.6095553755167716;-0.1867421177906253;0.664228115520858;1.2605296924570215;-0.743576210878931;201;1.2566370614359177
384;-3.084455432292766;-0.8775947259791586;1.2372129582199916;1.722599086022135;2.084413278280824;-1.038244034608396;380;1.2566370614359172
385;-1.0466114157103652;0.6993098974172516;0.511879657032293;1.3630328168922792;-1.4692179626848143;3.268971151144811;259;1.0461625405226007
386;-3.126614870869392;0.6691029528704195;0.9903935131866872;1.4687080145895424;2.7594393304804927;-1.7317365633640662;380;1.2566370614359172
387;1.3939766252238477;0.0858981487406255;-0.8710837204060595;-3.014143138907308;1.7476930237118378;-1.1020432657002115;337;1.2566370614359172
388;-2.531078181621974;-1.210964816487459;0.6036311177501303;-0.7427668528735951;-1.474350004037345;0.8286951380687952;66;1.2566370614359177
389;-2.560390556306698;-0.1711655223976895;-1.1012680710198373;0.1448221859483951;3.0894632759516645;-1.1915361591452571;270;1.256637061435917
390;1.709170509569092;1.0362090876538286;-0.8451344541809909;1.1249989310981303;-0.6673256721356545;-2.4375743876004434;155;1.2566370614359172
391;0.0249148773007515;0.2306422370458046;2.2800694521695792;-2.315356203617215;-1.6381881765237951;1.5090306342852235;287;1.256637061435917
392;-2.0776951993775983;0.1923075795433634;2.152924409753612;0.833827256833195;-2.636089223240753;-0.3521368748923201;107;1.256637061435917
393;1.0244805576844216;0.3571544906564984;-1.982208612317989;-0.1873463703349737;0.0974124967487903;-2.6764074806168114;555;0.977687899158113
394;-0.478586231949667;0.5604127932444534;-2.16603329711873;0.7909236345766262;-1.0742144347418892;-1.8205721804591053;213;1.2566370614359172
395;-0.1568572721136158;0.3609825196900517;0.1796387154209866;-0.1453108713683355;2.095447043308837;-0.7581820272615221;4;1.2071260472727163
396;-2.3305250351997144;-0.4178355559229874;0.842381471309898;1.4839809131470814;2.4618358951528383;-0.3718591616901336;384;1.256637061435917
397;-2.9630333041419123;0.4676416430293445;0.7743796363757445;1.3616637755187575;0.1293615686582118;0.5739038556508727;225;1.2566370614359172
398;-3.1288987601825373;-0.7027910783363365;-1.1308008922853443;-2.676970355731427;0.4091309333927113;1.827738947353261;377;1.2566370614359172
399;2.921437654205486;-1.274024549404082;-0.6772204993744755;-0.5622059412452258;-2.830660597706767;0.1565863225630687;125;1.2566370614359172
400;1.4405414706804098;-0.1735796071396421;1.33078231435454;-2.523067645516979;-0.0787805296529217;-2.1673204524889376;149;1.2566370614359172
401;-0.6760183386286331;0.0787483353664505;1.9752950735152377;-1.1106824913583802;-0.9748241177575364;0.1811804693178939;322;1.2566370614359177
402;3.00167394556901;0.1658341478680461;2.433703369538749;-2.4312671444449303;-0.153356193914751;1.2144552957204895;305;1.2566370614359177
403;1.0642875140987589;-0.7207683699599174;0.2912697933411126;0.1914072998293808;-1.7710953928002164;-3.3346612681368484;288;1.1037352179754478
404;0.9246175071987208;0.0752976839510166;1.992762148346179;0.4659508418727807;2.3002172221157897;-0.7900121079347193;153;1.2566370614359172
405;2.625360274893118;0.1911250887044698;1.8044370713943287;-0.07323702910964;-0.0972162064226483;2.095683965090504;330;1.2566370614359172
406;-0.9320986648720808;-0.1019562858920202;1.5577644527628516;-3.3935748665048435;-0.7239062993612491;1.9355951351031804;287;0.9719985125622366
407;-1.2246017795658823;-1.4076514869665455;-1.2494285939660583;-2.8568512640687245;-0.316291442935956;1.83077538299238;285;1.2566370614359172
408;-1.8654485916551973;0.1752724875113286;1.847450165290642;1.0498289281992472;-2.190702676903656;-3.049694055799283;245;1.2566370614359177
409;-1.782538421293196;0.4951709212210992;0.4554045907130123;2.3464801947143346;0.4994540592793532;-1.6257909395825214;324;1.2566370614359177
410;-3.008116913505948;-0.7422482264742838;1.3245936385012815;-2.975622805585631;-0.6299071788882894;-0.0574884793924284;319;1.2566370614359172
411;-2.110751089907913;-0.3039004019421545;1.4668527996950156;-1.1969260921526488;2.875234136362994;2.343137902981599;64;1.256637061435917
412;1.362493348110031;-1.1200428937094162;0.961429743654964;2.8090426819905425;-0.8384162535740531;-1.470586932373375;217;1.256637061435917
413;-2.400780454790717;-0.3043237742890978;-2.0979459786941543;-2.9033614649695845;0.110548394606238;1.0622330996710485;377;1.2566370614359172
414;-1.2898557914647768;0.1376422933423349;0.4933025845175981;-0.7146836717953524;2.9807744717819324;-1.4003554073351123;46;1.256637061435917
415;0.0610911308688076;0.7443343842209659;1.4801706657658449;-0.8806521498059873;-3.030279341995813;-2.3683994017164407;212;1.256637061435917
416;1.754473750195134;-1.0647033160017771;0.6170253506536918;1.31425072988167;3.336786500484787;-2.5747614730022974;267;1.13441528291083
417;-2.698443301367769;-0.0751453148199998;-2.082688773049672;-0.1114671349861639;-1.5947110445571644;-1.388894869254624;65;1.2566370614359172
418;-2.470718686407805;-0.3219216984199846;2.3517366522714878;-2.107340169277654;-2.1295972660273668;1.1889392750079957;205;1.2566370614359172
419;1.6698952888311966;0.5070756909660882;-1.5515584846051744;-1.8522089942637976;-0.84431339530812;2.770346841857791;381;1.066812936352678
420;-2.98058111768585;-1.1209521268534703;-1.162383201301297;-0.719898541585908;-1.760261256015669;3.044788900760096;297;1.2566370614359177
421;3.20324767166974;-0.2621096206843578;1.1421556214184103;1.5500415094360551;0.5900344488062222;-2.8013113474142424;359;1.256637061435917
422;-0.3198812421282864;0.7115900109951979;2.4774532021929936;-2.060574062912565;-1.5428565794927698;0.4725812071488934;391;1.2399132782736308
423;1.8071719943289564;-0.9408454487643264;0.1121836142129749;1.825027216811846;0.2960114639425327;3.412208206506673;208;1.2566370614359172
424;-3.2496562390444503;0.4302667971625373;2.07550145965954;-2.499399135529252;-0.2126205597846445;-0.1459314197366188;319;1.2566370614359172
425;2.413819781894127;-0.9719219607450617;-1.583347402876871;-1.6564730232682945;-1.1133447194551855;1.954962845049032;102;1.2566370614359172
426;3.2050490891733414;-0.7823716944220833;-0.2738309092666356;2.400744671997251;-0.3294243556789936;0.8733095188917694;248;1.2566370614359172
427;-3.090054093553483;0.5625383773315422;2.167329627402224;-0.5665847032173792;2.244745829066665;-1.0447125161464426;340;1.256637061435917
428;-1.7534975535264865;-0.9900992950357912;1.1993273961608186;0.9862704255954092;2.0255385958902745;-3.111015485734783;190;1.2566370614359177
429;-2.2486656840106125;-0.3374935545203747;-1.576171209729575;1.97821095807716;1.7210329237561368;1.902899322018656;250;0.930765820157792
430;1.246193513340244;0.5234720047816253;-1.025797941079757;0.064086906038148;-2.447730928380297;2.925573318004711;99;1.2566370614359177
431;-2.458201565146913;-0.3345958478649373;1.1301574134108876;0.5778320523854579;-2.670183952755764;-3.024740887629915;408;1.2566370614359172
432;-1.600586379830485;0.3595198496738413;-1.23745484760842;-0.8974841275999698;1.7686186383829037;-3.312982438992637;231;1.2566370614359172
433;2.9988005818062478;0.8356601301149797;0.7854848650371469;0.0425225560508529;-2.973923996526438;0.503096912135845;43;1.256637061435917
434;0.7927815659598996;0.8716410049936356;0.2588591564297801;2.6373209360605987;-0.8624292680283208;2.5348426535879747;365;1.256637061435917
435;-0.5019830247354601;-0.708275110609311;1.302380173164544;0.1348311121546618;2.157382099363962;-1.9472605676830692;46;1.2566370614359172
436;-0.1980424877275857;1.5111232847233218;-1.5476260998614515;1.7849537038767682;2.922814346777296;1.7177261920970406;89;1.256637061435917
437;0.1119185363855988;1.3541435677952691;-1.2646055663957607;-0.8877456741343289;-2.5920124959753807;1.046381164999281;204;1.0592821512042487
438;-0.672358687610157;-0.2034607992307615;2.2935609977048363;0.0248601131740857;-0.7150606931364432;-1.176441744920622;113;1.2566370614359177
439;-1.2851161028209677;-0.7724922824738132;2.062490510612644;-0.972396517529263;-0.341998334279961;0.4185230515205816;401;1.2566370614359172
440;2.460666998082964;0.2861065457802081;1.489159283761856;-0.200390903658219;-2.06360006551884;0.9194803398708244;43;0.7878569034624612
441;-2.5720634189249263;-1.259065215871431;-1.920049789066484;-1.0763364185330468;0.0065786026169565;1.1423856787806972;136;1.0795535340861164
442;-0.1310746129762871;0.5489868689344988;1.3774749875410557;1.5843026875660982;-3.1546504093722425;-1.070967617425682;370;1.2566370614359172
443;1.4735298292478705;0.3326334494916214;-0.5832967568545788;-2.1558013745360336;0.7624552401070592;1.7168477804522415;268;1.2566370614359172
444;-0.0070902533158884;1.1381637152575823;-2.026442221714669;-0.580003316595293;-2.3095354560144963;1.9201274607451528;437;1.256637061435917
445;-1.080856316905852;0.5642186586005473;-2.10940365876735;1.3771732451457646;-0.4494147768851309;-0.2395652045315535;458;1.2069219029237244
446;-0.7731369582878194;1.0472574023566723;-1.3745318110998137;3.0034391717795983;0.1270960235737593;-2.89686027119213;329;1.2566370614359172
447;1.812108742993337;-1.381170035890208;1.6462152075598917;-2.389216550621009;-1.4594614291914272;-0.1158503226511157;79;1.2566370614359172
448;0.982448657614868;1.0776320496573606;-0.9884154359319214;-0.0485033514748375;-2.3252840183650862;0.6892732095216647;204;1.256637061435917
449;0.1981764921153091;-1.011827406587098;-1.9547862997377816;-1.920685344983317;0.0948013852618739;2.60858003837181;276;1.2566370614359172
450;1.2310642672764724;-1.1424326165379777;1.736017607494251;1.3800148520596984;-1.3140399840697434;0.0591291690207304;269;1.223445884929028
451;-0.2417814121836561;1.6994085183776242;0.8225020446725527;-1.4620859036457896;1.4237979972446386;3.00784620491308;323;1.256637061435917
452;-1.7911758184714663;0.8373317641148903;1.8459404059128357;0.5251214592821232;-2.2210088916353903;-3.112076657494024;408;0.8508637925835117
453;-2.500107335303506;-1.2519965813443612;0.9656700549467304;-1.6322171402775825;-1.5413559543298596;-2.5061936803901337;296;1.256637061435917
454;-0.4767996373670765;0.1214856052234532;-1.34209073526192;0.1893051501167005;2.1628984568783305;2.379836994293747;129;1.2119203835397854
455;-0.6117239594227445;0.7772592127074669;-0.0142435907217576;-2.800184670878713;-1.0818839854753193;-3.0602238218820266;300;0.941187141042101
456;1.8515181810640533;-1.3921764374811847;-1.4635606460749198;-2.699057557525609;1.5164940243418985;-3.0505523390632416;261;1.2566370614359177
457;-3.044384323600452;0.7288198144027108;-1.7078254991954087;-0.0576499796445286;-1.0324838173531647;-1.9835236349576573;417;1.256637061435917
458;-1.7115335852098794;0.3637181441390813;-1.6469060876740715;0.5858712110579635;-0.5886755597934895;-0.6386262633024621;23;0.9208471658642918
459;0.8466200878334471;0.4494343572420019;2.587751779823286;-1.7252873453558806;-0.9970518335112856;1.55552554503985;391;1.2566370614359177
460;0.9179868244763272;0.7113943298215999;1.692236335425818;0.9069770689788864;-0.8967935050715102;2.7823036879384047;328;1.2566370614359172
461;-2.162670936487054;0.0055750629035952;1.0159929242983228;0.0453061848047988;-1.982458095209151;1.2377067148283718;60;1.2566370614359172
462;-0.6362759520467924;1.048371429760944;1.3841604914643093;-2.7873311199979125;-1.0243862487786883;-2.8394437462454967;300;1.2566370614359177
463;0.2244700360530185;0.5778932729970584;1.0877511156300073;1.9118730085271949;2.2509911092086075;0.1069247738513481;211;1.256637061435917
464;-0.1565737722937474;1.4538155637323324;-0.482332153210243;-0.2989309752328212;-1.982429773288623;-1.4391296888726022;232;1.2566370614359177
465;-0.8862092720158024;1.257598822908414;0.2032299002501758;2.3407638173949934;1.6773755260372458;-0.5561804471030617;211;1.2566370614359177
466;-2.884762122103329;-0.8542714714241271;0.1209020978773425;-1.9623726500177072;0.4057376643927123;-0.2475482778290998;110;1.2566370614359172
467;-0.5130494805207051;-1.516300141076461;1.8708254073723003;-2.059353503353129;-2.0241547065499423;0.7048718425923444;335;1.2566370614359172
468;-0.4359457015588822;0.7276764325842888;-0.8358695607437229;1.3546752940863684;0.5308294334434025;-0.6215110355021807;47;1.202445198158612
469;-1.802708383263862;-0.918392990215904;0.943951121944502;-2.2875895114752427;-0.0161083867612366;-2.490128169677929;251;1.2566370614359172
470;-2.207184630668145;-0.1324941851602202;-0.1315167270171155;-1.2453742421538947;2.4498963064680264;1.021283585246609;237;1.2566370614359172
471;2.230955691423973;0.6601230102656273;1.6928261123695347;1.9164739808486584;0.2341791955969906;-1.0996571974319882;144;1.2566370614359177
472;-0.6657888352429064;-0.5310642783480899;1.5441405156991477;1.7788047121390895;-2.9276682277745927;-0.05752170070185;345;1.256637061435917
473;1.189638299588024;-0.0122942377501094;0.4701132163989168;3.016366590109657;-0.6474769262480458;-1.506888337892567;412;1.2566370614359172
474;1.9678604647747933;0.5127304547029907;-2.355228861926055;0.7542553232258045;-1.1100306244558409;-2.245602605887548;315;1.2566370614359172
475;1.5590230560502123;-1.4775247077835378;-0.8450991657980652;1.8842209532589564;0.4987233255599695;-1.430170112022756;227;1.2566370614359172
476;-2.2773047210589565;0.2286821031798362;0.1792160858190302;-1.40039393339483;-2.585153391254353;2.72371862800015;214;1.2566370614359172
477;-2.93899825016281;-0.2645931044440694;-1.8566007640320512;-0.7703637793069726;-2.180868567160605;3.321875047073133;420;1.213775892585889
478;2.2097265392009477;-0.6344526144076237;-1.8670475947578216;-2.197871321046677;-1.226849673154366;-2.4861699770046704;189;1.256637061435917
479;-1.003053342635496;0.304928455214076;1.6099704646862552;-3.3464894471152493;0.4299346382343965;1.6667912443925488;406;1.256637061435917
480;-1.1964030225578433;0.1082606051800523;-0.3188958798240189;1.4847641838737873;-1.4894561265031157;-2.880160211674044;226;1.2566370614359172
481;2.7131037820218844;-0.7621905327598769;-1.816253470801885;-1.6174252518088017;-0.0772353376714539;2.517355860301361;425;1.256637061435917
482;-2.788986978435649;-0.7136960822113927;1.149765647027068;-1.4170731028872112;-1.076236377710438;-2.9433502237564357;453;0.9278141426997116
483;2.27081157667733;0.7933313860643935;-2.0302801611574885;-2.376394516913906;-0.2377655481211999;2.25629548302757;419;1.2566370614359177
484;2.1694475124470096;0.1763503648168998;-1.57327841338585;-0.3916071288352754;-2.899512770491248;-2.5085861872124378;271;1.2566370614359172
485;0.2611180298055112;1.2949440631008515;1.784193121222906;2.195986140864708;0.8101287775168942;-2.148599496993385;128;1.2566370614359172
486;2.209412862823421;0.281732858315057;1.7852492808193672;-3.176375390797804;-0.0797017177461181;-2.5665808497658835;45;1.1815082291704346
487;2.174168018480671;0.5525366431207349;1.047213535289251;-0.3568407823675465;-0.1265386302432094;-0.1788648049408068;18;1.2566370614359172
488;0.3257757299261693;-0.9018258729724604;1.1382815758591631;1.7954816740650348;-0.3981983768703374;1.861953826131;362;1.0125757440973553
489;0.4503752820273101;1.161920385227457;1.803648992607416;-2.493197966943969;-1.2852232744760963;0.1978200924229667;422;1.256637061435917
490;-2.025869802636949;0.107127971442569;-2.149462649153251;1.9968770991919864;-0.0058872719691913;-1.408079581904222;321;1.2566370614359172
491;-1.0061372059879974;-0.7483302649360123;2.4234613383847363;0.5169714275176058;-1.2976392446211862;-0.6375841422288435;438;1.138904632895522
492;-0.4793266478176075;0.0674774151020733;1.8843435128701476;0.6191268846605263;-2.471108226485272;-1.1051407062616396;26;1.211041521548918
493;1.816575920999957;-0.7602905103846922;0.7364533481875509;0.7380212114951061;-2.4875222939041173;-3.29732245622432;403;1.256637061435917
494;-2.526313068354154;0.530025028713491;-1.226494183029004;-0.6785844944154009;3.390976124450275;-1.7408239724227164;389;1.2566370614359172
495;0.0752417753808248;1.0689101668714125;-1.5487834691400166;-1.3833356696337682;-2.6892969135541365;2.6616411620877245;444;1.256637061435917
496;2.0395984126837607;-0.4408389839553301;1.6202327466884303;-1.3181907055916358;-1.834725621083645;-2.307805827214285;77;1.2566370614359172
497;1.2199007383027354;-0.7997909700615676;-1.328296580391639;1.2432808995320244;-1.772108106111843;2.7395596588283326;332;1.256637061435917
498;0.766892511582494;-1.3559637339612207;1.8698644611090744;2.035357840948574;2.0781251943346675;-0.4951997680850803;273;1.2566370614359172
499;-2.2523677929500465;-1.0672925215498996;2.3967700114353248;2.6677995536474493;-1.6701223156867406;0.9298231047130476;145;1.2566370614359172
500;-2.2065832380336925;0.8728420841633446;0.604826035593541;0.3967666474584934;-1.1803824216888548;2.781227540948633;366;1.2566370614359172
501;-3.1994025266679262;-0.0492295102936655;-2.13849647593602;1.4595531329055251;-0.8119641678701973;-2.8271879617208917;224;1.2566370614359177
502;-1.9964272772766936;0.1444996462356753;-1.3869606542165744;-0.2500073384396432;-2.313863357664811;3.20221087537903;477;1.2566370614359177
503;-0.309141914864188;-1.0733330859141152;1.0269040609492048;0.1601705726393162;2.2962108102505177;2.932115587635838;348;1.2566370614359172
504;-2.1822635750910413;-0.1281464765420901;0.3451445441112136;-0.7727472235640497;-2.8061915379502924;-1.6624001166715323;255;1.256637061435917
505;-2.267190669785198;0.0385374652768359;-1.0560101537275826;-1.1954587632845155;-0.3118857970769939;1.6980181517554462;30;1.2566370614359172
506;1.1865613846927987;-1.1153492472506226;-1.6172272400202443;1.932884741037284;1.8744900510585285;-0.3518132840366503;318;1.2566370614359172
507;-1.5254287485708995;1.46589443490545;1.1381342813367517;2.3928337436419937;1.2304039454882632;0.4777521258281313;211;1.256637061435917
508;-2.2364093799132125;-0.0638300154687561;1.268359598049034;0.5527905957571978;1.9231876989831855;2.2647866048858893;83;1.2566370614359172
509;-2.1223758607699863;1.0146369438214426;-0.7513735937508325;1.3932121651822982;0.3313628322758944;-4.993566422633461e-05;354;1.256637061435917
510;0.4023043793681747;-0.713242631100883;1.40922492541999;1.2040920818189853;-0.3605604173574258;0.1010433091169694;2;1.2537769217365695
511;2.6875654928424457;-1.389609796438878;-0.8122883876300822;-2.3350531301251305;-0.9596967988072752;2.4560877914351638;425;1.2566370614359177
512;1.324780236032275;-0.9246483147883644;-1.4692842938405044;-0.2467679161380843;0.7522304901669731;-2.3594789742608118;352;1.2566370614359172
513;2.6710104943143147;-0.4319865873215515;2.6443029986306525;-0.66139620206125;0.8119442911964649;1.2291173023136186;326;1.2566370614359172
514;-2.7715379070061616;0.0822073754560391;0.6050208073768434;-0.7537827046402582;-2.841933888724223;0.4795461660831493;35;1.2566370614359172
515;-2.4471212838882237;0.7880201383054659;-1.335233743034988;-1.1542230280597594;-1.9463175955537728;3.1214555726203552;502;1.2566370614359172
516;-0.0945851732715437;-0.6972278717543621;2.25025793829064;3.320592958520049;-0.563734570646572;3.220869014096695;266;1.256637061435917
517;-2.2751320153749206;1.524713797242505;-1.9600015825790933;0.7298455859238578;-0.6854006428317211;-1.4953911711618817;51;1.101687107080992
518;0.1581103462817601;-0.0555842211057489;-0.3694452126792257;-3.0430460667347927;-1.0959330857129046;-3.388120808194961;455;1.2566370614359172
519;-3.02577123731744;-0.6098602508990756;1.9444353338215288;0.887405829798258;2.220797491243865;2.24810726306926;508;1.2566370614359177
520;-1.2965394837023627;1.11314201044908;1.6134601030465636;-2.2795388189409462;-1.8965001703615283;-2.5787149221499703;462;1.256637061435917
521;-2.885453409743534;-0.3310834162197649;2.079751254733506;1.7119761705860492;1.930426685586805;1.4119319000332862;519;1.2566370614359172
522;-2.0634536274501687;1.6910298432044888;0.393737408158802;-0.6996629663746428;0.1571277201544173;2.1042615730991074;59;1.044721825537125
523;1.835196600957786;0.835257996224734;-1.2316113865526688;-0.3944969364074194;-2.9352529506232674;-1.2123444290262884;271;1.256637061435917
524;3.4157980026643213;0.7862073994686478;-2.055993179657438;-0.6453997074287446;-1.990918820217841;-1.8667745284477384;271;1.256637061435917
525;2.557585725212608;-0.3311300371430387;2.203617678552745;-0.3565339163718523;2.26638826211314;-1.930064698711218;374;1.2566370614359177
526;0.4638926154255148;0.5059523079677686;0.0980577881045077;0.2552738817425458;-0.7936252355048363;-2.791120489563367;288;1.2566370614359172
527;2.408242535791706;-0.602787365755553;-1.770340654398645;-0.6684863823493177;1.7062113511640142;-1.9972182256869009;352;1.2566370614359172
528;-1.2499933545251518;1.2597761454976977;0.2966074611766006;-1.1030298151023443;1.8170093745125824;2.291677207265953;323;0.7487013477175342
529;1.1470347576876527;0.6042183054280182;-1.4943682708125765;1.3551284859990262;2.377542942370891;2.482286700211578;291;1.2566370614359172
530;-1.7382431283897368;-0.4561649453378836;-1.1691159669272295;-1.2817438722969663;2.3493469851366284;1.429232983998692;470;1.256637061435917
531;-0.9431251835894284;-0.0062481089954766;0.8880026756097348;1.5908404438244632;-2.905956394025204;0.8145278433959309;472;1.256637061435917
532;0.2354721465218541;-1.0295860663289376;1.1443036200811978;-0.0887638551994952;-1.094299941484734;-2.8301607413469245;288;1.2566370614359177
533;-0.3913594558149253;-0.3374809311894652;0.9577141099943474;0.9745405352978774;-0.5844957159246246;1.7904488987311316;488;1.256637061435917
534;0.511045399775225;-0.5820559564702183;-0.7850787199841297;2.262718788046268;0.25962173355185;-2.925208782381572;329;1.2566370614359172
535;2.866036286766585;0.9304224561306852;-1.3834638967986042;1.1083974441321145;-0.7253117292486828;1.910417339142495;344;1.2566370614359172
536;2.42847004012428;-1.6052118889113371;-0.2214003518389653;-0.9081683708277744;-2.9665275115878624;2.113083685752449;172;1.2257131289881962
537;-1.9908435732599024;-0.6643383986432746;0.1175784450176622;0.3566458820539092;-0.5338780138013844;-0.8293941519172838;218;1.1675572753267005
538;2.666925838605528;-0.946883388041592;2.385918144031849;0.4479636495232226;1.704292616719894;-1.4923114042408314;525;1.2566370614359172
539;1.1767765929553176;-1.3789769069242608;2.178213012643459;0.3709969106775497;-2.0472913268402624;3.1056663026412137;367;1.256637061435917
540;0.1760189472580962;0.4792989567842414;2.640183842863936;1.8770575677547785;0.0835491007506527;-0.46735552593861;124;1.256637061435917
541;1.5665607864463509;0.243943735264817;-1.3865109937961444;0.971669575162246;2.4414653130899064;1.3272879325444724;339;1.224742780379281
542;-1.1542769679586422;0.143823964961598;-0.7415347377255996;-1.102833105883296;-0.4471074082822528;-1.2939656111448128;206;1.2203554091550746
543;0.8824162603146471;0.7885756628807021;-2.4769653712703823;2.387581241000965;-1.1657413879863214;1.4589780293542414;188;1.256637061435917
544;2.766251381712552;0.7508652239266613;-0.4653816609790794;0.0326564521571071;-1.142115031089494;-0.0350856641846124;28;1.0854924584565424
545;1.3822607176208817;0.7515530462779315;-1.327380931296473;-1.1033599943832209;2.805511821069817;2.842168604979838;306;1.256637061435917
546;2.681724671813456;0.7424030361987495;-2.4954932712172364;-0.844542223716885;-1.26357327746006;1.3661410169305164;210;1.2566370614359177
547;-0.2488125001184779;1.4595946022755455;0.1986855034151151;-2.524369046582634;1.3761092732802045;2.9664966424848744;451;1.256637061435917
548;0.7379090983337732;-0.5865407926178695;-1.895382956425632;2.861254719901578;-1.5890678488793708;0.4743870403802048;299;1.2566370614359172
549;-0.8830054959030411;-0.3617172828530897;2.569097922040646;2.9836182345558573;-1.259331599464166;0.631297249234939;54;1.117062391532541
550;-1.2083908777230077;-1.6202497049191786;1.3871046989732267;2.3083689237362743;-0.9750959873774284;-1.1386377378840542;132;1.256637061435917
551;-0.4106678486649633;0.3734548159296622;-2.2420089058706667;3.1707823056370965;-0.3300809174045385;-2.9617596818533865;446;1.256637061435917
552;0.2275156426529099;0.3302280123262182;-0.2652327425180033;1.0176586515119048;-0.0111205554993938;0.5981840728822138;1;1.1206037478587592
553;-2.831591826471482;0.9809555355644408;-0.2345693854762006;-0.787997361404743;-2.983572451292584;2.755364588785224;476;1.2566370614359172
554;0.1587161211316164;-0.9268150135979614;-0.9527447551037284;-3.15210860124588;-0.8373196366040743;0.5369233881358666;285;1.2566370614359177
555;0.9366981378866066;0.3193058997829613;-1.1939236087065968;-0.426422959231434;0.6132838598261162;-2.7218082909982844;14;1.2558483929670394
556;2.9570061473161164;0.7022423020934556;-0.4657585056134302;1.145358595437733;1.1497743289553972;-2.177610630723001;76;1.2197343185131146
557;2.891574639598604;0.5401294620548356;-2.5888041157198978;0.2439687034612888;-0.5503498336279129;-2.5569636514322305;474;1.2566370614359172
558;0.1022475110761754;-0.4412663996269446;2.315319564845713;-2.230719401315409;-0.0429462183242738;2.947651822829557;274;1.2566370614359177
559;1.089579262447111;-1.0518731508924577;-0.3687008604479153;2.503276902786789;1.122723986343675;-3.1432061458694416;534;1.2566370614359172
560;0.202100033464272;-1.4708667562329008;1.2248232344935928;-1.2790118315984529;3.013379783704958;-2.7024649324969774;325;1.256637061435917
561;0.9318062912576734;-0.6308034689030424;0.3146862242882535;-1.4597903895979178;-0.7852009746508409;2.212581090228091;193;1.2566370614359172
562;3.269315074457939;-1.1151811313309876;-0.6657258055907479;-2.280129796595185;-1.0927543499388244;-0.1480295175670274;168;1.2566370614359177
563;1.0085243383834068;0.1337213600914211;0.1867802606204648;-0.3461763309909462;2.3435732133367;-1.302665534685182;138;1.2331738673671229
564;0.4265007408425447;0.2924656236712109;-0.4554998403605271;2.667122581976763;0.609569478056305;-0.1472158806184723;103;1.2566370614359172
565;2.547172074684436;1.2613756123796878;0.5708173732962531;-0.4185823950760312;0.7133284913109427;-0.1413164078967036;487;1.2566370614359172
566;-1.3340399807088454;-0.6807678569593877;0.7227457284186545;0.040865570699758;2.4123227809622523;-2.9187040750284714;428;1.2566370614359172
567;0.4744222761476122;-1.4822628116802503;-0.8942805539215269;-0.94989017689795;-3.2486974699705704;-3.3101919997587217;240;1.2566370614359172
568;-0.123911103636467;-0.3493997870210529;2.4071678619877277;3.0990805815354143;0.4884376129065134;-2.655044548847945;166;1.256637061435917
569;-0.7829139702788056;1.4830443605059422;1.7294425317745628;2.767228531307537;0.9598633315119368;-0.9236505549433564;128;1.0433146972629572
570;-0.8654364550704434;0.3122325068996461;-1.0135635078771674;-2.430541789781768;-1.7719019488095062;2.0441034935262574;253;1.2566370614359177
571;-0.7301468270917211;1.7641916133568687;0.6154413124497037;2.910418191423989;1.687587720084729;0.747738050595258;507;1.2427652815154089
572;-0.3329991298738325;0.2354248117895736;-1.1907101772049271;2.832780393876444;0.4879100247833012;2.168385804672948;49;1.2566370614359172
573;-1.9115172759619032;-0.9006287393948793;-2.163384875896583;0.0433897626853531;-1.297486655730351;-0.989362150468351;417;1.256637061435917
574;0.746269518307491;-1.2963835370872152;-1.7741078635200231;3.194044199020912;2.0657816724813216;1.455377500040942;293;0.7086785036311722
575;-1.4123545046598929;1.1381060839192427;-2.223986975522749;0.5524460141924301;3.1458260463492027;-0.1319164015180791;308;1.256637061435917
576;-1.5185639120584784;0.7351843431198988;-0.2671988384252798;1.6526736687413024;0.8921406192080762;1.395798510245804;354;1.2566370614359172
577;-1.7305391996911004;1.30500354953973;-0.4646419552551916;2.044011572210915;2.357439664448162;1.2446336826391362;343;1.256637061435917
578;0.8879371725613372;-1.103638683103808;-0.8765117644075228;0.0681405130900248;1.4129759060858869;-3.044414150036425;512;1.2566370614359172
579;2.737483041985509;0.3333849090125061;1.3630873594006785;-1.0012987743915025;-0.3539224214524303;1.444269288688166;405;1.256637061435917
580;2.132839699134091;1.126070364706151;-0.3954814494454525;-1.1373022307480531;2.8011217824593504;2.9189584660265755;545;1.256637061435917
581;1.2840587368411511;0.2828212382322563;1.0513611392472044;3.08569317000786;-1.262657376765527;2.577211697104627;434;1.2566370614359172
582;-1.312070710212439;0.502005401138363;-2.2259854234669967;0.9315394322227264;1.6386235630878487;-0.0502378027238263;347;1.256637061435917
583;2.1422522924248364;0.5175447464041526;-0.8223930282861889;1.6567487487673045;1.2006864478413568;-2.1384502220881094;130;0.9731326564928684
584;-2.861637703716196;-0.0562138441556365;2.382959815130998;0.5394863686454875;1.257606449068151;-0.9255221767896132;340;1.2566370614359172
585;0.0269310385030527;-1.0020721350649089;-1.220222749814439;-1.452657845344105;-2.12380756784856;-2.280687928467392;240;1.2566370614359172
586;-2.7386573331775628;0.0108280232993699;0.9931957289424632;-2.066436568225777;-2.125781561346986;2.683321321150228;476;1.2566370614359172
587;-2.9883086131718266;-0.9510170625432388;0.4422262019177189;-1.0450602142320864;-0.3242929307938328;-1.6461401529214237;184;0.9464637886935954
588;0.7554679785135543;-1.545903319773879;1.8273582227471867;-0.2252631393788083;-1.1319945774305251;0.8743897419603688;192;1.2566370614359172
589;-1.679093953930741;1.0798258690367633;0.4925851591760855;-1.3007399330205192;1.5453919350610108;-0.37547359271581;237;1.2566370614359172
590;0.7351651886069205;0.2337945675245318;-1.9178015428148727;-1.7592523509403466;-2.85713941721469;2.2867265950734272;495;1.256637061435917
591;0.8272121311015808;-1.4668799697727857;-1.7768875427554571;1.2633749520019757;-0.7167541042624561;2.7328522410960407;332;0.8717574399937927
592;1.9679540283265464;0.777926062171401;-0.4883586833244058;-2.760939956918352;1.165476197897286;2.490646249383954;443;1.2566370614359177
593;-0.8568393656597552;1.0485903889879986;0.1832818392409717;-1.5187347271669829;0.9297959032446385;-2.425047452478728;70;1.2566370614359172
594;3.218933617596391;1.3527791218335738;1.046877592811792;-1.1329234371822372;0.0731024620421228;1.3520002970352245;579;1.256637061435917
595;-3.234658849455028;-0.5214413299215592;-1.8605931940209863;-0.7766650811648638;0.6788406941856351;1.3676426111854625;441;1.256637061435917
596;-2.26110140566544;-0.4901479355640887;-1.491394205771203;-0.9098093874701234;1.1510675525166991;-2.268621335635103;202;1.159737725425921
597;-2.062995794082824;0.0997957973660716;-0.6984199588872014;-1.4988499655216223;0.2866027577773977;-2.753472772667517;206;1.2566370614359172
598;-3.3381180257313656;-0.9557476096944876;1.870465015016505;-3.246076627746088;-1.2807779031564606;0.736174203451915;410;1.2566370614359172
599;-1.297736821633833;1.000063149731884;-0.1737724724841607;-0.7770802664692668;1.6011184907205938;1.563535732675324;323;1.2276346993646277
600;3.0203168984387845;0.3056242051359682;2.301995197273281;-0.7402269856395555;2.601860210730349;-2.7607997133434448;525;1.2566370614359172
601;-2.4099518479351443;0.8686891216924009;1.9649196289946456;-2.2834787630808235;0.554250587968957;0.0408245689531396;424;1.2566370614359172
602;-1.784158890744892;-1.1174040615521004;-1.6012497113267876;-0.4109177112379632;-1.7442219597565378;-0.0983170620351221;573;1.2566370614359172
603;-1.7807213492281084;-1.1441818694267507;-1.5301272058001345;-0.4672834201349352;-1.8384094926370824;-1.3877787807814457e-17;602;0.1658369912155911
