Komment314/test_diploma/benchmarking/path_finding_for_benckmarking/pre_rrt_star_results/10_5_tree.csv
id;joint_1;joint_2;joint_3;joint_4;joint_5;joint_6;parent_id;cost
0;0.0;0.0;0.0;0.0;0.0;0.0;-1;0.0
1;0.4996697023961526;0.4682638587518762;0.5820789160249864;0.2083588412420695;0.8532095756986547;0.0;0;1.2566370614359172
2;1.0606318676355864;-0.1810593226762486;0.9147335173707584;0.3410593400774117;0.3658880970986171;-0.6907147238271756;1;1.256637061435917
3;1.040552765163114;-0.2789988357246781;0.9639538753208868;0.1860288680924912;-0.782462577451957;-1.1639747189468437;2;1.2566370614359177
4;-0.6971836390706642;-0.4511226352544951;-0.6126378857517413;-0.1805575983409184;-0.6939984295158881;0.0;0;1.2566370614359172
5;-0.5317106804993156;-0.3295489479719936;0.1963536255736973;-0.84531448345536;0.5917871938506362;-0.2906794493713922;0;1.2566370614359172
6;0.6691940085462218;0.4816491365101195;-0.8124613485498962;-0.134254986502467;-0.0118988493371449;-0.4701816303252929;0;1.256637061435917
7;1.930035378061099;-0.3923154541958623;1.5511162319790883;-0.3544124133691533;-0.7854652434040602;-0.7921262259855417;3;1.2566370614359172
8;1.6799571143913712;0.7541353405469808;-0.6267279974360702;-0.7529452193381766;-0.1369569232353351;-0.2458338804441187;6;1.256637061435917
9;1.2076951375377092;0.1350879027920151;-0.9481101189305592;0.8078991446621887;-0.0659202899875729;0.0397940923386549;6;1.2566370614359172
10;-1.0216322230315895;-0.3371614307684024;-0.0438990702198987;-1.045267174941036;-1.0056739322959836;0.54088312344016;4;1.256637061435917
11;1.2636660701313769;0.1654427512968112;-0.5616723311698453;1.1490930067635374;-1.0961293418110076;0.5377945303376337;9;1.2566370614359172
12;1.5455912903205338;-0.6922971837621034;1.9711454196830605;-0.8311962958187029;-1.510007727022789;-1.434497777228861;7;1.256637061435917
13;0.4488014249681504;0.9629521789939568;0.2785901025927331;1.046289021075382;1.3630214702644894;0.5269648701261442;1;1.2566370614359172
14;-0.3080373674134868;0.5031008197820409;0.756855162768;0.8547962044496218;1.7493888176308836;1.1435536960359978;13;1.256637061435917
15;1.255035693724264;-0.2583921363900133;-1.1547735987616343;1.7259160308024093;0.6229498088549004;-0.2093288180205446;9;1.2566370614359172
16;-1.299996689494536;-0.5114799604108721;0.891084356371745;-0.778640822479531;0.203393995516438;-0.8544426774858922;5;1.2566370614359177
17;-1.6577804020519362;-0.9820183392989688;1.4712055043873098;-0.5340896885111307;0.7257932203818805;-0.1057942956963109;16;1.2566370614359172
18;-1.6551742470064192;0.2300529188381248;0.9671657768330276;0.1034699121878326;-0.1371102741540579;-0.7973138109800655;16;1.2566370614359172
19;1.7697908539022682;-0.5678177829502907;-0.7215845693461312;1.353863331293307;1.5485687311172238;-0.3979375739868275;15;1.2566370614359177
20;-0.2317093189090974;-1.05233071322671;-0.5630595170854559;-0.3152360623689372;-1.508345564875491;-0.5632598407879208;4;1.2566370614359172
21;1.6741343317200046;0.2225885623504145;-0.6810844827573888;2.0914858781520773;-1.5229390875151652;1.1059993540262236;11;1.256637061435917
22;-1.5506505167657303;-0.0119164716036311;0.5575814413335187;-1.5179723085848436;-0.0948636685156901;-1.575520210667832;16;1.2566370614359172
23;1.7619808477508754;1.1181457381530089;-1.4033189542537223;-1.6639157471508983;-0.1617019069687097;-0.3254084417087636;8;1.256637061435917
24;-0.7617594103470715;0.4516792366827739;0.9716449463617762;1.760880807799244;2.038728835843644;1.7914635871621991;14;1.2566370614359172
25;1.2778930784960396;0.1825878830775247;2.049172016518059;-1.0310985113150843;-1.5259160719796545;-2.268613099212582;12;1.2566370614359177
26;1.347601651530117;-0.6379825889286922;1.9512327789121;-0.9946511061112588;-0.1145588748460256;-0.3928254282149319;7;1.2566370614359172
27;-0.8690163922590628;0.0393623439741448;0.3090579852020201;-2.0531083860527803;-0.5127494006873896;0.716319082629483;10;1.2566370614359172
28;-0.6185791624058918;0.079186009124325;1.2074817959697095;-1.999422856096449;-1.0582338852748625;1.354465751480056;27;1.2566370614359177
29;1.6309157233030562;0.0335957000660203;-1.3491102021370922;2.224961330145735;-0.327531849951826;-0.6122750935507941;15;1.2566370614359177
30;-0.0800748050746996;-0.3646156348315864;-0.2374759101637825;-1.288166883171777;-1.4502912273870243;-0.3982680953245443;20;1.256637061435917
31;0.6418153179503234;1.0836899685004278;-0.1963986156341716;1.1488826570613786;-1.4560762601701651;0.8315183440461622;11;1.2566370614359172
32;1.6930911957290846;0.567629410338554;-1.6581327939783814;-1.4828986394990964;0.2996437535162537;0.6547882672237582;23;1.2566370614359172
33;-1.374902368433684;0.3433906180375987;-0.3104989242047172;-2.270141088604549;0.1850560356285088;-1.4195403108559408;22;1.256637061435917
34;-1.6635420084366117;-0.7537493916243186;1.01920224430436;-0.8034753945218182;1.0450223984497595;-1.6686341231227189;16;1.2566370614359172
35;-1.832002271516873;-1.0906175074929283;1.4527429325977943;-0.1422894917825745;1.23199188120918;-2.550221216141886;34;1.2566370614359172
36;-0.8520881058865029;0.5105195087368198;1.0040324012509851;-0.1812985590489514;1.923451877290625;1.4873611512839997;14;1.2566370614359172
37;-1.5624389615064618;0.2206669038214826;0.2005291486019687;-0.3657619327267024;1.921463097960672;2.0449234034395167;36;1.256637061435917
38;0.1666142998087195;0.8855626840808607;1.036904352468582;0.3924181954071;0.1354955028449641;0.7336313648534132;1;1.2566370614359177
39;2.023169763206332;0.5958486834571537;-1.7355330543723553;-1.3953859268436122;-1.0005385582152582;-0.9187055351510924;23;1.256637061435917
40;-2.112439666103974;0.9010755659877004;0.9476030664766208;0.2738247129866695;-0.2333031375875903;-1.735992202612134;18;1.2566370614359172
41;1.234603108832973;-0.0087759145857313;-2.288494354260297;-1.026900066009985;0.5556962787811186;0.0499502820178852;32;1.256637061435917
42;-1.954658629830959;-0.5755673395813183;1.0968165176440905;-1.2905095913605165;-0.963612709590429;-1.5443241185928331;22;1.2566370614359172
43;0.1697519253663075;-0.7556594541260854;-1.1638257122690117;2.109345711737104;0.6104845595584154;-0.1270766593621489;15;1.2566370614359177
44;0.1662123610064492;0.6920755407501826;1.2331958479012477;-2.330459432445689;-1.426244231531682;0.7697202096603337;28;1.2566370614359172
45;-0.5144510217643689;-1.038997015325287;-0.5266733825823257;0.6175611054973954;-2.0975817176560665;-1.0927712148242918;20;1.256637061435917
46;-0.6519065763394778;-0.2570699636864038;-0.4663722427015738;-2.2330173625959886;-0.4047472721514762;1.6100775405055312;27;1.2566370614359172
47;1.145954833007902;-0.284940943478827;0.0311577544039748;1.68527350806549;-0.3514017764594195;0.9487435653493056;11;1.256637061435917
48;-1.3652862712609817;0.1196042762456692;1.2423786495992848;0.0180163041967625;-1.2646129289085994;-0.4387108521125897;18;1.256637061435917
49;-2.2758202314995684;-0.5746134075102676;1.1384078718892796;0.1557496316752601;-1.583809430772094;-0.0693064394842883;48;1.2566370614359172
50;2.185141990562312;-0.2350030431156921;-1.761992145699311;-2.211593917246996;-0.0595677343339491;0.5065067836030157;32;1.256637061435917
51;0.3069335229516563;1.4406881954942754;0.6963155326851825;0.4952126437616138;-1.7928846026940406;0.7881564139061044;31;1.256637061435917
52;2.0248487903064825;0.6076375670924306;-0.2148045817706318;-1.3966844271323635;0.4931243391769412;-0.9223258413450632;8;1.2566370614359172
53;-2.26688941013385;0.5401034466504845;0.2960869356039828;-1.6429373693642264;0.1469388450621199;-2.362252988132297;22;1.2566370614359177
54;-0.8363619405072573;-1.135935213108475;1.217932384814324;-1.1277534856418163;1.7810920662329095;-1.4188435462523532;34;1.2566370614359177
55;-0.1393382538916414;-1.2698570716777031;0.3851137470754271;-1.31965318346091;1.364638375157749;-1.8329855099193784;54;1.2566370614359172
56;-0.2373603182672325;0.7425404979456525;-0.5613048432148938;1.6576514839752288;-1.4190946744004898;1.3759759013850443;31;1.256637061435917
57;2.428653476592973;0.8109770025013181;-1.2364394661265394;-0.9639169534588958;-1.2970067621759829;-1.8381000032203043;39;1.2566370614359172
58;-1.438419244034404;-0.1830592191307223;-0.1707266928696005;-1.753811656959592;-0.4999694766036018;2.4031382378984665;46;1.2566370614359172
59;2.5836629645506664;-0.111163963157759;-1.1315066595770549;-0.935007791138273;-2.1207345455545767;-1.718138727783212;57;1.256637061435917
60;1.2359748726004198;-0.8600509865590756;-0.2009934437907171;2.19508117374835;1.9669765878005956;-0.6325633270137362;19;1.2566370614359172
61;-0.1820171816389835;-0.3003727081685229;0.909926006380482;-1.5872058766976762;-0.4685747176522246;2.033156838043796;28;1.1838213521850862
62;-0.8669186110464739;0.3347875630498758;1.4643027200964378;-2.6308524505838053;-0.9425847174878405;2.341429285852235;28;1.2566370614359177
63;1.106504683652119;1.372466423543906;-1.971064242812188;-1.3031041357460995;-1.126883583418865;-1.1548681630009812;39;1.256637061435917
64;-0.095462238998552;0.6040836375882739;-0.4859933522073777;0.6430211434975175;-0.4444155917114653;-0.5982772571032;0;1.2566370614359172
65;-2.0214374454679995;-1.0937886653519049;1.016926088217949;0.3777564519142122;1.35048072323127;-0.1853556253875044;17;1.256637061435917
66;0.1914411201066375;0.2128677129578429;1.3541042401744854;1.984730660264512;2.118191907521396;2.43241308706086;24;1.2566370614359172
67;-0.9904824891959924;-0.2795831363197717;-0.6883445330750538;1.1986583601947;-2.5619200051502014;-1.5359412510537462;45;1.2566370614359177
68;-0.8743802774088418;0.8203307669960717;0.8548932225200534;0.0705863250036697;-1.8963483762304367;-0.9819715223673312;48;1.2566370614359177
69;-1.8104515550692133;0.7890603955937339;1.3866273613634457;1.2405028615804137;-0.0821272535978965;-2.306368713524006;40;1.2566370614359177
70;2.586689058950029;1.2872941887285614;-0.1976459428793068;-0.9880801682857004;-1.102243581339406;-2.296002673541384;57;1.256637061435917
71;-2.505632478660436;-1.3685136723360831;1.36257212897706;-0.9630823287610452;-0.5039432896245089;-2.05193617769994;42;1.2566370614359172
72;1.9331635820980984;0.510863256154469;-0.69061637347498;-0.8400840191162047;0.8347164874930046;-1.875467587567902;52;1.2566370614359172
73;-1.5570726216145805;1.0674301836380364;-0.3388182290512713;0.1799280376903334;1.7235158627811886;2.528910602665281;37;1.2566370614359172
74;-0.2628509640801078;-0.804331137559336;0.7440696514720744;-1.271251410378463;2.5619272502681065;-0.8845969064973793;54;1.256637061435917
75;-2.268477228281214;-1.239579679605576;1.112021183643226;0.6878213921634007;2.5217901947772745;-0.3257258770996374;65;1.256637061435917
76;2.2640568669055834;-0.3865126791274569;-1.5067521263292412;0.8678896218128516;2.1231383679781795;-0.0527166802907062;19;1.256637061435917
77;-1.4229861576541205;-0.1915035188193262;-0.8474035331543549;-1.6317212117869868;0.9328370560630374;-1.608458184534863;33;1.2566370614359172
78;-1.70452574258275;0.3047102378257451;-1.173496323405978;-0.8865322600656018;1.6794357485966462;-1.7944457773847529;77;1.256637061435917
79;0.5639046284551756;-0.8843775239528535;-0.1993419611756989;2.3402561366062447;-0.9672785519799758;0.8087668374765462;47;1.2566370614359172
80;2.294504686714535;0.6546235907092773;1.6152616190527904;-0.2412715538456516;-0.7562879001959603;-0.215540879879812;7;1.2566370614359177
81;2.649646214904421;-0.3951342487707903;-1.191879315224645;0.4948520449168667;2.4517795553246677;-1.0939065171846143;76;1.2566370614359172
82;-1.1834223905999437;0.6408789006063624;1.2034870987482256;-2.128680365020164;-0.1912330187549666;0.2587427966793931;27;1.2566370614359177
83;-0.6443575071085345;0.3919405395770787;-1.143708550385058;1.741839578373472;-1.6186672731822107;2.327006251107428;56;1.2566370614359172
84;1.6306429029180602;-0.2031736809868944;1.9272403993951597;-0.9244826475157708;-0.4797655254292448;-2.698993225983674;25;1.2566370614359172
85;1.7895839301820418;1.1435384700256634;-2.0040306170493056;-1.0663702756957307;-1.5220342485958382;-0.0398936863894014;39;1.256637061435917
86;-1.7824526611984246;-0.0978167593419345;-1.1486273660447297;1.6694476406305925;-1.426089897456824;2.2862253790223326;83;1.2566370614359172
87;-1.7322646357589948;0.8698977912330643;0.3512153850297057;0.5218716485615432;0.3801260893464353;-2.536073843165928;40;1.256637061435917
88;0.9128413999409736;0.2515046812557146;-2.012292446483554;-1.1720654013066114;1.6601532177941218;0.3510723830472668;41;1.256637061435917
89;-0.4467115363685178;-0.8044550455776426;1.4062691074188032;-0.7672356654758412;-0.4160308923689468;2.6106567298583747;61;1.2566370614359177
90;1.1564765619228234;-0.1199058885025606;1.6569766837590083;0.9975596339969296;0.3845696549956328;-1.4548771422096294;2;1.2566370614359177
91;-0.8947316462452215;1.0259793683139586;1.16035205359561;2.4408483507044934;1.3564120176068872;2.3092588896602626;24;1.2566370614359172
92;-2.870153045966133;0.4719181137612033;0.8700037255364432;-1.1584933401369375;0.9509853482067708;-2.364033941809337;53;1.2566370614359172
93;-2.034191307438059;-0.3196379253849172;-0.3641534553316289;0.2172084122288109;2.5528397244749628;2.1303623233017563;37;1.2566370614359172
94;0.1976892781086474;0.4120293341250088;1.6241973966482373;1.184147832273279;0.4615330845695446;-2.0337515332543576;90;1.2566370614359172
95;0.0860573223968525;-0.3177242574168671;-1.2311636426721024;2.4221040634795923;1.0095853128378265;-1.1847680540361811;43;1.2566370614359172
96;-0.558446384937728;0.080528582107575;-1.3751591641402503;0.4362251586258783;-2.45778950339029;-1.9819672293851252;67;1.2566370614359177
97;-0.2277340052666116;0.7597776585136647;-1.5227365539807889;-0.5011117429713239;-2.630654049117546;-1.7024587070632446;96;1.2566370614359177
98;-2.159859947744976;0.0092427301017114;-1.6950014776017164;-0.4381622334981932;0.7908045469283;-1.942221616098732;78;1.2566370614359172
99;0.3468693076012215;1.007525624358817;-0.8196454122467329;-0.6861754614914957;0.625953053191225;0.2277972660752765;6;1.256637061435917
100;-0.2915258645063018;0.3395878463967797;-0.9112061675021172;-1.17225965287633;-2.55940396809448;-2.456794388348315;97;1.256637061435917
101;-0.940191348628876;0.0487615782330526;0.9514561316519196;2.9391520168325798;1.319240721071422;1.7358569754540407;91;1.2566370614359172
102;-1.3851224615216378;0.2652958437104994;-0.9939427769226388;-2.133313551724628;0.1959520018750901;2.666312669389993;58;1.2566370614359172
103;0.3917693679555303;-0.6982660441537968;-0.7462315844320756;-1.4926806777476882;-2.343543868791894;-0.0153599140825681;30;1.256637061435917
104;2.34111372396855;0.403988138726694;2.188825575362904;0.3933072775902102;-0.1092746748211688;0.3876623635925127;80;1.2566370614359172
105;2.118766442510112;-0.1985151535277656;-1.6695191720778486;-1.3579235894234878;-0.1439283430577203;-1.3652945559276548;39;1.2566370614359177
106;-1.9924736253458724;0.1758282272427704;-0.8124551722278812;-1.0707136734526326;-0.9929198533053124;2.25507785366876;58;1.2566370614359172
107;-0.1045892991853518;0.092770418647919;-1.4026142717697112;-2.212324732127047;-0.9084671481179734;1.4473471690378303;46;1.2566370614359172
108;0.8838845049746539;-0.1714180578145833;0.5185664427369123;-1.556495429378745;-0.787103573636679;2.446430264574001;61;1.2566370614359172
109;-2.640207649016868;0.8280349437286862;-0.8142740767354518;-0.6508002622697124;2.174418570456504;-1.8066578662110264;78;1.2566370614359172
110;-1.5439202827179184;0.4573008069626893;1.532516557773307;-0.0427546143884419;1.2465479248743885;2.071299353461721;36;1.2566370614359172
111;-2.152609816722149;0.7461647705558405;1.730663615523578;-0.5598511554401591;0.5482864780455202;1.495998363965802;110;1.2566370614359172
112;-2.110699701811388;0.9729379208005018;0.9901777421322102;0.1050746144953548;-0.0179494201858741;1.959555786631157;111;1.2566370614359172
113;2.160620321934666;0.7232719432732904;-2.3036856405124424;-0.69169868015856;-1.843480346875868;0.925168599151002;85;1.2566370614359172
114;2.2348434689759182;-1.3384445228274169;-1.6183427638745047;-1.3911158033378892;-0.5375049454414912;-1.0372692957049596;105;1.2566370614359172
115;-2.6902601513239297;-1.2980758003323325;1.7709088824365389;0.3830616965721558;1.5135955396658174;-2.8164001010289867;35;1.1432501010177791
116;0.0075508665654516;-0.7438306151149983;-0.6718638551230739;-2.310461049025965;0.3532494447289674;1.0766609085494083;46;1.2566370614359172
117;-2.089722434868764;0.983765352441858;-1.7427187484082012;-2.1863487196190565;0.1415256392982524;2.672373470143006;102;1.2566370614359172
118;-1.869821961910645;-0.8050232670182151;1.910998193605853;-1.52091290814745;-1.7972460908516097;-1.2151322032861671;42;1.256637061435917
119;-2.2364674886669995;0.4124363317576762;1.74388553147673;-0.7618502116412476;1.7237317185228829;2.6262971522117864;110;1.256637061435917
120;0.3798976814852809;0.2628645515998088;0.6364924700306456;-0.92330144485412;-1.6114328671765212;2.6517900633279665;108;1.2566370614359172
121;-1.378292323393421;0.7013376747165333;-1.1067272819004057;1.077749849442544;1.769010232359407;2.652654399620168;73;1.256637061435917
122;1.3747705235636445;1.722747228010563;-2.5808788953362334;-0.4981685784313672;-1.124604921711254;0.4680694832724397;85;1.2566370614359172
123;1.4041191625601936;-0.4092819506947019;-0.4062953098986948;-2.054925960578264;-2.313495286525168;0.1800715193172611;103;1.2566370614359172
124;-0.7080223256986231;0.184491531658947;-1.1101728484118945;-0.7434073189341057;2.033094103722141;-2.444135136687218;78;1.2566370614359172
125;-1.2837147627641148;-0.2542035063182393;-1.005417183523821;-2.6654744718613754;-0.5314034246282613;-1.1721766958311648;33;1.2566370614359172
126;2.0114924268022394;-0.0676496896868282;0.1146435725463486;-2.271579976406046;-1.8244484349705608;0.9122181681957744;123;1.256637061435917
127;-2.798963752289254;0.6809946828412766;0.7683926333482958;-1.816346697305525;-0.6153342312325658;-3.02706841227366;53;1.2566370614359172
128;-2.152052987026841;1.0078640717753609;-0.3050027084898292;1.393240508026013;0.5495189512615184;-2.129527495780005;87;1.2566370614359172
129;-2.8582624368972738;0.2991852280342332;1.2826046727312426;0.1258658329737711;2.0196538646769917;2.928443161516351;119;1.2566370614359168
130;-0.1785417069794222;-0.428690221014595;-1.7583476827176836;0.3653939178787082;-2.101272639806752;-2.928830773372179;96;1.2566370614359172
131;0.0023815535445767;0.5476245727585253;1.14540026835096;-0.4783614475401778;-1.489728985432608;-0.5518792090775796;68;1.2566370614359172
132;-2.6312475577062906;1.3827100079216328;-1.4809394803648768;-0.6500405495980828;1.4669725806381702;-1.2352833585273333;109;1.2566370614359172
133;1.604849739250224;0.7392952358155266;-1.2708109604842794;2.597206199648132;-1.3695321948651795;1.930794192879166;21;1.2566370614359172
134;-1.943764876561416;-0.5598010037047602;-2.012327390395632;-0.3040667150335379;0.6540076485863624;-0.9072152784363556;98;1.2566370614359172
135;2.868461458996257;0.141168238951952;-0.2176254164905412;-0.2205021652904164;-2.3424226761323497;-1.519362123421353;59;1.2566370614359172
136;1.2078666658629371;-0.8751396198265508;0.3469218120158595;-1.6376395317727068;0.1799733994986452;2.5339751683812604;108;1.2566370614359172
137;-0.9995644585112844;-0.3163304440838639;1.388287249249618;-1.931210235464172;-1.540567143917586;-0.9403355569971762;118;1.2566370614359172
138;-0.9268983308600482;-0.5261413244526585;0.5503765499937773;-3.033502171889402;-0.0268517467079458;0.6942095554755034;27;1.2566370614359177
139;2.138757344236108;-0.4456505021863167;-1.184398768549928;2.028751121319869;1.9599892148465892;0.3696158522657477;19;1.2566370614359172
140;-1.327869270754661;-1.1256332962744982;1.6918615443284994;-1.343845911834338;0.115529062161224;2.5563991856885457;89;1.256637061435917
141;1.4313152766745867;-0.8064004254615734;0.8025179345991525;-2.7136032245455755;-0.1486341559570571;2.760323848690577;136;1.2566370614359172
142;2.8081144922527104;0.0010811872278047;1.5528606066449466;-0.2239746526827623;-0.2997872847916412;1.0016082061506764;104;1.2566370614359172
143;0.0155124963546767;-0.0097514684214238;1.2923517651370655;-2.4455638964882302;-1.276783965138446;-1.2741318128607282;137;1.256637061435917
144;2.321722891307771;-0.2479526852362573;2.3357737844986404;-0.8401596637436064;-2.2165066095069457;-1.0509100409688272;12;1.2566370614359177
145;2.481008055076696;-0.1988073081004759;-1.1359659750476705;1.2455699576547898;1.2730072128878802;0.929443371253058;139;1.256637061435917
146;1.7596747191452284;0.4518292905554463;-1.919381322633935;-2.00024452921194;-0.1396820304344587;1.6708536996987688;32;1.2566370614359172
147;-0.4808262216394682;-1.1526874778389102;0.5044740286122371;-2.073157494974339;1.080425485580405;-2.7195526915010304;55;1.256637061435917
148;-1.539557078989834;0.0402669443108692;-1.4546590364439789;1.8775875430481224;1.9573001817596625;2.087087493586551;121;1.256637061435917
149;-1.8584501883381477;-0.7407170450185157;0.259354564057592;-2.654944437641729;0.1876985060809934;0.0686909420687777;138;1.2566370614359172
150;1.05843724401162;-1.2876506852307683;1.6942426870226386;-3.1089154281909503;0.2185631332845642;2.4107265907755635;141;1.2566370614359172
151;-2.435271721334609;-0.529106561332145;-1.093999533464023;-1.2215954778402978;2.0163153396152125;-2.1376972971088857;78;1.2566370614359177
152;-2.714763639335687;-0.6889314154949937;0.2301212208912888;-0.5477699419128338;-1.3614683982567577;-0.005770493758973;49;1.2566370614359172
153;1.027233484239593;-0.6144473808233686;-0.7542073613118909;1.8349632288515183;2.894874723863803;-1.0550761459005675;60;1.256637061435917
154;2.593283715186105;-0.111025073828786;2.291937742322628;0.3443741455378085;-0.7779767122375029;-0.9435819165105526;7;1.256637061435917
155;1.4656477934775356;0.7915224201536086;-1.0811828640045025;-1.1312531338924146;1.0934636552400725;-1.3770781691100136;72;0.9219567913510008
156;0.0729885185998613;-0.5694767713397961;0.3528222701310597;0.3876868538207955;0.7073049945960904;0.6887964727877314;0;1.2566370614359172
157;-1.2372776160935952;-0.0969843009662237;2.25646452157314;-1.8479108084994007;-0.7386076558410289;-1.2062431295824252;137;1.2566370614359172
158;0.4035691160004894;1.299722426597143;-0.2471895667670905;2.0895104046429647;1.6629948113233484;0.6215028071580109;13;1.256637061435917
159;0.685817646451529;0.925781961686674;1.4032244204362756;1.2896364845415451;1.3596565262968412;-2.49238320389352;94;1.2566370614359172
160;0.7492351429973858;0.7588626409849096;-0.3035695001234738;2.05750180119124;-0.2861235588588855;1.2268924211316323;47;1.256637061435917
161;2.040414982283569;-1.1595243004484497;2.25960474576372;-0.0834373511370272;-1.5483118020341506;-2.1216408592448945;12;1.2566370614359172
162;-2.404173102638245;1.350227263480818;-1.0890876085233607;-2.5592226573982977;-0.3908610574052982;1.967917002969753;117;1.2566370614359172
163;0.9876717419938408;-0.1783819035163762;-2.146165549586025;-1.4319127717439408;-0.275118507654909;-1.1428555591147556;105;1.2566370614359172
164;-0.7035729222901447;0.7358005410965109;0.5199214546402287;-2.410539056320107;-0.1762524996616158;-1.0526418527143628;33;1.2566370614359172
165;-1.823145917107992;0.091783075294637;-1.4010752117371;-0.3192290784183329;-0.1979287374731553;2.241376682424648;106;1.2566370614359172
166;-2.1161443539426985;-0.4815269354659508;1.570127290380017;-1.778370391567588;-0.6182331398938046;-2.525597359003387;227;1.2422049991919009
167;0.4206046342202028;1.0121705796619067;1.5368834597465386;-0.1005794365917278;-2.315203783305701;-1.011265960703554;131;1.256637061435917
168;1.662330456040683;-0.0206548762324957;-2.202458033632593;2.9265655108875044;-1.226558046583364;1.893070636751053;133;1.2566370614359172
169;-2.3110672088732493;1.1587826314651908;-0.9504175546396256;0.032080127327871;2.754790157314257;-2.541312472123723;109;1.2566370614359172
170;0.2166537552025868;-1.267033309958355;-0.4643023624054035;1.268041938744009;3.01528434764798;-1.331274764788567;153;1.2566370614359172
171;-2.264050832455894;0.5393492518595098;-1.9954766692495003;2.33970085859351;2.180673662527933;2.586321121647236;148;1.2566370614359177
172;2.4042756260245253;-0.8457466968805067;1.5954691189307069;0.802591059617579;-1.7117745431596547;-2.4305797017046973;161;1.256637061435917
173;1.6677440572144877;0.1818527002198076;-1.876441260352364;0.9217812206359612;0.9536267777913412;0.7964408324378057;145;1.2566370614359172
174;-1.3238032710379657;0.4695375344387353;-0.2102502963218264;-0.5870555042789845;2.92700467105405;1.5638530673931934;37;1.2566370614359177
175;1.950589715606773;0.2163780832814404;1.7044741040615283;-1.321922651027038;-2.983799182599381;-1.1310415099250557;144;1.2566370614359177
176;0.222972810157461;1.2835232403020538;0.6647172711789584;-2.419601994320595;-0.0640274470549236;-0.4305428840063868;164;1.2566370614359177
177;0.2361404091939;0.2419044053153893;-2.358212020079272;-1.1278014685407824;-2.698821061335683;-1.7213932591705217;97;1.2566370614359168
178;-1.0700690126927626;0.8333063371678056;-0.9723747938804496;-1.7018579547854835;-0.1118898507680947;3.312899511514896;102;1.058940440708089
179;0.6110346673179238;0.3447944723292009;-1.4558406335513003;2.694315348461979;1.495468467148742;-1.894657658611541;95;1.2566370614359172
180;-1.0164729494031937;1.106307632350109;-2.0573186095620497;-0.7835165064587333;-2.956251362331926;-1.097975022877119;97;1.256637061435917
181;-2.424948821818014;-0.6575407241432837;-1.1688576227081788;1.6161418239858103;-1.3961944177604926;1.3648677080219036;86;1.2566370614359177
182;-2.175330474614064;-1.2676595454174604;1.009268229315494;-2.5708508292893177;-0.5449778939027567;0.3765841739168998;149;1.2566370614359177
183;-2.6918483394623145;0.7003772043826206;1.3991986096536604;0.3871135728930195;2.3802623472539164;1.842807382345243;129;1.2566370614359172
184;0.4154538065306494;1.184959485538217;-1.0730204865806745;2.4256419458345646;-0.6986651538068399;0.6036784543093812;160;1.256637061435917
185;0.6682843274661824;-0.7850520175717641;1.4677556999819752;-1.2853588154001063;2.5634665996909787;-1.3179895728668558;74;1.2566370614359172
186;-2.4059404441514936;-0.1037732204251545;1.991711452004024;-1.6781110928305216;-2.451589646605824;-1.7987165254036503;118;1.256637061435917
187;-1.6643213999076671;-0.7723839427828033;-2.104410480879546;0.387254226672717;1.5016763831745763;-1.4081247692127112;134;1.2566370614359172
188;1.1271524878652903;-1.2939223412044394;1.9665504495790265;-1.2030293471255242;2.1583264869675665;-2.148600706167339;185;1.2566370614359177
189;-2.289169720435365;0.8901857154042758;-0.545837021459747;-1.4224314803051;-0.918038206339738;3.138482401660295;106;1.2566370614359168
190;0.3934166721739939;1.2012062424588943;-1.3886510462987949;2.5711011807218287;1.7753225594990152;0.7693090507755229;158;1.2566370614359172
191;0.218672838484573;-1.213723700282503;-0.3455962232138678;1.2262778759549364;-2.130345904344907;-1.871705203722748;45;1.2566370614359172
192;3.215094787417565;-0.2609061237721837;0.6876203053659959;-0.5485540351459121;-2.058050124626825;-2.0572865161912177;135;1.2566370614359172
193;-0.1197348839171282;-1.0914227892902657;1.7467509686005085;0.0988795717763655;-1.13959448197312;2.626300156573341;89;1.256637061435917
194;-2.0546938524410705;0.6886752549017925;-1.850701225942459;1.7202219390935558;-0.8472290571878145;2.0498228769990297;86;1.2566370614359177
195;-1.9529409127129085;0.2527894695687321;1.7222405193614254;-2.004892915317871;-0.7407744541425106;-0.4096392769198311;157;1.2566370614359172
196;0.2255449766950762;0.2018575131577427;-1.6137963398113315;1.3547662361854205;0.979451383971908;-1.2412376033282628;95;1.2566370614359172
197;2.431147297685876;-1.1481900465875097;0.1807771885851851;-2.3367498621385048;-1.8071589211456691;0.4362566842899588;126;1.256637061435917
198;3.080185810042562;-1.1750781090010411;-1.4171208486075133;-0.6955412365092654;-0.8737126694743554;-0.5895030905198546;114;1.2566370614359172
199;-2.4041546495909207;-1.0134823705493508;1.6377684822336371;-2.306729114815385;0.2776550485553409;-2.881766239437989;166;1.256637061435917
200;-1.46479111583521;-0.1842972376015547;1.4517614603014524;1.1976147301090123;-0.7933261054253513;-2.2877990253991163;452;1.2462058588783111
201;2.5722352652994576;-0.4046248176490561;-1.017267061785534;0.6104419346077504;1.70923688795811;1.8889641297420852;145;1.256637061435917
202;3.1195284346611936;0.0321655291363598;1.0637785250141465;0.7080747794588605;-1.742484188530931;-2.4957636731129287;172;1.2566370614359172
203;2.4074156207041777;-0.5132541333296136;-0.9694110279122036;1.152597833262648;2.759803159470026;2.2634746789149074;201;1.2566370614359177
204;-1.6969386135547395;-1.034184185257492;1.4038008212260464;0.9741984251526996;-1.8618131081974765;0.3946435438720072;49;1.2566370614359172
205;-2.229558449133349;-0.7642889370735411;0.9443241762088748;0.4157642185551056;-0.5049745656983795;0.4520945700406328;49;1.2566370614359172
206;-1.5912629707091137;0.0265204287279189;-2.3560759779036755;0.6095961384577415;2.139225155334733;-0.7629030319263332;187;1.2566370614359172
207;1.7194068955441888;-0.2871100362661073;0.6093997471784739;-1.5952718048986474;-1.433765997961781;0.5209091996475349;126;1.068367301974697
208;-1.8015829671857624;0.6415657915393174;0.9314925149613144;1.011799731859767;-1.1892682332326832;-0.2762129725033051;48;1.256637061435917
209;2.5431936749058184;0.1017770004728784;-1.308643452875074;2.5320159412188072;0.0682759961426164;0.0874770128851949;29;1.2566370614359177
210;-2.4157696992910305;-0.5716524606639236;1.1902227777772545;-3.195463329841233;-1.2182116423444562;-0.024378189514309;182;1.256637061435917
211;2.3987967477484817;0.1067126837919294;0.8517878189381319;-1.7591643699351662;-2.333684338411027;1.4896757257437414;126;1.2566370614359172
212;-1.2152830682285138;-0.5505638193182847;2.0863331317873888;0.3203186107829111;1.372700921496124;2.1011931232605887;110;1.256637061435917
213;-0.0932524698086752;-0.4294721031576218;0.5166808963227614;-1.309900848586642;-2.4518392503056567;2.575378061527228;120;1.2566370614359172
214;2.414447342516744;0.8960136946685384;0.2734160730998497;-0.8608787010151147;-0.3723266940484968;-3.086895063020493;70;1.256637061435917
215;2.114797279026104;-0.335782746806518;1.0102362704254295;0.0331891718657025;-1.8583666843989204;-2.959077339068791;172;1.2566370614359172
216;-2.1331804032227817;0.6112803196355978;-1.0053125892431003;2.138256620001713;0.8887956241519634;-1.6187337405891775;128;1.2566370614359177
217;1.853520958755288;-0.7055001420291872;1.8096497868689967;1.7641108966623564;0.2111239757855859;-1.124193207142423;90;1.2566370614359172
218;0.2798979852305236;1.6090162275936497;0.454372782556349;-1.7699434852737488;0.7625491975566617;-0.9965999590023292;176;1.256637061435917
219;-1.404081169053195;-1.601948200521342;1.646964132429079;-0.8162340584258738;-0.8813806246750611;-2.3094775714793614;71;1.2566370614359172
220;-2.2439380666689805;0.5988759824210044;-0.9840673204138856;-0.7297254025825148;-2.0119531169105347;1.86420650251458;106;1.2566370614359172
221;0.3651480535034881;0.6058840519453587;1.6844670917768292;2.054489834754687;-0.1530096640637722;-2.645898724511748;94;1.2566370614359177
222;-3.2524873206905944;-1.1127308279917238;1.37515346727278;-0.2702019627707488;2.3061463126176878;-2.6853578541306016;115;1.2566370614359177
223;1.5808999197980005;0.7055277662704695;-2.139766788782928;-0.819674500795121;-2.5187064052175034;1.787472880260509;113;1.2566370614359172
224;-0.5579643591841678;1.0163625450673512;1.0039927731236646;0.1737402517431512;-2.3336042398498043;1.1889663325973203;51;1.2566370614359172
225;-2.6932138635137486;-0.0748590514534381;1.1912540957769122;0.2711492515865999;-2.2275311882060285;-0.9205862683783104;49;1.2566370614359172
226;-2.97705711602416;0.3925665353968471;1.7044784646674165;-0.5979692455975018;0.3023839058617504;-2.724855738783146;92;1.2566370614359172
227;-1.6386450108771835;-0.327298614711085;1.6214263648199363;-1.045271991744331;-0.3300661798400776;-1.708176900036236;22;1.239087792096028
228;1.7562194341025243;-0.169757809234347;-0.825938142192187;0.1209754757511824;3.1217768373874693;-1.180726808356193;81;1.2566370614359177
229;-1.626599449317723;1.4588046063920104;1.2903767924933571;2.418314485627705;0.5948115400338315;2.817903206489386;91;1.2566370614359172
230;2.699488519964798;0.650235817486806;1.9131055590546655;0.8202111428276593;-0.7176929070021865;1.260373717750484;104;1.2566370614359172
231;0.1122096223934782;0.2998909643196899;1.775959902075393;-1.460124237032772;-1.9568068721974008;1.0677785594149796;44;1.2566370614359172
232;-0.2973440858677069;1.403119443937626;-2.0096755641122948;2.9048885404456803;1.2353961686836712;0.2471870557812805;190;1.2566370614359172
233;-2.424422451433231;1.0717736562790416;-0.3337856321231795;2.3163841432596888;0.9656889247158128;-2.818473842944694;128;1.256637061435917
234;-2.325060655817988;-1.1962821547392746;0.2477146243901431;1.5189502934760328;2.6481501808166783;0.021106098366893;75;1.2566370614359172
235;0.4356893627361017;0.0769310694792969;1.302399149271132;1.3588472803635268;2.0719826651484574;0.7092334453380746;14;1.2566370614359172
236;-2.5644879230095023;-1.2239830263738112;-0.2386086667479743;-0.7198210942999587;-2.057281669135667;-0.7384425025171009;152;1.2566370614359172
237;-2.486753515547531;0.0194906177179621;-1.7431376882960676;-0.6397904582564837;-2.191007231772007;2.6179660579907167;1013;1.234284769259708
238;-1.4792848278970787;-0.3237439742169501;-1.892363450916833;-0.0876718984918321;-2.5589369049550528;-1.8572364441500664;96;1.2566370614359172
239;1.0968762013166848;-1.4632046767071725;0.5539590776020816;-1.111446094631833;0.905432226495442;3.14631726029638;136;1.2566370614359172
240;0.1382214951593953;0.4578913252574214;-1.344325135458655;-0.0388249258742252;2.3592149275612475;-2.805579764277007;124;1.2566370614359177
241;-0.2571131982732178;1.7468028899035606;1.0262126925077215;-1.7577959179555362;1.5858275580759549;-1.4222217466739688;218;1.2220702870799511
242;-2.643319045945536;0.9922098056072772;1.3751281829294018;-1.3264332219365471;1.0462765877532745;3.0310067044920155;119;1.2566370614359172
243;-2.2861263678514065;0.9608795532765186;0.7200702296260851;0.8756769569525942;-1.952257881381941;-0.731490292786688;208;1.090597551664011
244;0.9179326952900108;1.2784727487797265;-1.3650082636056056;2.0446096286032467;0.1548663980882667;0.0045554775038831;184;1.2566370614359172
245;-0.8302127223270126;1.4781461991861375;0.5968397682627707;0.8584148481437365;0.8061217605246762;-2.335056557381077;87;1.2566370614359172
246;-2.644089272987647;-0.8807703182302111;0.3802996633291597;1.3327323161325295;-0.7726774968776118;0.0482208451873097;205;1.2566370614359172
247;-3.0593104478994038;1.606774061278218;-1.7466496655870043;-0.8368157397380833;1.7402508949508229;-0.1556879459069129;132;1.256637061435917
248;-2.3063858194373967;1.448793731469091;-0.7966054956047877;-1.290958548579471;1.7266216736520883;-1.223384669271721;975;1.1705375923200738
249;1.599800645318335;-0.5743856616604399;-2.19114664223161;-2.571555015922772;-0.4248689633355269;1.808244415111131;146;1.256637061435917
250;-1.7168314181267987;0.8283338347713334;-0.4674261138105451;-1.375767320122205;2.16998025411758;-2.365658177882121;78;1.2566370614359172
251;-2.0301471253329173;-0.2195927751973945;0.9692483840214858;3.215746918264825;0.83812898488378;1.8399206269301105;101;1.256637061435917
252;3.1009343555679743;-0.033840078564359;1.553654548035902;1.7568156654207303;-1.314009327932624;-2.26991515271796;202;1.2566370614359172
253;-2.896126258834589;0.8496238401396801;-0.8907126184406889;2.4343921838865468;-0.0165421305259406;-2.6827893934893896;233;1.2566370614359172
254;0.5439246959207804;-0.8602676989421194;0.3316325296807529;2.8557330181406915;-1.4863520242199326;-0.063625636062847;79;1.2566370614359172
255;0.3801683980839518;1.5215784489429798;0.1923022220312043;-3.068030786914133;-0.9176757469331904;-0.7846681038637465;176;1.256637061435917
256;1.3243939241637246;-0.8157816880954681;-0.9023426054089034;1.6854484894133308;2.6241329733698677;2.352037612191682;203;1.2566370614359177
257;-0.6380946092967796;-1.298277792718568;1.1505033093445265;-0.8813172810397736;-1.6872813210713788;-2.310163644402261;219;1.2566370614359177
258;-2.22748896734242;0.5786954910370143;-1.7772800313317112;1.250700797794313;-1.4156939068537695;1.0557454430282016;194;1.256637061435917
259;2.6523826606500407;1.0620220350786636;-0.3647981942776514;-0.3822029650535389;1.49693546735502;-1.814327594261604;72;1.256637061435917
260;2.901522212961157;0.302638464661248;-0.711530758277581;-0.0297523567906074;2.2252695671274063;2.337151942803974;201;1.256637061435917
261;-0.4873615073177639;0.8996270244051334;0.6873089493033337;-2.41746654845072;-2.2327394978229327;1.160748246512031;44;1.2566370614359172
262;-2.1401761238282693;0.6674189645306526;-1.6056796091322465;0.3916931934498247;1.2649017708213206;2.760539593709369;121;1.251802348793795
263;-0.8491143795366796;1.2454378514444175;1.113480415027697;1.1495450068092052;1.414851405656261;0.5037612332041432;14;1.2566370614359172
264;-2.593343410531204;1.2365088881681097;1.3369253854358478;-0.4803687338787657;-0.7848729772387353;2.434500536169079;112;1.256637061435917
265;-0.4324687108031106;0.3179120432264487;0.632528095831869;-2.915096632818775;0.2668951292562991;1.4119797082328205;138;1.2566370614359177
266;-1.975839020585505;1.193075970269685;0.2028237378294521;2.5556053012809032;1.528553694761163;-1.9810956544064893;233;1.256637061435917
267;-0.3463874447010127;1.2338901534656648;1.2835383023836415;1.0508979379285948;-1.9458958485120148;1.8883836235899127;224;1.2566370614359172
268;-1.4090078826654675;0.3473336662138791;-1.0346367592538006;-2.334542448318333;1.5055147984349715;-0.9514787084894823;77;1.2566370614359177
269;-1.0971352524736102;1.16437568972384;-0.2768802968848654;-1.3134649448725515;2.3281460660605013;1.1711491199199238;174;1.256637061435917
270;1.0108125094942193;0.4092344459189093;-0.3752686465109843;1.7949275097996296;1.968688677886109;0.8418226567453442;158;1.1861223762549864
271;-0.4070096272142602;1.7434018178156023;0.7896401925951562;-2.7918672155365134;-2.0410078211671854;0.600592459200311;261;1.1043529378740389
272;-2.040142821646394;-1.1851773651866315;-1.1636580262438545;-1.0419998305534746;2.887179278816722;-2.5816230278262107;151;1.256637061435917
273;-2.6922986264933817;0.5242473570850799;-2.113632461259224;0.0385300194665734;1.4578395395357917;-2.3699983170247165;98;1.2566370614359172
274;0.0250693485838972;-0.7829620675725331;0.7696173786090768;2.1307616400963614;-1.2486930879123672;-0.791673488330579;254;1.2566370614359172
275;0.6522297670442895;0.4923215735207558;1.8897343338220265;-0.1102646494326045;-2.924166475690404;-0.1395949164256426;167;1.2566370614359172
276;2.7589188102660462;-0.3782921035114754;0.9115486413704066;2.497071604457598;-1.0701393012730258;-1.7009130148494516;252;1.2566370614359168
277;1.687315464404678;-1.8089684416783824;1.6001121916138323;-1.316074091223428;2.849169502423117;-2.2424490694177264;188;1.1009917094402255
278;1.5773163589708823;-0.2549433616427862;-0.469171209657709;-2.113678777121441;0.7042878162409061;-0.8154040235771722;52;1.256637061435917
279;1.4116101318966507;1.4248718647064424;-1.5514237792141246;-2.7131877755234526;-0.6495289874546115;-0.3630124279153016;23;1.2566370614359177
280;1.9512206698136776;-0.0277150789731077;-2.2924784209907925;1.8419508854494584;0.3229416492133655;-0.4981433118995531;29;1.2566370614359177
281;-1.0507982785374042;0.6319698284986126;-1.8684544926440176;-1.3485034372846236;-3.066529966257493;-0.1050395432791714;180;1.2566370614359177
282;0.6193471191300859;-0.6710626632441515;2.0344935288143784;1.0307014106918655;1.6887384068733142;0.2671996743942426;235;1.2566370614359172
283;0.7557242193748317;-1.330155213541308;0.1673373350767706;2.3390117338002003;-0.6804191782791438;-0.92134706402668;720;0.953310145792298
284;0.9265345691102308;-0.8596759730256719;-1.766374195949152;0.8939375046274294;2.412904388212357;2.387536708592599;256;1.2566370614359172
285;2.906405106911793;0.4425910948747978;1.2007953668600986;-1.9360515056146768;-2.961635842398969;2.3028409809127983;211;1.2566370614359172
286;2.3413788990793925;-0.5512946698871198;-0.2587246669585581;-1.8833153770483355;1.1680362611336392;-0.0439745857726492;278;1.256637061435917
287;1.9433371244250688;1.209089189825546;-1.5621416963496275;-2.2834433577691478;-0.8767783721532069;1.200928678062898;146;1.256637061435917
288;2.18366244252028;-0.998705139288674;2.7305617274227005;-1.4884937458511354;-1.5189780279432434;-1.6977135463540411;12;1.256637061435917
289;1.9845388272709443;-1.2346873407466905;0.0802917821177196;2.895602368466545;1.5276571713455558;-0.2925876810842583;60;1.2566370614359177
290;1.305085385180232;-0.1518132460045567;-1.0945390234025731;-2.7281871623708134;-0.4473514634315929;2.1017147055280705;249;1.256637061435917
291;-2.4253603752947543;1.0525019572044032;1.5689024727402991;1.01695237909712;0.2841666971484683;1.4947145136113078;112;1.2566370614359172
292;2.858887914637627;0.5711051556193787;-1.0050741421566636;-1.3956332620425382;-1.6866694413087566;-1.7515671052931252;57;0.8011703968392311
293;1.5481222728293502;0.5615552472149575;-0.5244473256476663;2.13466118599348;-0.1981148186433272;-1.3794575499591817;29;1.256637061435917
294;-2.032823939181891;-0.3603908143898837;-0.2028569811283358;-1.0691734148345813;2.287547143240704;2.5231712408941074;37;1.2566370614359172
295;-0.5529174254472422;-0.0329564725270269;0.3286137422608479;0.784086313345558;1.9871401645734557;0.1501269323523264;14;1.2566370614359172
296;-1.531263633144835;1.0891968732220882;-1.9315074170020567;-2.771476230165863;1.6413248743272937;-0.961314082059813;268;1.2566370614359172
297;1.7555338655684194;-0.9525689144963944;1.072478637511073;0.4891909061567719;0.3499468055401371;-0.0169638361847105;2;1.2566370614359172
298;1.8634261710434648;0.8065057375588381;2.047096074401184;-1.7208651293335036;-1.219774551493083;-1.7418215985868546;25;1.2566370614359172
299;3.277389992471797;0.4953278590690634;2.1524767076634577;0.9319434054753796;-1.52659544837114;-1.8412120812704929;252;1.2566370614359172
300;2.5437863311385724;0.1526891271362028;2.084256759303932;-1.134791137786776;0.2619919967374778;1.2439258865202114;142;1.256637061435917
301;1.5443142552185096;-0.9304621350876316;2.327172327996392;0.8276312079271092;1.1265980371335178;0.7291349872955846;282;1.2566370614359172
302;-3.0171934054506897;0.3371251762297633;-1.8155946728691108;2.7756165844878256;-0.4322068943190979;-2.2862966853011755;253;1.2566370614359172
303;1.4905875960053765;0.3629010967525505;-2.0529912513707638;-1.0319929233074412;-1.5634982966768085;0.2891466461026235;85;0.90130975261668
304;2.691805266505224;0.6857140882881987;-1.7887713530994749;-0.5829034994487238;-1.65469282800476;-0.3132778124666755;85;1.1815330540288784
305;1.0345437153335315;-1.3779524637896658;0.1275378528320055;-2.307816022112978;-1.9201799102161816;0.1555783376807909;123;1.2566370614359172
306;2.256470130418265;0.2824515820936983;-0.6220279263947217;-1.956693295862372;-1.6359749942560862;-2.569384896735661;292;1.2566370614359172
307;-2.6957540541097984;0.6310793828311391;1.0710567570989074;-1.6384705697384423;-2.745429028772647;-1.6586508040059509;186;1.2566370614359172
308;-0.0513734234965594;0.4942377338934373;-1.3846490218809664;3.190189728461179;1.5877745143217226;1.4497743970446195;190;1.2566370614359172
309;1.583329185895332;-0.3462891048807177;0.4900494181987455;2.121576242173034;-0.3589302105030483;1.940246702255088;47;1.2566370614359172
310;-0.0998588715570877;0.1356563066861652;1.540093576238455;-0.8673492495217445;1.6626091214713457;1.7034615595489229;36;1.2566370614359172
311;2.966042664446037;-0.492825622936953;-1.0936661750986445;1.5476746451405818;1.1797163663518198;2.3906005453742925;201;1.2566370614359172
312;1.3425089297837782;1.2712671948922234;-2.232180776506957;2.2447607683799187;-0.986981514952854;1.7504469979018356;133;1.2566370614359172
313;2.7504983447410587;0.2723914645533989;-1.377816812918143;1.5015514950146234;2.7174464413056514;-1.024772271327265;81;1.2566370614359172
314;0.3618595408455412;-0.057357465930405;2.052940250568711;1.2180059026126318;2.579416216869035;2.866125124925515;66;1.2566370614359168
315;2.391714448903614;-0.7139057920529663;0.9804980954635988;2.587022048020241;-0.8476296017496338;-2.398466829272904;276;0.8924195150575651
316;2.2747289690210364;0.4571318534120666;-0.7295781553697417;-3.08880356613516;-0.4281190881971958;2.168821935174161;290;1.2566370614359172
317;0.5287394200544463;-0.5651412458344814;2.18942224405741;-1.069122217411513;2.131736240387926;1.6011708991107627;310;1.256637061435917
318;-0.7936949322472925;-0.8977768577996748;2.6858605533737747;-2.0123418318780053;-0.2331055350698764;-1.4706428521756332;157;1.1725580742441344
319;-1.562722616846422;0.3343009546596607;-2.263635715306727;-0.7957155852840876;-0.5142811311171648;2.85893043436512;165;1.256637061435917
320;-1.3266340779867936;-0.9124075091240944;1.1806358907707375;1.408271356834946;-0.7140034508188762;-1.3365569841653189;200;1.256292453207071
321;-0.6655361091140559;0.7112970558034943;-2.4235446381493806;0.0917140708468487;-2.767590812047237;-0.4944820137881563;180;1.2566370614359172
322;1.9203308039048856;-0.0610743628526958;-2.795300381905247;1.0818567969628958;0.7162293692702424;-1.267442668496102;280;1.2566370614359172
323;0.0326640649388728;0.0791436921908893;-0.7009417386832084;0.9350833955634495;-1.3727381714965816;2.666943769365264;83;1.2566370614359172
324;-1.0673048082212124;0.618983572604893;-2.188914372909656;-2.167420331988509;0.9637983524477016;-1.463901694272597;296;1.2566370614359172
325;0.9331926410417968;-0.1250504318880513;2.2266006342327764;-2.106750152886416;-2.1819216036940685;0.8382799533523648;231;1.2566370614359177
326;2.945992753292871;0.7077662649657833;2.407539228374441;-1.8272961734891584;-0.0641327413405872;1.8910919742775076;300;1.2566370614359172
327;1.8208610264426064;-0.9546333490923516;1.4346281269387242;0.0739680932356426;-1.4439184628974788;-0.0044865425731123;7;1.2566370614359172
328;0.891033452007267;-1.3555305511714313;-0.2516447308256845;2.275844967069427;-1.606951139260902;1.1445488323884665;79;0.9261821568976958
329;-0.8901562806285712;1.0522441261198747;0.3525278898944115;1.9681139809092865;1.6166164096001934;3.1059156182726264;91;1.2566370614359172
330;2.34464734228984;-1.1389744578375962;2.717041642898847;-0.73366023061663;-1.7734201192544563;-0.3939028663336313;144;1.2566370614359177
331;-2.759633925560148;1.3861959811678448;0.5006726596679647;0.3821417898741404;-1.066159309378933;2.352568140943617;264;1.256637061435917
332;2.3003189229492804;-0.3447800892494478;2.0780538244943063;1.946129523705569;1.254652607450317;-1.3592800289352434;217;1.256637061435917
333;-2.4140433149043288;-0.7406387910314587;-0.266759012186162;-0.47207860071704;-0.2708562368278547;0.203934790274562;152;1.256637061435917
334;-2.158332056830426;1.0688646025114557;1.4346840853858869;0.0202986036565149;-1.705824391455209;2.9379100773723312;264;1.2566370614359172
335;-2.181427575370385;-1.0219798255307224;1.9107102126443083;1.695412718898771;-0.5353886735377775;-0.9017043970141012;320;1.2566370614359177
336;0.3317352951871118;0.8955926477322399;-2.1860324198108123;-1.0855374220451233;2.5476719274336954;0.3862996614703401;88;1.256637061435917
337;2.403916948724878;-1.0464763579088656;0.0128341416032165;-2.701415748808304;-2.2101135583005918;1.551824262821279;197;1.2566370614359177
338;2.359899395355902;0.2295147959123274;2.072926765996548;-2.553821900078249;-0.9983297854034938;-2.247994003985152;298;1.2566370614359172
339;-1.705732079735524;-0.2008860364288893;2.610910617616645;-0.4447088912122655;-0.6477655974170569;-1.3647124255468903;227;1.2566370614359172
340;0.4201646071483177;-0.3356200880895174;1.6663581740203757;1.05020328726146;1.6379110450334622;3.067511243016133;314;1.088770565558829
341;1.6834108633183311;0.5355832999419985;-1.6655770314804026;-0.1318754081295331;-1.162594370606438;1.288473435947041;113;1.2566370614359172
342;-2.4531337426356874;0.0825158708501777;-1.72400741804281;0.7016694632280291;1.966509677891105;-0.134125496157841;206;1.256637061435917
343;2.1080928356817203;0.6691424300635263;0.0697713102110858;-0.3119031970044809;2.040821099051928;-2.613656446854649;259;1.2566370614359177
344;3.108469332480985;-0.697947374956807;0.0268088719702658;2.2580788603898414;-0.3528518084782968;-1.7206184820038788;276;1.2566370614359172
345;2.3554622537118584;1.2021517066908385;-0.5450241017166995;-0.8801482635202363;1.157977718233457;-0.3759744667777878;52;1.2566370614359172
346;-2.097592882696692;-0.7561906627505117;2.110688099486429;-2.1058730478062166;0.3827880164374578;2.4059132460653063;140;1.2566370614359177
347;-2.4134174707583047;0.8924016824942869;-1.0358930311965793;2.77903824062495;2.0312139534210907;2.0937464122132297;171;1.235209518302181
348;2.877121229340541;1.0225091812425686;-1.8182809740059909;2.330684989895463;0.6332000905191562;0.109330080089791;209;1.2566370614359172
349;2.297338617180944;0.2489855867203234;1.9296363594029544;-0.0123686417098155;-0.7180975167021714;-2.9025753644644614;84;1.256637061435917
350;0.7908955907096186;-1.610100677292342;-0.567684827842895;0.8048989565531173;2.918905124346074;-0.3840633368584272;170;1.2566370614359172
351;-0.2649724097674147;-1.6490504135329804;1.654080450789339;-0.5272606888923022;1.6862877216322223;-0.76343611474768;54;1.2566370614359177
352;-1.1848428671365854;-0.9627303383793568;1.1280502435764974;-2.0124785740660998;-0.5406309514065377;-2.9988802276879505;166;1.2566370614359172
353;-1.1389245144776774;-0.4893921489602134;2.3920876106388387;-1.2750922121762127;-2.139260399397924;-0.4827020060493326;118;1.2566370614359177
354;-2.830159969707025;1.141833135357349;-0.6506025234812136;-1.0845367879036265;-2.2493823844857346;1.059709412650433;220;1.256637061435917
355;-1.2623019252158474;-0.7219871250859432;0.1657787188556356;3.2157640357318065;0.9237468939298584;2.1301902266945043;251;1.2566370614359172
356;-0.0473353003565613;1.1564730053627417;0.2732510977014757;0.6737220921539075;-1.990289363955462;-1.2488731550686063;68;1.2566370614359172
357;-2.326962136163813;-1.0363882985719275;-2.020212552729357;1.1155372845630038;1.989798344244868;-1.950892773574296;187;1.2566370614359172
358;-2.7788907885632352;0.7149439926301926;1.5568770775243668;-1.474022752558087;-1.2303281980236078;-0.0428619087274053;195;1.256637061435917
359;-2.2979684458280984;0.0548110522016984;0.990672968693116;0.2316548728324081;-2.215795782437256;3.109507327523037;334;1.2566370614359172
360;-1.9956738413789368;0.6398236363076593;0.6702937019403135;-1.0972949420974507;2.457234393585211;1.6291329320957253;37;1.2566370614359172
361;1.3745829637921347;0.3096386344771742;1.242923485001213;2.18063200565186;2.1880682394618223;2.770534768459961;66;1.2566370614359177
362;-1.646464493833083;-0.990613134040384;2.312825531216274;-0.897919546722916;-0.3608072729444;1.7513771713676485;140;1.2566370614359172
363;-1.6322463361840738;0.5754195723444576;-1.6548336831529382;2.62793106570785;0.8672393508401871;-1.2720655482382524;216;1.017115114151106
364;2.9542293947134644;0.7139264547218968;-2.1973548403891123;2.075858935198779;1.2591995383989851;-0.8273977954575384;348;1.256637061435917
365;-2.982276166286309;-0.6737742823201446;-1.369314585967516;-0.9294400240408236;0.5597712760872233;-2.130513509972228;98;1.2566370614359177
366;0.1560694037275507;1.2522474332396152;1.486128265868393;1.3054995014485318;-1.3597672801419016;0.5581406742431168;51;1.2566370614359172
367;-0.3745717112787905;1.5976109543063477;0.9957253111970756;0.0625202637225393;1.378003343010601;0.321900766043053;263;1.256637061435917
368;-0.3919086146983925;-0.0818076573549824;-0.2621702913713518;-0.918290749430272;-3.0565418572275385;-1.6452575846099555;100;1.2566370614359172
369;2.330972480191762;-0.4605102640744437;1.6095987370212697;0.1323183643383524;-2.306750961503952;0.5398166786177052;327;1.2566370614359177
370;2.3227505622724167;-1.5664554762667002;0.6564493547308403;3.0405316026844043;0.6954732815799394;0.2634585156829875;289;1.2566370614359172
371;-1.1847104639813997;-0.3363451613540407;0.8522895403357968;-0.8441588754341385;-2.113446116077617;-2.5984426631697777;257;1.2566370614359172
372;2.9330808770069874;0.7742809340508194;1.440993061691839;-2.5366532406936018;0.2983323155668079;1.815158267526264;326;1.256637061435917
373;1.7860411121385866;0.1672460132866244;2.5180398808296016;-2.6602322645319094;-1.8879242151835125;0.3010321233512478;325;1.2566370614359172
374;-2.243861391386848;0.2795164140305026;1.6626907977023109;3.2203938476000906;1.4647102739063476;1.1989332268272066;251;1.2566370614359172
375;1.3930305475174372;-0.5752406441786554;1.315531614750272;2.478589163876949;0.1600965342537085;2.582303148526776;309;1.2566370614359177
376;0.283911999395898;1.6568183577190123;0.561900729845097;-0.5518569468805996;0.8818401811216675;-1.2560380730052816;218;1.2566370614359177
377;2.715409578504965;0.7213050218870886;1.549084473029373;-1.577449229437692;-0.5634573548763927;2.5818102045501408;326;1.2566370614359172
378;-1.822263188077235;-0.1876340475335363;1.1547737142921464;-3.3092532393172784;0.2997899766725217;1.0330928705783016;138;1.256637061435917
379;-2.191441094385971;0.8235394449689842;0.971428049375635;-2.621824887088023;0.3956008162448076;-2.492518572474619;53;1.2566370614359172
380;1.6519354739813246;-1.64231795880555;-0.7311304227970576;2.113714312809423;-1.492198648966271;1.1979920772202637;328;0.9661449666197716
381;-1.6217427673814049;0.4974488375356118;-1.8884588107320583;-0.445183858204085;0.4831623058341096;-0.3657213871447378;994;1.0548952092885655
382;0.4433724105165262;-0.9811264490818316;0.6576009513571187;-1.8013351177906276;-2.005340353517412;2.086958906270377;213;1.1364723571099218
383;-3.166209898017727;0.0846338004882839;-0.1204532959102306;-1.2708940677056535;-1.0073020890701123;0.0696289002697184;152;1.2566370614359172
384;1.7975322773727036;-0.3525214601554375;-0.3454708878026711;3.3263690659681844;1.8407057926954344;0.2561521256427943;289;1.256637061435917
385;-0.5433430182883562;-0.8192277454366249;0.7771795647663192;-0.3769075625814809;-0.0138746565588884;-0.23321666471747;5;1.0801910478207355
386;-0.5893136041287084;1.2534614761738871;-1.6244646195971728;2.582906608473861;2.4961452766610392;0.957230576175626;190;1.2566370614359172
387;-1.4635355760265356;1.354277962533137;-0.9848416793413866;2.3210702193248767;2.8375086654004638;0.49842351373233;386;1.2566370614359172
388;-2.9249389706065125;-0.4413990832604116;-0.5444129329399623;-0.085644116295586;-1.7689210173187369;-1.2463062286024922;236;1.2566370614359172
389;-0.1766826106595983;0.2270172181926072;1.414066575673632;-0.7803803296211116;-0.2492288389402139;3.2542633991780288;89;1.2566370614359177
390;-1.4874498043478954;0.4344061422713647;0.6565687463776473;-0.7323101840935882;-2.9211249141161;-3.0346378307099653;371;1.2566370614359172
391;-0.6903154638492304;1.37619646103199;-0.3817128947363455;-2.529646614764754;-2.61802398766944;1.0771315056811257;261;1.256637061435917
392;-3.2867363805350185;-0.8063702693156563;-2.176968680796414;1.2166704235123758;1.9059778221130756;-1.2004025772210918;357;1.2566370614359172
393;-2.240089911809939;0.4307156347871457;1.319900820925182;-0.5380278153720575;0.4336741984784399;3.3493656712799416;242;1.256637061435917
394;-0.4535458481806099;-0.4535017924643271;1.782121845340785;-2.8260854127675428;-0.7027128663847888;2.1752558128504647;62;1.0082431170464532
395;-1.1785130048568453;0.3346732581831703;-2.067168534996498;0.4808411476973038;-0.2100196642302992;2.097673519077584;165;1.2566370614359172
396;-2.0204521839699323;-0.5831590265789278;2.0933859210253725;0.4231230548861406;1.3229054920682288;-1.810133955321965;35;1.2566370614359177
397;-3.3464378765201834;0.4566230133739625;1.9622276831735292;0.4150849308181549;-2.4573752004745826;-1.3700480415894518;225;1.2566370614359172
398;-2.906854524052716;-0.426295180128623;-2.032587394370504;-1.636744392181972;0.3597480489673232;-2.8598850168805816;365;1.2566370614359172
399;1.0567534338202855;-1.0219829933840727;0.0507975301540109;1.0296378907310455;3.162888987844943;-2.0163791782002862;170;1.2566370614359172
400;-2.8163092462767354;-1.2847137671954425;0.695357090415835;-1.6207686778988537;-0.6084170588114972;-1.9271717392069372;71;1.0038678464435336
401;3.182355820048883;-0.7281124260589431;-0.7949463917472462;1.4609103112314934;2.1778073490153758;-1.230279625698977;81;1.2566370614359172
402;1.36335566205454;1.038981702317866;-1.6764359414962486;-1.8808421757120597;-2.576233768231944;1.51078177668066;223;1.2566370614359172
403;-0.6596192706367869;0.0009828090461694;1.425659033686333;-3.141515465116414;-1.1426724423667456;-0.4975281414836888;143;1.2566370614359172
404;2.777196545656095;0.7291091606922228;2.2661497858959256;1.2110165667240154;-0.4388706922865241;-1.822746440073556;299;1.256637061435917
405;2.555771666244789;0.4695205551934187;1.225963647191893;-1.5884573621006657;-0.8598736497613149;2.1953594065921136;377;0.6562124403646473
406;-1.6622064791735118;1.0277752411159773;-1.4244060005249155;-0.4730778823570363;-0.3601477189253734;0.2416980830431941;381;1.2566370614359172
407;-0.0515942932754809;1.250708269088666;-1.907387067596792;-1.906860675807707;0.9706441642087642;-1.4984984954399097;324;1.256637061435917
408;-1.2310012601220397;0.467913470964049;-1.018623455226984;-1.9353226778000348;-2.3388661032474336;-2.2628495102329267;100;1.256637061435917
409;0.100524767274766;0.7911793757629034;1.1052143677155415;2.921928611940565;-0.6678816788742905;-2.9947538827048925;221;1.2566370614359177
410;0.0189361374953503;0.2434877238988063;2.1290949757976447;-2.299566830452418;-2.0832207368240843;1.9174295010077609;231;1.256637061435917
411;-0.679040450578594;-0.3515044729034376;0.5951849682963448;-2.535559512677644;-1.1550321475475034;-2.877819659400718;352;1.256637061435917
412;1.8269609774497964;-0.9752306166134348;0.8811177102691012;0.3010032122294646;-2.65805446982957;1.1543235774824698;369;1.256637061435917
413;-0.112329642591336;-0.2568680593446527;2.23133885357034;-1.3549872229346032;2.852165252965958;-1.178182633788876;185;1.2566370614359177
414;-1.7347627192692392;0.6781876673455676;-2.003955814852651;2.580235294842226;-0.532685391283418;1.2658438429297254;194;1.256637061435917
415;0.1056670499859206;0.8852902958099957;-1.817147149543596;-1.0281380120702246;-0.874733829779849;-0.733864817707706;63;1.2566370614359172
416;2.3267855878154657;1.0347349757998603;-0.4920869054553884;-1.6441092982631222;0.1834710246688619;-3.2963048152395475;214;1.2566370614359172
417;-2.09560161131004;0.0281083696247304;1.673073158162592;0.1690848353427398;-0.7902050406153591;-2.4587853637664923;452;0.9384599067135856
418;2.6983431910928064;-0.2115346823133795;-1.4025607489770426;0.7482689444043198;1.8885947678647623;-2.1509176862746107;81;1.256637061435917
419;-2.527256666119598;-0.7652858216891949;-0.6561659017842542;-0.0081933993661444;2.9004171206448963;1.1919946358357456;93;1.2566370614359172
420;2.111334837032296;0.4839425081237356;2.3026924017414023;-1.973840935612753;-1.0509307147468714;3.023633558871239;377;1.2566370614359172
421;-3.1973596098616075;0.7607099584662663;1.4167070563581503;-1.3033259811229698;-1.463115132141673;-2.918308964802655;127;1.2566370614359172
422;0.3481115666365403;0.8276690146211347;-1.173629400004045;-0.8234759331048586;-1.721516117296137;-2.258790985776082;100;1.256637061435917
423;-0.3481632417051914;0.0043601846952571;-1.4743480176566115;3.0706836287035046;1.0356087774040343;1.190652869667166;308;0.8499545835510611
424;1.496449770747818;-0.4940631374939115;2.413366921921624;-1.2379694099817646;2.4513496297469586;2.277046606626428;317;1.256637061435917
425;0.4801497051136876;0.4300922245550637;1.6642547030546695;1.784606528103169;1.409323836762712;1.179502890919399;235;1.0484178444797323
426;-2.5804411725152083;1.7182110540825193;-1.5092454760504992;0.0035400674015377;2.4983842284262487;-0.1468598785807953;247;1.2566370614359172
427;-0.4225353158678093;-1.4432579279802735;-1.4019258530250005;1.6161601759461908;3.26095800004752;-1.050491469552316;170;1.2566370614359177
428;-1.2658006773360704;0.0696000096610496;2.311985626180314;1.0445398834106074;0.7012348429029326;2.508254919449441;212;1.256637061435917
429;2.79938594240946;0.704205969649917;0.7978869504052699;-0.1058317736486617;2.76542527525996;-2.6621545268091777;343;1.256637061435917
430;2.056215253855344;-0.6546408920941889;1.854118311511265;-1.993709237302978;3.015533578699926;2.471491636703432;424;1.256637061435917
431;2.1468441318446;0.3767851333112392;1.4034119248343;-0.6779759324589345;-0.1809738438374978;2.9825716596849268;377;1.2566370614359172
432;2.686859838450025;1.4827269534167138;-2.225057884077544;1.8786343068809452;-0.276107101117435;0.4760453185821312;348;1.2566370614359172
433;1.4252158744751564;-1.189175567336057;1.341150598623889;-1.752668880225798;-1.1737119530045623;0.7467517792044157;207;1.256637061435917
434;3.2614274734537245;-1.0647551569804985;0.8036039366458594;-1.2739870982100836;-1.438828376580219;-1.969674797662213;192;1.256637061435917
435;2.710372935619365;-0.1526822102408861;-1.6537784463961498;-0.3457930338438457;-2.6308596274182183;-2.543479914140758;59;1.2566370614359172
436;-0.4244584684358072;-0.6138361593471207;1.4823217525274826;-3.3238840454772527;-1.1154691117503623;-1.70666687311827;143;1.2566370614359177
437;0.2586885150317062;-1.225718344842128;1.6483049555066678;-2.9973233717881103;-0.8955586130303694;-0.961352060768095;436;1.256637061435917
438;-3.3234369264629757;-0.9302088765518648;-1.6446244111363773;1.054877886294134;0.7937285796305624;-1.0747516738484402;392;1.2566370614359172
439;-1.9238069013099757;0.3580922572212928;-1.9593221389524411;2.1926399746693748;0.3784301172467869;0.5886554181174715;414;1.256637061435917
440;2.436897020320669;0.6430854446654409;-0.5130469719714477;1.8600429461266133;-0.2453109153838288;-2.218979057736477;457;1.2249645396129942
441;-2.4199489048079696;1.324394391178901;-1.1677794403529314;-2.240267847644714;-0.1239181835466722;2.042967881536814;117;1.0124978823922484
442;1.8170387451396857;1.6280402977529385;-2.3017638953930013;-2.6608082726649016;-2.4132185428587576;1.5298135768238763;402;1.2566370614359172
443;-2.164709415083629;1.0111776292750423;0.3086225277293576;1.1667546588797866;-2.332011875427353;-1.630930887585608;243;1.1065685213259762
444;-1.9905126993271665;0.4434036439036736;-1.1309685891503063;-0.6010551919949176;2.8259246180338597;1.0386703191555997;174;1.2566370614359172
445;1.476949034328891;0.0172655506327402;-2.104304915099067;2.7120863137282694;-0.2599625700048009;-1.4742431192753882;29;1.2566370614359177
446;2.3028959709625854;-0.1220523597323744;0.8349330524022437;2.5503758183194445;1.9504670201390883;3.184531786431003;361;1.2566370614359172
447;2.3235651114863343;0.6310122601910578;-2.4920056068503764;2.3182455190226428;-0.6845076023105485;-1.4685848364186107;445;1.2566370614359172
448;-2.351434238148343;-0.702836906059815;-0.5592400404482613;-1.9611403377395864;-0.079341486587336;2.079849246805062;58;1.2566370614359177
449;0.7856730028786441;-0.4298115253009445;1.2803662831588;-0.6010680619953772;-1.2543646223306752;-2.6034181666123524;25;1.2566370614359172
450;0.713407594042097;-0.4536665008849312;2.3274451473957893;-0.1572374635169765;-1.2465516805671366;-3.132497144519581;449;1.2566370614359177
451;1.1953928414980308;-1.1375841324320264;0.7170479610836076;-0.7982562822165763;-0.7012802709709485;0.7391888485898493;433;1.2566370614359172
452;-2.452727929495912;0.323187153031547;1.350438005146975;0.8142855890093837;-0.411025828603424;-2.4147175565187937;40;1.181684614139367
453;-1.9915086872444163;-0.1846798190823364;1.4310108254116964;-0.1952673286426799;-2.7945360718121792;-3.228528577876724;390;1.2566370614359177
454;-2.0837880239662554;-0.1063658683494324;1.719998574758528;0.1709734303785208;1.6018248390236878;-0.1865069836240219;65;1.2566370614359172
455;0.4241316423497424;0.7054276095199713;0.4820961844249683;0.5662191098794591;1.6398911861433512;-2.6008253967575223;159;1.2566370614359172
456;0.264154933526649;0.5201150856397762;0.71121586427743;2.387894993812505;-0.3810395483964317;0.8542324463983566;160;1.2566370614359172
457;1.97757663266693;0.797690762808286;-0.9947429906230784;1.860935316577929;-0.3856910659167837;-1.2120422856284496;29;1.151177349165955
458;1.7737056524705477;-1.5715831775220144;-1.7528614235787483;-1.6301616774957792;0.1225899856733639;-1.7815864798482384;114;1.154111479268441
459;-0.6092489329280406;-0.3218959744501821;1.2799837911289849;-1.268168703747941;-0.0379487088884923;-3.084840812936243;352;1.2566370614359172
460;0.8655588903792488;1.322535503632252;1.9276294278580377;-1.9360350158049264;-1.3802220811583514;0.9991645721804464;44;1.2566370614359172
461;1.3707831419243337;-1.1374812522235445;-0.2452621347565845;1.831109625553844;1.2670809897998072;-1.5597672039435666;60;1.256637061435917
462;-0.8344492121949028;0.6680982194510299;0.2232054695247301;-3.008906905072011;1.132572731362791;0.8043820351955845;265;1.2566370614359172
463;-2.7113183919581303;-0.5321899327928439;2.196036352585657;-0.9393577877862648;2.198353193303169;2.6372376822837387;119;1.2566370614359172
464;-0.2848330202945398;-0.0629043321056469;-0.6699800701271941;0.7606045522397453;-2.5907304484307194;-2.9112285432686904;96;1.256637061435917
465;-0.1610956491937243;1.0951621760763377;-1.7815573224883965;0.4139904899750804;-3.3819453907525374;-0.4780194557983993;321;1.1382113055817733
466;1.903968981378827;-0.5301670116118682;0.6706984357698117;2.8443532407631835;-1.2950859621551254;2.045543865327629;309;1.2566370614359172
467;-0.4260356798304177;1.3118078755541356;0.064149622071944;0.8098911405420819;1.64444151694135;-3.071757701633397;455;1.243517121528562
468;-1.2321415335062211;-0.6889247866779764;0.8095374667107966;-1.8715740260257576;3.041604372813974;-0.7070287483481221;74;1.256637061435917
469;-2.1674167920134995;0.0553851660317495;1.1639100201827632;-1.7958960850039145;3.138486528761356;-0.6085077874153091;468;1.2566370614359172
470;-1.675900347253647;1.3594792979344008;2.0147887948364622;-0.5069600703805546;1.6458098827522385;3.099141132459432;119;1.2566370614359172
471;2.208813193224541;-0.9776531588647992;-0.8128567517987944;-2.757564984014317;-0.4499704621770945;2.088062827492363;290;1.2566370614359172
472;2.8222710413807306;-0.0840586778065055;-2.0900319306484443;1.6519702093554014;2.126290842270138;-2.6000684790844333;418;1.256637061435917
473;2.2173019138283925;0.3787771506315006;0.4500115962593695;-0.7074507084797292;0.3092723613959087;2.3314294737491625;431;1.2566370614359172
474;-0.4650280375166283;0.4659032982670565;-1.890376002358052;-0.2424739372771129;2.8746300975732777;-2.024641068076421;240;1.2566370614359172
475;0.6254936889508877;1.342643017348915;1.478168922481329;-3.22406421299236;-1.3199981388833986;1.0438183327471795;44;1.2566370614359172
476;-3.3108641708895807;1.12524338673878;1.5555271996782851;-0.7484120629250757;-0.5968393058149875;1.716142555574324;264;1.0946437240779163
477;-0.2285082702631651;0.5245940929996404;-1.822562919212356;-1.1273937996693877;-0.834935612126642;1.3114419609952754;107;1.2566370614359172
478;2.212326714830528;-0.4573831663341727;-0.8291821718816665;-2.303586116333608;-1.2514579813324271;2.7660730923181265;471;1.2566370614359172
479;-3.1900573945385093;1.0349197345644436;0.3266633871296378;0.5616371335078947;-0.5041959145037421;2.808692387886964;331;0.94604934079568
480;0.3061782130907222;-1.080016038334736;0.2542553319834047;-2.0820617705499584;-1.01322831680964;0.4206647222803875;305;1.2566370614359172
481;-0.153491115309196;0.6859349346560075;0.3052897040016888;0.9158351131932794;-3.123770421487615;-1.2037391755527718;356;1.2566370614359172
482;-3.093455572626499;1.4572264544678328;-0.6792183805405847;0.6415865769682934;0.0872701190632062;2.6555920495542207;880;0.8538665611875673
483;-2.8543701513959467;0.1113298671716943;-1.8700077863155529;0.1987267424897909;0.2371458464627814;-2.528376685357723;98;1.256637061435917
484;-2.746347688665794;-0.4321774580826211;2.4815967379644794;0.8178531851319114;2.1502483408274338;-1.614171502526368;396;1.256637061435917
485;1.9425361408541229;-1.1023399978874455;1.7936830663719106;-1.545268087732628;1.3215852236967338;-1.9741416022696732;188;1.256637061435917
486;3.107500444471293;1.0955618418266606;-0.9507633606110628;2.521264859825626;1.0031847216097525;0.8806466860145856;348;1.2566370614359172
487;-2.329241516544424;0.6403407551630935;-2.042304110300801;2.350036418894013;2.8168184484066696;2.3122504952380463;171;0.7046585264754962
488;0.5930185616689275;0.6536295494288952;2.2292813807264755;1.3906252164842563;2.432554160857716;2.3557232303881928;66;1.256637061435917
489;2.455259450604829;-0.1818476529094532;1.8941726141673132;2.3102444863969973;0.5120561358768821;-0.3846870265790086;217;1.2566370614359172
490;2.062507503983263;0.8700907971928648;-0.0983143782354248;-0.5586371432878727;-0.6825088722261355;2.4171582828038307;473;1.2566370614359172
491;-0.1692455709195399;-0.2170997649927157;-1.5894511333149963;-2.834212747314671;-1.155202074311044;2.445548501395515;107;1.256637061435917
492;1.5538211583642478;1.1793736526590948;-1.97278839958218;-0.4948515621852599;0.8210847948536037;-0.9939646765085324;155;1.2566370614359172
493;-0.6341459813357903;0.2501858949511472;-1.2966707401704705;1.581589051209065;-3.2975849413459604;-1.872996415884095;67;1.256637061435917
494;0.2023561668261707;-1.1995253163741226;-0.3529940589867081;0.2602665984528687;-1.0360258165233789;-0.0853206414155686;20;1.018293537925888
495;0.4694159117442859;-0.7739969539076406;-0.7118661020114746;-0.7886743673071821;-3.3375595293730744;-1.8904780596532864;1031;0.51660720675773
496;-3.093632963027068;-0.4948222317358321;0.7977897476121494;0.6203433084681963;2.394951227609261;-2.8797412537963423;222;1.2566370614359177
497;-2.946117133170365;1.0617634273149072;-0.141699647796658;-2.395588215100469;-0.9162805695902912;2.010767260245539;162;1.2566370614359177
498;-3.03800371537717;1.6879316166458482;0.0079135218580482;0.7373893763403001;0.5041459150747042;1.7240755081634531;880;1.1928574525785594
499;-2.964740933755098;-0.1208464285382728;-1.155603289966835;-0.5187788085428304;1.656694076127468;-1.6174975219809309;151;1.1596100791142594
500;-0.8924949999475844;-0.0034268487101725;-1.7392165554823724;0.6832686011987805;2.968775464166317;-0.7830630331511959;206;1.250470645683606
501;-1.9031063200453269;0.2213853226860349;1.790757159206935;2.777390230984721;2.080694780173996;0.267507785633279;374;1.2566370614359172
502;2.649938518806244;0.1157832492394499;-0.4850632659233609;2.4823009697877607;-1.034912674219031;1.040168917116758;21;1.182059798081911
503;-0.6840878331309703;-0.4862476138355163;1.9386725911314773;0.2759930726820954;2.489214847980268;1.9513264642983603;212;1.2566370614359177
504;1.6838664445363898;0.4181505230982758;0.4946264750675012;1.212018530039296;-1.563793766701669;0.5213528835514887;11;1.2566370614359177
505;0.1053155101934139;1.393770203700181;2.0111726966575514;-1.7915429982753643;-2.02827915268507;0.7052621702098886;460;1.0570044419686575
506;1.7591043525784595;-1.257671227239365;1.5858367463039424;2.9963611885505017;-1.6157930071426791;2.301377810375244;466;1.256637061435917
507;1.622635652060788;-0.5855632155117423;-1.5435794382568573;2.9980016138334142;-1.704041807212442;2.6619820315236686;168;1.256637061435917
508;-0.3134326141425003;1.397030744436784;-0.6642117360448132;1.760361902127802;1.298644739510441;-3.147348497916816;467;1.256637061435917
509;1.5826193404095934;-0.0593804770533787;2.415513244859236;-2.2373708300880706;-2.943183490170701;-1.280774808792247;175;1.2566370614359172
510;0.4415516699243375;-1.0035849751034664;0.4674997772872999;2.684882335513419;1.6883129278842348;-1.0362769300853365;60;1.2566370614359172
511;-1.944002218618385;1.44139548901359;0.9680564505641908;1.3548892504338852;-2.915822100926407;-0.6238120080515726;243;1.256637061435917
512;-3.1497938565995645;-0.8429844968567497;2.2054490246143077;-1.7429248660620615;0.7007102101748687;-3.3000690643499024;199;1.2566370614359172
513;-0.2800676954753553;-0.439646251747104;1.6898511717733404;2.809893004188924;-1.4938300707982612;-0.7962072469351537;274;1.2566370614359177
514;-2.517690846618888;1.1959103820938348;-0.6225229575521891;-1.864426854033742;-2.6031079579623637;1.9225168326890332;354;1.256637061435917
515;-2.841343391634486;0.5960768304393136;-0.4757538509421878;-2.602509673829427;0.3376602689811018;2.2619283722423167;441;1.2566370614359172
516;0.3050255321920387;-1.1396678425528315;-1.1117906108363418;-1.3834185041434457;-2.7148401106171662;-2.6094757181521087;1031;1.2273605281247153
517;1.4017802081666455;-0.158042164753984;-0.1943691206686329;0.9599136201469184;-0.7217668009628231;1.5540792610175873;11;1.2113630589572597
518;-0.0512710465956937;0.1085259185658411;-1.6041544365026985;1.0845873807755884;-3.046890018306335;-0.4642325166261881;465;1.2566370614359177
519;-2.3010729105947307;-0.1922438035607745;-1.841826409125486;2.9827963478192974;1.3964545426724313;-0.9534179504919876;363;1.2566370614359177
520;1.5407332252344;-1.2689954927863611;0.177875135097633;-1.5442721013927798;0.5702360207822911;1.4739681214435794;136;1.2566370614359172
521;-0.1566433167104005;0.5543760691555533;-0.2891976187695452;1.962318943427384;2.1562819131411084;1.2910686350271428;158;1.256571553563241
522;1.0252713055038665;-0.0881800493412807;1.5986865850390113;-1.278340467800389;-1.1716875026190174;2.846784367671432;108;1.2566370614359172
523;-0.5606482356405963;0.3105090302033324;1.450388442486174;0.6982891418055507;-3.0092561060797047;1.5762314104242932;224;1.2566370614359172
524;-2.2781526438354462;1.3191969642021806;0.5897284369848603;-0.5258826690847163;2.725479858035435;1.7966559694755446;360;0.9870991527753123
525;-3.2875116349785416;1.1859399417188148;0.689342573282332;-1.9032051902545029;1.2066308140811568;-1.8715580076861575;92;1.2566370614359172
526;2.93680849554056;1.4153203122501326;0.3695461604343691;-1.826545548109847;0.7086746796074238;-3.1932021806931483;416;1.256637061435917
527;0.3144191726070799;-0.4767604898690573;-1.3408890642113946;-1.9879330332670149;-2.79718968258636;0.2455473662866464;103;0.9632275486754278
528;-2.482568595198324;-1.0497392474271754;1.9519617692829492;-1.4408065558076826;-0.9136014952150008;2.1335294016174062;362;1.2566370614359172
529;-0.6037693106347806;-0.4645371261915836;1.6531298253487905;-0.1541162350015814;-2.4404904766265423;-2.6258083203335163;371;1.2566370614359172
530;-0.7641788107555703;-1.4217252330167889;1.8945353526421855;1.1760463352290795;-2.3394887509515585;0.6163884692954134;204;1.256637061435917
531;1.5419958736442465;1.1818059108663517;1.8628582427141849;1.1530005240872738;2.8886865441564424;2.384364723850948;488;1.256637061435917
532;-0.7378566850924275;0.9201482869996936;1.2520503433719112;-0.3768293053740926;2.952746461236626;1.976339308039073;36;1.256637061435917
533;-2.210109328009487;0.8911194613206497;0.974844104762971;-1.341772006987043;-0.0570262314249402;1.420157604313656;111;1.256637061435917
534;-1.9453058677257444;0.281342329517785;0.917954528209943;-0.7038404613511299;-0.6480802175565792;2.4860023928298283;264;1.2566370614359172
535;2.7217085286192324;-0.7337939676826893;2.444645763421841;-1.849855242740729;0.535028086482065;1.0297238705806715;300;1.2566370614359172
536;-0.0895771676072985;0.2026348192594953;1.12783554165282;0.7164495510251963;2.9174192381252784;3.159590753957079;314;1.256637061435917
537;-1.1323237841233136;-0.2898084700746114;0.8222063344644199;2.164753249501883;-0.3082286172405555;-0.7995645874638058;320;1.2566370614359172
538;-2.9964944545746723;0.8617974823121921;-1.8882187495046776;-0.0686256476096941;-0.6828175852304896;-2.2498195279904225;483;1.2566370614359172
539;-2.3788706501420323;-1.2894321190706952;1.8749981054487164;-0.8031089367336868;-1.8476302014078048;2.608860322905985;528;1.256637061435917
540;-1.973070508450887;0.2776986847275109;0.9526102971404702;2.74232070110042;1.5452375586546427;-0.4944869987158272;501;1.256637061435917
541;-1.382973522318512;-0.7703347101715959;1.7698936792735234;1.401463915219468;-0.1800475016273777;-0.7000212426722845;320;1.0300080590157656
542;-2.985618434719286;-1.2166956184884474;0.9362147279618034;-2.6077526043409587;0.3995182713072722;0.5221906396948262;182;1.2566370614359172
543;-2.262266660903578;-0.3765206406971232;1.4255751657071514;2.8568095519379724;0.0085525612646595;2.5293868430397235;251;1.256637061435917
544;-2.685552898156243;-1.5733980458202863;0.0029225205829474;-0.0176417671778227;-2.9966978115816327;-0.8306016560125666;236;1.2566370614359172
545;2.533967354581278;0.0276734520294632;-1.101007333801208;-1.687609943116939;1.1195402056752146;-2.0052892410930103;72;1.256637061435917
546;-0.3851245842026743;-1.0378701098933971;-1.5097335338397329;2.65084588661224;-0.1022479996307468;-0.6474068888628852;43;1.2566370614359172
547;-1.3107785100468603;1.204896988778747;-2.411671820094913;2.983347635488862;-0.1216858113237948;2.055969674921358;414;1.2566370614359172
548;-0.3129630367569239;0.3152970223961756;-2.3964119465248497;-0.5466145624462188;2.4104526100431354;1.0742176923831004;336;1.2566370614359172
549;-1.235119131189493;0.7674287261994819;0.4221699896822717;-0.9230335255415292;2.483800075249573;-1.867111742434588;250;1.2566370614359172
550;-0.8706551235623803;0.6292030574292505;0.6689837884435732;2.860140118007626;-0.600270677297655;0.773106867940371;456;1.2566370614359172
551;2.819849745740716;0.441902854585594;2.4515782988500097;1.2262903686003923;-0.2724393840128447;2.192115810408916;230;1.256637061435917
552;-0.6004235685372457;-0.4871681076699128;2.272106027712633;-2.926660176858109;-1.9513201322862828;-1.9345599637187871;436;1.2566370614359172
553;-0.0404618886812441;-1.2888046396760435;1.006901256632604;-0.1644671836218946;-0.0532943821234167;-1.236355702421541;385;1.2566370614359172
554;-0.0187177666429321;1.292887471088034;0.1725406890968631;-1.196783977910897;-1.5691213166197595;2.392057516681424;120;1.2566370614359172
555;-0.2014354555148525;1.5344216935862331;0.9595366086953842;-0.921355125300748;1.1055897192702422;-1.6704270121693443;241;1.0220170835156217
556;-0.073085201166194;0.3531446840312138;-1.821113633263068;2.8102601019179865;1.7185423876145036;-2.850909434829363;179;1.2566370614359172
557;-1.1758539977819418;0.6150617953583181;-1.2314794693870137;-0.5331095158529547;3.3850572195898434;-1.5026589098112302;474;1.256637061435917
558;-2.1798130808499043;-1.22429870411694;0.4756647759947517;0.1204393694280456;0.8168642806302626;-3.0444424008035065;35;1.2566370614359172
559;-1.7338222608849738;1.0474136171114616;-0.2990756911800691;-0.4883866038737789;-2.514393422196517;-3.101523121192742;390;1.2566370614359172
560;3.014512413456923;1.482245528822508;1.406165298503899;-1.7909694353817474;1.1599328350715683;-2.6554838523652697;526;1.2566370614359172
561;3.288226919017491;0.3981004959012597;0.0581959541504964;2.3753823934105203;1.1303450102434534;0.9482631385646224;486;1.256637061435917
562;0.7817417659626235;-0.6505755100706069;-2.157774586141138;-1.1707852242649577;-2.9551771619319984;-1.1072318424352912;177;1.2566370614359177
563;2.2390178703728023;0.5836348708334143;-0.2856023351329588;-1.5743599149480858;1.95372645329554;-0.3521246404578861;345;1.256637061435917
564;2.0887215927391174;-1.3581031848234886;-1.1487072976102504;0.8630270643532276;2.6286724840800817;0.4169871079292843;76;1.2566370614359177
565;-0.546520956373622;-1.0058891480914265;-1.152569529105855;1.0558615487075107;2.819415240699865;-0.1552821760321691;427;1.256637061435917
566;-0.4142410524221776;1.3713288319654464;1.5842153605397846;-0.1703156348000045;-3.17142768919787;-1.1250724204353515;167;1.2566370614359172
567;3.363406015628452;-1.2285344967389558;0.8912471760962095;-2.3419914377356017;-2.253006438775481;0.4359919600982945;197;1.2566370614359172
568;2.614637544820519;1.2382911892633262;-0.3610686662201596;1.3960521768144254;-1.002464737506641;-2.8367236505427256;440;1.2566370614359172
569;-2.667004803354736;-0.3701490470520896;1.688257400770416;2.360902990204515;-0.812355328399814;-1.4928008472205;335;1.2566370614359172
570;-0.2008289993534973;1.0095772762197968;-2.3127753447518566;1.5006578189141238;1.3090418684823084;-1.5968284220276123;196;1.2566370614359177
571;1.658599880193729;-0.9487855882987566;1.3037513504694798;-1.7806609453011992;0.5251123186033958;1.1035674106878963;520;1.2566370614359172
572;-1.864129491927004;-0.3189861610440695;-0.0633004439013434;0.9035086293947964;3.3678528027433345;2.6999660609697904;93;1.2566370614359172
573;-1.3593163328137363;0.0968930660797939;-2.00464727711382;-0.976470210050304;-2.414369221533466;2.352636328466495;1013;1.107696319617226
574;-0.0978139652142675;-0.033015254182741;-0.2433634128654851;-3.051885450539931;-0.778369377793505;-2.709753033722811;411;1.2566370614359172
575;-1.0203838363324569;1.0130440877895963;1.140072005834183;1.4559236773683115;2.4029205425719447;-0.148113750329532;263;1.256637061435917
576;3.025083254029284;-1.4070990114958706;-1.054299055407943;-2.129165019101624;-0.5012022486075237;-1.3301250822811934;114;1.2566370614359172
577;-1.048374872985998;1.474508946698985;-0.4535673948617891;-1.325759554867087;1.4656963012224955;-2.8304716342017247;250;1.2566370614359172
578;-1.0082320018217903;-1.2191528147803123;1.187908046105371;2.373848993958798;0.3299908853573342;-0.4600441654570429;537;1.2566370614359172
579;-2.884942557537925;1.0913663428361806;-0.3899336925463526;2.1600079493425306;1.006536781660461;-0.9938493586096284;216;1.256637061435917
580;-0.3766744384423116;1.3715360738002194;1.6630740611381274;-1.9502312600170968;1.4270989884803582;-2.400075574309357;241;1.2566370614359172
581;0.1966046241449036;-0.6031773374435973;1.6146750889506147;1.3719355602931227;1.177199664420303;-2.002809926175151;94;1.256637061435917
582;-1.0891883888088694;-0.0504105871162465;0.4496390691467186;-0.4876051643679179;-0.86108584527843;1.3071780691921413;10;1.117797098631094
583;1.1225014918911642;0.6190328421066384;-1.0865619248528264;-2.378278292414023;0.3871265953414686;0.9937138524930144;32;1.2566370614359172
584;0.1202887917513856;1.1491062094809985;0.0851147071335918;2.9664210932311708;-1.1688457702186597;-3.3910953390124954;409;1.2566370614359172
585;2.744495082979767;-0.5147034555233038;-0.8675233533800624;-1.7547989016326706;-0.2205829632328154;2.1583072130187086;471;1.2519419581230895
586;0.6490350771639521;0.7480981341064757;-0.3076239118846456;0.938379586068294;-1.3379703955881173;-1.367419198733051;356;1.224228044511596
587;2.7339456307919603;-0.4098293128923011;2.13797772932914;-1.4194945484033643;0.9531189084894152;-1.5234627243538268;485;1.2566370614359177
588;0.5730758896914164;-0.3960878797732198;-1.2398336071778586;3.0509769294639866;1.6050199375519505;2.0463235976306207;308;1.256637061435917
589;0.6633009138334287;-0.2138970843025772;-0.2219000966867196;-1.6758246662366556;-3.187097733144886;-0.5161050417416718;103;1.2566370614359172
590;-2.9963361779467794;0.2922530832816614;-1.8281108988336696;2.234008380085527;1.0268244375130693;-0.5490536229361592;519;1.256637061435917
591;0.3616733788337034;-0.0857012870497075;-2.52784162065118;-0.8202349332636407;-0.4476549853910931;0.9699584700700992;477;1.256637061435917
592;0.6244217992834047;-0.2132576361896966;0.1544139621822381;-2.720817554151123;0.4519128982797454;0.8395168577271734;116;1.2566370614359172
593;2.366388194360005;-0.2038181377218631;1.2952903219005705;-3.102182799429028;-0.9199621534772676;-1.5553486636896885;338;1.2566370614359172
594;2.2116042238887683;0.1077449731219375;-1.616009648452177;-2.504940651465325;-1.1527846275152906;-2.7260807746844105;306;1.2566370614359177
595;0.8332761642317724;-1.42396807922976;2.3877768101490173;-1.5823345589270783;2.798734472682122;1.5666388472812791;317;1.2566370614359177
596;-1.1061205062493489;-1.5218768416967496;2.366282096883135;-0.1699792420771723;0.6225284857414825;-0.3031739599719859;17;1.256637061435917
597;-3.196498416114236;0.7021281605913736;0.4047480470317447;-1.3845062513731647;-2.253467765449029;0.8410105649386639;354;1.2566370614359177
598;-0.032443989234994;0.1146077564531205;-2.308307416638763;-0.0174821194990807;0.2962618806247136;0.8327161454638643;591;1.2084317600372816
599;1.9543684289823315;-0.8978479361955634;0.6139433504178583;-1.4785590504493356;1.2420483775109723;-2.341044443470389;485;1.2566370614359177
600;2.057754278185272;0.306751717308352;1.7177595020723262;3.0014571186126857;1.4184171517655697;2.935605037652335;446;1.253740744504061
601;0.6773285566025737;1.3923524613397726;-2.2549750233830586;2.1040641759650454;0.0050809566026338;2.0932400510425686;312;1.2566370614359172
602;-0.6467487214394851;-1.0105680672783277;-0.1047763298253357;2.449905740468347;1.0357256381902198;2.7970288843483364;355;1.2566370614359177
603;-2.780028558895469;1.1503851861641017;-2.5639716195727327;0.3517708864445366;-1.5059856671971594;-1.878315182189632;538;1.2566370614359177
604;-0.1199809846157902;-0.4498060798985675;2.051963018844828;-1.644953067419555;2.8469387593662008;-1.860596226352549;185;1.256637061435917
605;1.2399835690907384;-1.4583515723993186;1.3793078964561738;-3.358920984760782;-0.5118716935569174;2.043117214489928;150;0.9446990269132592
606;1.4903437119031933;0.1904303723977722;-0.4816337023177834;-2.3927016358083644;-1.7026012854930466;3.319203340358772;478;1.2566370614359172
607;0.0034289221755088;0.9709932793711248;-1.4864768232896075;-3.0193137439179374;0.6966063997850374;-1.4087504279281595;407;1.2566370614359172
608;-1.816722136460568;0.6673679126101932;1.1875386089378892;1.4323352363339252;-2.8536012278166463;-2.105013647622215;443;1.256637061435917
609;2.4644448295318093;-0.0875448166017897;-0.4177248433139948;-0.493829605660032;0.8390157671303013;-2.450197609033767;72;1.0793734167866145
610;2.369334155863433;1.3296559616661208;-1.324379226848264;2.2856108469206844;-1.252164982173886;-1.5328060188322756;457;1.2566370614359172
611;-2.215157219321971;0.5928580336423144;0.9521624073966912;-1.5930099195187013;-1.8914654209749016;1.2015438366910651;597;1.2566370614359172
612;-2.4215692450001067;0.4858979518269311;-1.163288667184998;2.1185319598194834;-1.223038073584632;0.4510756359484695;258;1.2566370614359177
613;-2.243928684794797;-1.4185224674133927;2.478567300672184;-0.3056387599225531;-1.1097859001193036;1.4354167330450704;362;1.2566370614359172
614;-3.0005502248103504;0.4507491308963397;0.0439730720228185;-1.041290795262933;-2.844255488868627;-1.478579289516538;307;1.2566370614359172
615;-2.6292257909034715;0.2806467373343644;-0.7246433240314665;-1.6807850412592558;1.289191188416027;-2.2368412455589257;151;1.2566370614359172
616;-2.292758586380013;0.5680177247969815;-2.336851195806929;-0.922121692429416;2.009151876250416;-2.7454513870552635;273;1.2566370614359177
617;2.2937567844465963;-0.8649950496139608;-0.5139201491717031;-1.201495027981584;-1.4805192397014482;2.566337190507768;478;1.2566370614359172
618;0.1096378590679035;0.999520946098639;-0.4993428063061695;-0.8803921356902218;-0.2673294129954907;0.9923405472708412;99;1.2566370614359172
619;-2.4231601230369053;1.680299881009682;-0.964641066067029;-1.2519826828744391;0.5198444319034565;2.184582158699737;441;1.2566370614359177
620;2.261200731540612;1.2497651842306037;0.2629998319315166;-2.030403290781557;-0.0501398108814602;-0.4911483898000482;52;1.2566370614359172
621;2.529170709575617;-0.8070641535270393;0.020569512827207;0.0263871173581345;1.45645096212366;-2.912026134428228;609;1.2566370614359172
622;-2.050693970624498;0.8372529727576876;-1.8372292178121907;2.000278796169438;0.3105278668586978;1.3622712479414538;414;1.0998038318837495
623;2.707860690419608;-1.5029020860974889;2.721399681620185;-1.411133619067108;-1.5927633312515437;-2.716843340157859;288;1.2566370614359172
624;-1.0315757226960791;0.7751995470816602;-1.32036753702381;1.8488770430802783;0.1626223854056411;1.8363382832073087;828;1.152649341569029
625;1.846558170344876;-1.4197774607869371;1.4845333279902018;2.061373822881988;-0.8885153172900317;2.6644391113950574;506;1.2566370614359172
626;-0.9236941272744328;-0.0331163819147894;1.9308761286163945;0.2708831962557615;-1.5742716306691262;0.4139030862124829;48;1.2566370614359177
627;-0.2577428460586295;-1.538505195589185;1.7453692411799444;1.743407230691474;0.1392177229130388;-0.8715081222422281;578;1.256637061435917
628;-0.3341272279976795;-0.9569401350202104;0.110467277433166;-0.7704734108750839;-1.4918496617339685;-2.7980922191128177;257;1.256637061435917
629;-0.840280346455747;0.1708625621187452;1.601929910731042;-2.894042025045907;-2.410542902660814;1.9431595851950485;410;1.2176341735968332
630;0.2277583247506557;-1.500322274031264;0.0876007749734803;-1.19145570897708;-0.2580349447977442;0.3495326893527686;480;1.256637061435917
631;3.0385173631768327;-1.201453612627813;-0.1570659062951103;1.9075138760912955;1.3709589957272896;2.221922107213487;311;1.2566370614359172
632;2.8827247396505498;0.0953266512514179;0.4747154776657925;1.75134194101393;1.995921572333298;1.0526417817963174;561;1.256637061435917
633;-2.374957623034224;1.608460183559195;-0.4128299164466935;1.7326889487167008;2.8116894430753803;0.3995228252462701;387;1.2566370614359177
634;0.3778571234563288;-1.1970170904768431;1.7071136855632756;-0.7882712003771648;-0.6898418030790726;1.849607518859444;89;1.2566370614359172
635;-1.8914497544583344;0.7102723329750371;-2.3243342588279803;0.0745155531820917;-0.680871480797941;-2.602471078218892;538;1.256637061435917
636;2.8411480181147755;0.247942560998036;2.5989368562794075;1.61601378984664;0.0672068988410229;-2.402838995097962;404;1.0502394836791078
637;-0.3979185091885193;0.5782873520358;1.455676726360023;3.060361610787321;-1.0801845058797412;1.4541154442050626;550;1.256637061435917
638;2.4201615779176118;0.9476162542690064;-1.2942912466908163;1.4427047115488325;1.9409955801584111;-1.2191991802710804;313;1.1028001283085958
639;1.1983228420227836;0.0123745313082334;2.2055888374188424;-1.0278422057815957;2.417908354571;-1.4923656915027397;185;1.256637061435917
640;1.770961108351916;-0.8611856927076529;2.4424969157866343;1.8892207603586983;1.3445292723520306;-2.301674358282429;332;1.256637061435917
641;0.2094208411906626;0.1263753558995781;-1.872301341764262;2.532089961381905;0.716761192968244;0.9008427932864524;423;0.9797404557444898
642;-1.9601059976865052;0.0274360387378774;2.024921565285518;-1.8696969586166172;0.570181903534696;1.799728892717638;346;1.04818148881482
643;-0.7104731018574996;1.085055635457727;0.921515850674625;0.1213890143596354;-1.5480861287864696;0.6923080794716792;51;1.1921255148376158
644;-2.057740291637889;-0.2632058598286071;-2.238393684982916;-0.427099221787893;-0.987767280822648;-3.1031068467979788;635;1.2566370614359172
645;-2.2863715406705416;1.3716383386677755;1.419541506677661;1.6964821488805149;-0.0711674417904965;-1.4096417523815328;69;1.2566370614359172
646;-0.2426097554809714;-0.1368950724771337;-0.2760721366275042;-1.652734777474989;-1.999695226753755;-0.3318270720567535;30;0.720369937580369
647;0.6968285242900822;1.545306221816672;-1.381644133866618;1.4800373967458098;0.5889987451967744;2.3428103918033982;601;1.2566370614359172
648;3.036498948492347;-0.4623504022479802;1.6126094697497642;2.3539442395857213;0.1546174593459156;0.591871050383151;489;1.2566370614359177
649;2.522090924367761;-0.2161156711541396;0.0851509453693093;-2.9830555540998307;-1.4617574163550031;2.8329453974516983;478;1.2249675071060435
650;2.28921938560922;-0.294592793220771;2.0689989636259107;2.4753406685967283;0.8975420581971552;1.0583492610313554;648;1.2566370614359172
651;2.4997547258602446;-0.4312492010299601;-2.0534905669684105;0.8188680343307304;1.022706051287065;0.380215580617924;145;1.2010863486471526
652;1.3280943051676577;-0.9907299407868656;-0.1946085390470484;0.6871888840586172;0.1278844176796559;1.8439967099279468;517;1.2566370614359177
653;0.2638419537492136;0.4971145352096066;-2.018057550869117;2.389906520920595;-0.7744427708236389;1.0313530430617015;184;1.2566370614359172
654;0.998777188274406;1.154247932589712;-1.3673266742247787;1.6409143248111642;1.655404425439438;2.7572131818894507;647;1.2566370614359172
655;0.2787059406558603;0.7968793199736319;-1.5799396993021266;1.6492682106589482;0.1056582291291429;2.7160957922586086;601;1.2546176202186328
656;2.7332697751892026;-0.0329289264031419;0.9722945545933714;-0.39800930110394;-2.4387485250337115;-2.541296657094682;192;0.8758020202190647
657;-1.1450990823304277;0.108366337358765;-1.79369490852543;2.234891240246654;1.67670877644003;-2.659976621267386;556;1.256637061435917
658;-2.9604021399175604;-1.3679540963333603;-0.240429935148872;0.7142879380651909;2.5972224380152835;1.6834923072181938;419;1.2566370614359177
659;2.5707709153337706;-0.348367596327598;-1.2074297968187135;-0.3808598127642173;-1.5273160461389494;2.8472432620813204;617;1.256637061435917
660;-0.9828449911214217;1.1230584598951208;-1.0409157507989422;1.4919814192879155;-2.8767282238504657;-1.2058542487495951;493;1.2566370614359177
661;3.128931745672383;0.8693012788645953;0.4501742915583357;-1.265991239227355;-2.109156659609331;1.3918371706062354;211;1.2566370614359177
662;0.4683260525155453;-1.5048009246577736;1.3414196596371712;0.8195926996695537;-1.6827974040908336;2.337078340183968;193;1.2566370614359172
663;2.3092701200117145;-1.3424882179434745;2.347251266271429;0.1154146739442944;-2.2455157196177558;-3.0912080208465933;161;1.256637061435917
664;2.242654779437897;1.222431583025691;-1.1018535355151389;2.9733937948641365;-0.9258509403003063;2.6871036077293664;133;1.256637061435917
665;0.0059461794161053;-0.1646535861491803;-1.196137146636056;-1.4172466937037205;2.720123571658878;-2.5625602658481155;124;1.2566370614359172
666;2.3091052819016094;1.0586229045341975;-2.1607303103674145;-0.0025929794197522;-1.2200250858355033;2.094006655459858;341;1.256637061435917
667;2.2452047940625044;-1.7485856966222766;0.0575732816834438;2.0937557037376875;0.3532035598535656;0.6730512704218681;370;1.256637061435917
668;-0.1905574527768631;-1.3714620632141534;0.7959981552931703;-2.7479563665320903;1.6251943862546534;-1.9385882632735625;147;1.256637061435917
669;-2.052194070128205;0.5885288907758899;-1.3727679438152944;0.2414169283983495;0.5761260331753711;1.636702217746536;165;1.2566370614359172
670;-2.795286868011016;1.3550418665682922;-2.140795969778728;2.2559065653560286;0.3346718443322608;2.1359194379187603;622;1.256637061435917
671;-2.439730308461601;1.2307941777856377;-1.5676837083328583;2.1465518286977248;-1.2477734207330022;2.895221497739022;194;1.2566370614359172
672;1.6180937731057776;0.7504344348131416;1.7182644788417964;-3.054993638478608;-0.9124203438525872;-2.858866307606114;338;1.2566370614359177
673;0.7351841737489698;-1.1412864104899154;-0.2889327290689958;-0.0607487729771994;2.4069942960527;0.1327970941103098;350;1.2566370614359177
674;-1.9333736642386672;0.1163765423676818;-2.2226277307409243;-1.6072604592805282;-2.3293343944961347;1.4601272024253944;573;1.2566370614359172
675;-0.6136845450365208;0.734115650216783;-2.115831956428283;-0.886697129830518;-2.182249713481409;-1.7651054635713104;97;0.9246867951368672
676;2.8665922252498994;0.9399654880633646;-0.1805663284318379;0.4651076289791465;2.8082528888185694;-3.145745929105906;429;1.256637061435917
677;-0.2895308142828362;-0.3947325334879973;-0.5810914586801252;-0.0980919520629523;-3.2185529093717915;-3.4642962246397127;464;1.247171920340932
678;-0.9365338354223954;-0.7250940120201853;2.8925067789856933;-0.3067807362434113;2.5299773537226398;1.7398673484188076;503;1.1902008636573629
679;0.7912952043599952;-1.0356720633723289;-1.2107863080876784;-2.489058946898735;1.0997112893794712;1.0636155539984304;116;1.256637061435917
680;-1.1171628169642849;1.229408076139833;-1.7903844335804835;2.572331288698597;1.419158560708551;1.2924793468388918;386;1.2566370614359177
681;2.2025386188314338;1.5843545163176285;0.6799504315883638;-0.4099856120787444;-1.550037079585842;-2.0999603928033657;70;1.2566370614359177
682;2.79613186052329;-1.379552111884652;1.9629326795997828;0.69055789769775;-2.3546813753004896;0.2581218776586205;369;1.256637061435917
683;-2.3515974820726733;-0.4557066686317416;2.250408608966276;-3.2835117285142306;0.4228996003778348;1.1372300490368557;378;1.2566370614359172
684;-2.4948178000844328;-1.040481926942794;-1.2323162574840656;-0.7790952552449828;-0.150949971675173;-0.3837446945219364;333;1.2176761199052908
685;-1.005711747352354;-0.3310877059483239;-0.235623446366553;-2.432446010264991;0.7700019104724216;2.9586295239094538;102;1.256637061435917
686;-2.8150452819970218;-1.106909861663025;0.1625325435123634;-3.2222174767702465;-0.5925758075622996;0.4001599265952074;182;1.256637061435917
687;-1.5038211803850814;0.210850299214424;-0.975910923327727;-1.1511848731965078;-2.7499188624498907;-0.6156803825344558;281;1.2566370614359172
688;0.4918320434213532;-1.2884974973000085;0.1866411283375236;-2.375037669949605;-2.9390117467651318;2.27728703269235;382;1.2472891151745098
689;-3.2068178556616567;1.2487011825113696;1.6972925450911311;-2.2805219903115765;-1.953634848899005;-2.660119186487776;421;1.256637061435917
690;-1.9328807750806765;1.168098054194194;0.4132657260463941;3.018296953150267;1.1616725918517865;0.0256407841766549;540;1.256637061435917
691;0.9153035510147316;0.9955032841824454;-0.7957513818628876;-1.8294799804069348;1.150634676895181;1.646232644513863;583;1.2566370614359177
692;2.424169085097604;-1.3538567855285302;-0.5512744578664686;1.6839005232734912;3.021803390785005;2.645440635096071;203;1.174119393403372
693;-2.4290042294711056;0.5073791639839851;-0.2092686029342857;-2.52240145013412;0.3183106626732099;-0.8283769967389649;33;1.2566370614359177
694;-2.49430630977362;-0.9491696699392128;0.7182830872748287;2.2044128767670266;-0.8837047903112702;-1.9863765583333413;569;1.2566370614359177
695;-0.7102914277747745;-0.6147666796630141;-1.8790508127062464;0.6305345788181628;1.9404175516914792;-1.9926366955942612;187;1.2566370614359172
696;2.4987798585791925;-0.3930521541084941;-0.0720666384233052;-2.5897521449426733;-1.3243497800772717;-3.082986107220705;306;1.2566370614359172
697;2.817929060048935;0.8497750092258483;0.3657759651261152;-2.0856134325876377;0.2729745051596773;1.3679383260579845;372;1.2566370614359172
698;2.153151062833191;1.0511338798914422;-1.7675541559222214;2.8559561181285438;0.5234038853412911;0.0455779907823266;209;1.2561229712488131
699;1.073783537851552;0.0666640473952275;0.7033282244771737;-1.953713891657041;-0.1141216327581485;2.4203268384968983;108;0.8592148950506412
700;-1.0369322661335771;1.3885809532992126;1.5445615029540982;-1.2024881303375918;-3.0908655949454023;-0.8110833775862899;566;1.2490291599275103
701;-0.5237832256239574;1.4263725743825757;-1.0056603306127478;1.1770974696721548;-0.7418747616319712;1.7534166827773063;56;1.2566370614359177
702;-1.5889127186862133;1.604151603545107;-1.281164581166959;-0.3814095875690513;-3.391778449880777;-1.3211608222923987;180;1.2566370614359172
703;-0.0273464149457781;0.3783570076935314;-2.5008386422914533;-3.208380251293645;0.5721850543343792;-1.7919150361942615;607;1.2566370614359177
704;-1.495840740353247;0.6280009514534921;1.5021846443273403;-0.2481982898167873;2.133321241318341;-0.6207002641862478;454;1.256637061435917
705;3.1117691578714703;0.0899034563734365;1.0869747997162384;2.6247165018358976;-0.4495858356256411;1.3360590168219106;648;1.2566370614359172
706;-2.8734448836065565;-1.3307493549394491;1.22162973099338;-0.6836887953329833;-0.4911289828860121;2.383110125549474;528;1.2566370614359172
707;-1.4000246067997426;0.6913996733166452;0.7010200883948279;3.092525128512178;0.8508515978923795;-1.9695751754544664;266;1.256637061435917
