Komment314/test_diploma/benchmarking/path_finding_for_benckmarking/pre_rrt_star_results/11_1_tree.csv
id;joint_1;joint_2;joint_3;joint_4;joint_5;joint_6;parent_id;cost
0;0.0;0.0;0.0;0.0;0.0;0.0;-1;0.0
1;-0.0622302875441893;-0.3252155832788138;-0.3454122565592488;0.6279004768652687;0.4665584876161289;0.8592167722312285;0;1.256637061435917
2;-0.6034186951817657;-0.7318362260925324;-0.524033185359896;-0.1051751014599895;-0.6275075611755717;0.0;0;1.2566370614359177
3;0.5535822812843051;0.6128921032915848;0.2914766392821778;0.1762242273951255;0.8837607267676795;0.0;0;1.2566370614359172
4;-0.6475138861327021;0.2210510513078831;-0.9864011587426724;0.8540368070309003;0.5851725384952692;1.5389953183224183;1;1.256637061435917
5;0.1476106719374413;-1.0375207111344742;-0.5133738441428396;-0.9609828882309552;-0.6210417315311386;-0.4348404225661084;2;1.2566370614359172
6;0.8724613071078503;-0.5390202281820377;-1.0640213122376847;0.970085352703738;0.3351868990897722;0.7642012869072559;1;1.2566370614359172
7;0.248003317603551;-0.6846128568900542;0.1469702202690535;-0.7891517930064624;-1.382181757296906;-1.0669794260853311;5;1.2566370614359172
8;-1.0703724828033898;0.4551053202390672;-1.373036021958273;0.0706683451234526;1.3232791136617863;1.7328817018619838;4;1.2566370614359172
9;0.5568791464131774;0.5586405119102447;0.7765982024789354;-0.2552034267594685;1.6427053247505397;-0.7607318483092735;3;1.2566370614359172
10;0.0087565727527804;-0.3748205570388717;0.774605894107372;-0.1895398837779785;2.006603034557326;-1.280935239111773;9;1.256637061435917
11;-0.5832004145954996;0.5677221003946239;0.588354198763467;-0.106943503734878;0.1275506704314772;0.7367759819594005;0;1.2566370614359172
12;1.2006849654183236;-0.8225986098941249;0.3750560454126703;-1.5329347349955125;-1.5263411740284434;-1.2296944167943031;7;1.2566370614359172
13;-0.5236163024844146;0.4891820580397501;0.8444178273769954;-0.0064848356714987;2.218424060405137;-1.9635510193043744;10;1.2566370614359172
14;1.2016531112311457;0.1542455615849393;1.2546224089981384;-0.042728655018546;1.962755208424527;0.0290677236925128;9;1.2566370614359172
15;0.0821367723651987;-0.884028565933331;1.347273240107956;0.2581708085946002;1.84956360082408;-2.153520545640329;10;1.2566370614359172
16;-0.8627496643864798;-0.0365027952016109;1.1129749864660052;-0.5141586780818946;0.1882621132679952;1.56813880784105;11;1.256637061435917
17;0.9880994965526482;-0.9250360437774028;1.3864180758514109;-1.7635353291813516;-2.1129782549444136;-0.9083257198382632;12;1.2566370614359172
18;1.297947125107945;-0.3294000093771908;-1.4434726891381815;1.354748799931358;0.2315857830264479;-0.2612134488991933;6;1.256637061435917
19;-0.8843778498679359;0.1266256556646254;0.0347904653104858;0.5478763572384302;2.578237636088776;-2.438168821691744;13;1.2566370614359177
20;-0.5788650033679535;0.3854107484854667;-1.0761361484409673;0.9634779102238108;2.63854566268142;-2.3470138411648773;19;1.2566370614359177
21;0.5501378085382609;-0.925463441783132;-0.9061593701064922;-1.4329007815427746;-1.2908669202479148;0.326013719819862;5;1.2566370614359172
22;-1.428944644232806;0.2779224004936626;1.4262187766068966;-0.760222110708863;-0.6676706115489637;2.0862189473296464;16;1.2566370614359172
23;-0.520267718584625;-0.3576408879669978;-0.4664444400653234;1.326442724584024;1.38111332501079;0.6881425086441564;1;1.2566370614359172
24;-0.4211548019205546;-1.1313491305421342;-1.000277577987812;-1.395973685342054;-0.0842872884642095;-1.1645261054989962;5;1.2566370614359172
25;0.3362127618703501;-0.1508946215621962;1.100869246757392;-0.801677565768913;-1.037653473509797;-1.5746413779262898;7;1.2566370614359172
26;0.7618514333394906;-0.4656632103290036;-1.9658263291264215;2.0394250281935715;0.9065843500899156;-0.5367357260636594;18;1.2566370614359172
27;-1.0910862802243455;-0.2856104792097601;0.4825612537791609;1.7759956233217125;1.037092497702328;0.5236598386104576;23;1.2566370614359172
28;-0.6660731387042576;0.3024065872443746;0.7446400605486796;-1.55009091350023;0.442540444110463;1.9581539297845;16;1.2566370614359172
29;1.0547815373694025;-0.9898671389988656;-1.4933384308835735;2.7880286293414507;1.0198187369489495;0.1129293472545456;26;1.2566370614359172
30;1.1767746600660058;-0.0848421259074427;-0.979237054678788;-1.902139866700761;-1.6880165434928804;0.6367632548334256;21;1.2566370614359172
31;-1.4275564400281469;0.4282326433238966;-1.1459012667496014;1.5845116773785797;0.7943096295080901;2.1090601942052394;4;1.2566370614359172
32;0.8338339125019555;-0.1394389942514333;0.4532396784832535;0.0454380549806504;-1.5548137646373978;-0.7226225292550443;7;1.2566370614359172
33;1.9728402825105784;-0.3502641749665103;-1.5994871126451595;-2.501567267763825;-1.486732206723189;0.9374768012994882;30;1.2566370614359177
34;1.325136456891438;0.3604448499648962;-0.0823871594832889;-0.6232817981570329;1.9121732535414049;-0.7000244809297202;9;1.2566370614359177
35;1.4490194479240577;0.1868722990167816;-1.799959209335716;1.391517792858228;-0.5328037880127445;-1.0208520121659073;18;1.2566370614359177
36;0.658768925022584;0.5872084180990099;0.7983297169653637;-0.009921571005377;2.5179880061874544;0.7902469694306855;14;1.2566370614359177
37;-0.768876106126705;-1.0133740194007683;1.8222342571865349;0.5941530865774369;1.1501781593955762;-2.050702823736351;15;1.2566370614359172
38;1.5006913968903808;-0.8483523291634986;-1.0943954773508986;0.37807150752448;0.9881739191466484;1.321859137758039;6;1.256637061435917
39;0.5328364292195789;-1.065015393498616;1.3825814671725198;-1.619474061519126;-1.3692461245245595;-0.0260716888908524;17;1.2566370614359172
40;1.0821892658313157;0.0413748961272777;-1.0683308432464418;0.5713337283565669;1.2905245849994036;0.4083911365661418;6;1.256637061435917
41;-1.5328792735254573;0.6568220531408401;1.4410393551771468;-0.0272932307059208;1.8133771691424805;-1.854150056593004;13;1.256637061435917
42;-1.9243528932268208;1.050646281392556;1.0270477351139635;-0.5499255904481167;1.0998659386758725;-2.417315809777571;41;1.2566370614359177
43;0.893957662310181;-1.11501399287653;1.767033529605769;-0.9649847292451732;-2.5270364665138927;-1.670025799405455;17;1.2566370614359177
44;1.6485102784009538;0.5328999429689308;-2.330733231491914;2.341237468291875;-0.3395145233428109;-0.5752560987953339;35;1.256637061435917
45;1.4200578397259231;-0.0809334321454955;-0.1698703915698591;-1.8057859436319836;-1.8900107545513571;-1.92056114977024;12;1.2566370614359172
46;-1.378726694768266;0.2136711036414426;-1.691607177431128;-0.269213288161941;0.3432715351091269;2.2312208869849326;8;1.2566370614359172
47;1.980074781088623;0.8007275707836684;-0.1905469978187891;-1.3303951125729707;-2.0758531790390493;-1.4438744240954111;45;1.2566370614359172
48;0.5603512609018221;0.4209040080000917;-0.8318110457454495;-0.0066567009918639;-0.2410467741862874;-0.5813136070931477;0;1.2566370614359172
49;-1.945281256440204;0.6279657852831673;1.1933981162903349;-1.3999602798800144;-1.5181736213057129;2.1425845508801054;22;1.256637061435917
50;-0.409776946385292;0.1997014298735472;1.6081620105903314;-1.1634890009803796;0.1794164294333328;0.7611433420802454;16;1.256637061435917
51;1.5604980055293298;-0.6093675856184452;0.98046800904252;0.720110843980962;-1.2581593621998184;-0.8180489398940545;32;1.256637061435917
52;0.125454302555392;0.7437213842788488;1.7164236313923107;-1.3789338923779866;-0.7713700688093488;0.5752012582692727;50;1.2566370614359172
53;-2.202167681003863;0.4478442402051581;0.7391868581262329;-1.3905283129239638;-2.0035920854471287;1.1234307922770057;49;1.2566370614359177
54;0.2590145666604697;-0.4415076620551761;-1.2002065675016451;-2.0210357078288537;0.199301330869344;-1.524426709493104;24;1.2566370614359177
55;2.2272107488014843;0.963949561608738;-2.338585365337241;1.898130944013964;0.3850784857754209;0.0052597229325402;44;1.2566370614359172
56;-1.0394833657709144;-0.7206834281555937;1.1173635014696268;-0.1903868133362534;1.1742379622510604;1.6210813258890215;16;1.2566370614359177
57;-0.0741078125880947;-0.8058288044227946;-0.9299468544390392;-1.983078313329914;-1.908781662380032;-0.3740304736308543;21;1.256637061435917
58;-2.5702529236257794;-0.1933651925066778;-0.0205462511054303;-2.013996605704375;-1.9134865175070332;1.365245388611652;53;1.256637061435917
59;-0.2181916288728583;0.6410374231951836;-1.3194065983820782;-0.0932092122851521;2.8792408247695445;-2.7343174385378206;20;1.256637061435917
60;-0.5131839471228441;0.3056849350627486;-1.031334669108688;-1.0716373722737258;2.3025073482897174;-2.8163317145192086;59;1.2566370614359172
61;-0.2398746628555013;0.5843917786800212;-1.7381335617536842;-0.4735952461375389;1.568703972065229;2.351705307940948;8;1.2566370614359177
62;-1.6623675386755534;0.4983230036390946;2.053206899060079;0.0207659913502648;-1.292702278015053;2.373190941288531;22;1.2566370614359177
63;0.4708019829520787;0.1072802841247004;1.028487756717828;-1.3628428348324446;0.4858269512548397;2.3201930277807894;28;1.256637061435917
64;-1.862755036288982;1.2038040550311848;-0.4797410682586526;1.402366826767636;0.6585202271772265;2.650209852697514;31;1.2566370614359172
65;1.21436958759675;0.2211122041125074;-1.1957911985150798;-2.183675967412817;-0.7016613094616295;1.257295568756427;30;1.2566370614359172
66;-1.6102334349608547;-0.1829483632297299;0.1175325582278618;-1.6497799736087977;-2.2171529413274844;2.008252360259549;58;1.2566370614359172
67;-1.8352512814025688;0.2264890155917227;-1.7903502113357748;2.0196867889544494;0.0569296781327077;1.6359850241140843;31;1.256637061435917
68;-1.366989457158033;1.397212590436844;-0.7764572265760153;1.5872051769331357;-0.4222460668725458;2.574811865304665;64;1.2566370614359172
69;-0.2041137781200784;0.1593466686010511;-0.4071877743942831;1.9241119763151675;1.8899178630659688;-0.0814712331900044;23;1.2566370614359172
70;2.0394554870042034;-0.7528740014686475;1.2631079025009773;0.0227777436155156;2.0470002926763176;0.2361852158707631;14;1.2566370614359177
71;-1.2139457314853206;-0.2284030272422103;-0.5192118932335781;2.365197645502395;0.9904109108727168;2.357396460695172;31;1.256637061435917
72;1.2428725547003312;0.681938887010597;-1.8904855626978816;0.7924313207733105;-1.4522911208171518;-0.7397956847781487;35;1.2566370614359172
73;-0.6219833652477811;0.1411333478637579;0.2646219813105795;2.6002821732856063;0.3430007466202685;2.415361361652129;71;1.2566370614359172
74;2.032452428302368;0.1185116189486143;1.5050616220728652;0.767538011346529;1.9531611731423928;-0.20851639500196;14;1.2113193422624051
75;-2.3310943714081285;-0.5651876050305222;-1.6965632953716767;1.6053671306902275;0.1381239457706454;0.915238752045556;67;1.2566370614359172
76;1.8570254690659171;0.7001805983770281;-1.1389525512334524;-1.8184617176587152;-0.3825981821177435;0.4217058150342559;65;1.2566370614359172
77;0.8360554351883107;0.9635129595594172;-1.3091780219103566;-0.4139352534279614;1.4616896929935843;2.632354613460721;61;1.2566370614359172
78;-0.1066208809467463;0.2630168694003673;1.178549883595676;2.0827096269773198;-0.0709891511695285;2.2599604788106613;73;1.2566370614359177
79;1.6845024474543604;-0.1778593377585258;-0.9916514679034564;-2.757150014475956;0.0252898103744184;1.804954280120912;65;1.2566370614359177
80;-0.0164626322190527;-1.3933963305758756;-0.1322747094707014;-1.8923111934058827;0.501983222477254;-1.1079646058145385;796;1.2573775942967953
81;1.033481781107815;-0.8545597688735859;1.6202258511437826;1.589129670977568;-1.4285384835015476;-1.0365861986423044;51;1.2566370614359172
82;1.4701091958647377;-1.1683918990096107;0.5799819418234607;1.326959494446844;-1.5758899834154556;-0.0250475136454464;51;1.2566370614359172
83;0.7714817242795772;-0.5922588346033396;1.220310333504452;-0.6427043087615298;1.8185025346107908;-1.9955787876053184;10;1.256637061435917
84;-0.3200125104181957;-0.7562153038193108;0.8516485928174176;2.2853117471172286;1.3530770630501368;0.0063220172490454;27;1.2566370614359177
85;-1.6653058712980415;-0.0200829886462219;-0.8938595519996185;-0.9901708347943544;-2.502060820837823;2.110271398908946;66;1.256637061435917
86;1.830119412712918;-0.8414999523733978;-0.799635572362376;1.2873301387996037;0.5942439751913284;1.9556978164579533;38;1.256637061435917
87;1.5297233542904456;0.9255466321514628;-1.4707950474260534;-1.124158157185526;2.1661099358369165;2.368203963868234;77;1.2566370614359172
88;2.8177076950409514;0.8496011078795885;-1.4924291825960865;1.5954247779858293;1.0245214299627612;0.0348554045839082;55;1.2566370614359172
89;0.7235716918899993;0.0319723823706974;-1.71740115494818;3.0305169878365383;0.8494868953354846;0.6488986471316006;29;1.256637061435917
90;0.51225888820142;0.0216707889749447;0.2275112261772058;-0.2108564524537463;-2.6557448484935224;-0.3746564597209423;32;1.256637061435917
91;-0.2007857728540344;1.177984385562192;0.515972360646544;0.7799517730773184;1.944023790778404;-1.5176653447809805;13;1.2566370614359172
92;0.7899845346140029;-0.0605729644149532;-1.8955234764005189;2.3402519007541738;0.8807558342802995;-1.684838820244383;26;1.256637061435917
93;-0.9694862280907734;1.2665185378784862;-1.1935667458398165;0.9004953105216295;-0.6286567817805977;1.7287085756496567;68;1.2566370614359177
94;2.1083969812338883;0.280938847231084;0.3360477303654401;-2.253231887382336;-1.1794524427626705;-2.0359745403624907;45;1.2566370614359172
95;-1.8146894878625996;0.750762948654325;-1.2141734396713455;-0.761053253707987;0.8201602398354018;2.8663060268498364;46;1.256637061435917
96;2.4283962398201013;-0.0610077484620224;-0.7636498915399126;1.919674701639674;0.3332953749102649;2.3335664107974736;86;1.2566370614359172
97;-1.8095086471612285;0.6381050448919434;-0.1167837251765088;-0.3307435042831547;-2.2789781711585406;2.301775087304062;85;1.2566370614359172
98;-0.9815331311152112;0.7060905937435765;1.5221615704035325;0.1712647845161853;0.0297858585159508;0.0716685517326191;11;1.2566370614359172
99;2.238599955586314;-0.6079249297948027;0.6163054370854925;-0.060456419447728;-1.7255076056054015;-0.4193029605009208;51;1.2566370614359172
100;-1.265149278574606;0.786676127589381;0.7222195001152178;2.768014572731179;0.9715010690484334;2.0744705736853013;73;1.2566370614359172
101;-2.803829907388289;1.058905641545512;0.951676006285425;-0.8148621756035386;-1.569665626071029;2.645477145542433;49;1.2566370614359172
102;-2.8343620622306416;0.1931096920683864;-1.446625640568998;2.227436103580703;0.0593930454079325;0.3719097984936889;75;1.256637061435917
103;2.452503851006837;-0.1253308960852928;-0.4347709912095236;-2.059315859217985;0.124254950173284;2.228827891788623;79;1.256637061435917
104;1.5928734670378384;-0.8681469745275919;0.0734580926414414;-1.40010191416156;-2.423677423356825;-2.5693892513745595;45;1.256637061435917
105;-0.8657876626105234;1.1596720529953344;-1.9089983541242768;0.6230682205382791;1.3555476830471718;1.063983376116742;8;1.256637061435917
106;1.1092917450850517;-0.1565173359490662;-1.4339573964490642;-2.1239984010657658;-0.3461368212225808;2.5214322130419844;79;1.2566370614359172
107;0.5953424911798261;-1.275554292916968;0.9193790527021504;0.5674749789909326;-0.8661805826423766;-0.665963842588498;51;1.2566370614359172
108;-1.7507410713882685;1.0344746455294775;1.0686131350261816;2.6557867554365444;1.8258964457160336;1.426891917087909;100;1.256637061435917
109;-1.0480979705715574;0.4225042145492646;-1.5195459670807885;-0.2734713008950272;-2.5484121512076503;1.8020222767901408;85;1.256637061435917
110;0.0242836306171008;-0.5432616499553097;2.285666921068929;0.4051356452535695;2.4486782439566124;-1.707933396093244;15;1.256637061435917
111;-0.3523687681916744;-0.551246259338205;1.5870101315906489;1.9525306232984647;0.5751926376387644;2.7643244207091704;78;1.2566370614359177
112;0.8256135577138597;-1.0529842633828512;-0.9677781739168824;1.3337967079330912;0.1655258322014028;2.513504911259086;86;1.2566370614359172
113;-0.8800027331749314;0.7383373525682954;-2.0605759870342317;-0.8315534630272923;-2.588693576880829;2.721445111416634;109;1.2566370614359172
114;-1.5274420181031791;0.2609839511353211;-1.7177660821484289;0.7470156635100775;2.278771470846568;-2.0715615255106585;20;1.2566370614359172
115;0.1700704370317033;-1.0654235760059356;-0.4990443612629502;1.900546000530067;1.0432777147514871;0.2921331959839919;23;1.2566370614359177
116;2.532458367834196;0.6382370084568197;0.9675421263361444;-1.821647657001925;-0.465931690446324;-1.6146852282359014;94;1.2566370614359172
117;0.4219214979775283;0.8237572321829333;-1.6211201142179117;2.246020311557773;0.947277282156082;-0.9278549974223282;92;1.2566370614359172
118;-2.266203723559232;-0.3268079200242043;-1.4519260043137605;2.497754741987697;-0.553222425338954;-0.3613162975257514;102;1.2566370614359177
119;-2.4905091110336093;-0.3153733398130761;-1.1786525499470422;2.203682280339284;-1.3323845830131056;-1.233349775201204;118;1.2566370614359177
120;2.55980462060098;-1.3907212664348785;-0.1059925017934282;1.0298319277625465;0.9833816338992272;1.740807159881255;86;1.256637061435917
121;-2.456734724986971;0.125313186317338;-0.5750284703289454;-0.9039570327577416;1.394427228456235;2.735857353683821;95;1.2566370614359172
122;2.2185128321110748;0.4322615364067066;-2.362346621527521;2.406799964612081;-0.3541594266649139;-1.6881772026999444;44;1.2566370614359172
123;-2.71530800874846;1.336323056771132;0.4839665532095978;-0.4911023593218149;0.45015571651982;-2.0282209961641047;42;1.2566370614359172
124;-1.8814538285621336;0.8797907433246228;-1.8297695879113984;0.4295441025392788;-2.6999462597953223;1.5527998655285182;109;1.2566370614359172
125;0.3904560845034109;-0.7573724213845678;1.2518169000380226;1.4983208369449903;1.364854336818511;2.9708027877684056;111;1.2566370614359172
126;0.2757721365069233;-0.1515344088302659;1.501221420911423;2.734876869725282;1.7228682353485916;-0.3063106814955806;84;1.256637061435917
127;0.1787215397869761;0.9014104783657986;0.7572049025041384;-0.8081526694851207;2.313184990486574;-2.4701760730247315;13;1.256637061435917
128;0.3622521023209342;0.4815429265158814;-1.2507327147124865;2.715144470385205;1.3050952429615597;-2.289759089748118;92;1.256637061435917
129;-0.5519813870050375;-1.6641237864530252;2.232936883546379;0.6021856151292015;1.502551575046187;-1.147536209649126;37;1.2566370614359172
130;-1.0988675832384809;-0.6501831067253778;2.183051383755215;0.209697941582213;0.5544473500601965;-2.890610399382586;37;1.256637061435917
131;2.6770331566320533;1.0867076584689868;-0.016355740328543;-1.4746710933728189;-0.1434391838722493;-2.0204681088067766;116;1.2566370614359172
132;0.1410593864780477;1.248071016440229;1.9228678461875468;-1.7142607323707333;-1.814483440583183;0.2899367770357546;52;1.2566370614359172
133;-2.2678222826322405;0.7657978443483824;0.8218279549377594;-0.4499963272075665;-2.2857369136797976;0.4144202056597361;53;1.2566370614359172
134;-2.657207587369041;0.4791244081608493;1.55557405982907;2.722426013481787;2.2394371944432128;1.2359636856001543;108;1.256637061435917
135;-2.861495729108154;0.2316557380319917;1.2224215793484623;2.0864460018030506;1.812952079362616;0.353460647229659;134;1.2566370614359177
136;1.125505305153913;-0.2329737855828876;-1.1425452278410249;-2.271612479863707;-1.3377162930122617;-1.8868066203172391;45;1.2566370614359172
137;-0.2451225917415317;-1.5604674631734616;0.9931103711455092;0.525842193971279;2.0814055151538917;-1.2796564546410385;15;1.256637061435917
138;-2.636235696344575;-0.4968272370621159;-1.444074948087045;2.8312376612310084;0.4759853739490278;-0.8540284695884243;118;1.2566370614359172
139;-1.5745709691489258;-0.4165907371636245;1.023045779335991;1.0703064316539992;0.7235130880072174;-0.1394922012630416;27;1.2566370614359172
140;2.5169142928225203;-0.3254827695567542;0.9474640616536504;-1.7161546556639458;-1.56145962897218;-1.5498760321491976;94;1.256637061435917
141;0.0788081001844254;0.2740037537498926;0.0089268557450357;-0.4281468178347421;-0.3527834046372251;1.3572455822455225;1101;1.1602679954554669
142;-0.3834141065008114;-1.3976121525870844;-0.506771645954616;-2.031980279615844;-2.87328931954202;-0.2273501768995911;57;1.2566370614359172
143;3.044200173342981;0.8927888330274526;-1.2844004223538148;1.4805302415581594;1.1508114773568854;-1.170775876606066;88;1.2566370614359172
144;1.9835500131728525;-0.0168206075235579;-0.2389777694347857;-0.374898481059904;2.622625326439887;-1.3421631173956157;34;1.2566370614359172
145;0.3461698288203529;-1.297212424215376;-0.2515782803018166;1.1626422830130432;-0.5813593928817752;2.078132247643352;112;1.2566370614359177
146;-0.9225747547155696;0.8622028396498096;-1.447445449332997;-0.0597372309782253;1.90458108286062;0.3521322998349776;105;1.2566370614359172
147;-3.034347105614576;-0.3825252759343818;-0.0884255260991033;2.047272607488796;-1.2697188263056738;-1.4821099226251029;119;1.2566370614359177
148;1.8604386651753968;1.2487382693561446;-0.86903811203164;-1.4569614949710052;-1.5814155678987385;-2.2459171445154884;47;1.2566370614359172
149;-2.288276576784208;-0.1453164362094393;1.94256167068751;-0.0732803710251211;2.0066280668476955;-1.5819367159701154;41;1.2566370614359172
150;2.0376162827224986;-0.2014185795260979;0.4310314772236995;-1.2515016870092532;1.6018116270562466;-0.6648758807216211;34;1.2566370614359177
151;-0.4410433521922866;-0.6615695196202774;2.0367339295889653;0.5621123215564816;0.9488850667223936;-0.6837837668277558;129;1.256637061435917
152;-2.03383585474321;0.87655237583348;-0.9083355760942656;0.9253200474054408;1.2925299007443884;1.5881217219883843;31;1.2566370614359177
153;-1.250930802407319;-0.93453400273668;2.5263507431474497;0.7294837510047947;0.6402214388059213;0.0131368587833655;151;1.2566370614359172
154;0.0010564368235284;0.9650218704673484;-2.0640532086222234;1.5641099128727862;0.9576495594843032;-1.7768276143860562;117;1.2566370614359177
155;1.8931591875816196;-0.446075881686849;1.9678181982037444;1.8351218387440655;-1.175781095333864;-1.6908135989177089;81;1.2566370614359172
156;2.137617016266227;-1.058089452105808;0.8493929362388718;1.1589248011971718;-1.895886084533372;0.9331737224509504;82;1.2566370614359177
157;-1.3460809545993655;-1.137445910382067;1.3886565291939297;2.1931555831410714;0.9449500125810056;2.88297400843709;111;1.2566370614359172
158;0.6988730507827602;-0.7839294124102213;0.3551428480833402;2.605492193395335;1.3677064888248494;-0.4307058453687015;84;1.2566370614359177
159;1.3665260673903037;-1.3737546361819737;2.3142636488996646;-2.3290079211762293;-2.020439679976245;-0.6953430634809354;17;1.256637061435917
160;-2.1488185017775185;0.1919655708334203;0.3604136726825038;-2.5545241750070264;-2.4374449741881983;2.479867125250351;66;1.2566370614359172
161;1.97767318155216;-1.078757603206499;2.2371191111220288;1.2805654481393955;-0.5346181437671561;-2.30771085594804;155;1.2566370614359172
162;1.0847946629422989;-0.1993816177021706;-1.1778907057629495;2.6876001161311227;0.6446569753020395;-0.540910187316968;26;1.133488016300232
163;-1.8541618958440975;1.328478866040454;1.1127153011343849;-1.9866781815719587;-1.6258048913808008;2.989805470629806;49;1.2566370614359172
164;2.8861198777271517;-0.0188900151205702;-2.055216327868145;2.316027311273364;0.321245815624639;-2.297405305452064;122;1.256637061435917
165;-2.1673515974894157;0.965914544543465;1.4448755115907814;0.928258846468879;1.82303515198035;-2.2638519496017984;41;1.2566370614359172
166;-0.207963352163374;-1.3892097377206114;0.5636249471044641;-2.30024980004061;-0.2341491978739202;-1.699458876098515;80;1.256637061435917
167;-1.9496930798431884;0.4656589715839782;-2.5542081119445923;-0.3522686162383278;-2.191313506667129;1.4621058497763186;124;1.256637061435917
168;1.9987382042702704;-0.6489975700108042;1.832117488370624;-0.3893861722304714;1.5622171649257854;1.1516210742245938;70;1.2566370614359177
169;0.2840105811622014;0.7333023678657755;-2.471680108829056;1.9131260987631824;0.0097485462418428;-2.2856413423830024;154;1.256637061435917
170;0.3531223579282689;0.026291701272765;2.137306837995613;1.038776884653421;2.60092089696764;-2.544546219199608;110;1.256637061435917
171;2.341681690004969;0.0110268762819937;0.8814868811820818;-0.694725927956389;-2.118468169600246;0.3279403127278807;99;1.2566370614359172
172;0.7196576806284121;0.2258659464969426;-0.8788736624249864;-2.304561994274714;1.052217351442071;-1.6266488362364735;54;1.2566370614359177
173;-0.8224890359766386;-1.139155759199515;1.535764747662128;-2.571923688533716;-0.2664727951397408;-2.0445104482967023;166;1.256637061435917
174;-0.1275447108340306;-0.7087990553191914;2.027799849555746;-3.188038759845087;0.0216684866464308;-1.5903513619736551;173;1.256637061435917
175;-1.3572633742118865;1.0085766611714666;-0.924481505591073;2.5968245743058005;-0.9818357044242088;2.303479698423208;68;1.2566370614359177
176;-0.019976932849839;0.8039009757486271;-1.9958566965114375;0.9279677352180612;1.2081537589111304;1.2981091228610036;105;1.0094636050094006
177;-1.6519547510896364;0.7777976619679463;-1.9964914883161864;-0.607672120128139;1.3531392070979469;-0.0142622320956197;146;1.2566370614359172
178;2.0027790861933075;0.149657807048622;-1.0497578952182418;2.9975862162698803;0.0698952016420593;2.534753120138335;96;1.2566370614359172
179;1.100135004546105;0.7693280075621944;-0.5936532174553133;-1.1641057375735997;2.753427636214513;2.872456494877802;87;1.2566370614359172
180;-0.4562196165552725;0.2078065885445142;2.50714793095627;2.089625107380428;0.2208663765910596;2.7988919334116207;111;1.2566370614359172
181;-2.199666521174008;0.5646471517525425;1.4194245278370108;0.6211143416696858;-1.9775517682820007;2.138818257653764;62;1.2566370614359172
182;-2.154584167533935;0.3753373434629887;-2.131033402258056;-0.7183935892651563;-0.2537353665015096;2.67817762146197;46;1.2566370614359172
183;-0.3896950354455832;-0.6599880171971368;2.1386704678455013;-1.827510443011497;0.0608377208737127;1.0824576225014448;50;1.2566370614359177
184;-2.218942613070879;0.549736377697208;1.0126258333378986;-1.5243569617551542;0.692586148560399;-2.7720573402497712;42;1.256637061435917
185;2.4228786564111457;-0.3892082977746262;1.9242478782429215;0.8456869759087237;2.1588481140815405;-1.1805210529355945;74;1.2566370614359172
186;-0.7355506444921149;-0.4199159987574637;1.8488555403433864;-2.2384021520616386;-0.8270545145072309;-2.296666024077246;173;1.05449555482864
187;-2.0921300331198407;0.3668565502289695;-2.1077053367729444;1.0254563142146569;-1.8621312614637675;1.182182625491859;124;1.2566370614359172
188;-1.817665924554687;-0.2972768657875758;-1.8361652514143412;-0.1173440691030558;2.853490300701935;-1.768553597312938;114;1.2566370614359172
189;-2.347723633102642;1.3459101009202428;0.0314612491542807;-0.48397107310084;-0.550500569478641;-2.515870061979121;123;1.2566370614359172
190;2.6915272745011825;-0.2850633905831664;1.1254188440559965;1.6832247409387666;-1.326969630678941;0.9352177717570797;156;1.2566370614359172
191;3.150929079327735;-1.522116043464759;-0.2609403652976305;0.2068527023237685;0.2690429215615044;1.7701422785263323;120;1.2566370614359177
192;-0.1124510806599315;0.5411373189858336;1.0670441637192518;-0.718029404163462;2.568180093054959;1.4274992412804282;36;1.2566370614359172
193;2.4272021293122994;0.0022624162144192;-1.6686459678131471;-2.1846539281690878;-2.45408830163488;0.4820405352516997;33;1.2566370614359177
194;0.9134081888523417;-0.1933295539920771;0.6613100841135973;1.229928896902727;0.6120114748385003;2.973724518056016;125;1.256637061435917
195;-0.1302198549433728;-1.388530810050208;0.6889896589909634;1.5531654377640232;2.131563161755328;2.925553445973628;125;1.256637061435917
196;2.3672717318425107;-0.633685698966862;-0.3495757268722906;-0.3659276015164367;2.0020302588252514;-2.150817050136568;144;1.2566370614359172
197;0.733026213066493;0.2341433693939298;0.3223559667292387;-1.608440420756567;3.031476386999691;3.0825231472965675;179;1.2566370614359172
198;-1.0243445407745615;-0.9607719596707748;1.6797858489973885;1.679655936984126;1.687715764140183;-2.204165987504719;37;1.2566370614359172
199;1.4129377368812892;0.0004652434519359;-0.7109904699409357;-1.7243914614505655;-1.2057979519378237;2.319174597785755;106;1.256637061435917
200;-1.1315758691928235;0.9851884000091032;-1.812401537190689;-0.4382432482125439;3.223844004197023;-2.507278461058075;59;1.2186472867539158
201;0.1645023674333577;1.3082487110251708;0.8250491630438385;-1.4062859033605426;1.3020169883938235;-2.639262542465021;127;1.2566370614359172
202;-0.7076648573168578;0.6661339926287086;-2.400737911283729;0.7708816790499267;2.3092951809372693;1.4344738149484872;1076;1.0064999155311836
203;0.3704787902720911;-1.5161269475966166;0.7960263255401625;-2.061794351583133;1.1587327927547402;-0.8037231148687805;80;1.2566370614359172
204;2.6685378831180047;0.1643334113435755;1.6369519631275102;-2.06261133827608;-1.8080876030291968;-0.7374869977724902;140;1.2566370614359172
205;0.3270082293066063;0.9835240852369002;-0.1183730338890166;2.798972934650646;1.284243847266026;-2.0994723298299145;128;1.2566370614359172
206;-2.393329194615448;-0.3084813055371643;-2.058059299777479;0.4650742702150225;-1.401691339117098;0.4723679570461633;187;1.2566370614359177
207;-2.0058663201943245;1.0542293370303126;1.493196730061601;2.9738771664929957;0.8950667830504876;0.8221101679565912;108;1.256637061435917
208;2.006464667062113;0.4336367962274349;-1.4819210626443744;-1.069587171518922;-2.026029117819532;-2.6582969610145306;148;1.2566370614359172
209;0.3261738192781307;0.2438062303795158;0.1433594423434791;2.3291240312957218;-0.5668963052537419;2.1450988699391487;78;1.256637061435917
210;-0.6195409177495507;0.3764939210917114;-0.1545885140008978;2.019073364163304;-0.1432613659198351;2.7007941233714976;73;0.9417347756748388
211;-1.857208364021023;0.8412342442896877;0.4439213020114696;-0.7983579663672304;-2.364500257338001;2.037468132639051;97;0.8085557128666538
212;2.3643548756600774;-0.4170521469032755;-1.328200983841991;1.8351973717335064;-0.1171364060398649;-2.740617658763237;164;1.2566370614359177
213;-1.8450791905296124;-0.6301505960209226;1.3693544172893173;0.4643161646549609;0.0841562887110892;-3.162265998794339;130;1.2566370614359172
214;2.559594913750529;0.238740026104219;1.0414653158919671;-0.5948089406105931;1.4960162128474153;-1.2106486453246796;150;1.256637061435917
215;0.0917023049516043;0.3595751585475031;-1.6375544567337117;0.144849661645595;-2.774173116334881;1.992142042454035;109;1.2566370614359177
216;-1.8935480023770708;0.0625390404532332;0.5278934845240887;1.5582262954942196;0.3908118541236743;1.1125797304983267;27;1.2566370614359172
217;2.940630575566338;-0.8531062326615502;1.5242755106238115;-0.5366502321213342;1.0363871634104305;1.6589321639981571;168;1.2566370614359177
218;2.8666018387917487;1.4913136033840977;0.3400473448781452;-2.102227280314291;0.7303563091367369;-2.328893071709744;131;1.256637061435917
219;-0.6603052497338604;0.5374405965878293;-2.2612307401825507;-1.039864127624752;2.275834657112091;2.9047383108763003;61;1.2566370614359172
220;2.9646851123415905;-0.965411050466603;1.879817393815062;-0.031607599620273;1.7569143675334695;-1.3233576010012555;185;1.256637061435917
221;3.1593821254161827;-0.6861298411026484;1.8904698209382544;-0.7712397973885257;0.4471375888912287;2.642323108721861;217;1.2566370614359172
222;1.5334250219711745;0.604680347256833;-0.265100444542875;-0.8168740604026424;2.044664222979545;2.076576306174658;179;1.2566370614359172
223;-2.3652262430730584;-0.5600258635991339;1.3570638896233929;0.4534837940480631;0.5729195729021621;0.5075863375866683;139;1.256637061435917
224;3.0017787744978026;1.2653034048188812;-0.3697019923828311;2.0639605852339336;0.7540399855377501;-1.4933874425239202;143;1.2566370614359172
225;-1.5956983937466198;1.061072971024722;1.2277502502643254;-2.7255239616321587;-2.024984192525612;2.973903144592992;163;0.925760454586171
226;2.252223023317148;-0.1188294086120363;-0.932787437842394;-1.3068133357662075;2.958203832889015;-1.5268131536967595;144;1.2566370614359168
227;-1.1481953674654075;0.2183703747360409;1.2401099671040583;0.59086061794208;1.2054877917749365;-2.158324384281882;41;1.1066887088104955
228;3.279173472020417;1.11063078324895;-0.0678221488099502;2.765967019459484;0.5410457221438992;-0.5720003163880183;224;1.2566370614359172
229;1.913307395667205;-0.5394409213260728;-0.7667487081606328;-1.2262359345494245;-1.4316461290661715;-2.3931840378780187;45;1.2566370614359172
230;-2.563884117472169;0.0825320042296948;2.1331885850893944;-0.968707201610166;2.738558652168357;-1.3037064790693171;149;1.2566370614359172
231;-0.0084455706640564;0.3921420437611578;-1.9496247470581445;-1.0736086185619118;-1.7975792407275408;2.667492762349719;113;1.256637061435917
232;-0.5963206045803551;1.5567704429200242;0.9805905345928888;-2.203789908820794;-1.997672830895738;2.9489131933280763;225;1.2566370614359172
233;1.985767135998164;0.8235152939562486;-1.6779782769272171;0.8227136312967145;-1.1686885696049916;-0.6427550100958769;35;1.2566370614359172
234;2.3563479540434638;-1.0999061027036936;0.2767996607053368;1.5601861789135338;-2.8128882559539297;0.4862082719482406;156;1.2566370614359172
235;-1.4582973308025158;0.6050423963846474;-0.3340626616927141;0.5828954640485569;-2.137858517778137;1.558247603325488;97;1.2566370614359177
236;-2.287732596378681;1.129317464686169;1.4660344634449047;-2.08867984948842;-0.1403929142989337;-2.9155724242596643;184;1.2566370614359177
237;-1.5287970779447722;0.1098915028024534;1.02881671837529;-0.1596759302807048;-0.5645520727708694;-3.089565075679207;213;1.2566370614359172
238;-1.613459824038615;-0.5809430847191979;-1.7893645266392264;1.4931992539090435;-0.39904451225479;2.262799269780316;67;1.2566370614359172
239;3.3093102846033613;0.2136882069717689;-1.716046815189702;0.6670778387283696;1.1379785197644796;-0.0566486068423234;88;1.2566370614359172
240;1.5386973433918805;-0.8268242819505522;1.787453111439825;-0.664138025200699;0.8487725701872817;0.2859478714635945;168;1.2566370614359172
241;2.417099281981914;-1.2352424344636077;2.535778143523476;-2.960403124722477;-1.953197347007563;-0.7585640188624265;159;1.256637061435917
242;-1.4397634250683953;-0.5332948171311686;-2.075891998648319;2.725534829352504;-0.4580537496534183;-0.9963138498125604;118;1.256637061435917
243;-0.932815659590299;-0.0105261476704402;0.6797693887959467;3.263187183746652;-0.5245423271327322;2.1069817599768697;73;1.2566370614359172
244;2.8442106295943543;1.1447081214167285;0.3410955345428821;-1.5394367074551225;0.7659578371231144;-1.6688770407824487;131;1.055413464360109
245;-1.1787150362056031;-1.1872147959337895;1.1625684033331116;2.759006513975592;0.8665763888346141;-0.3071510237694984;84;1.256637061435917
246;1.1419398053052765;0.0652364518574335;-0.3424802727619611;-1.1155617038609091;1.3308369177755883;0.200246491773668;34;1.2566370614359172
247;-2.402031983667239;0.7449892899363775;-0.208819922381092;-0.4543425938260186;-1.015415331959008;-1.9845453324679876;189;0.9597498688488384
248;-2.883182262339662;0.4016834548995627;1.7588044614636584;-2.676672037496084;-0.5718557812172934;-3.193989120698237;236;1.2566370614359177
249;0.3386092313256468;0.7250238831233645;-1.8889969417637855;-2.1527682321155144;-0.939529486715602;1.1152295207705043;65;1.256637061435917
250;2.702572688282728;-1.3176602308342589;2.3489465613178035;-0.2305995906197383;2.225455485011693;-1.09908584754998;220;0.8498770466151542
251;-0.0028712462444489;-0.2933527015611764;0.0897941501878908;0.0211775078269473;-3.3471703396375903;-0.8491879770786979;90;1.0680140343254083
252;2.623827062088405;0.0970561349274544;1.996377881249816;-1.159878682096144;1.46744482004038;1.1049037158788868;168;1.256637061435917
253;0.1649065350665887;-0.0154640956726865;-1.7897076518259052;-2.8492783222217293;1.3458954139740165;-1.6028487768676256;172;1.256637061435917
254;0.6730604524429529;0.7525003493220097;1.4315878193213185;-1.263350693407258;2.8815934954181;-1.897894910377728;127;1.2566370614359172
255;-1.1429497034412115;0.7370723865754931;-2.5999154566359093;0.6720878490944963;-2.8845772381308827;0.980664299658949;124;1.2566370614359177
256;-0.7751250559201608;0.5863471192536197;1.0585929905514473;-2.2955889988199765;0.6868722414543382;1.0791827737491493;28;1.256637061435917
257;-1.1160530939392015;0.0078138697742846;1.7454622281933156;-2.3407163092737164;-1.05865938727392;-1.211952896631918;186;1.2566370614359172
258;1.954150964251407;-0.4311650178126357;1.4557358139378422;0.991601723846147;-2.4655239751538893;1.5906740202740812;156;1.2566370614359172
259;-1.4232634808358149;-0.4600588272139943;1.814487659583027;-1.2946891215402896;-1.0117421771781507;2.778819252468706;22;1.2566370614359172
260;-2.8286353435800127;-0.2335040967069528;-0.7955847787008541;-1.324517641059081;2.232332473202308;2.115796645464807;121;1.256637061435917
261;1.9447710699852885;-0.0440070362969486;-0.05711917159992;-2.872487440254508;0.334999337164005;1.0901765635615757;79;1.2566370614359177
262;-1.4348904015002604;0.2188340303935584;-2.424511448141037;1.7792402566989711;-1.023747700168659;2.4420228493966394;238;1.256637061435917
263;-2.825381014061863;-0.831375254336299;-1.3365045925583277;-1.418397124424137;1.4727670111499749;2.701739389105653;260;1.256637061435917
264;2.744606064279288;-1.4987756750610153;1.5587811967875864;-0.864431404864589;1.2887536063226532;-1.8033470438940853;220;1.256637061435917
265;-0.9184707421911518;0.9566976566007231;-1.6580001232154693;2.0547402146488136;1.3769933067747546;2.5757643857061168;31;1.2566370614359177
266;2.6448395445087343;0.2891357945687163;-0.0204020342622407;2.463301638829559;0.5930831722145647;0.0646630640963052;228;1.2566370614359177
267;-1.4381841032745493;0.3682525388180297;1.616030856368603;-0.6408587856856535;-0.1462603890879792;3.2036924161915845;22;1.2566370614359172
268;-2.09619800856675;-0.2071791753766454;1.1735968265128536;-1.1090170713009908;-0.3111402189777215;1.3207149185899607;22;1.2566370614359172
269;2.066225284635918;1.2312511429655937;-1.4744092515200624;-0.1887964568572867;2.591435333384548;2.745073793207957;87;1.2566370614359172
270;0.7480490761182894;1.2721029387054923;-0.930652467132425;-2.7887182006438165;1.5459451772988555;-1.5731385927037675;172;1.2566370614359177
271;-2.3958731106679805;-0.8764516120446626;-1.325844996757609;0.647444312668279;0.677262358259628;0.5514575994054834;75;1.2566370614359172
272;3.1242580885388014;-0.7971498582699466;2.0758650652281285;-1.4810383791910682;1.0495332483674744;-2.2911133715680254;264;1.2566370614359177
273;-1.7973762092965262;0.6053213265257007;0.0127121924832596;0.1702509977979923;-1.8191999989856935;-2.3143294059613964;247;1.2566370614359177
274;-1.077094375274747;0.5611175580722237;1.5632645404335188;-0.8124604175158004;2.732693183660393;0.8225328183731138;192;1.2566370614359172
275;-0.1123855945954677;-0.4736316439191145;0.0560976853574606;0.6343212062447947;0.6177548964529886;2.029892649245877;1;1.256637061435917
276;1.8536855806552224;0.8057894087183199;-0.1451130958686302;-0.5426641125485268;1.0271005321007154;0.4546373896084699;246;1.2566370614359172
277;1.244611068641959;-1.1964290110202858;1.308317186654811;-2.4695469946940456;0.8940520170903326;-0.3410540797224857;203;1.256637061435917
278;-3.019156837833614;0.7264931444640244;-1.0321691930830486;-0.0624446608548081;-0.5341443934626959;-2.3517534253437065;247;1.2566370614359172
279;-0.5174425942648779;-0.9426509748064515;-1.4394035419361109;-2.6572395756488447;-1.1763130749145363;-0.0373987556499645;57;1.2566370614359172
280;-2.164260520762705;-0.7369747378120411;1.6449886657816002;-0.3456662351516029;-0.8253530426248219;1.7945200129582788;268;1.2566370614359172
281;-0.028685931082555;0.2918850256668475;-1.5477243719157825;-1.307422840338675;-0.373744594919531;-1.5347568243508456;54;1.2566370614359172
282;-1.2910479960216956;0.0333958740569935;-1.2723079163110933;2.4520126681912124;1.497769513811167;1.608528074925964;71;1.211358948965156
283;0.5367995182523361;-0.2170691120156545;0.8153206350104018;1.7957240600159603;-1.1821435312551427;-1.4546591292710656;81;1.2566370614359172
284;-2.5391277429279597;-0.1081478789702292;1.48465026788227;-2.380758004099336;0.9562949045883218;-2.6377652277453296;184;1.2566370614359172
285;-2.204115676565591;-0.8351737386099599;1.7050899842990503;1.2291310739311687;-0.2944705807026683;0.5561372642009519;223;1.256637061435917
286;1.6209904679506213;0.062118803822498;1.0629677717934318;-1.1823388568363444;3.1027363323695725;2.921534431317745;197;1.256637061435917
287;-0.7295169521481959;-0.9557196070296952;1.8448132602478449;-0.7611120418451419;-1.7637431972834592;2.811117444206955;259;1.2566370614359172
288;0.0489107431452016;-0.9347060948323204;0.7052931077581643;2.329041495731368;0.2960456678311325;3.2877378658836114;111;1.256637061435917
289;2.194409084380475;1.6081920893840302;-1.1965549774453192;-1.311715842894126;0.2145004331869838;0.577230587966324;76;1.256637061435917
290;-2.2863431984740026;1.0435102631965547;0.3755115617264559;-1.60655684211026;-1.031373926360751;0.8183128151019843;53;1.2566370614359172
291;0.7943454131176837;-0.261417754377828;1.0614249686206685;2.701777988947613;-0.7624932427504223;2.4361784870057384;209;1.256637061435917
292;0.9368903518787456;-1.3863726486280437;0.4713958296891657;0.4385493064249789;-0.9472585659314792;2.281484195985935;145;1.256637061435917
293;-2.713176458664493;0.3743705783719741;-1.786488419314867;-0.5058351123319729;2.5571834052968168;-2.0599235402471145;188;1.256637061435917
294;2.5034107231967413;0.0751987868710432;-0.794610403541627;-1.8585871588221965;-1.4488837307467215;1.169706289657743;33;1.2566370614359172
295;3.1358094438660755;0.9975394734687948;0.9030610206918036;-0.2251870391996805;0.9267220259846098;-0.7730815670281282;214;1.2566370614359172
296;-1.9426319224206297;-0.1025667041013664;1.9419649404691923;0.3275517593418628;1.6084982316217933;-1.5428831957370042;41;1.122618530299326
297;-2.17465163618878;0.9443973879647504;-1.1459736238240636;-1.1773472804851663;-1.262336209961065;-2.144884146056328;247;1.2566370614359172
298;-1.305192509005607;0.2333504367219045;0.449273054747046;1.647529597786037;2.4806428646750334;-2.448354210110026;19;1.256637061435917
299;3.0184531855838084;-0.1292314806287785;1.5310789558113735;0.4688803408427474;1.0027880192375438;1.850814331988866;217;1.2566370614359177
300;-0.7282959022111949;-1.475014263877102;2.35847245085006;0.5010415897219744;2.0525933849875373;-0.0595324416613352;129;1.2566370614359172
301;-2.924942035526451;-0.2683560374044046;1.9043420797597197;1.372402477776224;-0.5682748050162921;-0.2204365648999183;285;1.2566370614359172
302;0.2225006100635241;-1.1546164146451752;1.2659640152609772;-1.0807356423409376;-2.0783095248655847;0.791357464271915;39;1.256637061435917
303;2.607322088576485;0.7560327071753871;-1.8327203587599272;3.18757922019649;0.4311071661095099;2.7923813383313973;178;1.2566370614359177
304;-0.0444152483385793;0.5888646830618512;0.5532693537997118;-2.1052985717955126;-0.4130160576753431;1.7744021627679023;28;1.2566370614359172
305;1.3248086208159615;-0.7519068412790414;-0.7247997563032786;-2.720157413635345;-0.811619907280839;2.8427045074295;106;1.2566370614359177
306;0.7610050541205162;-0.6231345538740607;0.4261758839284186;0.7892192700787791;-1.6457950480693515;2.8753707113590226;292;1.256637061435917
307;2.125249830803202;-0.4307527454024166;-1.786592290653254;-0.981145143015052;-1.138305859825964;-1.8133521257059952;229;1.2566370614359177
308;-2.371736583514117;-0.2706240615900026;0.0849017747433217;-0.4094095556709804;-2.1002911071215493;-2.562797990764133;273;1.2566370614359177
309;-2.526476448971624;0.5724067547029984;-1.2912408068867396;0.193118658330347;-1.6692794751001103;0.2446161804024302;206;1.2566370614359172
310;-1.6052022211007362;0.4296355559422698;1.2118521811946537;0.0290433302671716;2.951794803176444;0.1874528493660119;274;1.256637061435917
311;-3.046085392143404;-0.8280810286977579;1.2034727608364433;2.15535097622151;-0.6132755061754068;0.1602440215672783;301;1.2566370614359172
312;3.123073533467623;-0.0902414936670891;1.8761474141150656;1.6463014199856627;0.757209736315354;1.8819549217476772;299;1.2566370614359177
313;-1.154869251118929;1.208459745614611;1.3763583956033862;0.0685092182946085;-0.562110468406714;3.225679001629441;267;1.2329947314298166
314;-2.512945023884637;0.1454611756816834;1.869099894151512;-1.907140985270326;0.0353230989466356;1.1198660142072965;268;1.2566370614359172
315;-2.081308164100064;-1.0025914546654764;0.7059101754853829;1.4350816354438192;0.1149543826911729;-3.1958516978452454;213;1.2566370614359172
316;1.4179951872769925;0.5354557909413634;-2.5456657555906705;2.393786081444208;-0.8725615282024324;-2.4788371456383365;122;1.2566370614359172
317;-0.0703719046470334;0.0604352430790427;0.4300000496101422;2.0445872966558416;-0.2884931534120596;-1.10187727261037;283;1.2566370614359177
318;0.1991769486640391;-0.2530774475224259;1.2538953243389297;0.0338962916996646;1.044190052885603;-2.831527877224159;15;1.256637061435917
319;2.57844630529376;-0.99871395641324;0.0412270641441222;0.8869093503185974;1.4527035685601295;2.819118765384878;120;1.2566370614359172
320;-0.6039388775519408;0.208229866405383;-1.66954476041795;3.139882457116208;1.2653742219841717;-2.751850010727785;128;1.2566370614359172
321;1.4109894077246006;0.2752898959499229;-1.8462665596504164;2.8261199221113413;-1.226293794391224;-0.1278623369546076;44;1.256637061435917
322;-2.7553847728404244;-0.8169487836727027;1.1431773732195492;-1.7020161867171482;0.3317638762734318;1.403730393445342;268;1.2566370614359172
323;-3.0478547474150357;0.2699396970091108;0.6372651847395745;-1.9988786630213693;0.810117144004213;-2.74447327109692;184;1.0705243510713975
324;0.2814761535209826;-0.9156032780368648;-1.7606378603176072;2.4614932630769;1.1602922604069767;-2.376535923335365;92;1.2566370614359172
325;0.12516466057799;-0.4365088089623701;2.3165062959322644;-1.3122352884326196;-2.8513234891022825;-1.677732631036251;43;1.2566370614359172
326;2.15470463028954;-0.1438066623866406;0.8396546982234072;-1.4907343892737934;-2.714761569739475;-2.811901305003804;104;1.256637061435917
327;-0.2173689072536936;-0.194464387644052;-1.1620712820800796;-1.747980950043053;2.916401580383869;-2.5717424321705478;60;1.1175323821778946
328;2.392710064102323;0.7631803904359861;1.3498118556441143;-2.6407116061357367;-1.2266529279822131;-2.328651408494038;94;1.256637061435917
329;2.361278487903646;-0.4791597524612168;-1.3727493547470675;0.1043507603042028;1.7284475011668674;1.2792621953067076;38;1.256637061435917
330;-0.6304956399917214;0.2046112457793204;-0.9056061782610588;0.6983999480195264;-1.6786783107597096;1.1308295189820852;235;1.2566370614359172
331;2.152258027203744;1.2734054702599251;1.3347418536500653;-0.5756516346431299;1.976798560219457;-1.052058014495297;214;1.2566370614359177
332;0.5912281456686196;0.2965835489438887;1.1867946708139616;1.4871004753309265;2.010577482099872;2.8889985759043277;125;1.2566370614359172
333;0.5551987398601265;0.9639956724641766;1.2812749477536318;1.4418738350067768;3.068592375091497;2.9340780385434644;332;1.256637061435917
334;0.2094941602119459;0.9470572637694148;-0.2746780392429249;-0.5538592187081262;-2.853857018777544;0.0965512523882802;90;1.2566370614359172
335;1.177476228346635;-0.5017179906513247;0.173999026291279;-0.0080551496336111;-2.431870673961627;3.147017404530124;306;1.2566370614359177
336;2.353578231711177;-0.6462701319576226;-1.145209194160289;-2.165570429422656;-1.374775909346708;-2.55854179842253;229;1.1231250744685992
337;-1.0209626003621357;1.4658468918748229;1.6139508212303384;-0.4955281333130098;2.214569508666573;-1.3516968330804109;41;1.2566370614359172
338;-0.9033488401249296;-0.1966900819779567;-1.5963370768901426;-1.8421635991362268;3.169243597033216;-2.110199369308591;327;0.9721016707159924
339;-2.737177761324069;1.2038993911754012;1.3669734855232147;-2.5436886532799607;-0.4119538090431379;-1.8758696418772287;236;1.2566370614359177
340;-0.6792041615436715;-0.2794405317689788;0.8288535607324405;-0.5000502371648462;-0.91315614168599;1.844258468076328;16;1.2095437020805029
341;0.0004848000724063;1.0256685775058807;-0.1654896672773466;2.586836648187994;2.358303425865279;-1.579936732830045;205;1.2566370614359177
342;-0.1541116793545353;0.9896207619790798;0.246261319715008;1.6137574540690638;-0.6794160297153714;-0.5217534440800952;317;1.256637061435917
343;0.1453780288429594;0.5258124968154239;0.6207728062923018;-1.37743601206971;-1.2773341905328444;0.3017002538645446;52;1.2566370614359172
344;0.9824564907185216;-0.7057363227401402;-1.169957676992733;2.550947546628402;1.9888014357230133;-2.356875539058289;324;1.2566370614359172
345;-1.4804546628285378;0.1294884760150085;2.5546239242374664;1.7913144632299436;-0.4346077037333632;2.8541736399794586;180;1.256637061435917
346;-2.65097445927529;0.6216963066036759;-2.2991181594307184;-0.1317041022578979;-2.3129505849450647;0.4045174263697246;309;1.2566370614359177
347;-2.4784007761527733;-0.7738320781484836;-1.8820222509232736;-0.2297729396596469;-2.2065666446755325;0.0322290659204346;206;1.2566370614359172
348;2.108151894033829;-1.2559863086023624;-1.21002337834971;-1.5608780986626876;3.3062572508564925;-1.5788184079722083;226;1.2566370614359177
349;-1.0465011165694131;-0.5650794835551516;1.7566068937175965;0.960905621153232;2.310575020096195;-2.9194394404720683;198;1.2566370614359177
350;0.2593775985047485;-0.1326273084689304;1.208229584480305;0.5831686865778344;-1.178851281509559;-0.3986693386359536;32;1.1981251622855351
351;1.620892075310901;0.177858195444592;0.779599141383216;1.2596025308388004;2.6729746389484;0.1374287395076126;74;1.2566370614359177
352;1.5479424965335444;0.2067060434946112;0.128428654951111;-1.8118373337393816;-2.0184210346015403;0.7468804958572383;30;1.2566370614359177
353;2.198167631513765;0.1137364012515419;0.8697172874604202;-2.3906197033178658;-1.6417819224393888;1.0952276428281142;352;1.2566370614359172
354;-1.344778889562208;0.7233394426736152;1.4182427140419134;0.293781334894307;1.7287319866043056;-0.9618704037597624;41;0.9730070230306316
355;-0.3863858898912767;-0.7620011881758876;-0.6620133919189404;-0.3643808251150892;0.9071268066178884;0.7934955418937275;570;1.1710403096027997
356;-0.3896300296873782;-0.4215754801691724;1.7323438816611072;1.4765806515808002;1.5647189554590657;-2.007102061510829;37;1.2060501161596646
357;2.5968990410009525;1.266581502005642;-0.3679986876620562;2.752342267535773;1.5533278513615631;-2.043363930945496;224;1.256637061435917
358;-3.24774116647937;0.2104549982357859;0.7158619561565454;-1.063933090653812;-2.306573056497162;2.6846416207000487;101;1.2566370614359177
359;1.852022696516338;-0.3622088270493251;0.6414544080660298;0.2612637414617292;-3.110116058661325;2.552377211802031;335;1.256637061435917
360;-2.628830415671811;1.2429455381825925;-1.2620182963008204;0.9619364142646908;1.6076899604788668;0.6580055254425061;152;1.2566370614359177
361;0.7738866069189829;0.9847399286865092;1.8574861410834496;-2.682955068738983;-1.6335510354991891;-0.0760456427360374;132;1.256637061435917
362;2.8939947066718297;-1.102617507400108;-0.4472896353437824;-0.1727600735106566;1.7947152913692577;-1.1548444734634695;196;1.2566370614359172
363;-3.2027534124860635;0.4224646848659654;-1.516578191616995;-0.7381027389540663;-1.3913057459447296;0.5672365868695526;309;1.2566370614359172
364;0.5437255236452287;0.4856913838628964;2.3601207402559936;-1.9999887912555547;3.166989277331824;-1.9683387285780176;254;1.2566370614359177
365;0.4696701823264178;0.129158479712821;0.0786219186141564;-0.7067551699827463;-2.850403201281444;3.234733976527393;335;1.2566370614359177
366;0.5836692364047182;1.240711439964124;-1.5209333423939115;2.1722918929738797;1.869186081925413;-2.807328940582481;128;1.256637061435917
367;3.0161270207890127;0.4018800482593386;-1.0829569296405424;1.6741321922378702;-0.3471863084708383;1.7057601580400656;96;1.2566370614359172
368;-2.420496572825789;-1.1232362163838276;0.8204462337446276;0.0923942434396665;-0.2250287097444821;0.0561327304448718;223;1.2566370614359172
369;-2.4233367344967567;0.8857635131481204;-1.171590590062347;1.9154173343096668;0.2975329500897791;-0.4651773909272843;102;1.2566370614359172
370;0.1103692702222342;-0.7948384922898494;-0.5976697135749707;0.5036350317701825;-3.4342646854896914;-0.073386430397275;251;1.2566370614359172
371;1.9985536855087616;-0.7103955956832365;1.1736484886725569;0.0119467127206411;-2.4448538076296806;0.0418233609074664;99;1.0555057472644684
372;-0.6236488346075648;-1.2623296506537085;0.748467576629199;1.339987570876651;1.9174866549545744;0.0954715938894553;84;1.2566370614359172
373;0.9901279550970428;-0.670817008807671;0.6395883272157505;2.9729868694135053;-1.4773784103688845;1.6547458672959752;291;1.256637061435917
374;0.7556122806836045;0.1988595251509662;1.268923656264709;1.2428546977364847;-1.9115454452943852;0.0986174822242765;350;1.2566370614359172
375;-2.169335682359811;-0.9718208750339256;-1.0689917469442547;-0.5894191307249432;2.7630126271816646;-1.3432781500583597;188;1.2566370614359172
376;2.9605835464634778;0.4145047691083277;0.7138733732777156;-1.296584092751038;2.2822957830605795;-1.4239697344887288;214;1.206329732325522
377;1.3971396064539046;-0.6417715173579083;-0.2101782215460249;-2.2774446236796457;-2.04500741998001;1.2373113479873508;30;1.2566370614359172
378;-3.032113423470957;-0.120619181874113;-0.773069062047379;-0.9494928414575882;2.905037542962748;1.1507537953864166;260;1.2566370614359177
379;-0.4935717589451218;-0.575665785796522;-1.0602217557459117;-2.6777309061214165;-2.435478274325555;0.3831277602412728;57;1.2566370614359177
380;-1.6829102006610133;0.0631274717343153;1.6389352851037509;-0.5621397727047214;-2.5276813925070405;0.3474035228498688;133;1.2566370614359172
381;-0.7074045715591801;0.8254370858425266;-0.3928188784649319;0.3688818794957946;2.366115778145317;-2.2371705998184983;19;0.9055063213156632
382;1.861605812295224;0.5366316902130307;1.966448162629299;-2.166266355523693;-1.762831013415053;1.2338512373263335;353;1.2566370614359177
383;-1.7067941836680651;-0.0376877496569254;-0.1911011414670658;-2.194000702405054;-2.8682638448943094;1.9366364956421236;66;0.9224585774406686
384;2.522818026633564;-1.3383466001062776;0.7733811772499476;1.9226607338678607;1.0509848640471884;1.73705892885925;120;1.2566370614359177
385;-0.4150425188223646;-0.3134311114193924;0.0410011264065758;2.058396092558472;2.790436983184499;-2.68569362508948;298;1.2566370614359172
386;-2.6709615963776896;-0.4726213465302505;0.6340860781849926;2.765485736057124;-1.3116035326022448;-2.114061605049878;147;1.2566370614359172
387;-2.516316501272224;-0.0349749468417601;1.334616723108316;0.1662093064573008;-2.8006788625683585;2.615948915862477;181;1.256637061435917
388;0.8741667755816629;0.1808548256876442;2.296298165316888;-0.1080762435429605;2.372114647008754;-0.4338010618341202;14;1.2566370614359177
389;3.1557088723450395;0.818526144076029;-0.0225067804363172;2.6836915584996155;0.3596803537327954;-2.3274748449065505;224;1.2566370614359177
390;3.1809741591671603;-1.1358267375833302;-0.430450000416592;-0.4514536290117649;2.941958234745856;-0.8361650063798716;362;1.256637061435917
391;-2.069975732057817;-0.8543076957153466;-1.567890549208345;0.7747194939361052;0.4703685051460352;0.7229188653775388;75;1.002835444500605
392;-2.743251046913279;0.5071128368253568;-0.0805739692851541;-0.9037815268749464;0.8396349957445649;-1.528158903906078;123;1.2566370614359177
393;2.284644300229221;0.0426285669246641;-1.5216843370963815;-2.76349752133175;-0.6106611684367655;-2.687699539884433;336;1.2566370614359172
394;-0.6238676790221278;0.6274771955901967;0.7335967234319255;-1.0636841473700265;0.4376404479751742;0.0010392857942883;11;1.2566370614359172
395;2.889760799034531;0.9648266205733208;-2.269841540829111;2.7120684039507674;-1.1556504074406726;-2.0056728718449737;122;1.256637061435917
396;-2.54581959845476;1.2103129525621432;-1.6060192383663374;-1.5536458847075294;0.8676334034233895;2.6440463824305938;95;1.2566370614359172
397;1.39809122725032;-0.3157618329334044;0.5529079009276281;0.5815860019643315;-3.131233221721277;2.6861906669217843;335;1.1295877781624706
398;0.858944313768826;1.1706446415302705;-1.9557634676626108;2.3982764888031687;-0.9197252074354856;0.3007387866827651;321;1.2566370614359172
399;1.3454278502091723;-0.2911950846455817;-1.599463290247708;-0.9393672423316256;2.131857497517885;2.481495788380668;87;1.2566370614359172
400;-2.6495868524289974;-0.1846678591055802;-0.8647720647827019;-0.9026301574419032;-2.519384650281195;2.868182942298777;85;1.2566370614359177
401;1.4349059363745422;-0.9932435515138494;0.7837904355176097;-0.7536091974204362;-1.8700337737573256;3.314086759137756;335;1.2566370614359172
402;-0.807283705796873;-0.1954205001095743;-1.9401068265106571;-1.762396871934187;-0.164427993930948;-2.1098018090106447;281;1.2566370614359177
403;-1.2492491529385248;1.5556119217823874;0.5011651010110318;1.853759654152114;1.8339274977572468;1.1256457405074594;108;1.2566370614359172
404;-1.8974829286327477;0.6375854263487022;0.1061686853163456;-0.2378571009157633;-1.2026402032785726;-1.6397602291125086;247;0.7524088319564028
405;-2.627488565168533;0.4322121063562564;0.9710861612354124;1.199552925497537;0.0032357850104219;1.7672004103006846;216;1.2566370614359172
406;2.426686964139731;0.92843179727023;0.2019579092440364;-0.673421725401372;-2.485311715051256;0.6933049783722084;171;1.2566370614359172
407;-3.093384176108528;-0.3849804367958934;2.0498890636108675;-1.0940675550057313;-0.2159694931648864;0.6682713985995236;314;1.256637061435917
408;3.035452590234455;1.2959806884325429;0.7297484282906255;-0.7757885992392477;0.9800569665312772;-2.528895578326707;244;1.2566370614359172
409;-3.0800770423741826;1.1135569217523056;-1.5213960043593855;-1.572957572685723;-0.6499881813112347;-2.386352601229929;297;1.2566370614359172
410;-1.9717720380862032;-0.0429285951835959;1.8642823129109245;-1.183941799596088;2.8897205102152146;1.2232186438185353;274;1.2566370614359177
411;2.751479598487237;0.268653509595671;-0.2023978457169705;1.9937334186687048;1.201944965402597;2.8730445279547485;96;1.2566370614359172
412;-0.1599047192838338;0.8327619377117707;0.8555835247184211;-2.1770581151155257;-0.247042504351486;1.8314242002252656;28;1.1976913867498975
413;-2.8789122767693582;-0.3167769720359399;-0.88671045318416;2.617320447808932;0.3867030130146272;-1.9139528014164104;138;1.256637061435917
414;-1.9230006358276517;1.0051458294493054;1.977169888279234;0.5681409599896858;1.0706898485055618;-0.6398425912653909;354;1.1567840701698384
415;2.762880053192439;0.0012571919759626;1.737920289706365;1.8370498908719508;2.681418735403557;-1.03743366008844;185;1.2566370614359172
416;-0.3594089440226813;0.0879555473067705;-0.3327147999633386;-2.739282872133176;-2.2084649997778856;1.115352949280683;379;1.256637061435917
417;2.6863386838813548;0.3398703758729561;1.9844714940265664;-2.018440520373044;-2.9972008825614216;-0.6312074951396057;204;1.2566370614359177
418;-1.4853585811101762;1.0487442029241645;0.2150418385553932;0.5932345790952259;-0.4951675501445989;-1.4470054943166162;404;1.2566370614359172
419;2.0189286311260304;-0.951967740162318;-0.5908013246315791;-0.460257519691713;-2.237930010259235;-2.753778507698202;229;1.2566370614359172
420;-2.109856089963429;0.3368308367811679;-0.5879551827775877;1.1790151878916433;-1.9735445096830155;-2.22961122391654;273;1.256637061435917
421;0.4026455304943603;-1.029133384051561;0.0894064813372926;-0.5723486430915554;-0.5352470976241533;0.4240047694656026;5;1.1508560321338928
422;-3.101157587159162;-0.1752428327915995;1.941997944630682;2.146590249948357;1.5175010242001412;-0.5110818034210907;135;1.256637061435917
423;-1.0343364186646384;0.928681370959644;-1.3889509854769768;-1.8464381920894275;-2.7101615617337367;2.87396181547088;113;1.2566370614359172
424;2.6274285853242967;0.5204530227325143;0.4674780437679748;1.3796427619260074;-1.89557729026352;1.2141596741237648;190;1.2566370614359172
425;-2.160170649029562;1.3869734777627132;-1.2276033033932323;1.5719251084090826;-1.112223337517199;3.0944853825049328;68;1.2566370614359172
426;3.22662572495169;0.862781098169177;0.618614850945323;2.4468722675271457;-0.4163944274657722;-0.7308622584313673;228;1.256637061435917
427;-2.1833336695738828;-0.2557447033549433;2.6373342603597045;2.501837045890891;-1.0731264374981158;2.7226301489876685;345;1.2566370614359172
428;1.4672179140667128;-0.825475776344552;1.0532542485114749;1.862877800709292;2.795266094588129;-0.1708868915862962;351;1.2566370614359172
429;-0.426390742323919;-0.2302540561602066;2.090643523961585;0.1346197126172025;-1.2409579914145936;-0.0586403413733936;350;1.256637061435917
430;-2.0966235116609058;0.3744349617587532;-2.185339686990949;1.353565700939925;2.8550074664367475;-2.6405273006578374;114;1.2566370614359177
431;0.8735499197108575;0.3336958226657417;-1.7577496984493384;0.2080673140217588;-1.862963081106012;-1.6307012367770148;72;1.2566370614359172
432;-1.893339731550578;1.113500635332255;0.5138672925156894;-0.6546096007073146;-1.463245265043293;-0.7492584490280785;404;1.1947056839111658
433;-1.227067717694548;0.3557922595496188;0.1363917198726759;-0.3386263656525651;0.0881015141299313;2.1139913843754705;16;1.2566370614359172
434;0.3743285239806089;-1.001291155305961;-1.9551925017740373;1.166952694121182;1.0570663852268207;-1.1351498874529595;26;1.2566370614359172
435;-2.3121684653277854;-1.2643494976295937;0.8970576763254918;2.385261493158029;0.3565461280673261;2.953072947207783;157;1.2566370614359177
436;2.34102546802923;-0.3059281857245448;-0.2538534209675799;2.3413600086331807;0.816680167162134;3.1699960580827864;96;1.1994190360889845
437;0.7882101432510833;-1.5373425477448857;0.5838401718456108;1.874441957923837;3.1524950881817126;0.3421774242205249;428;1.2566370614359177
438;-1.6808657253129455;1.0224725005913586;1.37475498057435;0.7761356212672449;0.5661481389443155;-2.59146116065708;227;1.2566370614359172
439;1.2328458379903608;-1.1295168945864038;0.2076191142499302;-0.541122096091748;-1.366449888505338;0.84111374927089;421;1.2566370614359172
440;-1.040862657322979;1.5579786565422458;0.7729113053440476;-0.0428756505067587;-0.1584076050797663;1.255558959728121;11;1.2566370614359172
441;0.1496107986382905;0.9052273189157092;-1.6906380460410084;0.3581539876409249;0.2421579342534804;-0.3135404529088431;48;1.2566370614359172
442;0.6758241932279629;0.4398791476364946;0.3248770399406349;1.083988196441135;-3.008896976249811;3.0949712299242043;397;1.2566370614359177
443;0.9743001552392718;0.8351722524175272;-2.231853616351819;0.1385929004659151;-2.417178011114251;2.297574522405885;215;1.2566370614359172
444;0.8970777315142948;0.3287323382834995;-1.544847976067319;3.2238877771366097;-2.0730624718163133;-0.7161528914406938;321;1.2566370614359177
445;-2.9559481479332805;-0.0360652971784417;-1.1626867130813148;1.195144770135017;-2.548616229716964;-1.9787538374173528;420;1.2566370614359172
446;-1.004300156337736;-0.2926974180376423;-0.4000400102076905;-1.5867731864854724;-1.5190646830644412;2.672148644218716;66;1.2566370614359177
447;1.376565482034016;-0.1292799320367219;0.7271808927787711;1.4200235231536436;-1.4881523562199297;2.209817980985787;306;1.2566370614359172
448;0.6063147633446329;-0.7176006083489317;2.353312085432285;-3.040557723800717;-0.8217238720453506;-2.039227699731646;174;1.2566370614359172
449;-0.6056461683721441;0.5260050645781823;2.310771444042257;-1.6361061250433888;-0.7355015040202604;-0.8519274511681737;257;1.2566370614359172
450;-2.9592676827648363;-0.2430624242050401;-1.8229028187693928;1.3173229848718426;-1.6052574883862594;-0.9522405347612496;119;1.256637061435917
451;-0.9962547357304332;-0.7412730243022296;2.451145722952371;-2.0873572097396087;-0.585096218418085;3.0982497602552748;259;1.2566370614359172
452;-0.2838598518188646;-0.5230681814502319;0.5748979132935829;0.0063662693886575;1.3972487914596416;-0.4641235277273754;10;1.1065072046569944
453;-2.3630056738074385;0.5311247355342562;-0.8762618412863485;-2.4150160756944734;-1.6394172189902276;1.5728986062726422;58;1.2566370614359172
454;-3.217834722161862;0.0949435936683466;0.3533768703365727;-0.5326828157133339;1.4058016417992445;-0.7950482037944213;392;1.2566370614359172
455;-1.4421335819059555;0.7497891529519107;-0.1983902085902595;-0.3516877230620795;-2.924799616476246;1.4189442581496328;97;1.1623302754112674
456;-1.987970567947892;-0.4692548786157546;-0.9378317725349772;-1.5082151285861227;2.8728687708205074;1.315080839993834;378;1.2566370614359172
457;-2.404938312248885;-0.3529464082783098;1.125128665726967;-1.0558308357147368;-2.207895460054337;3.2962761145570827;358;1.256637061435917
458;2.319629689201056;-0.5949362318477399;-1.4687046970766948;-0.2843772570614516;-2.872618464281893;-2.3578410781535784;419;1.2566370614359177
459;-1.0951193688237235;0.3518754296813434;-1.6561511510504383;2.4582742829346227;1.868189318241669;0.5339426750254977;282;1.2566370614359177
460;2.147873416615023;-0.7186457766423447;-1.511133277363857;1.88212133995344;0.8543900032831504;-0.0750283584447195;18;1.256637061435917
461;2.689224659445025;-1.3009277419741916;1.695882533888089;-1.7006060459633734;0.3000424731885053;2.403808134108957;221;1.2566370614359177
462;-1.8712916749145452;1.470567979729562;-1.408535652964584;0.2939080757856751;-1.7300372719090826;0.8063705149797082;309;1.256637061435917
463;-2.7267628890319684;0.9830802623082924;-0.2365855855150306;-1.7865919527185556;1.04035337561578;-3.069708137596064;323;1.256637061435917
464;-2.005446116924154;-0.727601746441618;-1.19224167954565;1.889337222246514;-1.2912973345922922;0.2454324848663755;118;1.256637061435917
465;-2.0258745510183083;-0.1027416796067527;2.0669320308911816;0.4929739981243288;0.7186461632844645;1.3609091457869835;223;1.2566370614359172
466;-1.9630400016863196;-0.5666393310442797;1.6489178096126025;-0.3279523241823386;-2.6368339384972748;-0.6710266822858114;380;1.2566370614359172
467;-1.5372935380579618;0.4073468373639234;-2.247064737788376;1.8846584922717915;0.440905215466118;0.8237489129783131;67;1.0749297100724695
468;2.4208731844684594;1.3272849905445858;-0.2884683140837391;3.142364088008052;0.1512447847405183;-0.4622008907269606;228;1.0667607966590815
469;2.9230720477952365;-0.4675159803995498;-1.4531877206211017;0.03388721001417;2.107505286041232;1.2366221975698262;329;0.6875216343274667
470;-2.836144658355845;0.6234997598045426;-0.5336122586998729;-0.4122425467230153;0.6235978775501773;-0.4969289255964189;392;1.256637061435917
471;-3.040213753849708;0.2393437633413498;-1.010725686832955;-0.5363004150810604;2.843828270231799;2.6347254134712306;260;1.2566370614359177
472;1.9472386108731383;0.7780569084490093;-2.042986057257552;-2.798300255835596;-2.45035716118092;0.0022401689248738;193;1.2566370614359172
473;2.704196443307706;-0.6202967112010549;1.0434158738285435;-1.033040087013071;1.9632626283693175;2.0226742788455687;217;1.2566370614359172
474;-0.0233942089539134;-0.6923331240578204;1.8297539896509327;1.7914999213065776;0.7862390204152669;-2.817660166283612;356;1.256637061435917
475;1.209014123483863;-1.0669533927293062;-1.4090771348714826;2.482609803995679;1.291875456193193;0.0210107678973847;26;1.2358871929438195
476;1.6448422954371755;-0.6094458266699976;-1.7240813962054446;-1.6164143710589716;2.924169081875642;1.9462163979628384;399;1.2566370614359177
477;2.2980755375787;0.6840965454207969;1.8025450356732236;-2.103749333670161;-2.752360955945716;1.831298205141608;382;1.2566370614359172
478;0.0047326292949023;0.738121460607971;-2.301397632413458;-2.720416426667514;-1.845329728299552;0.7218865506099642;249;1.2566370614359172
479;2.837372705545045;-0.6082029497187729;-0.0926087297928376;0.7136932538978912;2.3477687714688456;-2.0711674422882704;196;1.2566370614359172
480;-2.2701430015285267;1.0171357308792344;-1.425631507895206;-2.752040216216641;-1.3225421438620222;1.9302386542096783;453;0.9425095163873838
481;-1.2462175718255744;1.0179283880818843;1.262514658365656;-2.4275189974906897;0.3965845477767336;-2.722185358089106;236;1.2566370614359172
482;0.2876687953238553;1.3017312592733352;0.5070303258628355;-2.697233161753089;0.6145342293470694;1.6749104659953795;412;1.2566370614359172
483;0.2162084374581553;0.7825632004542471;-0.3831708596358075;1.4856853062801836;0.275643735318921;-0.2489891076198634;964;0.9790870339043178
484;-2.604262511423617;0.681091770069451;-0.7116749398193778;0.3032884695765649;0.3532270789498881;-2.78500859120306;278;1.1772060332625651
485;-2.466786728622225;-0.5698162125871604;1.24710747004843;-0.2127655039115774;-0.1080252078856176;-2.3384586343115497;213;1.2566370614359172
486;0.0893165475211962;-0.4555686344187726;-1.8071581304723952;-0.8646691752595647;-1.186595294535302;0.3465281803808528;21;1.256637061435917
487;-0.6088400089673094;-1.0961996223695318;1.9617730973701597;-2.8033475865363027;0.903807256914079;-2.1069718222566256;1093;1.0968644699094745
488;-0.2858973014308489;1.443640208621376;-1.85255580208156;2.691946325739683;-1.108836557239285;0.053168791238494;398;1.2566370614359177
489;-1.5989382777177097;0.6461095705225325;1.2797151041733494;-0.5632177004649467;-1.1488508188236557;1.8570748786327835;22;0.7132847169140833
490;-2.937121097266304;-0.9615686345787374;1.5251722379142212;2.8216454095908814;-0.809204572240974;-2.582712013570521;386;1.2566370614359172
491;2.2745440847598104;0.4706645160360829;0.2161233510837139;3.064031722403028;1.3176150741847847;0.7482549977454903;266;1.256637061435917
492;-2.5427505600949263;-0.9045909384767632;0.7634350956693204;0.3560562279162031;-2.390570921206802;-2.694590323939422;308;1.2566370614359177
493;-1.9352013417954248;-1.310598393380898;2.05364094590659;0.1499021652876002;1.2007250968953205;-2.965019238124261;697;1.234611897841808
494;1.160505671363997;-1.510594544903027;0.1927753483246116;2.091612591730397;2.394466358568641;1.1577232248737612;437;1.2566370614359172
495;0.6409143853802266;1.309352387875944;-2.5047706644472982;0.9689534910278794;1.523811436787558;-1.3500106852694471;154;1.2566370614359177
496;0.4648319808630818;-1.1322383906029023;1.705486144601516;-0.0268601406108704;0.3193181655139868;-2.8822750750703494;318;1.2566370614359177
497;-2.1092025921330944;-0.4543448747296461;1.5493246065394315;0.334111640681394;3.3485269989372224;-0.236042346973206;310;1.256637061435917
498;-0.0834142358290116;-0.115563606922267;0.3693993764271411;-1.0444485129853285;2.1957923723612653;1.0967124333005476;1131;0.9420049756118468
499;0.7912113328226507;-0.7024650432536368;-0.2062238317832744;2.746574808567912;-1.6279141675525028;0.7891561032188087;373;1.2566370614359172
500;0.2100597010849875;0.0973603358009804;1.7260140091839222;-2.3423881540279607;0.4825647017604207;2.5751228489812363;63;1.2566370614359172
501;1.9010052802147992;-0.1922399562698148;-1.4017942407981774;-0.7734022419280957;2.6860052273666035;-1.7905764821125398;226;0.8814198557390298
502;-2.3755735605750847;-1.2270588736405983;2.1355091235879806;-2.16661436846567;0.5532790578671448;1.5342949842368283;322;1.256637061435917
503;0.704181263991253;0.8357956794263689;1.238673403227948;0.0355031249124235;1.2612053742102258;-3.1334098419041143;318;1.256637061435917
504;-0.8394452921842959;0.484952884457579;-1.2216860130543248;0.2442494278992004;-1.946239317340012;0.4064336694067383;330;1.0122987639728511
505;-2.5191508546053845;0.3237425218866445;-2.123772036418029;2.1833199107509955;2.624030000325188;-1.8328117498413337;430;1.2566370614359172
506;-1.871908483438729;0.7218740465882624;1.1993650536112757;0.4967196502915714;-1.7597734608077067;2.985346207912176;181;0.9798381503975042
507;-2.384802360461996;-0.5948516752448105;0.1990266976594416;-1.9716524572801524;-2.258533134428091;0.4162021868023;58;1.124868339266196
508;-2.471441723059058;1.2484059462492736;-0.5797301139903812;0.8278902297250434;-2.590794247714249;-1.8933528012596963;420;1.2566370614359172
509;-0.5589603102766664;1.304945719309674;0.5058847413034457;2.478702360677943;1.2587576210064382;-2.5444038144687986;205;1.2566370614359172
510;0.4006360808868145;0.4067919507018616;1.5673525678594469;0.2621301128503095;1.8421132283074932;-2.572195319350405;318;1.1533838453654688
511;0.2477938029263663;0.8398900883279469;-1.9827544076802788;-2.4690952922505787;-2.344045757739188;-0.3251509946414818;478;1.2566370614359172
512;1.9773735158060572;1.5082661258278631;-1.8343729933204465;1.1848863096381048;-0.8933450262691349;0.294656386493721;233;1.2566370614359172
513;1.3318431260056576;-1.1168081555205818;-0.7754719477016199;-0.778478397055917;2.317775598290505;2.878865544807867;399;1.2566370614359172
514;0.8595528120313116;0.7767806336742674;-2.644347687432086;1.3794484972298742;-1.2640080720078846;-2.3477193249378816;316;1.2566370614359172
515;-0.7584047800912256;0.8138310335803638;-1.085230718557413;1.009278719763009;1.4785656290758895;-2.222017327837009;20;1.2566370614359172
516;-2.255030702199428;-0.4487327876386102;-0.8742304693799956;0.7058372457519084;-2.9476336672357206;-2.3351516333932856;445;1.1271392486225895
517;-2.3213809396208087;0.4335799660047676;2.6919009947775283;-2.9938838393829825;-0.0380493007790578;-3.1148894098997366;248;1.2566370614359172
518;-3.229372321196144;0.8519215308843422;1.0086266252347724;-2.5782130522781457;1.1405707403692094;-3.215981736428039;323;1.084762163261519
519;-2.5270167013625517;0.712302919564826;1.0947360116913876;-0.0171070222509;-0.0417978756176039;-1.4673710088215002;123;1.2566370614359177
520;-2.202584456534164;-1.0510662808345823;2.4307339314682057;3.07936297662848;-0.8157189812767478;-2.2018182801045025;490;1.2566370614359172
521;1.6105758818124027;-1.3053220380291553;1.912149775340819;-0.7805425902345731;2.025209311263364;1.9415164283096;168;1.2566370614359172
522;0.3708007093920561;1.4247311180855815;-1.5707657128356711;1.4998111187241754;1.0280640226753837;2.0058237264297225;176;1.2566370614359172
523;0.7787187391432442;-1.4416133718739466;-0.1964167548994387;-1.7943268392634275;1.0752393534388598;-1.8839547348803476;80;1.2566370614359177
524;1.0494261842643369;1.5214150491823002;1.5056331740500903;-2.365420865658636;-2.4437904939033386;-0.6540404524362409;361;1.2566370614359172
525;-0.0742236005498787;-0.5003646847906631;1.3164529100125508;-3.1902674118574783;0.542058996023367;-2.389314100261993;174;1.2089066143956733
526;-2.5820738080780754;1.0646357577881862;-2.426461951579758;-0.8596329754913739;-2.5487055109877805;2.1094013070748714;167;1.256637061435917
527;1.496567752176799;1.0003154475645908;-1.320511700963942;-0.2786975343609228;-0.0175566259791885;-0.5170067057207814;48;1.2566370614359177
528;0.0921069562683069;-0.6325420346701207;-1.6710723686861488;-2.552567406672404;-0.0675443293335448;2.5405009471127307;106;1.2566370614359172
529;0.3646661960932778;-1.59136661403523;2.3870890370101896;-3.1418355130360425;-0.5842195595033122;-1.248071277912953;448;1.2310954138729182
530;-1.5413583149366938;1.5176019568127683;-1.1608379983181152;0.8475752036528328;-2.7041677779460107;-1.3541982434352502;508;1.2566370614359172
531;2.387596089328966;-0.2269070407277457;0.383671066903561;-3.174306926259492;1.1441716564836455;0.450302032148275;261;1.2566370614359172
532;2.593532380260237;-0.8542150426088666;-0.919992972243749;-1.887566571050769;3.294198495259022;-2.5743755030416438;348;1.256637061435917
533;2.4165046560221017;-0.3527559440438319;0.6455066137820378;-2.127651431620304;-0.2479599200796057;-1.4457406751565165;116;1.1264596891623058
534;-0.9000795861353198;1.5537218081013449;0.6239116042428594;1.8693613895518792;-1.2130261717495328;-0.9819335208665312;342;1.2566370614359172
535;0.8592157226695599;-0.4024635735081189;2.5633964676873195;0.254723363458501;3.122424663522505;-2.810848020783494;170;1.256637061435917
536;-2.558782676034832;-1.0553757010038916;-0.5863147280584;2.779943241545564;-1.3178004965593009;0.1784203852732727;464;1.2566370614359172
537;0.8350945593056764;0.9036406749396364;1.7612678007527856;0.9878550599756633;2.912654619004069;-1.9649584549518728;170;1.2566370614359177
538;0.1601238951732445;-1.1845249596721552;0.7767938124154141;0.9656588900881404;2.17994569632359;2.838742585405329;125;1.1944461951879692
539;0.1629342089501977;-0.6293981628645694;-1.8813700583333648;-0.8853463283392964;-1.0076395409981522;-1.5833868965991047;281;1.256637061435917
540;0.6930986473461433;-0.2960812641408151;-0.9169573578649208;-2.087304145753171;0.0508655575288632;0.6355305784454566;65;1.2566370614359172
541;-0.7839252639743697;-0.8617394310816247;0.7693412174216303;0.4934430893376318;-1.3930490999307488;1.93497906416712;340;1.2566370614359177
542;-0.4645175869124605;-1.5535855791356092;1.0398419113575457;0.8400781550284131;-0.6953025202011054;2.499148864599936;541;1.2566370614359172
543;-1.2043630469427526;-1.1929379219692509;2.3584601983253406;1.1446957509097422;-0.3275013339882791;-0.5976986002072776;153;1.2566370614359172
544;-1.952742661510152;1.2749971788597665;0.0419621163912626;-0.033360149372559;-0.199657440025306;1.9633750907799403;433;1.256637061435917
545;1.6919667586597875;-0.9125726074902556;0.2794579502462902;-3.2509711289621706;-0.4788090002873085;2.710574737127748;305;1.2566370614359172
546;2.134953437741771;-0.5157614737652636;1.3574643655511236;-2.2053834821100406;-1.7884743305763369;2.0360489663486807;353;1.256637061435917
547;-1.5849963383917278;0.9548839788421706;1.9158229553460184;-1.184533797991851;-1.9863275215778493;0.2161983645470039;380;1.2566370614359172
548;-2.2154826192294674;-0.0760258410536247;-0.6893906181786654;1.068223983120607;-1.7223462984277047;1.6448563015153486;235;1.2566370614359172
549;-1.7507647270356166;0.3009622753348655;-1.422708644320981;2.218902018628272;2.855561233454038;-2.992247093972415;430;1.2566370614359172
550;3.267227820307766;-0.9074427065844752;-0.5273883399522339;0.6943932092109508;1.8848408698944;3.314540778554949;319;1.1293015439513463
551;2.9760054924064;0.6407617120891983;1.4063385826136496;-1.2283990455151264;-2.0324338738038703;0.7889455724576421;171;1.256637061435917
552;0.2349314159850601;0.4501228802736314;0.7810897538339862;1.0563404930199187;1.4202539193508603;0.3859454904645484;3;1.256637061435917
553;0.812830616520471;0.3700273239881363;0.4674382340459704;-0.2484629837867934;1.97019533828128;-1.168509256115918;9;0.6857430514712016
554;2.611440647755247;1.4940541742462428;0.0222887073591003;-0.7313820077369835;-0.6996072630862418;-1.2818151777636166;131;1.2566370614359177
555;-0.907612290511982;1.089848250102239;0.2667254280964872;0.1207912473966503;2.5717343035830256;-1.0920741326426682;91;1.2566370614359177
556;1.233958966436842;-1.2871665101324885;1.2345384005825677;1.8115619544471195;1.8866678093175795;1.4775094781457687;494;1.2566370614359177
557;0.9727048757196034;0.502731185928897;-0.1306729509709504;0.3590805154274518;2.656006650536657;0.6874420845923597;36;1.065137864904984
558;0.9550012765799358;-1.3731636965944236;0.875109684496774;-2.988901043774808;-1.0081437799906583;2.363879764614973;922;1.2235374336762177
559;-1.1812435368049117;-0.696215972101496;1.6450065933488278;0.4168212554312307;-3.2024400596764044;-0.3943904248154936;466;1.2566370614359172
560;-1.4463628962932695;-1.3838392576484055;1.5553366615990545;1.5074769837860391;-0.4343811605769105;-3.150076782071472;315;1.2566370614359172
561;-2.581389605081278;1.2574426638594665;-1.7900830469715971;1.869914413368696;2.1086442921608928;-1.3550321862911647;505;1.2566370614359172
562;-2.9018701374871814;-0.8748429343570246;-1.0756779592564094;-1.0147937160567737;0.5213070518854205;2.042046747797246;263;1.2566370614359172
563;-1.7581943506646618;-1.1790769164941972;2.66739137889303;-3.09876809508803;0.5470233313698564;1.7436485355674285;502;1.2566370614359172
564;-3.203021877638565;0.2671286843483046;2.071849910902708;3.037476381628146;1.656363793839191;1.9643243094906548;134;1.256637061435917
565;-1.6462372885395464;-0.3509722330175276;-1.5207351532253952;2.767415376613221;-1.8165620309431665;-1.675877966772214;119;1.256637061435917
566;2.1835289375136773;1.3056338040208375;0.5377795252247857;-0.0216665270104716;-3.003661913242733;-0.0626590419424527;406;1.2566370614359172
567;2.9605652410087893;0.0610451647984476;-1.190736214873478;-2.12788705489287;-2.4870669527219698;-0.5467924358571687;193;1.2566370614359172
568;-0.8437815965891058;1.0689407957328043;1.0780006209518982;-0.4766575450357768;-0.5695715963065725;-3.3848502805663325;237;1.2566370614359177
569;2.320278146323828;1.182127495748816;-1.778798925933872;-0.0429254685672361;3.209899152849497;1.7372286663035452;269;1.2566370614359177
570;0.1066603803660366;-0.2191480203173296;0.0482757862634346;0.1861194165929203;0.9233747152082686;0.6331022971832063;0;1.161814384359945
571;-0.792600726557147;1.6731185028560065;-0.4605993825392658;2.94176777481195;1.0398361413362138;-2.9832089054171784;903;0.845768329410567
572;-1.5639802594767211;1.362241946499392;-1.3878132515552075;-1.2338252054307255;-0.8368693013917119;-3.033098560996229;297;1.2566370614359172
573;-0.7211594919038805;-0.287363497294705;2.702839103898853;-0.0088632019107653;-0.4795342760611536;0.0495773844396221;429;1.0377851556726847
574;1.821281503519028;-0.8701001328570587;1.7812970043337844;1.3702218077513726;-3.114815036955587;2.4260758611841453;258;1.256637061435917
575;2.120831463864418;0.2215506956463795;-2.079833252027613;-1.3294706277764987;2.5378754229855507;1.3949479425041982;476;1.2566370614359177
576;1.1345498861329206;-0.5638398849927823;-2.1346729176416126;2.4443857605511026;-0.8454615512682284;-2.135129954580081;316;1.256637061435917
577;-0.5822688691085509;-0.69268269569503;1.76988195322835;-0.6428252489774956;-3.0491081430531124;-2.1542016255233825;325;1.2566370614359172
578;-1.884878483499804;0.0460275713453577;1.6833912278054184;0.2610042215914234;0.3159979031088464;1.6646196536915614;752;1.0852408899276516
579;3.224868063046708;1.5722734271633272;-0.6309573275314707;2.464722415751884;1.7154023242555214;-2.9989807465324527;357;1.2566370614359172
580;0.0973556367244796;0.9929229496609534;0.6182027853530286;-0.310867252435197;-0.2927905819550274;2.177841152048223;141;1.256637061435917
581;0.7732481507808053;-0.8832373036679025;-1.4626568199414347;1.535339875061693;-0.6554991436617585;-2.3154831507049947;576;1.2566370614359172
582;-1.3725755202678438;1.2114265836799758;-2.45380458562695;0.2437447099237303;3.0892503627304;-1.8067893350775008;200;1.2225262602886968
583;-2.32795845548824;-0.0914346433790061;2.8250569679979387;-2.081115714369313;-0.0050721268649268;1.856781298977764;314;1.2566370614359172
584;2.402956581281189;-0.0550116619252603;0.4870519157457967;-1.2275150229870588;-0.4941700495576962;-0.6748135560484395;533;1.2566370614359172
585;-2.3390091698773707;1.0582649207854702;0.5459645193254133;1.4652530806635888;1.45230463063867;-1.709508291754076;165;1.2566370614359177
586;2.094403921292588;-0.6703881568768967;0.0025562800506629;1.8166112466001736;2.632700763904996;-0.3417316898837296;428;1.2566370614359177
587;-1.6592813654919418;-0.1082435535157036;2.709842553341846;-1.9907130592225004;-0.9086791542318426;-1.6541572235850308;728;1.186964183422155
588;-0.6915604840233375;-0.689897148388196;0.4158402758799769;-0.3075257080499838;0.4943371865079857;-1.1319619232906053;452;1.2566370614359172
589;-1.0371834751889946;0.5852030923157492;-0.8253427873451722;1.065336724137341;-2.757000458287574;0.2030122283025393;504;1.2566370614359177
590;-0.5386798082118436;-1.5222502995364913;0.1603070486348545;-0.2003694497496691;-1.82207952896838;1.7196857849632723;541;1.2566370614359177
591;-0.8701801904761366;0.7180165420423038;-1.9101721193279448;3.325188363598384;1.8561678766373928;-1.8534665371497885;320;1.2566370614359172
592;-0.6138899486015751;-0.5679059881336523;-0.6639595592496276;-2.1679887412025494;-2.2843584752466373;-1.366585577090006;57;1.256637061435917
593;-0.8786303438042032;-1.368028131586846;0.9329381967037312;2.156556969946306;1.701430420929685;0.2450486285112324;84;0.942281841708095
594;0.620780290439946;-0.0744816500455147;1.3254444800230791;-3.308831085897779;-0.951881855878765;-1.898153441432039;448;1.2566370614359172
595;0.0129705298949609;1.106792847769582;-2.097010017059836;-1.6675508253792095;-0.3331716437075287;-2.227774598270232;281;1.2566370614359172
596;-0.4494252801590452;0.8174890600547057;1.4539706435962485;-1.2413043166347617;2.5065260966924185;-0.1115111138148581;274;1.2566370614359172
597;-1.0963493829996414;-0.1215690895048396;-1.9831545209806547;2.3581871886093064;2.5922879286347644;0.0991995201057448;459;1.0268496795545623
598;-1.292116988031087;-0.1069394240935896;1.0709884064090671;-1.674219034415156;1.2100477377783363;2.5137285573683923;28;1.2566370614359177
599;-1.8805150888356508;1.3461145109773824;-2.0870622084387964;1.486255550865731;2.6418113136077004;-0.6064394383305957;561;1.2566370614359177
600;-3.101825772112187;1.0485403210604076;-0.4935773005788594;-1.4781276742604166;0.993344815568087;-0.2657059377600109;470;1.2566370614359172
601;-1.662100166145469;1.4448046926294411;-0.5735083304355929;2.426834599005392;0.6080739497184044;3.2982234923840763;64;1.256637061435917
602;0.0193900379240144;0.0896198830654432;0.2897796442901007;0.7372326623053195;-3.362669865101384;-1.7867399604001142;251;1.2566370614359172
603;-2.423619426761404;-0.1401516302560385;1.477097781123354;-2.7439432332843525;-0.7003508620597064;0.8125174642601315;314;1.2566370614359177
604;0.1178404778334675;-0.0825713467223408;1.559833608502939;-1.836716352341158;0.6582206482484105;2.3140586150198192;63;0.8350252741200334
605;-0.8002749381167891;0.5933429863082531;-0.6430364036623096;3.0791641043356037;-1.4058827024500198;3.0811704835855784;175;1.2566370614359172
606;1.192900078036499;-1.158681637631632;1.1169421167906757;-2.0419504938926627;-1.7139862484662187;-0.2307079692833324;17;0.9300678874454096
607;2.7237380181706343;0.4774563799179909;0.6428472891443511;2.875789307051813;1.2676644434119266;3.067948330414138;411;1.2566370614359177
608;-0.4473919696347592;-1.2005222432175986;-1.734050772228331;-0.0123225138347871;-0.7634340233523531;-1.391173324888014;539;1.2566370614359177
609;2.326300192878926;0.0683475088733813;0.595089149115439;-1.7006252698134592;1.325312716196028;-1.5506438451660611;150;1.1161431759921852
610;0.5532933041844911;0.4669000243606732;0.2873828619849466;0.8536168849964056;1.3951302317460716;-0.0958379768566698;3;0.8665304556868413
611;0.6386244328672905;-0.1340990011157679;1.3933260435124817;-2.881678246862238;0.5197535339660073;2.648496135104068;604;1.2347318550057311
612;-3.1807799386830444;0.8227015461414836;-0.9959171442641076;2.816603488779937;-0.6559627742630249;0.3444297844420393;102;1.256637061435917
613;-0.6452604065566366;0.0116050530124548;-0.7512979968892504;-0.8270742969117386;1.2325699747983054;0.0281957136258977;355;1.2566370614359172
614;0.3213241906970087;0.4321798703891801;1.43656740784777;-0.0006106416519685;0.2361927679823967;0.7417574973696478;11;1.2566370614359172
615;2.811058662060259;0.4984521927181722;-1.0525329696822927;-1.2127215302969503;-1.4582687917822577;1.0612072878232868;294;0.8771073325726888
616;2.787092059415197;-0.4389348134935978;1.4793789698454578;0.6861549917919789;-2.3900646354020623;-0.5349115840233462;371;1.2566370614359177
617;-0.4111236681900663;-0.8272980218692247;-2.176756451297641;0.1494169952098239;-0.0279651690205747;-2.2130386254848977;608;1.2566370614359172
618;0.2747112624338031;-1.4232369591680991;0.6398517738902099;-2.11359309470091;0.1057845697800081;-2.789778942701363;166;1.2566370614359177
619;0.2069511165294492;-0.980885960327612;-0.98189781742549;2.264853921965498;-0.3574405655623672;2.7385261756186656;112;1.2566370614359172
620;3.0860201296978054;0.1913284793305582;0.6187128297179156;0.6632362888372009;1.5621704386690904;1.3134896158482758;299;1.2566370614359172
621;-2.601173617144989;0.369909222714449;1.4450322994519524;1.2933718521809427;-2.631214520294157;1.431608965237993;181;1.2566370614359177
622;-2.8811633608496545;-0.2420088894415539;-0.2594589693709797;0.1430555085925022;-0.9965892835566404;-1.859640586655492;247;1.2566370614359172
623;-0.8195738879811856;-0.4123315791285611;1.2693426160527774;1.696824033120344;2.502390890085173;-2.359732146305096;356;1.2047369520959237
624;0.2878557109103695;0.3749520077267504;1.3098146652036948;1.2953038133287798;-3.396338488728749;-1.5172960227679264;602;1.2566370614359177
625;-1.2393838993149042;-0.1928532226828347;0.9037772970848832;2.5289572861559524;0.9259319540955264;-0.9877996025854484;245;1.2566370614359172
626;-1.4443773010507632;0.1209580636241949;2.3398337891255334;3.016505103632623;-1.802895214501264;2.6503597746230017;427;1.2566370614359177
627;-1.4936852675358754;-0.1330672514381015;-2.3938702324780508;-2.5194906454406896;0.3493493431980837;-1.8627343891191868;402;1.2566370614359177
628;-0.7504810702905422;0.9741963815196883;-0.8757476060831291;1.5384923420098175;1.546935493552484;-0.443067288956479;69;1.256637061435917
629;-0.8969621117238158;-0.5351428033991859;1.360012853709926;1.96256087755148;3.139348755723648;-2.177898659739152;623;0.7339532927246557
630;2.024542671665758;0.0662227066640782;0.3599054622016979;-0.5605666209229919;2.1779172423372786;2.834152225442075;222;1.2566370614359172
631;-3.186971257616056;-0.1812571400903986;0.4317400736653284;-1.8246300049790396;-2.8898607117210124;1.2951069569972526;58;1.2566370614359172
632;-0.3269675368254636;0.8333707054205417;-2.7470842170471963;1.452778469946736;-0.6404534759154837;-2.982275205711329;169;1.256637061435917
633;1.944863598655835;-0.3354778799114049;-1.562649625496188;1.95250909748556;0.9980049989982774;-3.030860405190293;212;1.2566370614359177
634;1.7976228055851704;0.077845232779543;-1.9042657648625467;-2.845266429502997;-1.678284683957983;-1.8126281312245012;136;1.256637061435917
635;0.9792784861627372;0.2556001711615749;0.7068542512062779;-1.3116160059589363;-1.5249945294216782;-1.078648705625973;12;1.180433009548029
636;-1.4969540222711737;0.9146199025019568;0.4696598290011839;-1.7609383192156982;-1.558591462594273;0.3674996464283211;290;1.0740746607438358
637;-2.6492856160659173;0.3675447175979003;-0.1705797839008573;-1.7145944733539595;0.6034608297141313;2.9283283899039003;121;1.2566370614359172
638;2.9684880804876945;1.148898468191594;1.8340505630369088;-2.237676651951832;-1.0547281242168978;-1.5086785392276636;328;1.256637061435917
639;-2.419030368214098;0.8082869189383599;2.0360333930445487;-2.602983216956669;-1.6267450511788275;-3.251400371578583;248;1.256637061435917
640;-0.3313719794860676;-0.3315250390918714;-0.4987821172085825;2.585301514435315;0.8982855924243447;1.9029582107537395;71;1.0263697497601325
641;3.0896319937283776;0.71927425961989;-0.6198255807526294;2.166141349153637;-1.1571981759331131;2.3060198980533926;367;1.256637061435917
642;1.1886374024416122;-0.929131192124808;2.182730297306678;-2.855757190871005;-0.1187936502079738;-2.837933891089451;448;1.2566370614359172
643;2.2765386354837127;-0.3171322433589985;-0.8693536382903004;-2.841191832764503;-1.4395488117004758;3.076109451552781;305;1.256637061435917
644;-2.5019630090031684;1.141457781622602;-0.5462004639950198;0.8273036014811824;2.556445523768046;0.7605821364350458;360;1.211435242564067
645;2.425136286701923;0.098050305009969;2.5066129057998903;1.683890069302024;-0.376809094448048;-1.4705030909636865;155;1.2566370614359172
646;1.6890537702500252;-1.534337084684562;1.5026896135456735;-1.076996345137075;0.2721388452622841;0.9729024465628028;240;1.256637061435917
647;-2.1775282110028717;-1.0380387090767789;1.2874588538384;-3.00036895505679;-0.7372304710074526;1.593092529390387;603;1.2566370614359172
648;-0.7743522656722451;-0.995835096333226;2.2536854172614182;-1.4047021225628835;1.1109435184522545;1.236291163404002;183;1.2566370614359172
649;-2.5738873999007;0.8917915799212759;1.1247203260966372;-2.448585430292718;0.0003506509966072;-0.7725403654817847;339;1.2566370614359172
650;-0.4936194758122624;-0.8721501020513867;-1.7755686210918658;-2.072248390509566;-0.7351933981967896;-1.0076854322425342;24;1.256637061435917
651;2.9355827186575274;1.1256989560284103;-1.5182552358962516;0.221421734363816;-0.962800074920231;-1.0380000354807686;233;1.2566370614359177
652;0.0785585937296362;-0.252974426316092;-1.9459200949628637;-3.0066904730773274;-2.135982490057715;1.130857277564334;478;1.203235023927385
653;0.5027107469888583;-0.4700819780521389;0.5614669133606559;1.1510946652859335;-3.0315267281096654;-2.609856061665304;602;1.2566370614359172
654;0.7068532538083718;-0.5603102626874858;1.2154348087356113;-2.4208646972547623;1.128539219282681;-2.250325132524212;525;1.2566370614359172
655;0.8868900394791635;1.0154971686530296;-0.5916007992981476;-1.094634301838704;-3.1582485178207125;-0.6972091618929835;334;1.256637061435917
656;-2.468041774526012;0.8918391277560053;0.9755816107879808;2.042303484090134;-0.4246843728981812;2.437343717144793;405;1.2566370614359172
657;-3.13990162056445;0.5011212581159201;0.0023976806350014;1.0980580330251997;1.978078264151369;0.9915877537438162;644;1.256637061435917
658;0.7144896102064704;-1.3241785748893462;1.1263539743459603;1.5047325742121052;-1.808751411350853;2.6371546849795573;306;1.2566370614359172
659;-1.0117414343054432;-1.6205930178049437;2.1027222633214584;2.5293288381762595;0.5179464440282415;2.228231093759888;157;1.256637061435917
660;1.1775173350995285;-0.6483023567598758;-0.4195556858225497;0.3193164068843464;2.298057239095878;2.9388983712076544;513;1.256637061435917
661;0.2429845078213457;-1.144279697469284;-0.2799059259480347;0.2792052264203156;2.4599928675443974;2.296669855471769;660;1.2566370614359172
662;-2.63276047729028;-0.0068164205935946;2.198177280846584;-3.0254906248898203;-0.0673527348826418;0.09299870886064;603;1.2566370614359172
663;0.2533071549422612;0.036326631793684;1.4422179536572473;0.2588846397128674;3.2898431594075195;-2.600031127617557;170;1.2566370614359172
664;2.651853720620301;-0.1401985012508028;-0.2353948666083145;2.005773268049922;-3.1402761328924105;0.4342423597914367;234;1.256637061435917
665;-2.4235368498980834;-1.110223971763599;0.2612649856996486;-2.439694448506065;0.5099343388486807;1.2324997497154393;322;1.2566370614359172
666;1.5640949212111557;0.1270135747915407;-0.4289668802611806;-1.5654082691350693;-2.95633048324254;-0.4915921801564718;655;1.2566370614359172
667;-2.248686694169556;-1.68481362528417;1.4125391323759189;0.8509915089286774;1.734651237016111;-3.356441864002052;493;1.2566370614359172
668;-3.1112543524046363;1.0198118754187966;-1.073326752224418;0.5122637555411036;2.1476852839235376;0.5040770326107264;360;0.9141227572094676
669;2.069260326177415;-1.5685609059271055;-0.0877943373542612;-1.0160351050797276;-1.8134568826268929;3.195710933479988;401;1.2566370614359172
670;-0.987482340283061;-0.3045659457946073;-0.124146677405459;-0.4867991733606563;-2.861569675700894;2.36260819070378;85;1.2566370614359172
671;0.6811725204657033;-0.277444842106554;2.014009943841382;2.0325810000788014;-0.9081242501960414;2.8716329596490424;291;1.2566370614359177
672;0.5972227606290073;1.5980627550373836;-1.181859966029433;1.7297664750515558;1.644485122215566;-0.9852209719179084;117;1.2566370614359172
673;-2.835764558666338;1.0233562451953024;0.2899764114655766;0.0752541178635035;-1.779110198293447;-0.7335324203997806;432;1.2566370614359172
674;-2.7430078113446643;0.137776196541999;1.172418160594002;0.7662876320838212;-2.32012599975031;-3.0292320039636524;492;1.2566370614359172
675;-2.803284109821594;-1.5087784208039698;0.4928639288546892;-2.4335256652416017;-2.751757767659295;0.5768568346769646;507;1.2566370614359177
676;3.127468583277891;-1.0179245956864358;0.29761442084436;0.9733312125888492;0.144254643540633;2.126061422125609;120;1.2164972517787194
677;-1.6728188878976942;0.4386942966723299;1.7496476844876407;0.7336999806548288;-2.4035751491794723;-2.983833430207713;674;1.2566370614359172
678;-0.0621940017173737;1.0866534989348515;-0.3812504104141367;2.3130340017621887;-0.8289381436679018;1.5337272072509935;209;1.2566370614359172
679;-2.887267678419245;-1.2985678010960096;-0.6802200552389124;1.161284071421801;1.074029235683481;-0.0152867769160109;271;1.2566370614359172
680;2.9966238836784083;-1.2650633032924046;0.4860113709452293;-0.5232898466532724;0.6463358167711769;2.1974209929959576;191;1.2271300955285542
681;0.2941272219331269;1.1902066576267598;0.8414994682096804;-2.782906896914258;1.7464087819460294;1.4835659395544754;482;1.2039276451454153
682;-0.3174046879341466;-1.47417824443109;2.033093697507747;-1.585859883697753;-2.542356873524687;0.4356316992163718;302;1.2566370614359172
683;2.449505193439708;1.3760229791675402;-1.1366895252842386;1.3238164174085971;-0.7549784547624755;1.836982071611044;367;1.2566370614359177
684;-2.10205158714044;1.0681131292109065;-1.3571752104560375;0.7462288778642494;-3.006631293113084;-1.1518702646826715;508;1.2258714562182154
685;-2.493060621472726;0.2270723019650569;1.0203816743100602;0.5410528295319585;-2.5351516529605087;0.0215214118803442;133;1.2566370614359172
686;1.4807168710992602;0.6643967217046933;2.0119488758787822;1.4282280896129649;-2.084830512929171;-0.3705921401129149;374;1.256637061435917
687;2.6255957386351563;-0.4370046714461193;2.113213604549606;-0.4562179631129198;2.932790559346474;-0.6622100587739546;250;1.256637061435917
688;2.5013688960590006;-0.2009421518482329;1.172607517613193;-2.719553192405664;1.1007087683526005;-0.4066737976226368;531;1.2566370614359177
689;-2.588660819406675;-1.261727529038688;1.491450137709494;0.3569614692032979;-1.2204709278787795;0.1994169966321479;368;1.2566370614359177
690;-0.446225345280973;-0.2446711103872499;-0.5754422702841697;2.112607878690958;1.645138226191741;2.9329564250286424;71;1.1901931849462395
691;0.52172977694833;1.514664917208899;-1.2137723343973457;2.415130782737183;0.7236598211253413;-2.993610110979572;366;1.2566370614359172
692;2.616304974666441;1.2181679415064353;0.9600726120254808;1.949759861843288;-0.3210492019318521;-1.2319325125545348;426;1.0595600430045498
693;-0.2949388553158925;-0.4680150731541564;-0.9217088036698826;-1.3268343602573982;3.1671352297398414;-2.610720797702155;60;1.2301394954870324
694;2.2400744084908024;-0.6426202635515398;0.904097449363252;2.0090410755306527;-1.1007979519768265;2.413989875857621;447;1.256637061435917
695;3.056283955056927;-0.1762246274873591;-0.2472701653624203;2.8074646956817526;1.5123350001437164;2.146545827605106;411;1.256637061435917
696;0.3995437556811589;-0.7546212771603933;-1.763048738699558;-2.941848322166692;-0.7127129011381573;-0.904162680824908;650;1.256637061435917
697;-0.9191839703884144;-1.672015590432067;2.2919046458774397;0.0617281870988053;1.175680519295507;-2.420793754572796;37;1.0478956952842404
698;3.110878578956361;0.3402041060760072;2.1390033606866354;-0.9071254634430794;0.9224806669542306;3.10841093579144;221;1.256637061435917
699;1.9155384329603744;0.9899211574673684;-0.4174010671974665;-1.953209507727565;-2.467221480864976;1.3047747503680882;352;1.2566370614359172
700;2.6622024902389283;-1.4365598966771724;1.7680912996245124;-1.3236052165321726;2.1902879619857574;-2.511202996166814;264;1.2566370614359172
701;3.260461657865856;1.0165536531644987;-0.5020073542867828;-2.680908723926738;0.739709328093203;-1.9357031325836629;218;1.2566370614359177
702;2.3456678319377384;0.5674913475957541;-0.7958834535015877;-0.2460998821558634;-1.5407503130219924;-2.9070668163106377;208;1.2566370614359172
703;3.164583817575251;-0.2349317357142951;1.4615217237575024;2.956980732881843;0.8503987409433336;3.230319245461761;607;1.256637061435917
704;1.5071937029840403;-0.1836441442161528;-1.6746897239039171;2.887185390276331;0.7381629974297061;-2.227806673877009;92;1.0920559060294637
705;1.7889367016748414;-0.0412069638245642;1.239916250756101;-0.2880167722075814;0.6312182842608359;-1.3702501545121233;214;1.2566370614359172
706;2.6784691689394604;-0.2264817351804745;-1.5503004077073033;-0.4926969928439679;2.7861139202865104;-2.7193621611628256;501;1.2566370614359172
707;2.610142341623231;1.0028088157082178;0.0160630072705909;-0.0072733770061019;0.736448773984981;-2.920035797669585;408;1.2566370614359177
708;-2.533404638855337;-1.2487682343228572;0.1352310305646956;-0.5615706710214846;0.4744752867429381;-0.3490022595954261;368;1.2566370614359172
