Komment314/test_diploma/benchmarking/path_finding_for_benckmarking/pre_rrt_star_results/11_2_tree.csv
id;joint_1;joint_2;joint_3;joint_4;joint_5;joint_6;parent_id;cost
0;0.0;0.0;0.0;0.0;0.0;0.0;-1;0.0
1;0.4644723333760372;-0.4709253968014359;0.360623874362963;-0.9900863793166464;-0.1335675648980117;0.1160625464490621;0;1.2566370614359172
2;-0.6078804716253414;-0.7802141015808989;-0.5546304805803729;-0.114936425407888;-0.5292056691030455;0.0;0;1.256637061435917
3;0.8619068875114624;-0.5218463140828833;0.5407015376904047;-0.9370164832753596;-1.3087673354719929;0.0686214241578752;1;1.2566370614359172
4;0.848082265409962;0.2149503555087385;-0.6369635027790873;0.5939121890510114;-0.0289095169205758;-0.2332371488282274;0;1.2566370614359172
5;0.4814436785726719;0.4182025238582244;0.9587197355932522;-1.3729086839164992;-1.6414986864605927;-0.2056799736064248;3;1.2566370614359172
6;-0.6449499026756459;0.3013219895559614;0.5883944137163792;0.2924832675258847;0.1044247429088163;0.7935505094297256;0;1.2566370614359172
7;-1.4585705540016516;0.3292393689520211;-0.2248620755824441;0.1379390731673867;0.5667660068009817;0.925267213548193;41;1.2046564528609658
8;-0.6177825862824269;0.3517897726727027;1.2079333354841444;-1.6678813532561207;-1.690836052880767;0.2578685131280033;5;1.2566370614359172
9;-2.3586767954085106;0.1212751452787004;-0.3237255098756723;0.7203831150064215;0.3642903487469751;0.3458840006327499;7;1.256637061435917
10;1.6316002087238664;-0.8972851579598795;0.1164744436079983;-1.2861534346550132;-1.8125203727059176;-0.4700085130614885;3;1.256637061435917
11;0.7344702215821799;0.5563873883258557;-1.0132314367680704;0.9563042046433746;1.0187240653283238;0.0482021990311616;4;1.2566370614359177
12;-1.4164677189861938;0.4850991661371363;1.5044260017385265;-1.662952741111031;-1.7694029925942942;-0.652824855800392;8;1.2566370614359177
13;-1.332025422888358;0.6985865363335452;-0.7677169403845472;0.9354530429064122;0.7642155573675169;1.6012845526201458;7;1.2566370614359177
14;0.8888934927224392;-1.1444013115445344;1.577671659722362;-0.9273439780378652;-1.4164906436609268;0.390846190396128;3;1.256637061435917
15;1.2723802235117532;-0.0072241604089869;-0.0702629109457929;-1.5950779118072174;0.2225103103381455;0.2975372808535175;1;1.2566370614359172
16;-0.9710195538421116;0.7556775585761718;1.4076198091983267;-2.382384630645363;-1.5731314443731843;1.1105061907339349;8;1.2566370614359177
17;-1.114752417530193;0.9196996105591668;0.3909468939989164;-2.1296860141766625;-1.812697373549926;1.7242668059953157;16;1.2566370614359177
18;1.2621910429186105;0.0182273404337103;-0.1661850860697062;1.228874240884095;-0.237317400169951;0.6038457080004288;4;1.2566370614359172
19;-1.021728227621618;0.304104028159458;-1.2485564132717573;0.0457211427715298;0.6707788078468802;2.145045553946568;13;1.256637061435917
20;0.4761201019163922;-1.195920875629131;2.299979633635421;-0.810181099676886;-1.956288128503659;-0.3702472944311629;14;1.256637061435917
21;-1.454690144085256;-0.1300557955664938;1.0840409901898027;0.5942446726723096;0.7119087200481671;0.6157630092160237;6;1.256637061435917
22;1.8255523195317824;-0.275260196424187;0.6552758089624509;-1.5355418423532836;0.4427296250754565;-0.4916689631162535;15;1.2566370614359172
23;1.264176993422634;-0.6362921584627412;0.2484810309564122;-0.6361363904236852;-2.259572338749037;-1.3280389216181214;10;1.2566370614359172
24;-0.8654962572039914;-0.122140548395584;1.4294414060850655;1.2795180007739928;1.239291799423538;1.219824862653767;21;1.256637061435917
25;-0.4442511608269779;0.0156106072993287;2.164745275404093;-2.590861677954693;-1.2176421300635951;1.2148056082871146;16;1.2566370614359172
26;0.6990923508708141;0.0184363454949674;0.524387427666012;0.1643241651651946;-2.594876121511992;-1.2849509941024289;23;1.2566370614359172
27;2.509530729462321;-0.8405665471718922;1.132434762345628;-1.313940921773254;0.9375113213125996;0.0280832922906395;22;1.2566370614359172
28;1.415268727955559;-1.3427957365629253;1.4249979999686797;-1.2439978690289906;0.8050641752808841;0.1745950407230608;27;1.2566370614359177
29;0.4493716702383082;0.8484610557125547;-0.3205384959140978;0.167442713441779;-2.729577759477576;-0.9754656256029136;26;1.2566370614359172
30;1.5094711303265207;-0.6991802628231798;0.9317072009543644;-1.5382187319786471;1.1034933432173646;-1.378512236688188;22;1.256637061435917
31;1.0363951476650763;-1.0140690634283578;0.3798342431045097;-1.2635627282815702;-1.7187357181229863;-2.153335849397809;23;1.256637061435917
32;1.9894596766747383;-0.1711152150375112;0.1616921419616765;-1.3623860180590592;0.9433560178050696;-2.0269030968226414;30;1.2566370614359172
33;1.4255034061995078;-1.0372795978571083;1.9727614414990091;-1.8069103447337924;-1.9246074869215155;0.693824387461532;14;1.256637061435917
34;-2.052005445275623;0.2298241718727157;-0.3117556899070809;1.2394359950655158;-0.0838473041849593;-0.6555749207137022;9;1.256637061435917
35;1.6380167921746638;0.1630888340199072;-0.0935020886413557;1.5630748518029571;-1.191639870489928;1.2277067616294135;18;1.2566370614359172
36;-0.515252591808645;0.9489513545453868;-1.596138169689649;0.0058021453452314;1.4197043512444176;2.617798118034478;19;1.2566370614359172
37;-2.482647148050142;-0.177197454319427;-0.0039267984818665;1.00314540251289;-1.0288320501875117;-0.2261220325930083;34;1.256637061435917
38;-0.086610814607618;0.9482024201862286;0.4332930024075845;-1.694072475536986;-2.206692945089779;-0.731880433376921;5;1.2566370614359172
39;-2.1774001462064083;0.035808906651148;-0.022960840939897;0.9348599677424552;0.9180672245645148;-1.2435963538984331;34;1.2566370614359172
40;1.0643858683584702;-1.100810829972596;-0.5525655802372441;-0.0062157239645714;-2.690030285938985;-1.012328847812271;23;1.2566370614359177
41;-0.689307077816894;0.4460023802423138;0.1635268451133082;-0.592727836278172;0.2470880677960956;0.6826086017954203;0;1.256637061435917
42;0.3449435827058613;1.276991236748987;-1.9315803586763889;0.8439149124045909;1.0957424462650902;0.2631623558871659;11;1.2566370614359172
43;2.7674166053817206;-0.443964514838328;1.1854404904817677;-0.4907945476803378;1.3760788819727587;0.7227899508620886;27;1.2566370614359172
44;1.5673330874749538;-0.2350888627908096;0.6490724007049644;1.8142866744725847;0.3805763301071947;0.7847069502394165;18;1.2566370614359177
45;0.5822290601130589;-1.325633466871155;1.7700606224349529;0.1517232470957981;-1.7672762006478149;0.7483352664536191;14;1.256637061435917
46;1.7278091148348684;0.2226254902508521;-0.3435546627098598;-2.3502900485783527;0.0898403338576654;1.1076331340993049;15;1.2566370614359172
47;2.297637569942279;-0.1871400031875419;-0.5185244451402746;1.353248111189467;-1.6314222218343368;0.4509847301757737;35;1.2566370614359172
48;-1.8111480472315864;0.0322528936269492;-0.8096557543247883;1.0504583655205866;1.6187482495729573;-1.8108508680460011;39;1.2566370614359172
49;2.190591231103733;-0.2241570838069731;0.3638889545264209;2.192767757746024;1.0377876975635556;1.5155025282904808;44;1.256637061435917
50;1.07578832127078;-1.3220399957229638;2.2164611161569296;-2.096645648153981;-2.3479752868553483;1.7200656884515542;33;1.256637061435917
51;-0.3656091667585261;0.3082094044979612;-0.7807343830797744;-0.5911987587726525;1.5661396033852593;2.939444826642137;36;1.256637061435917
52;0.0898641931072092;0.4698472344380038;-1.8088617555898765;0.907628938550993;1.7718745553034525;2.6471729595575644;36;1.2566370614359172
53;-0.9751999373129816;0.2159437840928205;-0.9066147223281464;-1.659983122613892;1.6373974607184727;3.1286518389008;51;1.256637061435917
54;0.6837670772661236;-0.3722839301252026;-1.6908414794690716;1.521548162099917;2.1267010833490767;2.6696163641562665;52;1.256637061435917
55;2.0608112873757656;-0.4945222126758017;0.7447303810247055;2.1830698776231032;0.0398587426456352;-0.2188219894698319;44;1.2566370614359172
56;2.303299526319784;0.3005558542913622;0.0671165382171457;-0.4706364170987849;1.556798464534827;-2.305639754298808;32;1.2566370614359172
57;-1.8023800379560344;1.2674096608276164;-0.4251606154137342;0.4243977287556776;1.346972903536112;2.163614525933819;13;1.256637061435917
58;-0.0241526572831059;-1.3453100240697655;-1.0394247872404403;-0.223966817561129;-2.5053466442809045;-1.1383655597331648;40;1.2566370614359172
59;1.7844292220410176;0.8955901904573087;-1.4639328950551076;0.9345767292948028;1.3360613290759984;-0.1912919217860292;11;1.2566370614359177
60;2.1827291171679946;0.3449335524528323;-2.0227119261869606;0.5963533278746659;1.7797182781074596;-0.8940085086209903;59;1.2566370614359177
61;-0.8458690797810713;0.0618884360763457;-0.1365149992905105;-1.766120841245383;-1.3227157667510356;2.071427842036736;17;1.2566370614359172
62;1.064080551180262;0.3135610505197332;-1.377708403486985;-2.550124915982804;0.0109442491806967;0.9863924813847952;46;1.2566370614359172
63;-1.2085446913375666;1.7196932490924022;-0.7952669804520818;-0.4111605613438043;1.6320757372566397;1.83878251138506;57;1.2566370614359172
64;2.056499809660142;0.3351138233112354;-2.2087149508880297;1.576433226346463;1.7493890008558513;-1.64702433938083;60;1.256637061435917
65;-1.9582254646956163;0.6590168024782921;-1.5380395050528943;1.712216446482396;2.021683132867194;-1.9948312305563776;48;1.2566370614359177
66;-0.5331779969746846;1.2911084726867312;0.3111318252102575;-1.2019551954537349;-2.253343789353802;1.5199651327567527;17;1.2566370614359172
67;2.731363058204379;-0.5109565530568921;-1.1247331071203006;0.9357635943641032;-1.2587062126185091;1.229099284635795;47;1.2566370614359172
68;0.4220382101483233;-0.9716571962921168;1.0197684716721964;-1.9182271236964508;1.3068228966079167;-1.73750888925752;30;1.256637061435917
69;2.112975270787285;-0.4236933132894414;1.4823857188204037;1.877514779748316;0.9277443677509872;-0.6003435374014996;55;1.256637061435917
70;-0.1228970112570571;-0.6575779894335394;0.1885262215008608;-2.4961339563600218;1.6505056571835488;-1.938702166578648;68;1.256637061435917
71;0.534009363904523;1.0425053439609016;-0.6305344462139574;0.768254872398231;-2.728753475648925;0.062439264156884;29;1.2566370614359172
72;-0.4155567493077025;-1.6742733940316183;2.0827090251808134;0.6025244247617482;-1.9538593503341248;0.3930517365637679;45;1.2566370614359172
73;-1.414187867873684;-0.2186170248601906;1.9084108309074015;-1.5551002707812875;-2.082033449239585;-1.553569730337206;12;1.2566370614359172
74;1.526839547857899;-0.8764627303873997;2.252051907021957;-2.0415964740821817;0.664073801108004;0.2703144123654856;28;1.2566370614359172
75;-1.3960887592989824;0.4260382602211718;-0.9643036377332674;2.438562378191972;1.647683978307695;-1.5341432646873023;65;1.2566370614359172
76;-2.568389778799565;0.6772425284978572;-1.9819208992165465;1.2745188567512176;2.537835285560453;-1.2522134823114353;65;1.2566370614359177
77;2.5059196778763426;-0.9037349213140642;0.0187220572380405;1.8854383486939332;0.8101784832685466;-0.1517767215112676;55;1.2566370614359172
78;-0.7482029595828209;-0.7468642775250303;1.175464854520882;1.6932067381442764;0.4298775722837799;0.6866219017633177;24;1.2566370614359172
79;-0.2490432210454248;1.364629881059272;-0.6204898797986003;-1.953437321307604;-1.760477772573737;-0.7819216274877624;38;1.2566370614359177
80;-0.0199874585436298;0.9788048963781656;-1.516329862233574;1.1438142604716095;-2.226174004206439;0.3622758525556016;71;1.2566370614359177
81;1.4982209049590152;-0.0841085601753222;0.0626233397790068;2.6498412104917617;-0.3852513143084317;-0.6987442187937623;55;1.2566370614359177
82;-1.367165111626626;-0.4492973650150444;-2.104531586074577;0.150682256935328;0.3201370827203393;2.304846845445998;19;1.2566370614359177
83;2.4969919968082976;-0.8091641626900475;0.7437694353794762;0.1021947636723987;2.174787066424201;1.1563704442629126;43;1.2566370614359172
84;-0.7589102966316943;0.9604055280480586;-0.905301156668934;-1.4804679193228418;-0.8405913235822171;-0.8509603423911468;79;1.2566370614359172
85;2.4195728271565864;-0.9740469567682654;-0.1079846696619723;1.0605415420059596;-2.336380515401672;0.8912797506635868;47;1.2566370614359172
86;0.0228813994947715;0.5408375688583603;-0.1081297449657909;-1.0210516290952416;2.177765986580551;2.3370839719252734;51;1.256637061435917
87;-2.280639393891008;-1.2418911456248027;-2.118938583135229;-1.8559504880878012e-06;0.280041567646529;2.608121679524058;82;1.2566370614359172
88;-1.4770644188557591;1.1028677616033429;-1.720291589310904;1.2642773179387343;1.0664779566033191;2.1377271507589666;13;1.2566370614359177
89;1.5787866262967865;0.0860651868442865;2.2193412187071613;1.4619889965272066;1.486393768251398;-0.6782616341363676;69;1.256637061435917
90;2.160980254822822;-0.2059594954852322;1.0342572636013232;-0.1404386553022591;1.949650037489567;-2.6275093344248006;56;1.256637061435917
91;2.3265172375187326;-1.1999175126884194;1.2680819106489736;-1.4675110697956868;0.3749293220789129;-1.4875146118127909;30;1.2566370614359172
92;-2.430572592304275;0.5466075682199594;-2.044749749300431;0.9406286477674304;1.3207667533776917;-1.993319450240028;65;1.2566370614359177
93;1.6520860491851488;-0.8457074969305539;1.3537079689926907;0.5778436596365055;2.458522512315541;1.5866756130613364;83;1.2566370614359172
94;2.43937963140215;-0.0955617937823453;-1.1796596224474167;0.8292553245146463;-1.6073301518849197;2.3178738214212724;67;1.256637061435917
95;2.139320709286825;-0.1073600558781931;0.8822073318411424;2.216568078433203;0.2104465401032604;2.295984882786216;49;1.2566370614359172
96;-1.4405949528351725;0.3758207837799059;-2.3610611078058543;0.912248642465064;1.5584283665275604;-1.351002153882071;99;1.0188282271662807
97;-1.4676243322339644;0.1055130198424633;1.4395985740149486;-1.4153661768489558;-1.940049247035582;-2.0709341100327414;73;0.7969013150166144
98;-2.0667560194518453;0.8040478415300139;-2.0732234040569377;0.3043674410043124;2.017498711092077;-0.7674227421555624;96;1.2566370614359172
99;-1.672750218768434;0.4357667684908743;-1.5522644068724936;1.2460881157725383;1.174899886505869;-1.0905671801926164;343;1.21797554534277
100;1.8394892943062016;0.7471736310065752;-1.3070223470527655;0.9298695829364336;-1.1304730750851737;2.823173858160224;94;1.256637061435917
101;1.2794400047606924;0.2004915905294859;1.280833921110923;-2.1131705073186766;1.5721820353977436;-1.167124344748956;30;1.2566370614359172
102;-2.0971972345731698;0.2839958027286125;0.0453678940428194;1.2407069247424016;2.2421170700363526;-2.338192725319624;48;1.2566370614359172
103;-1.2961029081641844;-0.5819740985477488;0.6855033643346661;-1.5826498287769597;-1.1912622599879183;2.556413835100145;61;1.256637061435917
104;1.3388511189707657;-0.2116513296387323;2.0344112079426977;-0.0571991249577388;2.8747769575320627;1.3889653238947526;93;1.256637061435917
105;0.2605800754199401;-1.228796792243112;-0.0970065222943866;-1.9999053543220864;-1.3771461714495643;-2.365181744950742;31;1.2566370614359172
106;0.906179290507477;-0.1312712646811145;-2.1679466327868075;-2.1809323932540923;-0.2477570065058985;0.2593283921699824;62;1.256637061435917
107;-1.915662444504233;-0.5410299626710473;1.165160359677592;-2.3673070191629817;-0.6683915951641056;2.28354978268113;103;1.2566370614359172
108;2.299910922747632;-0.1401417030512933;-0.3907255036241067;2.796640157925745;1.4109844367137945;2.2131748458785103;49;1.2566370614359177
109;-1.2164793896954855;1.5074566487891057;0.383986009263096;-1.610402813802441;-3.188884669952695;1.3855945659022812;66;1.2566370614359177
110;1.6986889182162188;-0.0943974542212344;-2.238535262860128;-2.5502207774903893;-0.6123330912896565;-0.5625189958782375;106;1.256637061435917
111;1.4443147162413594;-0.4636865719842384;2.3356835628691184;0.7827888281061645;0.9728206680764072;-1.3995252989591995;89;1.2566370614359172
112;1.1080510610976697;0.4977267248436641;-2.257339974470531;1.0290375386888748;2.351910643753839;2.5023003148076883;54;1.2566370614359172
113;-1.1593885709466003;0.2147049843256708;0.4299542476807984;1.2474606745987624;1.5773250730736224;-2.6621521692611747;102;1.2566370614359177
114;-2.5197894419164077;-0.1388144906125512;-0.1235266213563983;0.9570007343506002;2.678270865753773;-1.3777036348065943;102;1.2566370614359172
115;0.8198312009261297;0.6289400903554443;-0.4089075122891937;-1.7208015236867864;0.8449398526453135;-0.3745683690562557;15;1.256637061435917
116;-0.3786673829970058;0.7369821845831178;0.0377277347858034;-2.564401603894446;-1.1575030877202983;2.529903330713062;61;1.2566370614359177
117;-2.2733650826390503;0.8204211399949347;0.7652118479083291;0.4020601896511643;0.7753602660483758;-1.073731668199043;39;1.2566370614359172
118;-0.1666008953096868;0.0773582278318299;-0.0584345513487137;-0.5414361015819997;2.485018903177083;1.336326736970649;86;1.2566370614359172
119;0.508950919491362;0.4878515840887484;-1.676775216364561;1.64887066821938;-1.3575358003802716;0.2107214868896527;80;1.256637061435917
120;-1.101376954894733;1.338551201368388;-1.6654385816512174;-1.916080423091496;-0.1339981779854699;-1.0790351331922383;84;1.2566370614359177
121;-0.2159587836976761;0.1911777084724105;-2.012136553151116;0.9093085068933028;-1.977306610360304;1.109017544055168;80;1.2566370614359172
122;1.2403761201090768;-0.2358973718091725;-0.922289462383594;-3.198397543769692;0.7876098826346063;0.8627854401598883;62;1.2566370614359172
123;1.0646085337983298;-0.0872592966123464;-0.145335153777917;2.302455507463233;-0.1978253603889563;-1.7905569493922346;81;1.2566370614359172
124;-1.482695345409216;-0.3317028508700039;0.8032332099081504;2.44817711989746;0.0327495932414258;0.7190460107133398;78;1.2566370614359172
125;-2.5089299415187947;-0.3494157537749449;0.0910874278836898;-0.0230218271736805;0.7370408940765669;-1.8415190805200932;39;1.2566370614359172
126;0.8024375946443834;0.5132801606143153;0.1006229496753939;0.6993923337091255;-2.1901068487172117;-2.117941763203369;26;1.2566370614359172
127;1.999204772399639;0.228639752918586;1.337363199091979;2.987941101955798;-0.0694125298825162;-0.4223080017541248;55;1.256637061435917
128;1.066833624720079;-0.3688943769032696;0.1484467224306872;-0.2065646187299727;-1.8110765813967689;0.3069637181351788;3;1.0305021382132673
129;-0.4177667352042206;0.1248697767249298;-1.2400041902120515;-0.8132731394135058;2.635248635101186;1.482011049068809;118;1.256637061435917
130;-1.1483874998919177;1.1127008820817368;-1.6116011064252505;1.462067780989654;2.6115395077892494;-2.5439703056282807;65;1.256637061435917
131;2.32962423780117;-1.443496486112144;2.232483886264362;-1.1057554706480093;-1.7321731848892616;0.6696334931655863;33;1.2566370614359177
132;1.6979045836060245;-0.1513620859238705;-0.8998957630341361;1.984028449219411;-0.8066906504019794;-2.154547614147768;123;1.2566370614359172
133;2.720656954158594;-0.1337448751675787;-2.156246509282201;-0.2085907271424359;2.39248443832944;-0.7547658226630583;60;1.2566370614359172
134;-1.0649956557006082;0.4544461532031361;-1.655753573293889;2.2352211437430287;1.2159073594221186;2.277938568126084;88;1.256637061435917
135;-1.1484850990093856;0.2327042555841528;0.0976907967926457;1.1688489805582352;0.9145294049600704;2.310089805219084;13;1.2566370614359172
136;-0.137820407490149;0.2112555316051076;0.9379550931578056;-2.902423883441968;1.5973011547298523;-2.246104917926383;70;1.2566370614359177
137;0.5746880344298859;0.1624309283272434;1.942060471632784;0.7959719378887188;2.669060970974916;1.665561348041204;104;1.2566370614359172
138;-2.6061636699272697;-0.9538006221170026;-2.162772687707545;-1.1261874689189812;0.1193283325665568;2.91492828414595;87;1.2566370614359177
139;1.8144394886669892;0.189549378461526;-1.3745335052282888;1.1397644072458644;2.6529686999636874;2.8231354157272426;112;1.2566370614359172
140;-0.1642838977011507;-0.0166989380352746;2.034826669157409;1.745442140243195;1.3419620017208338;1.503011919702565;24;1.0849559468107135
141;-2.8061033727497806;0.8099579880399099;-0.3032778957495689;1.9005643324027184;-0.0148255988566239;-0.1739202435202717;34;1.2566370614359177
142;-1.557136110053494;0.3051195176804012;0.8065694690574676;-1.7686296248356037;-2.7476622570498463;-0.3848810153827726;12;1.2566370614359177
143;0.5620585552948372;0.0895879363931709;-0.9223523729650588;2.8195811804981834;-0.1553326348313533;-2.440422263983074;123;1.256637061435917
144;-2.2387016000742848;-0.1173820194189203;-0.7614087712220484;0.8672058734630737;3.14047647197311;-2.289496009813837;114;1.2407360063099224
145;1.3796313610442048;0.0215978888226469;2.5268636748865214;-2.502211977562572;-0.0162405699863789;0.2493911044888509;74;1.2566370614359172
146;-0.0163872006653478;-0.7183188363364916;-1.935873364798249;-2.5710753257611727;-0.4516973216896857;-0.1090759515822381;106;1.2566370614359172
147;1.602223068250101;0.4429473185165148;-0.607789964941177;3.2972386936065505;-0.1003900136190639;-2.2349794806298715;143;1.2566370614359177
148;-0.2462499689697725;0.8121313345768868;0.6574483198853337;-1.1334481126886995;2.8841913179852496;1.2333894381964965;118;1.2566370614359172
149;-1.0106706713905476;0.5423354508970036;1.7717157034917836;-0.6575751915139714;-1.8566170207939168;0.1081502009155737;155;1.1803687255104944
150;2.8896841271572846;-0.999843281697508;2.5776383409413968;-1.5595494983240337;-1.013160273214063;1.1456600411940117;131;1.2566370614359172
151;1.4233520108654154;1.171121598883566;-1.2610606752201114;0.2603609094426209;-3.04318828672356;-0.0689965222695864;71;1.2566370614359172
152;1.848111986958776;1.3378373734025188;-1.8700664821289024;0.6383834292597497;-3.018472243739546;-0.9944810096013332;151;1.2566370614359172
153;-0.6873605987562917;0.146328974998871;1.1133164411225402;0.1702117057169276;1.304008094076014;-0.0028732763529749;21;1.2566370614359172
154;-2.0639599285542607;-0.4541784842279457;-0.4649437210965149;-0.729940013331202;1.0830272150000215;-2.5060133748688407;125;1.2566370614359172
155;-0.317030377877233;0.6474989075074795;1.0350485370280516;-1.232879654177063;-1.7294855167892476;0.0020466639551765;5;0.8754792423240914
156;2.907962124224824;0.0996185972849061;-1.4659095258019526;-0.9002695642964688;2.1790821909711813;-0.0554306501879735;133;1.256637061435917
157;-1.0638736692950783;1.5209839284998756;1.2149515257506354;-0.5781244308835862;-2.398570871869881;1.3876386313891271;66;1.2566370614359177
158;-0.0866485803430572;-0.0371054209244838;-0.5211966736737835;-2.0679946024207965;1.1216293976910785;-0.0519145403087337;115;1.256637061435917
159;-0.02338049710964;0.0673027105972471;-1.385517855250507;2.132997844963818;-0.5070050082087919;-1.7874989989709091;143;1.2566370614359177
160;1.222906934650343;0.0715612845649596;-0.4199202812981384;-2.3692342462072467;1.451001331826019;0.5789239040660316;122;1.2471520165893646
161;-0.392361139668819;0.9487933957875292;0.9690072854192782;-2.413560174568954;-0.4491123311359828;2.907041228261811;116;1.2566370614359172
162;-1.7957280474602688;-0.5054941220992702;0.7502715609715249;-0.9068158953274488;-1.739311973189572;-2.640200616923046;97;1.256637061435917
163;-1.8937909813277125;-0.7793682754416958;1.493577293503234;0.1401824033065339;1.309084946484384;1.099713924879748;21;1.2566370614359172
164;-1.5455017141060825;0.825743095836253;-0.654904386697043;2.2650803031193774;1.0948579053295842;2.7174218765177724;134;1.2566370614359172
165;2.259151423571834;-1.410491096101429;1.220490937421209;-2.2405884034653845;-0.4681606856177608;-1.95606886865994;91;1.2566370614359172
166;-1.5614796240113673;1.4179051281002246;-1.807850752261332;1.8051831891548609;0.0688783173676308;1.7166435173941594;88;1.256637061435917
167;2.589781855118656;0.712682617328136;1.4768900618361227;2.3157442928982523;-0.7638421790190543;-0.6284853182109397;127;1.256637061435917
168;0.8020196746429434;-0.7132311676308242;-0.2627038261393595;0.9258598416304876;-0.0754993732307044;1.4435056390388432;18;1.2566370614359172
169;2.52415198743587;0.6479760241033351;-2.436415640799232;-2.6944139988703006;-0.605908811596594;-1.0979061863994852;110;1.2566370614359177
170;-1.1161519495649357;0.5201214574487881;-0.6704020509446142;1.457860152526336;0.6822700041094257;1.3407996898859298;13;0.6598469172214485
171;-2.9137660609319878;-0.489333901610216;-1.4098176143863277;0.0285325092030265;0.4201878408860044;2.905841658564836;87;1.2566370614359177
172;1.635541754186647;0.3426503297216818;2.485592537709356;-1.598837149357129;0.3944833462258096;0.9006117911235458;145;1.256637061435917
173;-1.7692744116183816;-0.9596311100666148;0.999601420531678;-0.7998167488053674;-1.2922231459894735;1.85574109149079;103;1.2566370614359172
174;2.245570463666904;1.1537207807397154;-0.6393608128534136;0.0465147055093199;1.296684087360404;-2.422680975133849;56;1.256637061435917
175;2.591538947652368;-0.4917549743128248;-1.3353277872180729;2.255865646257156;1.7303704925257466;2.502553330650222;108;1.2566370614359172
176;-1.7638222739770484;-0.3827876752216539;-0.3664786149745381;1.375747724890302;0.182754166293183;2.143023305771738;135;1.256637061435917
177;1.8652571168378616;-0.378944684019049;0.1406650746481012;-2.162216953288206;0.2177998451527276;0.7498879983120407;15;1.0297863010640258
178;-2.024085860087677;-0.5353190345898182;2.000815149011026;0.5850543456740867;0.4080829492211806;0.218500488384523;21;1.256637061435917
179;-2.4819460334531342;-0.6408761991022581;-0.7234950074491987;2.201303790903382;-0.1379757276894394;2.434492166150763;176;1.2566370614359172
180;2.562096587844367;0.2056810659184527;-0.9685539189434698;1.4228098307056558;-0.899949576564439;0.8305240882865335;47;1.053904492698562
181;-1.7749586389459662;0.6476977350512513;0.4595567553048383;-0.0799109154245487;-0.0715970787589805;1.5992289115197609;7;1.2566370614359172
182;-3.0819744340659025;1.0241787220022365;-1.9702235773339665;2.3183023139262136;2.421692928801649;-1.5553520708168314;76;1.2566370614359172
183;-2.5065514064895336;-1.311101064452305;-0.8679948830889752;0.1311092449697785;0.9931882945522634;3.230785162397818;171;1.256637061435917
184;-2.5427228092888674;0.0953437436875995;0.8826509173669317;-1.7462031569943062;-1.8809020402092973;-2.0635609914087247;97;1.256637061435917
185;2.5441072431058176;-0.594633732418223;1.373762389013324;0.8594597885975945;2.341072406844084;-2.741573584050119;90;1.2566370614359172
186;-3.06538075053136;-0.8192230118733804;0.2204916498163537;1.3648799077623055;-0.2390560574453217;-0.3757877441790573;37;1.2566370614359172
187;-0.3282154039294458;1.0742060553476875;1.707195779706437;0.2168566315972922;-1.9776120707610376;-0.1088095563175481;149;1.2566370614359172
188;2.758507050172613;-1.4613201815598469;1.8069448128536496;-1.973028266555073;-2.107730991033084;0.1034274511349664;131;1.2566370614359172
189;-2.9134295179648104;0.4470784327763705;0.7435522740836564;-2.5940754995940765;-1.1672512020618917;-1.79811327883389;184;1.2566370614359177
190;1.9076381775315523;0.2328200092593662;-2.0420847899828574;0.743037952079766;1.2205455887058916;0.6691738481997637;59;1.2566370614359172
191;1.094415761709633;-1.4459313811081116;0.8651994739613587;-1.781869597420672;1.805105097375447;-2.519390611975683;68;1.2566370614359177
192;-2.1722678105882998;0.532413509939331;-0.2142942820449114;-0.7441152517491119;0.5002241814275644;1.1682190517572395;7;1.1799272969986647
193;0.812645625665484;0.3207183886530175;-1.1431652973535942;2.2665151233991656;2.3169731026205413;3.1068192860393617;54;1.2566370614359172
194;1.2360578165049254;-0.0177439017365114;0.3945270371879258;2.318111160881063;1.313741752191507;0.3022917693466952;44;1.2566370614359172
195;1.3405866057088225;0.0621799974158468;1.8618065973342792;2.274850034056213;-0.4190886925712244;-0.8825653174442604;127;1.256637061435917
196;-1.516805768579634;-1.1315714521273184;2.355539642125864;-2.0458032375713406;-2.4619910636118068;-1.1662208950417792;73;1.2566370614359172
197;1.382736881991933;-1.2469802894861683;1.111778484173304;-0.8464865131073858;0.3815382809300928;1.2392085184353323;28;1.2566370614359172
198;1.9448831231777504;0.1926604051542488;0.6940773421392229;1.500739031747036;1.729127041014492;2.043848242803715;49;1.256637061435917
199;2.276839065775869;-0.6030081896115251;-1.445568958685287;1.502804469657675;1.7705599553335585;-1.8965302445579864;64;1.256637061435917
200;2.7854738517887467;0.0081347235871102;0.4413674636332568;1.0600470319285484;-2.758996682729164;0.9046907662444356;85;1.2566370614359172
201;-3.117618917391508;0.8101329237788895;0.3041076194228837;-2.0837923556147637;-0.4529912004455395;-2.462919256883602;189;1.2566370614359172
202;-2.2173464355533947;-0.8608541185523387;1.4559434025408755;-0.0630169790462668;-1.4900500360601705;-2.585491938322214;162;1.2566370614359172
203;2.874652697640963;-0.3080309692726426;-2.233946684744573;-0.8974701025382922;1.438065107500245;-1.1201943415174282;133;1.2566370614359172
204;-2.084884123191327;0.2021121140989435;-0.8896477724621535;-1.4027368755844345;0.3664166141110565;-2.543717889057413;154;1.2566370614359172
205;-0.94005011207971;-0.3382158188960973;1.4340968332692845;2.8452468413290912;0.8509883661822373;0.4751967300813575;124;1.2566370614359172
206;2.96553323620292;-0.0528519610800506;0.856303881222464;2.9052577859076734;0.7035163266261155;1.4505113699078929;49;1.223092905996428
207;0.644731317691675;-1.1713166918734172;-0.8920274544949136;1.7460897591012283;-0.383906821428959;1.018518311467257;168;1.256637061435917
208;-1.5464581985813368;1.0836184696466529;-0.2482962192872475;1.7112364112182734;-0.23052109281439;1.370530234188856;170;1.256637061435917
209;-1.3662787132665104;-0.3384293048218705;1.9969896288571791;-2.6644650949628987;-0.0269960724299317;2.49482240704192;107;1.256637061435917
210;-2.143353888886834;-1.0947087143236525;-1.2363212872255047;-0.2863999165418994;1.3070486591825832;-2.7860560535867185;154;1.156262536341908
211;1.736414373916988;-0.5696245449709277;-0.604942677768163;-1.016000538184379;0.6721994823321755;0.7709096604625808;15;1.2566370614359172
212;-1.8594295473739912;0.5255795841780636;1.942668744244717;-2.66800635300764;0.3522273818274152;1.8295000254478555;209;1.2566370614359172
213;-1.5175494566920675;-0.7742744761883135;0.1740597962612707;1.4194590179222148;-1.239104976433967;-0.0211556390790803;37;1.2566370614359177
214;-3.373934639115621;-0.5567859071613035;-0.5355298422527811;0.3444968572502369;2.3496042791189327;-1.2295712529251406;114;1.256637061435917
215;-1.17433203371195;0.5366477467124924;-0.6640209689098344;1.2673356104203186;1.3285951384714267;-0.378184590832757;99;1.2566370614359177
216;3.1341853571232376;0.031849561783225;-2.2399581382146008;-2.700464007102061;-0.4707785505307615;-0.6044903753780153;169;1.0257212255999717
217;1.4167518757528244;1.188320678385663;-2.1948932612141308;-0.0728460091503813;-3.033402801649699;-1.865760094920352;152;1.2566370614359177
218;2.559820394816863;1.0552054477854151;-1.4158468252151493;1.7970355447332054;-1.4582126522425;3.1300018342019054;100;1.256637061435917
219;2.6252454272242565;0.8934595030348969;0.6494377962029575;-0.2963658238006357;0.9327857017116932;-1.7014108332640014;56;1.2566370614359172
220;1.528915568712523;-0.2791119276396178;2.5379952709437945;-0.1311010378457704;1.5326123204020146;-1.989796585973343;111;1.2566370614359172
221;-2.6884807228483085;0.7375184790999666;1.4877587253521036;-1.5999461979654586;-2.3559469417187167;-2.793142191967016;184;1.2566370614359172
222;-0.6257653225653732;0.1631679187357351;-1.9203309184664843;-0.1083853252244708;-2.3456869490140795;0.6288325045574725;121;1.256637061435917
223;-2.807841597010362;1.2230635934373746;-0.6533095759735817;2.524694926958424;-0.523783108381558;-0.9722801365617388;141;1.2566370614359177
224;2.3587571427878573;-0.0073220051636918;1.994887821742466;1.958764622052794;-0.1523433154609324;2.587257556078549;95;1.2566370614359177
225;-2.1359158999590564;1.6151436752116766;0.5273496859158883;0.075526217154057;1.5852835072186997;2.6746844219350807;57;1.2566370614359177
226;0.3600542914064262;-0.937479705947084;1.8403240638012088;0.1567251634239354;-2.1964552737537955;1.839185891907564;45;1.2566370614359172
227;1.7135094071406387;0.2219120655354641;-0.5292876831117446;1.1547545498586989;-2.2332095122051805;2.4933762188549724;94;1.2566370614359177
228;0.7544365477776513;0.4433786161540807;0.2380993231988579;1.8118210049916448;-1.3948822413760555;1.9395485189974304;35;1.256637061435917
229;-0.8163704708319897;0.0013669036494532;-0.6412428511687323;1.8460594627880924;-0.4767772868122489;-2.3431638647892314;159;1.256637061435917
230;-2.1922154451310414;-1.1424279714714252;1.815461508647304;-2.900781443323731;-1.2479984476219514;1.9712279486245152;107;1.2566370614359172
231;-0.6792343758039863;-1.1534566417534702;2.16621017273994;-1.157461618866234;-2.0576308590608496;-0.0641081967751384;20;1.256637061435917
232;0.3223909702455438;-0.3829697950135504;-0.5192176198902253;1.627829498496485;-1.5954124745044909;1.690495461760061;228;1.2566370614359177
233;-0.8706718620500411;0.4566359536803002;-1.5727358018091415;-1.787518773489306;-1.4238371885869454;-0.192980630706991;84;1.2566370614359172
234;-3.1153968845432454;0.3207468559240573;1.6272851976030729;-2.500267408586371;-0.3179289948878456;-1.6920276056635748;189;1.2566370614359177
235;-2.780663970893783;0.7184508640046976;0.0993797078184135;-2.8055080094390608;0.4367618003052331;-2.142380549376057;545;1.1153913946884422
236;-2.2032316667582634;-1.0006232430601456;2.2602536085930813;0.0601839560800131;-0.1964904723417851;1.0073155588941756;178;1.2566370614359177
237;2.48611664669361;0.5527329317928726;1.81230707043514;2.7946784061469825;-1.372497982184986;-1.5397821883993714;167;1.256637061435917
238;-1.730691816958302;1.1288840431434797;-0.3942366815107739;1.4485600745358405;-0.4539807695355298;-0.4320129330436003;34;1.0719448861604373
239;-3.1851274724491416;-0.2459367912268068;1.5225555928663688;-2.261493039674848;-0.2773723134399004;-0.6041316273784645;234;1.2566370614359172
240;2.5310075660355214;0.2877318086203802;1.5287594198871906;0.1669618513891978;1.8818000656528;0.2966412947584177;43;1.256637061435917
241;1.050494203304048;-1.5952221986995356;1.215658809608611;0.7114208933900643;-1.0625881763507126;0.3360509730375889;45;1.2566370614359177
242;-0.8442007617240673;1.0107643349596327;-0.2645302627858232;2.6759862985711176;1.442947341421607;1.9359624276663805;164;1.256637061435917
243;0.8122537547848998;0.858584102472552;-0.8107998778701085;1.9042960514110785;1.6949535188028433;0.2192720956124136;11;1.2343384434251514
244;-1.654424038095809;0.7067063642380371;-1.2617488118683962;0.2547728246158494;2.628134771443825;-0.1625949648670766;98;1.256637061435917
245;2.5937363361156973;1.4256197804520103;0.9358125525212668;1.495308007893588;-0.7431777183598;-0.9518026219827368;167;1.2566370614359177
246;-0.1597532322221526;0.529999158448853;1.431754355116565;-1.306097376685571;2.2995261665936684;1.9550995670527151;148;1.256637061435917
247;2.303132094399791;0.7602508736660788;-1.3918880636034086;3.3829760261848656;-0.5890765069069445;-2.5902350054007948;147;1.256637061435917
248;-0.8198846272898022;-0.1160189964016404;-0.3984688164791228;-1.7616521749777068;-0.9019482660640088;-0.5734341323547639;84;1.2566370614359177
249;2.086455716755496;0.084998207398829;1.0759152827110288;3.076577996186867;-1.832191918030568;-2.146060436653382;237;1.2566370614359172
250;0.146355327613153;0.9071541687195184;-0.133294074451286;-1.2324892884826104;-1.64807549610582;0.8834481734575039;66;1.2566370614359172
251;0.8058084514005301;0.938100219840012;-2.4341477734615298;-2.0792574979993748;-0.0838308687339826;-0.3040847924982036;106;1.2566370614359172
252;2.8532826999778504;-0.6929035196545961;0.2431453971271115;2.691076173962577;-0.5917558180253248;-0.1624679747019004;55;1.2566370614359172
253;2.3026729171053284;1.0054995664928272;-0.4657017294098877;-2.033694840221075;0.6027329508164453;1.6151419767539783;46;1.2566370614359177
254;1.1904101278058812;0.2937978074992402;-0.0519349483328666;0.7756870161085306;1.3499191686790537;-0.4374916491620556;11;1.2566370614359172
255;-2.6493528616870634;0.1339655147684838;-0.1132872235624582;2.736202281168876;-0.6705673190119213;2.3417115705010456;179;1.256637061435917
256;2.123745002162496;-0.2008271548182081;0.8425220913990054;2.541374339751925;1.2020856272628069;-1.3774878539174815;69;1.2566370614359177
257;1.2781267871729776;-0.6753218160314344;1.7672647910744597;-0.7336263525263941;2.108506346748636;0.8946301253116458;104;1.2566370614359172
258;-1.1582272728742964;0.3662777294151003;-1.0488068640098018;-1.7350900428850953;-2.136927538726692;0.3209302464796958;233;1.068038044170803
259;0.8543882176477229;0.0911849494195636;1.095770261059866;-0.3628480197663401;2.623441628339548;1.6105531658300578;104;1.1887610391196763
260;3.305203971651965;0.8785028159062469;-0.8189574285360233;-0.3595230743509549;2.336073121701844;-0.3366335270095551;156;1.2566370614359172
261;-2.6430394430720314;-0.6101302371788807;1.379391223272904;-1.7394367824653192;-0.9577974838869392;0.0256486688481632;239;1.2566370614359172
262;-3.0027782555263025;-1.324732802190021;0.649070638221491;2.1834446778839385;0.2040728653849796;0.1434289824891679;186;1.2566370614359172
263;2.59350864936023;-1.0426299122770943;1.4117616137636049;2.9014697004553525;1.0319411294799574;1.6618488368234394;206;1.2566370614359172
264;2.40281419308981;-0.67194500200729;-0.177862354395781;-0.0799690882416988;0.617264110780821;1.0219238758199043;211;1.256637061435917
265;-1.662830112267467;0.4931371254481432;0.1953310048453563;-1.0682331248104298;0.2018400746927415;-2.531291506233131;204;1.2566370614359177
266;3.054857869347307;-0.2084827029009911;0.2689292783591613;0.8628902007014652;2.4076017599507806;0.9355294332652316;83;1.2566370614359172
267;0.5411855490260473;-0.0481001160662018;1.203472165059259;1.9404210299420104;-1.3755127108095937;2.5254252146831884;228;1.2566370614359172
268;2.938970145138958;-0.2277113760827384;2.232859792953658;-1.9318274760011984;-1.1467459221791163;1.9854288471829968;150;1.2566370614359177
269;2.9405855128748293;-0.9930175377298628;1.2278006203630518;-2.9366326488465067;-0.7999333716551668;-2.544198085734995;165;1.2566370614359172
270;-2.803870422781412;0.0488860896852254;-1.5025191557685027;0.0462828096346938;3.1765550022623907;-2.376759305381152;144;1.2566370614359172
271;-0.478865645409072;0.9964405627017772;0.0527678942928596;-1.277907926909716;3.370165489694006;0.3015209876684657;148;1.2566370614359172
272;0.8687718985179806;-1.0687518945737258;0.9748461299674192;1.7741500812430118;0.6105780561687295;0.5623130363668583;44;1.1802885668305636
273;2.580788420128095;-0.106365213964461;1.1517308524522187;0.6648057574140774;-2.504811245157729;1.7983843919424796;200;1.256637061435917
274;-1.9429193055871767;-1.0781751601141465;2.1663780756065463;-0.1647780935734551;2.2110339852598075;0.7415747173108637;163;1.2566370614359177
275;-0.0530646376995769;1.377246467119007;-1.848224370098967;1.3468275571475306;2.748601068839063;-3.0144630426074697;130;1.2566370614359172
276;2.9220988882052312;1.190528789141149;1.0482236151681432;0.0881026288081081;1.204922725842256;-2.7122816884025287;219;1.2566370614359172
277;-2.345972558593701;-0.3284120194611387;2.2629258042505014;-1.1530914529764231;-2.7229859434394807;-1.5809009896620558;73;1.2566370614359177
278;3.081290617948995;-0.5795145023047216;-1.901104857148736;0.1374362259675823;-1.7121459583337877;1.1497271841663204;67;1.2566370614359172
279;-1.0788396211593414;0.8995074424386486;-0.8422678049823011;-2.1795663735279667;-1.3939348971206886;2.457639488375845;61;1.2566370614359172
280;1.0146572450059763;-0.8637582759912821;0.96564309057134;-0.1270358703697634;-2.7108925902633616;2.02617237866725;226;1.2566370614359172
281;-1.339851991603481;-1.1427168103948415;1.6851856805812864;2.7375999292557776;1.5446617574426933;0.0101622417743859;205;1.2566370614359177
282;-0.5977832611409309;0.0387893691338667;-1.5530559766798844;-1.458196544551042;1.6516887317840427;1.7228496154879038;129;1.256637061435917
283;-1.058388184714002;0.6675307562924575;-1.4391416123765723;1.3113399524339913;2.228704978476539;-0.9476626366695572;99;1.2566370614359172
284;-2.5605268773268035;-1.0753470201372195;-1.2655093574079224;-0.915936557125534;2.2893474659819284;-2.579539091642018;210;1.256637061435917
285;-0.6649074086509781;-0.6852154756777012;-1.248726195703807;-2.000906136392316;-1.821622487405608;0.4626731307442832;258;1.256637061435917
286;0.9151803533752624;-0.8527244378485254;2.268749871329235;-1.2330995180618318;2.942310966133893;0.4258614957896673;257;1.2566370614359172
287;0.1886300700846368;0.2552169923803908;-0.91192191633494;2.5738374326295155;2.0236869198220684;0.7287829961252037;243;1.256637061435917
288;-0.5858184787613021;0.2671447583832056;-1.8007885085257611;-2.3974668475579106;-2.037700071614919;-1.0061325303222763;233;1.2566370614359172
289;-2.386096065889392;-0.8513800652096337;1.3895311558105692;-0.7817999265469979;2.493471672703305;0.2245477143616722;274;1.256637061435917
290;-2.34165387298079;0.118620240714161;0.456153765736298;0.6737543692069854;-1.906699633669002;-0.1475591215089694;37;1.0974440376752843
291;0.6200479468785594;-0.6074677231915464;1.6091638331750426;-2.539736762006051;-1.90581792151956;0.4180543143537699;33;1.2566370614359172
292;-2.292904591174488;1.4015442782833627;0.9928826359523738;-2.829773581159646;0.186989786949986;-2.0271047070289256;545;0.8705209034647302
293;-1.8035322955022084;-1.032737602433456;1.923320927545353;-0.7108479593488878;-1.8611529692853412;-0.0053264137731355;231;1.2566370614359177
294;-0.4006215705465165;0.8386522130658446;0.6914263637974885;1.7443131322401082;2.0606886454673004;-2.917551510955022;113;1.2566370614359172
295;2.52768511733666;1.1081508993483684;-1.5213832338496271;-2.413871392391108;0.2115577806305518;1.940646591741736;253;1.2566370614359177
296;1.9717849632359248;-1.537870968170658;-0.6620995684316464;-0.8859829667533785;0.2346868682050316;0.1588251178809357;211;1.2566370614359172
297;2.768393522982875;-0.9275361014048992;1.7457316466795914;1.4705816821980764;-0.5076671682732885;2.9585853554141592;224;1.2566370614359172
298;2.706086244984254;-0.6712527863525324;-1.6882154833425362;-0.5697155917346842;2.734696243590168;-1.6621998507297446;133;1.2566370614359172
299;1.805714036668946;-0.7874899480649897;-1.550397190794587;0.174406667948371;-1.964221055484138;2.24579176488686;94;1.2566370614359172
300;2.4733165124298773;-0.3559599498680977;0.0592401979310489;1.005956399519286;0.8822206827376378;-0.8572524626115092;77;1.256637061435917
301;-2.290515607903499;-0.9395209321545028;1.4684743202211832;-1.3851712865533723;-2.228624266613046;-3.0425401478594747;162;1.2566370614359172
302;-1.156185879621506;0.3714250114055237;-1.5133901238480416;-2.045736563147296;0.7835582476007729;1.485679721872352;282;1.2566370614359177
303;-2.666131773654837;0.96109255675124;1.2921865752663624;-2.9631821393449567;1.2048246560882565;-1.706992315653972;292;1.2566370614359172
304;-0.2080359347446472;0.82750981030475;-1.8677458247127607;-0.0701832890242695;0.2422250678375741;1.929281422949116;19;1.2502362149298505
305;-0.8379327772353091;-0.296429269948272;-0.9182123721936944;0.3136306420348839;-2.2622183792686554;0.2633382638834967;222;1.2566370614359172
306;-1.8288332844672888;1.3265714305606668;0.8535964765477906;-1.8103228653724603;-2.2092295973296743;-2.9519298712506945;221;1.2566370614359172
307;0.0934781269712387;-1.3211034712835046;-0.8360906486217701;-1.1719992949383875;-0.8755782814926342;-2.6090033658424847;105;1.2566370614359172
308;2.5910744043495293;-1.1342336341865358;0.2459614459354423;0.1221321181472449;1.22803278330071;-1.0120544705680432;300;1.2566370614359177
309;-1.4910926730778726;0.0976617126807511;-1.751386615145296;-2.71328271098076;0.4566251153978837;0.6008733374846078;302;1.256637061435917
310;-0.0261226194796334;-0.4787326825439175;2.40855043921779;-1.4526575828204722;2.2921270640498745;0.1754088349507461;286;1.2566370614359177
311;-2.639307324959522;-0.0821749636258507;-1.6350408267153027;-0.9274433693772216;-0.2722515012329022;-2.58271520980532;204;1.256637061435917
312;2.0981947473514584;-0.6920445319532171;1.6955678659006432;-2.348267805775901;0.1776011937754888;-2.5747471699483464;165;1.2566370614359177
313;-1.8797468847674808;1.0435430650004902;-0.7397280313016565;0.7410830639169455;-0.6686325192786179;1.6735235553013903;208;1.2566370614359177
314;1.9017863576410527;-1.4701756162633048;2.1589053775285327;-1.0866851524651715;-2.3514815965883265;0.616121196020132;33;1.0751174803474992
315;-1.408080616389498;-1.6740843387731807;-1.54256747246593;0.1999623752905249;0.7074151781457911;2.8840734395011003;87;1.256637061435917
316;0.6450593921686109;-0.6626396567093228;1.4199344923629955;0.7879224115271221;0.7620763693365626;-1.5326020735335697;111;1.256637061435917
317;1.7240998467735411;-1.2606447216058934;-0.2398785438832877;1.2315299324031552;1.2291625402799156;0.2611297115924021;77;1.2566370614359172
318;3.259846113350892;0.9793593988224736;-2.2750940141921263;-2.913044728750877;0.1221821250018796;-0.0872440786228971;216;1.2566370614359172
319;-1.297501489575577;-0.7592716283070773;2.19986409519714;-0.4985912071121418;2.9442884789476347;1.3824010772230346;274;1.2566370614359177
320;2.476482430453919;0.2976264768412189;1.5693192963196467;0.8581015334873755;-0.1115945082407795;2.8666419051218592;224;1.2566370614359172
321;-2.30915379694023;-0.8886893418032931;1.4097455240669683;-1.494609432412897;-1.9348375496473755;2.3234224876854164;173;1.2566370614359172
322;-1.883361896757644;-0.2948381130701889;-1.344234067548511;-2.3259406380112133;0.6644452543895839;-2.16452003690304;204;1.2566370614359177
323;2.960818344077707;0.0079523351462446;-0.7532181559235408;0.5897716737727992;1.3493662939355509;-0.4603605473805613;300;1.2566370614359172
324;1.2895139123744066;-0.114584029698857;0.0614935347146615;-1.7160708366589466;-1.5668231492101423;-2.767186357146919;31;1.256637061435917
325;-1.5442656166994957;0.1979330253089822;1.3494020092699526;-2.8530425316975725;-0.2253453180737328;1.0216249710524026;212;1.256637061435917
326;2.272551962886292;0.2266713714492794;-2.032428778032493;-1.2249572442749317;2.8870973084436216;-1.5444440134113773;298;1.256637061435917
327;-0.1928127427472164;-1.2274117856130973;0.6327391731096396;-2.429781081981536;-2.183081263056029;-2.447135666706877;105;1.256637061435917
328;0.0921714699961275;-0.6502064993935366;1.425719099332151;2.192125112317696;1.0993898359482372;2.1977467997022;140;1.2566370614359172
329;0.845041285210393;-1.42881561135221;1.887135586541994;-0.2838051798443699;0.6505141581176023;1.7557538926212872;197;1.256637061435917
330;3.0890979951500164;0.5784612696083444;-0.0582438912067804;0.960658171619058;1.6005442285456657;1.372268238584444;266;1.2566370614359172
331;0.8421283891804726;1.364116448265993;-1.1576748172095437;-2.5069517463869704;-0.5637157608508778;1.200155128803751;62;1.2566370614359172
332;-1.7258631270533165;-0.3582042954908852;-1.1346972326238884;2.904272052023565;2.2871277130094185;-1.9819617737145447;75;1.2566370614359172
333;-0.1823487516535414;-0.2296024731098485;2.427142140642752;0.697660939397475;-2.0301135980020466;2.184452374723775;226;1.2566370614359172
334;-3.367134520712234;0.0361573834841681;-0.5556901417255239;0.273296293421984;1.4555128251789302;-1.4699204781787174;214;1.1019397549705774
335;-2.0687013959687843;0.5860678926189409;0.5394624463446528;1.9523258155269196;2.7118841998732948;-1.6199552191596889;102;1.2566370614359172
336;0.4402489979752357;-0.9971825062745852;0.62449229804197;0.8024082377141005;0.245329930397141;-2.2573816831986493;316;1.2566370614359172
337;2.591895051187894;0.4214283463512902;-0.7467649328410761;0.4225413195464966;2.7933858158174054;-0.1483819809185615;260;1.2566370614359172
338;-0.5751280476813642;0.7889310653048002;-1.5166282545585323;2.7382005744336984;-1.0357160006761392;-1.485889535965912;159;1.2566370614359177
339;2.285966412585765;-0.7523907682185996;0.7423287497276273;1.353894860197531;2.2853953299695005;2.5300080470021444;198;1.2566370614359172
340;2.51858030326273;0.1145662608843114;0.8164141374346853;1.3594499816262895;1.2881711990843845;1.542546333216047;49;1.0885454322519346
341;1.6538429487830508;-0.5725121178727244;1.7843199242128074;1.6980340531901832;-0.9775214733848868;-1.5364804919947683;195;1.2566370614359172
342;-1.2105498276580966;-0.4673026428511407;1.2227999093609696;1.1981820278740716;1.2188133276036264;-3.2552976206899373;113;1.2566370614359172
343;-2.0761585007979297;-0.0814823176344598;-0.890327730076939;0.9722437606938966;0.5934466660436946;-1.5399454478737773;39;0.9853584438774128
344;1.6980193987643968;-0.2604537518002514;-0.4798804436856088;2.382564579880265;2.042084579831738;0.389436298546214;194;1.2566370614359177
345;1.591628613730021;0.0983692349453241;1.1885554194479502;0.1093214947562834;-2.034186415709441;-1.4176502615722355;26;1.2566370614359172
346;0.2196526966045907;0.7402665462013338;0.0609474042724556;-0.5122730431796437;2.858542182950783;-0.1198596190804399;271;1.2566370614359172
347;-2.2768567024732107;0.0378103432500828;1.51734047085381;2.8197527415936143;-0.371680488669608;0.7010702335956152;124;1.2566370614359177
348;2.4901586490978094;0.3487630950946025;-0.702159500637991;-1.4356865958720977;2.8287989434438146;0.1690389969237188;156;1.256637061435917
349;-2.079269010307621;0.0889144140690143;-0.7034810647661358;-2.536365573266641;0.134595517838538;0.6007871536637102;309;1.2566370614359177
350;-2.3420316862093387;1.2809559077430717;-0.901452181986624;0.6109276161049129;-1.775138258588606;1.8775199180022573;313;1.256637061435917
351;2.5550727781702345;-0.5990178711347978;2.316679156059419;1.1929134797866126;-0.651754207481009;3.2910850779725047;297;0.8293538432139085
352;0.5240194448571107;0.7422958685925988;-0.0878901848214605;3.1328728002400745;-0.5328473920368684;-2.9037427914211635;143;1.256637061435917
353;-1.558630756698148;-0.6456522763686621;2.277179365785247;1.4328493510978848;0.6327275781262562;0.928934205089218;178;1.2566370614359172
354;-2.94476899441051;0.3824209554040736;0.5475117765637475;-0.5635680644341698;0.949669951696773;-2.396380791595768;125;1.256637061435917
355;-2.30299009649025;-0.2459308677646716;-2.040469651710257;-2.5906890836356298;1.3236906136463422;-2.805781908297972;322;1.2566370614359172
356;2.1727485933623303;-0.9601886980654936;-0.9937302012782776;-1.2358657891142617;1.286774295854707;1.5827040476155116;211;1.2566370614359172
357;-2.346688543633632;1.511935383579955;0.7324118858831581;-1.9078026062623656;-2.893112466081772;1.4520437105699453;109;1.2566370614359172
358;0.3819076425005776;-1.188167875607102;-0.0675982464862751;1.7029744948474557;0.7302020827406588;-2.376325660287786;336;1.256637061435917
359;1.1765169587828446;-0.4699867763070334;-2.518429656807798;2.0237314540417124;1.7477405152259409;2.1735447462229507;54;1.2566370614359172
360;2.0815724105156974;-1.0213118828992491;0.9458446317430056;-2.182180147252934;1.3242033000068798;0.680105982958014;27;1.2566370614359172
361;2.7592570354481296;1.183680370023973;-2.442093735492683;-3.0099338683103185;-0.3230643468768229;-1.858173298317968;169;1.048735253196622
362;-0.5134341579814594;0.8094692945022938;-0.8386616548511798;1.130952796226137;-0.353636657380867;-2.861643832775681;229;1.256637061435917
363;1.875059077381244;-1.014736225675714;1.582104937362374;2.480620509124793;1.7003101351055216;-1.6140096608858854;383;1.0340534403219273
364;-2.934934671211461;-0.2061378648438209;0.782933204656782;0.0998466952836443;1.790072756817388;-2.242693173150795;354;1.253769257056128
365;2.3424459271371;1.224910558874598;1.464581303930835;1.097472502725238;0.984075269250454;-2.7439388576203;276;1.256637061435917
366;-0.7152603774501334;1.1116678201718309;-1.83447551051694;0.1314935546850164;-2.608086747707207;1.2296093124804293;222;1.1842131916450735
367;2.8073280724189047;1.2371166058350616;-2.129289516450091;0.1193185812640439;1.8934885600074691;-1.2697180230967002;60;1.2566370614359172
368;0.9617734206082562;0.7688475995721141;2.125163030135225;0.9678560188780224;2.1538963581471915;-0.8616817713326228;89;1.2566370614359177
369;2.9280091600721248;0.3892106448809032;-1.796186903552638;-0.322740303659385;-1.4758809433673306;0.567815064209865;278;1.2566370614359172
370;1.5419755030307147;-0.3001307846827847;-0.8708552730289429;-3.191786999458127;1.651247463252748;1.720392307716097;122;1.2566370614359172
371;1.1915865467169673;1.3576995954118698;1.5410654542128983;0.5012289534087329;1.592332555213648;-0.309131993442908;368;1.2566370614359172
372;1.088657309628826;-0.7239874893993371;0.4377981619110082;-0.9881274314434532;2.6647589647263628;1.42578346188766;259;1.256637061435917
373;-0.9917726902596772;0.0889766224424938;-0.8052267562354278;1.542060200056065;2.8505553093455105;-0.3166345209909216;283;1.2566370614359172
374;-1.052292898437609;-0.0951173324053999;-2.1195913860450744;1.069243949693283;0.7848693102975601;-0.452543764880133;99;1.256637061435917
375;1.7904435243166272;-0.7549981723297414;-1.3177509998033057;-0.0550704708119495;-0.8996989177596293;2.8270459356542044;299;1.2566370614359177
376;-2.3317800884623203;-0.7991141738567369;2.41464275404425;-2.166474869687952;-2.683232562644889;-0.3074874680107596;196;1.2566370614359177
377;-0.0195842518918796;0.7928781046456759;-0.5167676020276915;0.506844690383888;3.1397451483608108;0.1403397649369085;346;1.2566370614359172
378;-0.6539677353120036;1.5639949367640416;-0.098171515940275;-3.3100729142728835;-0.7113725129950917;2.744075057945264;116;1.256637061435917
379;2.766798599050853;0.8409209244743461;-1.1932241031730195;1.968245408196705;-0.3166487593618627;1.4979726695722235;180;1.2566370614359172
380;0.3609944699840238;0.4876098173097655;-1.9921656729151431;1.956215410148037;-1.0370215221385106;-2.545485420958872;159;1.2566370614359172
381;1.363442936055716;-1.2959314912323667;1.2118382101631529;-2.7776057437370323;1.0396772316025704;1.3742036162159614;360;1.2566370614359172
382;-0.0830283555986149;1.2467723677434002;-1.0702548549323576;-2.540946149801145;-1.850226265189857;2.733553331796416;279;1.2566370614359172
383;2.3636977829487127;-0.842278811357541;1.9545120553077056;2.4780299416051474;1.3847669021618534;-0.8640124150798172;69;1.0488032267960428
384;1.0953133172944352;-0.8218180348478707;-1.3220790236031197;-3.146155295446856;1.2473279237791497;2.5798315953688182;370;1.2566370614359172
385;0.078866681451323;-1.606931303333092;0.939672278124054;2.217848697611049;0.6687743570683271;-2.207573321642271;358;1.2566370614359172
386;0.7867773908491473;-1.5853770219406595;0.3038278056412345;-1.414210980712299;0.6519711922259431;1.486650048873514;197;1.2566370614359172
387;2.119961304908027;0.686886790616195;0.4820338609980586;-2.958065977821368;0.0558876367320431;0.7105512373945153;46;1.2566370614359177
388;-3.2434637552361254;1.172799118869504;1.549939516346993;-1.8042817161078035;-0.4071181302690347;-1.110297959177433;234;1.2566370614359172
389;1.4408554935423497;-1.4402264365373267;1.930719043500929;-2.604243802810915;0.6968204685517924;-3.0184331000213787;312;1.2566370614359172
390;1.974935940891405;0.8455477682069408;2.010691912039342;2.451416244118532;-1.1278715548440887;-2.5472854963608462;237;1.2566370614359172
391;1.7015702472208063;-0.8671849609439158;1.3884218220272284;-0.6683978147715643;0.8141860438844425;1.6806781334773877;197;0.8580360336340076
392;0.6165201547157689;-1.3455741344827226;-1.669238606428942;1.7597074468686211;1.395885701591511;2.479766206334601;54;1.256637061435917
393;0.4188797693344062;-1.0366838597893715;2.2645248479424587;-0.7470736769560828;0.0842539325426888;2.508126644568186;329;1.256637061435917
394;-2.127378796365591;-1.0484684752486508;-1.3604410491286143;-0.0766108660873115;1.854759352318915;-1.6827251075319485;210;1.2566370614359172
395;1.9548236512983832;1.3944378880997526;-1.8825223610701096;0.2173145782119118;-2.195260518293286;-2.468155257193515;217;1.256637061435917
396;-1.0751903613516227;-0.625168409607813;1.3243423459290498;-3.073129657755037;0.7138267751189403;2.9886901806182284;209;1.256637061435917
397;-1.7979916044252502;0.1303114593546925;-1.9001066726431248;-1.6182411863644324;1.0272694617719615;2.195610132490732;524;1.2566370614359177
398;2.706853427291596;0.6028668766450966;-2.504352361270653;1.508754117488744;2.4120582887604973;-2.240962241503125;64;1.174106589045019
399;0.3640344231096386;1.4369030314412463;0.0655023945275255;0.3915993665964288;-2.078355968522124;-2.6857750397573774;126;1.214977119747804
400;-0.4884994147947311;1.503234986648702;-2.1785496813304484;1.5482743107624306;1.4472419796072782;2.214837526073444;88;1.2566370614359172
401;1.854712279975537;-1.1336965374922696;2.248507764049597;1.2521016900620112;-0.4326958345915975;-0.8204502808214438;341;1.2566370614359172
402;0.8983312303732425;0.8965160957153265;1.4150138820609743;1.2520045881651478;-1.505096561849003;2.6797780867585312;267;1.256637061435917
403;-0.6894789603373546;-1.0143618896889357;-0.9864822231969544;-2.7767179120092;-1.5289557469253203;1.3075908473772146;285;1.2566370614359172
404;1.360422884411005;-1.0597274055580668;1.515569528640888;-2.2082646592980564;-1.9907038688017664;2.6133524774637413;50;1.256637061435917
405;2.5965280723960005;-1.7127526659860095;-1.0600604602414;0.940162438734622;-1.099363899709346;1.5241424339469645;67;1.2566370614359172
406;-1.7383474842869882;-1.007815884064898;1.831591365925217;-2.5479385098581906;-1.8143007047760893;-1.9202607500974185;196;1.2566370614359172
407;0.3061476175953044;-0.7363818605125124;-1.5053342912457504;2.4235898520796355;0.2561240164835004;-2.847173497052465;143;1.2566370614359172
408;1.995951490494427;-0.0224617027687645;-0.4663305274360299;-2.3772026898862566;-2.0971747046754903;-3.0403708899331914;324;1.256637061435917
409;-0.6894850406383706;-0.1369983197635907;1.7266715042269658;-3.329459743553694;1.4649419147550051;2.35598941751097;396;1.256637061435917
410;3.471211859672908;0.5653027609554551;2.365713431544356;-1.6347873818490324;-1.6333952917134815;2.184165105157126;268;1.1376991167065835
411;0.6014495396873367;-1.3312731173471668;-0.0745829769599988;2.199609169306324;0.162768796217625;-1.4058702886444197;358;1.2566370614359172
412;-1.3470386057473798;1.4371131264613175;0.116711964620138;1.6549437627638235;0.44024179080992;-0.6852187139928869;238;1.187267810968491
413;2.789017911796503;-0.1017066343503034;0.4255220250271964;2.390096556441026;0.2448002842573838;-1.4939117831288482;256;1.2566370614359177
414;1.184721450980899;-0.534199113516161;-0.8868520799610868;1.7728160374650668;2.1704650276957054;-0.0240939787423467;344;1.0311737649872734
415;-1.39896747576505;0.6740895697167006;-1.3881506196647078;-2.032731913365956;1.4527842492368643;2.3365558475765904;302;1.156830331192527
416;-1.4176217621793197;1.081629498705645;0.5362224525248089;-0.7495620179730857;-0.2796119229074488;0.2312099592946848;41;1.2566370614359172
417;-0.9491544064662834;0.6933480674210117;-0.4112998644603601;-2.112955794724604;1.197655916247261;-0.5827433794171977;158;1.2566370614359172
418;-0.2910482515323747;-0.2840016526192112;0.7159154435338382;-3.3517005452694546;2.073616795878191;2.2774574431860453;409;1.2566370614359172
419;1.3526248664274143;1.4354053529767945;-1.9506901979399285;-0.3469811249734948;-2.693498554919441;0.6641830864427869;151;1.2566370614359172
420;-2.470198502365778;1.1750123579346865;-1.0333048941363985;-0.0046798011831533;2.4039218225155983;0.56167327883639;244;1.256637061435917
421;2.2300364237914674;0.4788893096292506;-1.8646323007059376;0.4139534130068334;-2.8045591668937773;-1.7392820632168868;152;1.238767059678817
422;2.7071847676054794;-0.2480018159046881;1.761043078650638;-2.8392571630303287;-1.610631760774134;-2.407996074601873;269;1.2566370614359172
423;0.6985813734977336;-1.1261590830486414;2.3584103602589064;-1.6694024454025371;0.8009851814771152;2.8540881619360667;393;1.2566370614359172
424;-2.4997903379965294;-1.2503695279142129;0.8791680000544082;-0.2855496310209432;0.6816642879132667;1.2937656610994528;163;1.2566370614359172
425;3.3145863250877228;0.7485271062213632;0.9820387805172224;2.883862185413608;1.3539215602426389;2.063533580980591;206;1.256637061435917
426;1.7204872262884068;0.1626273835539585;1.1737849194742829;0.7005699521686612;2.326165968895709;-0.2263916365682824;240;1.246741088876484
427;1.7929541808824434;0.0122462671081322;-0.3276546942478852;3.1744894126616363;1.2128017891641374;1.4418787094073544;108;1.030121017063937
428;-2.8789229375439893;-0.6168971118297931;2.154380889531002;-2.2179982373504927;-0.1810106655661498;-2.2095101502158494;234;1.2566370614359177
429;1.332905635185912;-1.01684147827367;-0.6975517378999426;1.4068185664996418;-1.3140445084692396;-2.410155913566472;132;1.2566370614359177
430;3.022155313860806;-0.1291785869824822;-0.2864496614904808;2.9964610067006885;-1.2552924582381788;0.4846960305199906;252;1.2566370614359172
431;0.8952597653750396;-1.500139827378291;2.56462941312986;-1.3768292227779362;-2.1186637975656017;-1.3154531011119082;20;1.256637061435917
432;0.6155142063036809;-1.0102126933773783;1.3615589453051264;2.784875186945808;1.805386548209185;1.630521896544714;328;1.2566370614359172
433;-2.7753164832556374;1.2688803246962577;-1.4393733653036465;1.965610303911815;-1.312264582638979;-1.1265679080020656;223;1.2566370614359177
434;-2.011247490644936;0.3633617202496521;-2.1780832281977403;1.0643680066589505;0.1426926347771795;-0.6355841962990035;374;1.2566370614359177
435;2.563296308213574;-0.4830546779390701;2.0152062705933416;-2.353116586812936;0.2532390071530793;0.1023908336128792;74;1.2566370614359172
436;2.800858483304234;-0.7616951620496843;0.3193392559232908;-3.208849257568387;-0.2024337670855638;-3.0438913013050355;269;1.2566370614359172
437;2.236928911207177;-1.3573812541453123;-0.0792662520678053;1.473932751754519;-1.8200928461205452;-2.465338390337708;429;1.256637061435917
438;2.841704962018041;-0.6831833227328244;0.5591167847067458;0.9365195742229374;-2.1894456931285724;-0.0221445047496613;85;1.256637061435917
439;0.4420747772729649;-1.586371622305664;0.6291664181877795;-2.414292633145178;1.4210938427390176;-0.8491662686305306;68;1.2566370614359172
440;-2.333393947923862;-1.0864192262213297;-0.8592426824922577;-2.869342341530155;0.2662976822487427;-2.4114687243506747;322;1.256637061435917
441;2.411056457398937;-0.7579601569301151;-2.025877909400983;-0.7090822846397195;-0.8430583988313234;2.31559291043548;375;1.2566370614359172
442;-2.6045272011329006;-0.0468676629785034;-1.8487118328494403;-2.114608602941704;1.1360855321382402;-2.983304058938048;554;0.9903323916399804
443;1.1673055619393744;0.1602279331675561;1.182630023353697;-2.092901231313676;-2.18532220156142;-0.6274739882959379;5;1.256637061435917
444;2.995445386826629;-0.8036559481767817;0.7233714971667712;1.2806037123725589;3.025946112115275;1.8514918179582227;339;1.2330933611664927
445;1.2024840892131472;-1.0088295924384203;-0.0267581342597014;-1.5201169905126015;0.553431808710442;-2.240461743785154;32;1.2566370614359177
446;3.355219380860377;0.2107300150862245;1.1862304404700912;0.0783739484023653;0.5501468781351934;-1.6295326839109374;219;1.2566370614359172
447;1.252563552421371;-1.482948480061644;-1.0007528683025313;2.5878735010609977;-0.0690330100915506;1.5598090894109005;207;1.2566370614359172
448;0.7065936339482384;-1.309348317639762;1.0771985050253703;0.548605035213523;2.960897894465334;1.961541696968736;93;1.2566370614359172
449;2.5895390224556847;-0.6330431304050814;0.627145969953364;-0.5828718994468659;2.588309862298328;-1.9614008576147928;90;1.2566370614359172
450;-0.0379755599670145;1.1133062995177565;1.059618488598026;-1.5036913932482123;-2.115384869178839;2.314941834168616;66;1.256637061435917
451;2.314027171812969;1.3539916470665254;1.2810194814045217;1.238282377380865;-0.567331785119833;2.8280815969246684;320;1.2566370614359172
452;-2.0299491140883594;-0.9841042709508012;1.5392603711751858;-1.9243621489515783;0.0644944451637897;-2.655235278119405;428;1.256637061435917
453;2.950931744500778;0.0672081362285513;-2.263192886893856;-1.40686718205892;2.6009497376688664;-2.506361536393713;326;1.2566370614359177
454;-3.3615599817050694;-1.01744831416529;0.13281268829734;-0.3064783830927255;2.984544962187427;-1.534814673991604;214;1.256637061435917
455;-1.9427261348492255;-1.28591200977858;1.226518986674509;-2.848067193736644;1.1809295688077364;3.322649367513629;396;1.256637061435917
456;2.0550626755883816;0.3517864602799579;-0.8330534597194157;-2.054649434623879;-1.4122313606302104;-3.3837224773830723;408;0.9844388393636856
457;-1.2255462109178563;0.2769470045593458;1.6221530006660687;1.0174921810092727;0.3123944463718762;-3.361492603831376;342;1.2566370614359177
458;2.364865934193408;-0.113229777801366;0.8695922776579831;1.7662279142063344;0.4628669100838943;2.170783500196539;49;1.1136766552847408
459;0.0121714191487068;1.608552515369719;-1.315213623075978;-2.2053890881194027;-2.1443887137309585;0.088651161761051;79;1.2566370614359172
460;-1.2605962332780467;-0.3830183830767207;1.888515160528592;0.0530110583630247;-1.7592589706369428;-2.98846151880349;202;1.2566370614359172
461;-1.3493299829597365;0.7652757798127279;-1.4656434582371034;0.1749006285057919;1.4202060347693235;2.7257239144778733;19;1.1325391587454738
462;2.795487425370436;0.30863679890199;-1.0550593875242622;1.418612234411358;2.6415804510955114;-0.1221322304166685;337;1.0794018919703514
463;0.0740494811494898;-1.2416824192326197;2.6428624795011597;-0.5850404803570044;-0.9701060341774204;2.8784444911205878;393;1.2566370614359177
464;-2.983900763958111;-0.7695030853541911;2.616924689758145;-2.8042406211954694;-2.047293972742695;-0.8560469331228054;376;1.2566370614359177
465;2.212284568633189;-0.7493417167469079;-1.1147805858888975;-2.773660836592004;-1.469722208180212;-3.220978124011445;408;1.2566370614359172
466;2.7612689263515686;1.573723703049123;-2.121092035977752;0.2525778728692947;-2.7890275468777768;-1.6010450018817;152;1.2336622139594444
467;-1.7458696536516607;0.6053452464025694;-2.0032303551913238;1.1317698806143566;-0.7386447664769777;0.1633420369772226;434;1.256637061435917
468;-0.9019221655178624;-0.459659424986327;2.012681798292987;2.5298446717000047;1.2056190532767694;-0.7994184339036854;281;1.2566370614359177
469;-0.8539310002240271;0.8983177188754298;1.268702117633407;2.09831473093265;1.3309351887338097;-2.3019357565285734;294;1.256637061435917
470;-0.1083523312394529;-0.0520357304196728;-1.8437990996730316;0.8220457400492361;-0.9290193420765338;0.3176433928218373;119;1.2566370614359172
471;-2.101422260102722;1.1322917876645822;-0.2576419311628559;-2.25134388501822;-2.3520209344113923;-3.0836404266600024;306;1.256637061435917
472;-2.7198914722917875;-0.7907314406159615;-0.7115056418308593;0.6765018070035815;-1.5196920770504454;0.3198820502070018;37;1.2566370614359172
473;-2.66828301091574;0.0496936128489118;2.3264721141411338;-0.4128079185014597;-0.051375749441281;1.1099506745482683;236;1.2566370614359172
474;-2.695414544248607;1.0240588013859586;-1.3174813947498625;-0.5493932371418625;2.826973193015429;-2.0525127296433423;270;1.2566370614359177
475;2.6235634085456017;-0.0385187099267427;1.8501925300900284;-0.2680144174302391;0.5045458453365368;1.100891215959119;43;1.2566370614359172
476;-2.503995058649596;-0.2137765581090235;1.0231478256834747;1.3882818240326384;-2.647345145766571;-0.3959678360033763;290;1.2566370614359177
477;-1.7566887603601316;0.433522488525115;-2.1072079554824548;0.6894326704545727;2.209338491650671;2.7894186830835643;461;1.2566370614359177
478;1.9685239754626056;-0.823507014609794;-0.0203713962258148;-3.1167926018758862;-0.5631757320840671;-2.251097036844468;436;1.2566370614359172
479;0.1234988053942342;-0.7307912182072975;0.4090106908798968;1.7162486053491317;1.0546601540197758;1.6414139648116794;328;1.2566370614359172
480;0.3889954083533459;0.936082259259522;-0.8686853612020395;-0.4596252835811661;-2.0633132116403843;1.340486668408208;250;1.2566370614359177
481;-1.5677343283887972;0.1596653247532848;2.032193094304624;1.8066535513950372;-0.3583624261582105;-2.906008602936435;457;1.256637061435917
482;2.199947412771831;0.6447545735850196;1.4405044539642429;-2.626321336184113;1.8027683716833045;-1.6058095475413108;101;1.256637061435917
483;-0.0035566368973451;0.6535008899825012;0.0153413518547308;2.2169629388771384;2.647781579518889;0.8118504004285512;287;1.2566370614359172
484;1.2735301131429488;-0.1112041113982744;2.517544548564715;-0.8069322256666783;2.453715635808885;-2.4142074651601395;220;1.2566370614359177
485;-1.0824857192736064;-0.0589777658247055;-2.261951713466319;-1.819916070536675;0.1330683291851384;2.440880113786573;397;1.2566370614359172
486;-1.1097041170215851;0.9759187948761856;0.8298386445855749;0.0449930525833502;-1.6500706918303751;0.9597362764263592;157;1.2566370614359172
487;0.3024015534740711;-1.4324026272668842;-0.6878938849690834;0.7044538432027903;1.08971152078327;-2.422234974596509;358;1.2566370614359172
488;0.9725524871330729;-1.4115152729659337;2.1523621266286157;1.571767793324535;0.4963784979828371;0.6639767373037053;272;1.2566370614359172
489;-0.5352857550212764;0.4137166916000109;-1.330271280847865;3.1378471011342133;2.0012465736695644;-1.47049055058355;75;1.221934224754288
490;-3.1483317255487875;-0.0515471237618805;1.0886182984406272;-0.7730152844205866;2.47498809164715;-2.072671405326969;364;1.1928052773281337
491;0.0641270632619619;1.4703047364886392;-0.1495050032765403;-2.19572984882484;3.4146497973250844;-0.1161608388947386;271;1.2566370614359177
492;1.5917556033261775;0.2973908322555973;-1.3376569374175653;-1.9071880762908917;3.242644561801228;-1.3544674074503489;326;1.2566370614359172
493;3.164148126450357;-0.2689668703802667;-0.1434934034496125;0.0080036545769337;3.19100906147818;0.7144332233034274;266;1.2566370614359172
494;-2.272732381711144;-0.4551184484245429;1.7739060038414702;2.401735626853382;-0.8401457470469499;1.6370814628291128;347;1.2566370614359172
495;2.7062655320938944;-0.4994292875716731;-0.6323461154765654;-0.4932207439280109;-0.8854913608082626;2.7124425874331832;375;1.256637061435917
496;-0.522080779843606;-0.9999764723874917;-1.5709363909211902;0.1885214441299229;-1.647692376361399;-1.2924013765403302;58;1.2566370614359177
497;-1.394634800702467;1.4412747349466168;0.3502193279906904;-0.7691733173623179;0.0936041834998486;2.1381140928770623;181;1.2566370614359177
498;2.855153845875087;-1.2128656226619312;1.85905872471929;-2.8605793645900235;-0.2838322147555746;-1.3571303133728725;165;1.256637061435917
499;1.9911252948666271;1.607806413257144;-1.3825603361863052;-0.3163391856366117;-1.2106932805780088;-2.635999696311427;395;1.2566370614359172
500;0.7024468147347865;-0.7040521498547658;-1.1662434437732505;2.603144546120195;-0.262115521659191;2.3375800031261957;447;1.256637061435917
501;0.3604277484884559;0.4447595566757457;-1.2105861471063155;2.761880790641895;-1.125704764429954;0.4236797900438838;119;1.2566370614359177
502;-2.2712827968352807;0.9342788129389754;0.4532276992694438;-0.3729504357117015;1.1140547941828376;0.4991151154660457;192;1.256637061435917
503;0.6391150250669045;-0.977894220014621;-1.888315117679943;0.0878856447073159;-2.2096882873230523;2.246835243171501;299;1.2566370614359172
504;0.5814114711261148;-1.2245924179518128;1.843813721237008;2.5230125086592503;0.3161829287346958;-2.588998280458852;385;1.2566370614359172
505;-2.360514630250472;0.6521361759835396;1.144783258830993;-0.5084250892670058;1.94432736602876;1.0519395896126151;502;1.2566370614359172
506;0.6343065557380247;-1.1170716651762378;-0.8044153533503351;2.958341952039254;0.6040991232324228;0.9009259550884484;447;1.256637061435917
507;0.6682117607862506;-0.0514174752958674;0.4868136029326644;2.0725553887724755;1.9277619481266035;0.4299784222391316;194;0.8864097147072376
508;2.613666822941134;0.8444436814529608;-0.3033967367696923;1.398362465428693;2.5695685064685247;1.0695105078081577;330;1.256637061435917
509;-3.28384422025466;1.1329751514237214;0.5459927942687884;-0.885266139789411;1.459884813841513;-1.6635629904456564;354;1.2566370614359172
510;-1.8143566333002143;-0.9888981075800474;0.9380740482517952;3.060032085553134;1.7804729444723109;0.7928350043910534;281;1.2566370614359172
511;-0.0350074938895537;0.2104675248240719;2.104246769603033;-1.5384753704846954;2.8784766313462185;2.7425292590723207;246;1.256637061435917
512;-1.3748499556882867;-0.3037782072899198;-0.4251229758375063;-1.0354435024694428;-1.3284248282537836;-1.2986409503328815;248;1.2566370614359172
513;-1.5551323889937494;0.3679885327948921;-0.664518070676667;1.3024973875735188;1.107385034322853;-2.0409160512059104;343;1.071752726474481
514;3.006497603201605;0.3280947167069741;2.0234484095419227;-2.1128000138086733;-1.3685443154324242;-1.6991530474040075;422;1.256637061435917
515;0.2813351402452308;-0.723719371276558;0.1153733577883762;3.0902578043281914;0.0495060086988426;1.2598622572254496;506;1.2566370614359172
516;0.7523150034775682;-0.3384907437857587;-1.8956174366175096;2.583256899804969;-1.3812954262118418;-3.0172223121270583;380;1.2566370614359172
517;2.431119163017557;-1.5892715112162596;1.4482884915595946;-2.319415659887705;-1.1059620377183212;0.5544515235172343;188;1.2566370614359172
518;0.1523339826589614;-0.4019023002538068;2.7611062923456307;-1.011789513341805;2.601340886792268;-2.752539340813359;484;1.2566370614359172
519;-1.404390846912874;1.3231774571522552;-1.733372356743114;1.9927973374913337;1.9024500435307488;-0.3376232244828614;283;1.2566370614359177
520;2.8798324409068474;0.2818096976241157;1.709008376025538;-1.4630909741381708;-0.6611733360851177;1.2198488317707177;268;1.2566370614359172
521;2.479816127645293;1.5066145956877834;-1.9061930462693069;-2.370874025678494;-0.4954123025677633;1.6935421394042005;295;0.933734133281898
522;0.4011090026499456;-0.8890869990066488;2.427033141801538;-0.2619750223872141;-2.272863291032739;-1.401009478774863;20;1.2566370614359172
523;-1.8204384762800712;-0.0551365845496948;0.5277073363381346;0.3724879502689672;2.8680239656389497;-2.241675625337619;102;1.2566370614359172
524;-2.4914959041394;-0.423904823380101;-2.106230269502422;-2.1096492490470435;0.395538532398793;2.5242132578951235;138;1.22199945920139
525;2.9420585808167177;1.0860927316055635;-1.1965824328046917;-0.5264873971099315;0.7973807533886095;-2.871386102306646;174;1.2566370614359177
526;-2.6571386591399677;-1.2824427049922769;-1.4400202549703294;1.744384599005289;0.0150808204666952;3.059973406001994;179;1.256637061435917
527;-2.304915569760792;0.8828213530746252;-2.2435353400063294;-1.423435117196094;0.377387732818967;2.6171012256561585;397;1.2566370614359172
528;-2.798438232345452;-1.1231730363775454;1.387533741503713;-2.413697590841456;-2.6279451739336643;-0.6779251033780735;376;1.2566370614359177
529;-3.168955402405703;-1.3906628055131565;0.1510853805657268;0.7470647426891024;-1.2598624187065166;0.7682198660230019;472;1.2566370614359177
530;-1.39896022592627;-0.3689848457736562;-0.5048865659173984;-2.8050649871684685;-1.1843812697506662;-0.5698287643009255;248;1.2566370614359172
531;2.421243310465026;-1.5722444106701228;-0.85453588537011;0.1941472588188753;-1.460507246995597;0.9531872100485304;405;1.0515040190621654
532;2.9431875834975845;-1.4428948015895564;-1.1262015409942112;-0.4608354279585732;2.5001854338728293;-2.4002908874171807;298;1.256637061435917
533;-0.5257727974688557;-0.2733132785221832;0.6859347848399665;1.3249192768999527;1.4825283370258782;-1.7353330718848845;113;1.2566370614359172
534;1.682841246115366;-0.6866263238450764;0.4027239264358947;1.7508714143585613;-0.4874239332618494;2.6144387696970326;95;1.2566370614359172
535;2.390153815187152;0.2531183979374001;-2.530417263900445;0.7339482506560181;0.2136507747361262;0.9749759817036512;190;1.256637061435917
536;1.3632974948250176;-0.6056956873016137;-2.3091367954080035;-3.1977824551810694;0.5552015034180375;2.5118247913407115;384;1.2566370614359172
537;0.885719677899018;0.2947439262038706;0.4094266051697489;2.9259071796247045;-1.2934532155846312;-2.811245584750317;352;1.0992567987049415
538;-0.3234845368696127;0.5316026584912583;1.12403455403741;2.3930129337256894;-1.263679713119187;3.04674148635908;267;1.2566370614359172
539;2.06152945919209;-1.2751648904234945;1.2818673062521555;2.539602019012308;1.6103805436806928;-2.7865426567551608;363;1.256637061435917
540;2.009267592005261;-1.3494617820703936;-0.109598334793096;-2.347712576734988;-1.597957609811754;-0.5593755086435384;10;1.2566370614359177
541;-1.7205512124984774;1.049737001546434;-0.7135111157490889;-2.942581796783198;1.404077136458638;-0.769424753956266;417;1.2566370614359177
542;-1.6782288341395133;-1.3012686478326714;1.419485306119776;2.7774611742635926;-0.2600533673627275;0.8831109857562212;124;1.256637061435917
543;0.9299922675393656;0.9589783915592268;2.370970119357376;-2.884757223552226;0.1723449446815099;0.789827058722471;145;1.256637061435917
544;0.0482643917196711;1.4148732077002946;0.2031570183478467;2.0422593762490937;2.915799309786603;1.7387451710834314;483;1.2566370614359172
545;-2.2651821706692425;1.0709642348047612;0.449201645498842;-2.7670354846043894;-0.4004652538994505;-1.971190196705189;189;1.242550552698197
546;-2.0427542049573235;1.0177339419576836;-2.2983682297829957;-2.5893669768716645;0.0320444931149886;2.514431775854794;527;1.2566370614359177
547;2.564764126863561;-1.1647846243222235;0.2788788891707902;-2.474218097637868;-0.5851425511321882;-0.7685216486870308;540;1.2566370614359172
548;0.96243786758816;-0.2648336643696263;-1.6015295641467375;1.2909356971993966;2.3227611223812854;-0.8553594588036202;414;1.2566370614359172
549;-1.8007436756566266;-1.4087032893903366;1.944849064244793;-0.447887671111202;-1.1043452579804427;-0.8971836020349866;293;1.256637061435917
550;-1.767038488353058;-0.4302355138633334;0.7235638315824764;1.763169506759617;1.0147909790490262;2.3553992304035827;135;1.2566370614359172
551;-1.6371034245861071;-0.2080711088882949;-0.105862741039177;2.4445463320415137;1.0472417226969704;-1.387628896262554;75;1.256637061435917
552;-1.1702364977181754;-0.6583088106289203;-2.1660053836781485;0.770860418871139;-1.880202326861516;-1.8355472259622256;496;1.256637061435917
553;-1.1674593409381184;-0.529700279676454;0.5592524692879083;3.2140907350887717;1.3527567219095964;-1.0309643909453416;551;1.2566370614359177
554;-2.37653874297565;0.700223542531776;-1.325196217676831;-2.1185601981795603;1.0919698430663054;-2.6757267010736085;204;1.2566370614359172
555;-1.1698272340436702;0.8994591396887877;-0.2319874051817816;-1.268750308465779;-0.6251699502454422;-1.7630071547111863;84;1.2445797292051035
556;0.0425498463294034;-0.2038891420759574;0.0072198535479073;-1.886328786521879;-2.149636227182646;2.0540011686308444;61;1.256637061435917
557;-2.812491804919297;0.6966816104541742;-0.2656636852203302;1.3098285862003802;2.578621202551223;-0.5772114095926645;114;1.2566370614359172
558;-2.650210539466703;1.2610982343756127;0.7968548185501595;0.8425420564464524;2.0196434519597406;2.0918682605821948;225;1.2566370614359172
559;-1.7374197871584638;-0.672044244566012;1.6013521181660966;3.3120907733310148;-0.185192466756118;0.6150393282214148;542;0.892075014851078
560;1.9286666643926176;1.180944881602091;-1.0153034441439293;-3.181949670077214;0.7959237460152087;1.77490565638566;295;1.2566370614359172
561;1.7944843006027869;-1.4022221232781569;1.5447119022477331;1.233659859451217;-1.678213775674663;-0.1418214536539768;241;1.2566370614359172
562;-2.103110442383427;1.0194715085618171;-1.7612212422058855;-2.162353845831362;0.5927674462659783;0.4200873152156417;309;1.256637061435917
563;-1.426998317353502;1.455793644875237;1.2504584736297406;-1.1770509970110263;0.7357321559877491;1.7578105859766566;497;1.2389560150643968
564;1.0783031691817928;1.699345528790155;-1.924351869209832;-2.377545384991362;-2.305498973260072;0.1759020372781086;459;1.256637061435917
565;1.1004156878327958;-1.2164059516811538;2.4324526159852367;-3.082546984899724;-1.6573945559805023;1.452080379005078;50;1.2566370614359177
566;1.8222199824096648;-0.964154478335888;2.2516228843874693;-1.0260541797266705;0.1305973408146654;-1.7050039780269914;91;1.2566370614359172
567;1.0253885660657165;0.1706479285458975;-1.8943760180425608;1.006008079780896;-2.01774719132897;1.222675794662366;121;1.256637061435917
568;-2.435263821569237;0.2034896614777945;0.5527250339633899;2.788555756063252;0.5943943883659977;-1.2629558528713172;551;1.256637061435917
569;-1.7648325776001532;0.3067824630206031;-0.7444829960413373;-2.877600946507045;1.8753254885548485;2.397483091219607;415;1.2566370614359172
570;1.6379482617164836;-1.195113828015082;0.5020174385895658;-1.4357824496603746;2.839221014442489;2.331598006686093;372;1.256637061435917
571;-1.1011504964228456;-1.5020736596608568;1.4423015079740154;0.5539037723332311;-1.6622625047920725;1.1558955562974864;72;1.2566370614359177
572;1.98785820978052;0.5067495750886644;0.9688893218594168;2.627754391746764;1.2114961999887008;-0.3719127565138957;256;1.2465272057856134
573;-2.084349672170939;1.2491558890821002;-2.434868795814317;1.0102372286724868;-0.4294182906888671;1.778909837454362;166;1.2566370614359172
574;-3.104608612311103;0.7215269542018459;-1.3449659649360544;0.67914946587407;1.807770864063207;0.7871958949417458;420;1.2566370614359177
575;-0.3354144669621863;0.0514926667233012;-1.8721535390241264;-2.626602047956569;0.3640884130471561;2.831728383022641;485;1.2566370614359172
576;-2.733798090997884;1.2268209071959886;0.0931446967759752;-2.044775310602555;-1.4626839156172395;-1.4419816659124214;189;1.2566370614359172
577;2.1326354559996563;1.7530540051461478;-1.8315529421656016;1.5979337536510183;-3.4298908995095543;-0.5104429735471182;152;1.256637061435917
578;1.889997679781332;-0.861534786851973;0.8280501578364018;-0.5740146766185241;2.704899426034978;3.064639274650496;570;1.256637061435917
579;0.4755441104889643;-0.7198684610224303;-1.9636593942004192;-3.1003156777758587;-0.3458938518186457;-0.692837575753644;146;0.935327877245848
580;1.0325110222682632;0.9813145737204184;-0.7819550979317611;-1.7699671843266205;1.3419714264242029;1.0406135329417616;160;1.2566370614359177
581;-0.077942962970494;-1.1615618296400143;1.469609850166324;-0.3659198613723848;1.33708874907029;1.8136932362872809;329;1.2566370614359172
582;-3.0148536692608383;0.7448326032163299;0.3799912645542341;0.4104101169947068;2.719822720244893;2.6653468100251265;558;1.2566370614359177
583;-2.504463175355743;-0.3959620909366768;-2.005160955506635;-2.756225509886381;0.1601071367969539;0.2079559691329474;309;1.256637061435917
584;2.592551271992434;-0.2391199583803478;-1.326165502891815;-0.200108203209349;3.327777084277347;0.2174605181097471;337;1.2566370614359172
585;-1.671376985458116;0.7200020097753894;-1.6013152202778342;0.1826819336977598;0.8883523337183634;-2.1141228820193163;92;1.256637061435917
586;-0.382068049208914;0.9141393789543864;-0.1334299239267127;1.065821665864355;-2.396846690871196;-3.077693210087485;399;1.2566370614359172
587;3.112678992215264;-1.754839938994456;0.8749811813764156;-1.6991267062814333;0.7053585536398724;-1.0613512295509882;91;1.1937176783624404
588;-2.9415013176393847;1.1564616664591036;-1.1734810033062613;-0.5644412009058758;2.252224196089741;1.5620091705599992;420;1.2566370614359172
589;0.3786991022092464;0.4145791388344879;-2.45524694691652;-0.7220889590092827;-0.0954237949731557;2.353806611174111;304;1.2566370614359172
590;2.80281495710395;1.6052758866830366;-2.2949149138630647;-2.2873011006764017;-0.7290686852348525;1.1939315713650067;521;0.7591820882825224
591;-0.1634330367511002;1.4149615756996252;-0.3185288759632604;1.6434193745415135;2.4598725757434328;-2.952320394996436;294;1.2566370614359172
592;2.7051918402238924;-1.6480277544956825;-0.1830151348785728;-1.3823784637212366;-1.6211765205868387;-0.8199237976898479;540;1.2566370614359172
593;-1.1570985867693029;-0.7119711897525565;2.075291595932761;-2.4245449737700584;-0.8741212471747474;-1.4784359422760402;406;1.2566370614359172
594;-0.3924435760813609;-0.1375671021080418;0.1215030464222443;0.2693319514285958;-2.35671076374998;0.7766992976954732;305;1.2566370614359172
595;1.2423829169387552;-0.5338862211072904;-1.872740700675073;0.6504489607903312;-1.089028972070397;1.4377894460148335;567;1.2566370614359177
596;1.871646532187044;-0.2941886858819565;1.6604274307806586;-1.4820033816049794;0.3681360888860666;-3.3373551210658485;312;1.256637061435917
597;-0.8904305358841194;0.5099551964775699;-1.5224212544768925;3.054781644013815;1.558936812482045;2.381039838909652;134;0.9226647459889104
598;-2.739213558533643;0.470694650274346;-0.940188525169857;-0.6105855861839831;-1.0967247942720448;-2.6054275858419884;311;1.256637061435917
599;-1.5131068914139951;-1.2467188098644226;1.9175588498529068;-2.480969849855975;-1.5295780963648706;-0.6169289423717224;196;1.251233527880298
600;0.568810170288984;0.5503315465819033;-0.707026390306073;0.8249044101298943;-0.5641341397545797;-3.2922583914170005;362;1.256637061435917
601;1.1913311578940824;-0.7896993694265185;2.653844377622384;-0.1715909722651191;2.325338035279821;0.2788870942991845;257;1.2444590388289944
602;-2.696504498498124;-1.2848599422618467;-0.2915734506061541;2.121333273889141;-1.0798841050840773;2.6300513682726674;179;1.256637061435917
603;-0.7453574682450174;1.250819100889574;1.149333284141982;0.5415029018366306;1.098765018079228;0.4149730393804931;153;1.256637061435917
604;0.3400393752635955;0.9915672087947828;-2.147304512262747;-0.4565171243440666;-2.799067317686995;-1.4503167562650752;217;1.254988540522828
605;2.285899354019106;1.5368374175972337;1.5721504480362656;-2.2183498835365776;1.370643649654141;-2.242546556101262;482;1.2566370614359177
606;0.3554304418643851;0.9569446677860088;-1.379052621003837;-1.0498797044561707;1.6682185835161945;3.1835515721195007;51;1.2566370614359177
607;-1.1234611163354933;0.5671537703543983;-0.2849673076622082;2.106790101884819;2.878960943149019;1.2140040935365073;483;1.2566370614359177
608;-1.8480515187769324;-0.8541627253953099;2.1547585429727234;-0.907984041290382;2.18142415330606;-0.5440666148441888;289;1.2566370614359172
609;-1.1706995276168284;0.4953789199375257;1.8339041440998676;2.8653925675532905;1.5543768915801484;-2.9008070246746573;469;1.256637061435917
610;-2.991712342732934;-0.0428742040609249;-1.8632583742669595;-0.0694178834037817;1.7618528546013843;1.0912494440894402;574;1.233122792245477
611;-0.8921221042313714;-0.3555492617565321;-0.2176257525749947;-2.983307868050676;-2.2146265500748066;1.3162076355089825;403;1.2566370614359177
612;0.2406549134141565;-0.6169038736293927;0.4379183563912082;1.133059905198375;-2.003300240373093;2.1269036548090017;232;1.256637061435917
613;0.8721608563619587;0.5568679813101649;1.807680609284616;-0.1577138286494545;2.302234783108424;-2.5671169638147515;484;1.2566370614359172
614;-2.6287988517814043;-0.6672474956334289;2.2815374615853186;-0.4826517231812268;-0.1638873399361586;1.8930722420760184;236;1.1717500847288227
615;0.3043792761754291;-1.4085444318060285;-1.2286325049164095;-2.58821254547508;-1.0257719605431248;-0.5211307898107708;146;1.2566370614359172
616;0.8093636314174935;1.595388696956361;1.1645164700248176;0.6763622366985251;0.6044681698152822;-0.786844657974435;371;1.2566370614359172
617;2.763134985180957;-0.9156920852961348;0.560907320585588;0.0225660398029951;1.280110679506993;-2.745460107100726;90;1.256637061435917
618;1.488598786849498;1.315235858154599;-1.7603666155249869;-0.8859018921031245;-0.3515666962661177;-2.825125405893135;499;1.2566370614359172
619;-1.3832731852287945;1.1557801368641356;-1.480015397747323;-3.273424807679758;2.217306811938461;-1.0789512838137438;541;1.2566370614359172
620;-2.4608901078649126;-1.4969972314761164;1.035374305568807;-2.80585377595168;-1.4767194731414888;-1.862576341512768;406;1.2566370614359172
621;-2.8958127024272686;-0.6749642451134359;-1.1243317462027569;-0.3908304358928564;2.30715573242513;1.5642487295466676;610;1.2566370614359177
622;0.5229874428409234;-1.657620928192469;0.8842819615995824;2.5356915513026435;0.0320941408059535;-2.700138500211323;385;0.9756469691911256
623;-2.4319320082537725;1.240236859070823;-0.267888699197661;0.960746497236942;-1.460534150020684;2.8504767073294457;350;1.2566370614359177
624;-1.3122950140831344;-0.8638706772259335;1.7623827802460237;-1.2369260567675693;-2.9983650138387388;-0.264455374942124;231;1.256637061435917
625;-1.6718624327931877;-0.1129803348252188;2.634893701072975;-0.4321955227266202;2.737741403445688;0.7074042228389168;274;1.254862613531441
626;1.1782334368694938;-1.2701108712881568;-1.8550269461930189;-2.3404028096896776;-0.0572840801503413;0.4796420694442443;106;1.2566370614359172
627;0.8312967932463637;-1.1114144929160352;-1.3804298773561996;0.4716924153495037;2.661843380949412;-0.956444665939647;548;1.2566370614359172
628;2.520051889445838;0.9194326289594282;2.332810353145017;2.2382907829889818;0.0320267872187103;2.622582503020642;224;1.0547306981803148
629;0.0763385808674653;-1.0620805626031296;1.256553473794965;-0.930191983415837;1.9596794983358024;2.7047724126880683;581;1.2566370614359172
630;-0.3551672547897375;0.7557761827960665;-0.7523506025869914;-0.9317998345085652;-1.0686075879783865;-2.323248721004609;555;1.2566370614359172
631;-2.776393030839247;1.1915682967589594;-1.0970197422810015;1.4852317182519346;2.5654936002116;-2.285308633164152;65;1.2566370614359172
632;-2.236068794241867;1.5064328814911117;-0.2508919695966243;0.6408154558977783;-0.7946046492913401;-1.0582429122333388;238;1.2566370614359177
633;0.2877361284865323;0.4994075561039143;0.1688147974795116;-2.5478302216673687;-0.3092805203871351;2.5832053928275864;116;1.1136949342113955
634;-2.470094201863554;-0.7636490448512049;0.110100117519246;1.9204825098351144;-0.571515385731477;-1.2647604189792587;186;1.256637061435917
635;2.394659290055161;-1.4322105342987164;1.090928948507089;-0.3498292690294437;2.9909791488386985;0.7210970002797197;83;1.256637061435917
636;-1.8866526574468647;-0.6502386608072845;-1.8366820224075389;1.207722036461521;0.1377117943798177;-1.7869469122201342;343;1.2566370614359172
637;-2.510660321528551;0.9998471990044628;-0.8451708742492483;-0.2891120215129629;-1.2483145044503443;1.2603515628610462;350;1.2566370614359172
638;0.8082268043483506;-1.269982543044101;1.9990713466437957;1.14964537161781;0.4894763146117427;-1.0353233516513327;316;1.0878092198978322
639;-1.0898181814635508;1.0757179562296486;1.2721836820479278;-2.3836197607014973;-1.0337775122459645;-0.5570964217705161;12;1.2566370614359172
640;1.139338778454996;1.7639515039109477;0.9035408454283238;0.4741536839711264;0.2790180003296211;-9.714451465470121e-17;616;0.9855637582529204
