Komment314/test_diploma/benchmarking/path_finding_for_benckmarking/pre_rrt_star_results/11_3_tree.csv
id;joint_1;joint_2;joint_3;joint_4;joint_5;joint_6;parent_id;cost
0;0.0;0.0;0.0;0.0;0.0;0.0;-1;0.0
1;0.3369345807146732;-0.2688180076271657;0.1622408494769336;-0.7740978594970855;0.3457030335699614;0.8051636445666466;0;1.2566370614359172
2;-0.7062654021092761;0.2503565579961848;-0.2870965732697293;0.0639485792456332;-0.9160187671380244;-0.3033862800230113;0;1.256637061435917
3;-0.4388642325569624;0.0841348709980544;0.0083122581016865;-0.1061634315674866;0.7639870323880589;-0.8856863211908486;0;1.2566370614359172
4;0.0039752885192038;-0.2297215235635614;0.5320779597745654;-0.6924978830540047;-0.5791476800521227;1.4892392193774733;1;1.2566370614359172
5;0.7237236699011815;-0.1254203115092011;-0.1793184713453222;0.8614777700181309;0.4480847188622005;-0.2540699147501457;0;1.256637061435917
6;-1.4986439998642944;-0.0149219390087612;-0.8847756152655201;-0.4230528114629558;-0.4882906889318045;0.0184184439040846;2;1.256637061435917
7;-0.0157312560905642;0.4647365387988552;0.8507516057284777;-0.7074240329271831;0.8510179869643915;-1.3057396590379458;3;1.2566370614359172
8;0.7303431296391436;0.2840382882657066;-0.3028302783222023;1.3981496646308358;-0.2195747142583805;0.5598069398370011;5;1.2566370614359172
9;-1.6888267686541003;0.135560946851235;-1.3221356512119131;-0.1839164548516753;-0.6307007125364756;-1.100318123288369;6;1.256637061435917
10;-1.8217070155755943;0.5803317571277782;-0.383393204867833;-0.1190416342327388;-0.8870213609789208;-1.742589150769729;1230;0.8654295897870106
11;-0.1818789709112239;0.4445116365858322;0.7862310769661137;-1.6207232010058077;0.3685517102963346;-1.9986109437639208;7;1.2566370614359172
12;-0.0153590763138406;-0.1260097082566437;-0.148407355418467;2.1126900479867707;-0.1536197492705367;-0.0024751146410223;8;1.256637061435917
13;-2.4361623642382138;0.0390009890330744;-1.8988174267988975;-0.0551627826321305;0.0023175508014085;-0.5889954402692203;9;1.2566370614359177
14;-0.1446246794730422;-0.1952882265961831;0.8315708931098699;1.7768643858725564;-0.8052591388348925;0.2421827238925931;12;1.2566370614359177
15;-1.680413785602012;0.0408743568899594;-1.8111404571272336;0.5077832518472517;-1.55023507748662;-1.0167553158197289;9;1.2566370614359172
16;1.371676578913143;-0.1070806223824493;-0.8266500285956697;0.7287255317882746;1.0435802463847432;-0.8604370993944155;5;1.256637061435917
17;-0.6140368619895591;-0.8103402651946712;1.2783259937890608;-0.1863377065762435;-0.5256689444962841;1.6993233339254037;4;1.2566370614359177
18;-0.6678578902302426;0.1858914828500451;-2.0575736114990395;-0.0475812257359014;-1.853238841752048;-1.2848355508363831;15;1.256637061435917
19;0.5445114855641371;0.3008754352987808;-0.262997356478854;-1.6505088284626563;0.6650717657501666;1.205885254181771;1;1.256637061435917
20;0.5773352429720611;0.6478951663977547;0.4075861706964819;0.1306144862473732;0.8017892143165974;0.0;0;1.256637061435917
21;0.4340013269473201;-0.7364784402118985;1.8525431106993104;-0.2022236971177256;-0.1444767860713241;1.6958641690643843;17;1.2566370614359177
22;0.3056768387164036;-1.135265278987243;2.0100244318817526;-0.9785903623776432;-0.9278799235935068;2.0988189379732085;21;1.2566370614359172
23;-0.2539575713012037;-0.1455742485952031;1.5900598181800858;-2.0986033545581986;0.9605998587937185;-1.9719851827389585;11;1.2566370614359172
24;-0.5379080321536568;0.4612938550666479;-0.4812093248480018;-0.8833226741822765;-0.2080655268228715;-0.0056688818867058;0;1.247910987409275
25;-1.3495730098434042;-0.0498691277918066;-0.3277602429253029;0.1365612570607236;1.4298124225082651;-0.5442105461918947;3;1.256637061435917
26;0.047820146200405;-0.3098098853002144;-0.6744272523869376;-2.46998631290492;0.8971520847806032;0.951290133363965;19;1.2566370614359177
27;-0.4071259383248858;0.7217111927862803;0.4511532860765181;-0.1822144960382754;-1.7258341919844806;-0.3812769525438486;2;1.2566370614359172
28;-2.0354078511673466;0.651132395085426;-2.1091298987175184;-0.243558205798889;-1.9806686466692176;-0.5247021747372598;15;1.2566370614359177
29;0.8990634440544811;-0.5474305313388386;-1.0992559456786208;-2.6493600039043623;1.1650515620872044;1.6679724276905143;26;1.2566370614359172
30;-1.6554058919114487;0.9906779200387412;-2.152714166488312;-1.0625817200596106;-2.0865596943476548;0.2725004546692283;28;1.256637061435917
31;-1.4154604414399603;0.2140465188045099;-1.925890784922797;-1.221147035452886;-2.1879489535220285;1.184385844421018;30;1.256637061435917
32;-2.5778126965745387;0.0999983906693684;-1.0269223548184363;-0.1797536600938632;-1.4794824910952045;-1.6537361666713717;10;1.2566370614359172
33;1.5157541989763088;-0.0912855697224698;-0.0609246686620184;1.6533336404217458;1.0157345158424835;-1.201198003514862;16;1.2566370614359172
34;-1.7795609827452616;0.347694488288531;0.2240239769486078;-0.1284217985818655;1.846729869708794;0.2850591419334024;25;1.2566370614359172
35;-2.5137887934821204;-0.1266083868481094;-2.456460383104985;0.5910139813486089;0.1072342913765636;-1.4868633463656882;13;1.256637061435917
36;0.5820371663895838;0.755072439357503;-0.8453076652655738;2.0145753687040715;0.1657416703413537;-0.1561105091164702;8;1.2566370614359177
37;-0.8727355834362505;-0.7404916848215127;-0.0464402211955889;2.48122167153236;0.4094450260810848;-0.0590377739601943;12;1.256637061435917
38;-1.677368587421212;0.6648982544328124;-1.1304652862115805;-1.0446543122419794;-0.7944419566732037;-2.0999477372755777;10;1.2566370614359172
39;0.1505238420080266;0.5214883547458757;0.2920380906938981;2.5003475297049063;-1.162519024071444;0.432175505307618;14;1.2566370614359177
40;-2.119570083559693;1.1869528140917958;-2.4417592912577897;-0.5887609516899666;-1.218272998693365;0.7855204180124126;30;1.2566370614359172
41;-2.285114873052287;0.1090264816327339;0.2167819775684058;0.7355558251532799;-0.7677843204966734;-1.9362296942241568;10;1.2566370614359172
42;0.5164055187480026;-0.7185507374664047;-0.6513703755756888;2.7545537685324675;-0.6218132706297708;-0.2496435581665907;12;1.256637061435917
43;-2.8902105225663046;0.5732730032557605;-2.292919667406893;1.1997253251671451;0.5676962417782105;-1.7522948861325032;35;1.1451119832555827
44;-1.374980463522976;0.1475191731642114;-0.7462627695920818;-1.904300779616932;-1.3659841483140918;-2.1821238499397677;38;1.2566370614359172
45;0.6309959861487094;-0.5811847764529867;1.8472102602799572;-1.580002739650242;1.3887384388618211;-2.268400064201923;23;1.2566370614359172
46;0.8651790505352561;-0.1031045623623371;-0.7299539093145032;1.714605178680081;-0.6880523438445026;1.5132357069041238;8;1.256637061435917
47;1.0535297174938;0.224932502033672;-0.8736566668908305;0.8440446868617488;-1.1231078164427464;0.4116634937404246;8;1.2566370614359172
48;0.8937195132765178;-0.9747473591326274;1.4626479816726363;-0.6247055685058831;1.542280606131357;-2.789135618517597;45;1.256637061435917
49;1.8656562883829464;-0.1060371931512093;-0.1321901909539587;1.3465225276035833;-0.9242863472501248;1.6851676557176989;46;1.2566370614359172
50;1.526340614439891;-0.1285104096997416;2.3061846363046827;-1.42734889404834;1.9027040675436795;-2.541272335710587;45;1.2566370614359177
51;-0.2640526305856785;-0.5214606714962624;-0.2998377605002699;-2.848921666161402;-0.1745873197538365;0.8839003762397017;26;1.2566370614359177
52;-2.01691566161417;0.0594850855872846;0.2571451098835635;-0.2831661944246466;2.050466101223838;-1.011474659023235;25;1.256637061435917
53;-1.0350026905580574;0.0228018996424975;0.7867984927231092;-0.5414824585382503;-2.2911519879372584;-0.0136930789965183;27;1.2566370614359172
54;-0.2935503651533144;1.124615477733954;-1.0877767106228493;-1.4265653933879796;0.093707383063149;-0.5760432546083809;24;1.2566370614359172
55;-0.9923640047743554;-0.3760658048090394;0.2049179324668003;2.8662878394546745;-0.1287495549927498;-1.0238741542710752;37;1.2566370614359172
56;0.9083701991482832;-1.2597910890572297;1.6934566057202567;0.3567577932550697;-0.9955631585070625;1.561187100385632;21;1.2566370614359172
57;2.000391248978932;0.3837881783209486;-0.616055264867997;0.8573430948354883;-1.4528078065179395;2.439022708049326;49;1.2566370614359177
58;1.6596576159793088;0.1590950903867885;-1.2939393931509744;0.758901820197577;-2.067590030617642;0.049065121639404;47;1.2566370614359172
59;-2.478850976505694;-0.2575989212057998;-1.671557078888464;-1.2258914042016806;-2.28155285722753;0.7939783404261517;31;1.2566370614359177
60;0.4744994406160953;1.3464850751939057;-1.7188338321249148;-1.5866133424071394;-0.1790901776519926;-1.2406808521297532;54;1.2566370614359177
61;-2.7084632979815013;0.1265229987337983;0.8922893808360459;-0.4206591427005598;2.0517863042119817;0.5905602196232302;34;1.2566370614359177
62;-2.266113315638961;0.396796200308929;0.0657107240809471;-1.886731436278448;-1.1145644020776997;-2.174482989954633;44;1.2566370614359172
63;-0.8306613421586139;-1.0995174234723042;2.1261881376440503;-2.1700262002741724;1.051965961665108;-2.1608219412983214;23;1.256637061435917
64;-1.0270117949272168;-1.2570341172727144;2.4811439198582077;-1.0938700850988587;1.1987353133370309;-1.702428157636973;63;1.256637061435917
65;-2.13936607708304;0.6953124913016947;0.2143670302787902;1.2347907414441903;-0.1340280127908251;-1.1857136608558432;41;1.2566370614359172
66;-2.001394938130668;0.6393071882745124;-0.4265251315742454;0.1874955317648313;2.778390886275732;0.5171760986932404;34;1.2566370614359177
67;1.392774737259797;0.0409994601540369;-0.6876740050389482;2.3656506201709373;0.1061290157890726;1.9861434537613132;46;1.256637061435917
68;-1.4434246142657314;0.3708242940489997;-1.2097941186546053;-1.903902978077056;-1.0878496415071766;-2.750075442950376;38;1.1809168951934477
69;0.9838282127557744;0.7435714904814031;-1.9247978325700303;-1.905559373888941;-0.9173039138305604;-1.7575066009600897;60;1.2566370614359172
70;-0.5368596066849314;-0.5180784188198712;0.2289682169602942;0.7027275170457293;0.8887243714767485;-1.584485106034783;3;1.2566370614359172
71;-0.1282019645126986;1.1219819950987897;0.1808701715301194;0.5941053116534122;1.290852374267686;0.5926119876834943;20;1.2566370614359172
72;2.724422348432171;0.286815619946332;-0.6161746315162494;1.8708017287838696;-1.2055126767915865;1.3703242698904152;49;1.256637061435917
73;-2.856880119734856;-0.5843684875409642;1.5252528381819286;-0.1906397766736676;1.432809181124577;1.0543038125156443;61;1.2566370614359172
74;-2.7910303572315285;-0.6440685374728534;0.5133414049664302;-0.0378305258050937;1.9076087600818048;-1.5934206099956063;52;1.256637061435917
75;-0.7395961548235048;-0.4635895556529576;0.8847512891295245;-0.3965488031800688;-2.52880482345015;-1.0945333308508522;53;1.256637061435917
76;-2.8444570169387746;0.5659680971118627;-0.260823651162076;1.9003513310832951;-0.2263684340045791;-0.5628576078224011;65;1.2566370614359177
77;-0.8237880540175531;-0.6713517175425839;0.4897880071480537;0.5764110216915065;-2.944431439477741;-0.59105442017723;75;1.2566370614359172
78;1.3341985280857251;-1.2732155122439242;-1.2406216485214292;-2.126752620553832;1.3024805057410678;0.9256511558105588;29;1.2566370614359172
79;-1.405027512074605;-0.2905139992550944;-0.069401366055424;-2.519987988550088;-0.1367764228725775;1.1313851201972729;51;1.256637061435917
80;1.1889954208118614;-0.2250057309781938;1.3197892494657089;-0.3411791456659512;-0.066441478928762;2.357900034869033;21;1.2566370614359172
81;1.1469844410263854;-0.948202415484658;1.7871199369569832;-1.3808532525216308;-1.5145685348773612;1.569063962240934;22;1.2566370614359177
82;-2.569306876544197;1.160956139088128;0.8395961538461403;0.5840620229964775;-0.3735403112306489;-0.6327777302673048;65;1.2566370614359177
83;2.0145929697674347;-0.5130287224518744;-1.380745259748667;-0.1918904896882898;-1.9786071244237755;-0.2372003956906243;58;1.256637061435917
84;1.623987499624865;-0.7485959568551905;0.6853586287299304;-0.4585439678342057;0.9442156029235222;-2.861459554659962;48;1.2566370614359172
85;2.094692089033483;0.6505680528889841;0.318725560062907;0.8747651108285222;-1.817933316013942;3.140191160905195;57;1.2566370614359172
86;-2.5911404651064127;-0.1569905694897187;0.4472336740397211;-0.5595205015033189;1.9447542817492791;-2.605361979687391;74;1.2566370614359172
87;-1.9079167839113984;-0.1105122249676767;1.376706395790786;-1.075691582321122;-2.493713288965377;0.3398365962360754;53;1.256637061435917
88;-3.1986526854589834;0.1714717080859771;1.825297685162709;-0.2698439638025061;0.8161292929260731;1.6980735836297376;73;1.256637061435917
89;-1.7637329165972928;-0.2577399602473886;-0.0004050022905455;-2.375669202289044;0.540143838400722;2.114026229099544;79;1.256637061435917
90;-2.227960553696367;-0.9168487591874992;1.2009888781855742;-1.3592871546214766;-2.9962292124241703;1.0200606293510044;87;1.256637061435917
91;0.7136195546220007;-1.5388694623473964;1.4953915228358634;-0.0805925155070477;-1.340364422042657;0.5057577227271619;56;1.2566370614359172
92;2.018853286090583;-0.0225128369580041;-1.277546791940237;0.6839496438200343;1.5403909982763686;-1.6977026540403672;16;1.256637061435917
93;-1.758664931851332;-0.0440310058699245;1.1631218009702131;1.2885620426652065;-0.4971910552286225;-1.99919727264148;41;1.256637061435917
94;1.4267429455602283;-0.689221092328526;0.6499678054351569;2.426336825231532;0.6881933390158479;-1.2603719485782507;33;1.2566370614359177
95;2.753268631638249;0.1804808201519966;-1.1978362794903084;2.826309416338545;-1.518371952384951;1.8370054956188575;72;1.2566370614359172
96;-2.3337751992493785;-0.1379059853573905;-2.6317813430392425;-0.1142893493096689;0.3475937322417605;-2.466986443884907;35;1.2566370614359172
97;1.2222407206383967;0.0617075019167339;-1.2365523174513855;1.4926173268827525;1.8667650144152548;-2.1164007460810863;92;1.256637061435917
98;-2.8582369281983184;0.2022008707832808;-0.1195228053452547;1.9405914521265573;-0.7665892307436962;-1.627374642758722;76;1.256637061435917
99;-2.339512127511421;0.8445017984824718;-0.9835683182677832;-0.4147205135939074;2.8725104827839782;1.3779251136709378;66;1.2566370614359172
100;1.8317669144561477;0.0421840392435435;1.393453972251726;2.505698848001856;0.6083966283283071;-1.82135438712851;94;1.2566370614359172
101;-0.1543911591088835;-0.9637011454405452;2.315663522621144;-2.279920789985516;0.0552783517532304;-2.409790510001047;63;1.2566370614359172
102;1.5307570370566794;0.4360861487952338;-1.6657283809735386;-1.6191987597124924;-0.0411288745131388;-2.275827204782052;69;1.256637061435917
103;-1.9448977555481908;0.0149523964705503;-0.8122284491322208;-1.7119011103309894;-0.0044232299196645;2.389264677080947;89;1.2566370614359172
104;2.048219450077533;-0.8209392335500857;-0.2647526738128177;1.024837869655734;-0.1630357768813992;2.2632387645723577;49;1.2566370614359172
105;-2.9778844465375074;0.203330540807304;-1.2117393623273645;-0.6512392575101645;-2.166195015992559;1.5440993155465592;59;1.2566370614359172
106;2.3438076483036188;0.7092607750044707;-2.0277534663068484;2.859779324765589;-0.9612649738357552;1.4742118774895776;95;1.2566370614359172
107;-0.0733191224980284;1.1352590704379335;0.3278413907498655;0.2440411227134927;1.859389132015348;1.6454979152795477;71;1.2566370614359172
108;-0.4551054370066578;-1.5118401593259003;-0.2963870529579869;-3.23072056599592;0.0332762340409886;0.2733314324457518;51;1.2566370614359172
109;0.6687460264137483;0.6546571003974682;-2.287448461376415;-1.7634371887442124;0.3003777876249848;-0.5490883258469632;60;1.2566370614359177
110;2.4664138175581485;-0.548726728332994;-0.778687537140232;-0.5845182833200977;-2.2931105286075057;-1.1079344544733845;83;1.2566370614359172
111;0.0086359848947286;-0.1149152886636278;-0.8804848099060458;-0.6891736633412713;1.0786181379136324;-1.2179594053811529;3;1.2566370614359177
112;-2.539588831653211;-0.0606551642906589;-0.8288135307052801;0.9573523066760642;2.568343190096815;0.4871544811724703;66;1.2566370614359172
113;-1.0219486857598568;0.8286706811657614;0.1897925657732374;0.1332703101526878;-0.7444117180300841;0.6364838231954392;2;1.256637061435917
114;2.9529392356089126;0.4132685230021723;0.3961722101671753;2.474271346289488;-1.5543407499616664;1.3553687355377744;72;1.2566370614359172
115;2.163157464044474;0.1766236348208238;-0.4514637324506861;-0.2357836942638617;-1.9832542216019933;2.5186265173693827;57;1.256637061435917
116;1.6644151328752188;0.831847624877377;-1.6025325978892333;0.8775068776400974;2.1961095813921334;-2.5283866804398114;97;1.2566370614359172
117;0.7545730186638083;1.4724702080451055;0.4604013840515983;0.5901528476756778;2.0049863375093118;0.2945140044006517;71;1.2566370614359177
118;-2.4110004409275096;1.0272608335150757;0.7527862856087946;-0.9805346599060856;2.2695470996172613;0.0437673580372052;61;1.256637061435917
119;2.185984460001378;-1.2098958341568868;0.1986277286552149;1.296691578414201;0.8490703381315393;1.953584692008106;104;1.256637061435917
120;2.4886216499673712;0.7603963336913948;-1.182473043197275;1.630519696236627;2.505277200077624;-2.7642936185374944;116;1.256637061435917
121;-2.338644001944242;-0.5134102966461901;-0.3032366551561954;-0.8624163331041409;-0.6129397769293303;0.2982054996577966;6;1.256637061435917
122;0.9628759039233784;0.4395264804663373;-1.127957889117181;-2.579781415194613;-1.3877733261441016;-2.1762948677809937;69;1.256637061435917
123;-0.7256775158113112;-0.5009155505727723;2.597080221966833;-0.5342250185925722;0.614498426182218;-2.2010688123892974;64;1.2566370614359172
124;1.8603696707348365;-0.2473429652725255;-2.062357010457475;0.2520189389881653;-2.1979500799652394;0.7626965740333743;58;1.2566370614359172
125;-1.9551637710125955;-0.7184551481640671;0.2935666360386967;1.6135101857333796;-0.6888442512277044;-2.4318964274756376;93;1.2566370614359172
126;2.157413840096124;-0.0922738378757811;1.9615749038803925;-1.9921830787703183;1.1598933315623765;-2.105372249113431;50;1.256637061435917
127;-1.4962223905108274;-0.1434965728280424;-2.3618891273564038;-0.5536847331385515;0.4475122644242437;-0.5545524170752874;13;1.2566370614359172
128;-2.3734675448080247;-0.3259628779080729;-0.944384084426554;-1.1773220532662874;-1.940721980061805;-1.277917554203008;32;1.2566370614359172
129;0.9222619499688226;-1.003477677233037;1.5953023667755937;-1.0269025957772575;2.089666387167722;-1.593646624961662;45;1.2566370614359172
130;2.502827740159148;-0.4541234914983347;-1.7858526009689233;0.4120461148388105;-1.4710278639387615;-0.979363181774899;83;1.2566370614359172
131;-1.6763309203073464;0.4076521604630381;-0.2460457485936025;-1.6562906443473095;1.1270199271337813;2.5684296748589746;89;1.2566370614359177
132;-1.2473813221031178;-0.9582158631413688;0.7190677830741931;1.397791890683215;-1.5113281671132888;-2.773407932267516;125;1.2566370614359177
133;-0.1458807579252032;-0.2803962563242115;-1.158903758079324;-2.473170202702977;-0.9641532340323948;0.9506999042754076;51;1.256637061435917
134;1.9600054646704503;-0.7689356053787452;2.1595961971662385;-2.838313806105284;1.6576859222771885;-2.387060705000968;126;1.2566370614359172
135;2.424247292029724;1.06061940286652;-1.4456130016955535;0.7523832750651411;-0.961149043507974;2.4607323990326795;57;1.2566370614359172
136;-2.6354991834111248;-0.470229791619848;-1.4791645445793622;-2.3411701654638666;-0.0118030602478812;2.228122332199139;103;1.2566370614359172
137;0.1819609776575052;0.3514002247961023;0.3533596227018997;0.5587766613706788;2.3360540339012705;2.4022112140937253;107;1.2566370614359172
138;-0.4094294336302542;0.7154705325863853;0.1877453690970511;1.5382650630201398;2.022038560342031;2.5090548802566754;137;1.2566370614359177
139;0.7593150723048551;-0.5780687044081403;2.1105049455758302;-0.3723117262740489;2.758680478116756;-2.0733438915227587;129;1.256637061435917
140;1.5973629927625783;-0.742299885884463;-1.5758440303813988;0.7917109976592585;0.8999939042426137;-0.1263914773915436;16;1.256637061435917
141;2.868288132742692;1.3431459717234333;-1.537678907158769;2.4709352155345954;1.992910096175577;-2.7843790703465165;120;1.2566370614359172
142;1.3817659902841468;0.4321664856455887;-0.3175130716288848;-2.223680283555526;0.0322513990479773;1.5649746051161717;19;1.2566370614359172
143;1.534192601966533;-0.0207630453596061;-1.6873914396175236;1.9105252599546607;0.9042618542210734;-2.5295666313600096;97;1.256637061435917
144;-2.073515378107829;-0.6541292944144889;-0.5351585923129787;-0.8020636353872694;-0.650795661893544;0.7960329122878188;121;0.6299130553964498
145;0.0546682494083448;0.2538807448614077;0.8645714870649257;-0.4688705552944306;2.685295394424655;2.739934942098074;137;1.2566370614359172
146;1.649646777248083;-0.5973651165574645;-1.5587926211407028;-1.7163152047119534;0.5181739715903845;-1.87173082801957;102;1.2566370614359172
147;2.66074609235152;-0.1351694337732945;-2.121938536955514;-1.5819817702395578;0.4377657867223828;-1.9110469783589916;146;1.256637061435917
148;-1.9693746428810837;0.8721564182120892;0.5547771373252431;-1.1580568210119324;-1.1721599375636966;-2.875657454901763;62;1.2566370614359172
149;-2.8866177546457275;-0.6702216778961732;-1.1995878606210169;-0.9225357123949008;-1.598348660926034;1.88662703420261;105;1.1335551306784508
150;-0.1710731684659407;0.1078844445345326;1.0101522832240757;3.032090644965936;-1.3725121227613375;-0.2476097820061293;39;1.2566370614359172
151;-2.555241637412536;-0.1747339472382618;-0.287094352592812;1.2400338376067597;1.7682548226343735;1.230368994966748;112;1.2566370614359177
152;-2.1054096037158674;1.539527412522322;-2.152995887113522;-1.5823324157806669;-0.6632512472442664;1.0612188676208496;40;1.2566370614359177
153;-2.248562922339955;-0.6847276354177129;-0.5675115404093131;-0.7123393996457561;2.3779778228235293;-1.000914454022666;52;1.256637061435917
154;0.7075343566381052;-0.3556764035874106;-2.388657297356698;2.2813925375700816;0.6416332982739936;-2.821655304283168;143;1.2566370614359172
155;1.4357745133671442;-1.0015497588036393;0.790301411275641;-1.7424657256491725;-1.999122193110612;1.2034301868831865;81;1.2566370614359177
156;-1.0516904769525373;0.3778583224947767;0.9541784636516928;1.3549064194283242;2.5332658174552294;2.096426642034885;138;1.2566370614359177
157;0.0476583121606974;0.618013068362048;-1.5551900917849792;0.4638312024557642;-2.0922086249213776;-1.841078100240648;18;1.2566370614359172
158;-2.2163096939829687;-0.4813399608973681;0.9698156599053565;-2.5258193842035808;0.7992880464048981;1.572468223497291;89;1.256637061435917
159;-0.0326969888363045;0.0899994347228079;-0.8787546086773215;-2.52564014286302;-1.815879415536184;1.739660639580299;133;1.2566370614359172
160;1.9086881717832984;1.0505695600819958;-0.918325373392534;-3.0494684274607198;-1.5374970138339417;-2.0206242244411867;122;1.2566370614359172
161;-1.3106494064088;0.9290597924685748;0.5224131439397875;-0.80505118184327;1.1984047397968631;0.5176190901228495;34;1.2566370614359172
162;-2.623656746724413;-0.7165816226611592;-0.3876079268583603;1.9994526694022083;1.37284240780662;1.963639923842177;151;1.2566370614359172
163;2.138477356978623;0.9540663701287582;-2.1469285099455333;0.0961346762045822;2.7647094384166837;-2.8589151459514417;116;1.2566370614359172
164;0.4170800210972096;-0.4649451075990573;0.7752675962195498;0.7213745470559727;2.613956129588605;1.6434213535075255;137;1.2566370614359177
165;2.6436545693512894;0.2219238340124459;-2.3217042059250645;2.491480108917478;-0.468258601628077;2.361130476518407;106;1.256637061435917
166;2.585785879799869;-1.3887237021264978;0.6207660232748801;2.210190570716904;0.5444203881946;1.4227142917974491;119;1.256637061435917
167;-3.1415458702219907;-0.2756118311394241;1.6087536023138913;-0.4257756108541624;1.089316079304996;0.556947737240373;1018;0.8346900700554962
168;-2.121554525809416;-0.1028950628257881;-1.6220995049734337;-0.4441738291768964;-2.7425103178653463;2.000882398928168;105;1.256637061435917
169;-0.7718918011670743;0.0736503120572944;1.1980310600985906;-2.0301281329217997;0.9608965451297528;-3.0229114116201288;23;1.2566370614359172
170;-0.4684070064444015;-1.0921912788951262;0.0616262888925258;-1.94010586143437;-0.5115836211698114;0.5077705662981162;51;1.2566370614359172
171;1.878598439687607;0.0517452277651992;-0.2135471134167624;3.205165758489569;-0.4466184161669581;1.657685142171199;67;1.2566370614359177
172;-1.3835341759403588;0.0885487589677182;1.0384867663779298;1.9392848347128344;2.591181861773061;3.112967910119819;156;1.256637061435917
173;0.369171316469925;0.0546260734888012;-0.9916088199409064;1.269812233526968;2.46560730076411;-2.7353576417530645;97;1.256637061435917
174;1.5925416089491176;-0.2229087555168056;-1.1904442576869665;-2.0937647123615983;-1.7235868910697572;-2.8015546778910863;122;1.2566370614359172
175;2.332275611723291;0.6230530929801903;-1.0764037243495277;-2.261305749344521;0.1350120859002743;1.7915579444005036;142;1.256637061435917
176;-1.2111527008685306;0.9991464322957728;-2.1666808520266083;-0.3413967635019252;-2.2653943556124543;1.4726131669189229;31;1.2566370614359172
177;0.3012360383877787;1.0448328772265008;0.8205188128922114;-0.7777571429003339;1.952144016675744;3.247747160461796;145;1.2566370614359172
178;1.0977067516571792;-0.5611663106585136;-1.3578340607517534;2.1075375569248336;2.198542821261147;-1.2961912943776754;97;1.256637061435917
179;2.1261461482125834;-0.1106434333684851;0.9069725564105688;-1.8238666120886944;-2.4616908184364754;0.9302971868288809;155;1.2566370614359172
180;-1.1041545320411497;1.4673494473061122;-0.1999801063162194;-0.67097447557269;-0.0481006575204634;-0.3164475179662994;24;1.2566370614359177
181;-2.263004160640812;0.9212850837967308;-1.7121455395477598;-1.7239722527173924;-1.629673171931975;-0.3315378191106259;30;1.2566370614359177
182;0.0115365629981246;-1.2649368055424353;1.688965361071356;-2.6953797648277025;1.5253510410089546;-1.7719488729700794;63;1.2566370614359172
183;0.7811595034789001;-1.4831123902219094;-0.8484244435271773;-2.377579958692029;1.6093230494399264;1.2807892677559567;29;1.1719516498153006
184;2.4331702930039447;-0.5191536349640619;1.5407709189085903;-1.500300631069392;-1.6933703911308755;0.4598923542765828;179;1.2566370614359177
185;-2.942231124214424;0.9178095211022086;0.2021741267618292;-1.193463800695272;1.3031380244653474;-0.00615264313071;118;1.2566370614359172
186;2.571142629278122;0.9072992265689072;-1.3825693091675777;-2.238635025058985;-0.9658497043252572;1.4239503011265242;175;1.2566370614359172
187;-2.653641794501461;-0.1280011463499105;-1.5516586271052533;-0.3637210478169077;2.765891513178317;1.8228994158491671;99;1.2566370614359177
188;1.7419766470005935;1.339167574274278;-1.5924264910282402;0.8937902475635784;1.9702167103122863;-1.7779072407284613;116;0.9370184521638872
189;1.5620752161414786;-0.3537370922128225;-1.2250184473965715;1.907093398853588;-0.0430547377254495;-3.126457124784152;143;1.2566370614359172
190;2.2811916538091115;-0.6497709756627834;-0.1782311748836424;0.1331888602220663;-1.882217148046452;1.7054406128719006;115;1.2566370614359177
191;2.5227987370783067;-1.5089822308632748;-0.566352073345736;0.8073813989400138;0.2537784013994685;3.017244377748887;104;1.2566370614359177
192;2.0134665839263057;-1.2172996384460193;-1.525828442310195;-1.6182308571911237;1.5549644923234336;1.7688116180174656;78;1.256637061435917
193;0.5705960081276524;-0.5134618859867855;1.739115853108118;2.7859066316924777;-1.5853692553575556;-0.1721799423776795;150;1.2566370614359177
194;0.2916530703060417;-0.5722421501402302;-1.53652020691035;2.0588376271159947;2.299224617033688;-1.1213223669709285;178;0.8513880426719141
195;1.0060219026324015;-0.9097279424362914;2.3160573539441907;-0.873672921043094;0.5745952709407968;1.4979762261024414;21;1.2566370614359172
196;-2.5449547150529157;0.3483493341126382;-2.694451295939829;1.9327416259078416;-0.2695609346732449;-1.8513117999826996;43;1.2566370614359172
197;-3.067085113352383;-0.5211650139653176;-1.214690812474647;-1.9371011627466637;-0.3900749221916333;1.221162463630892;136;1.2566370614359172
198;2.647126989578803;-0.5705918406198947;0.268363290079644;-0.2444536613929546;-2.665413014506007;-1.5500123295392294;110;1.256637061435917
199;-0.130009296079695;-0.2198097874808673;-0.8655157488402784;2.224644288358865;1.946071785899277;-2.974354528182075;173;1.2566370614359172
200;0.8502838661763954;0.8908956319257174;-0.5073905002656747;0.070575820412653;0.5794043854074518;0.7452144423514583;20;1.256637061435917
201;-2.4638981645259515;-0.8441823738589934;1.366827263458164;-1.8377434878423904;-2.604774257156281;2.072928108942244;90;1.2566370614359172
202;0.0041907806649839;1.0939876497169017;0.2178503622717432;-1.1927167446116889;0.2010522902316516;1.251284164384825;908;0.9270886278603866
203;-0.4277937842706213;-0.3458905047049484;0.9093875657065242;-1.1298888521234165;2.661215878659974;2.000267418342096;145;1.2566370614359172
204;-0.8290755781597768;0.562857558908606;-2.376325664581207;-0.0969543677862551;-2.995684886240259;-1.3274805471100823;18;1.2566370614359177
205;2.103228596003324;-0.0173132312789196;-1.141125968181991;1.1228899075081602;-1.5255964649637996;-1.100363763239263;130;1.135373454409114
206;-2.8557023268244506;-0.8605106622610343;0.5133773639693922;1.1742853372562927;2.0040251171752943;-1.816099900562036;74;1.2566370614359172
207;-3.191391568985978;1.3560721529407087;0.8063930665934427;-1.787132091583939;0.8144519575887308;0.601008788164362;185;1.2566370614359172
208;0.1382138450471808;1.594160267627824;0.7649913715966862;2.2374930114374783;-1.190694489931878;0.7993116856229575;39;1.2566370614359177
209;-3.0141417226775222;-0.4495638791302659;1.2027550340407578;-0.4170519227529921;0.9037031845847407;2.5597629047044315;88;1.2566370614359177
210;2.738235643375055;1.0362350790995567;-0.2441654730532076;-2.109792259295228;0.7130719863468558;1.3512356645530454;677;1.187537048620667
211;2.4443925485615114;-1.4258188208505025;0.2133505967204153;0.0630390405340349;-1.8425765490572408;-1.3711709030068704;198;1.2566370614359177
212;-0.8548395032457679;-0.4122462984121431;0.5493349811249697;3.0463370109743817;1.2817642311607085;-0.2483184297746687;37;1.256637061435917
213;-2.200955005011694;0.1858586526600493;-0.1199105386203298;0.3190850390948662;1.481912683787201;-2.566325803535479;86;1.2566370614359177
214;1.7224099699662978;0.4906748887315981;-2.550596224294834;-0.7641052173425826;-0.0502741083076022;-2.434465867489594;102;1.256637061435917
215;2.849250813643982;-0.2265265496504439;-0.230160842179798;-0.5105004589038962;-1.424692760947654;-0.5900058967973649;110;1.2566370614359172
216;2.766227034688752;0.8070931950765785;-0.4555879643607392;-2.810037011313653;-1.991435678300848;-1.466575996746863;160;1.2566370614359172
217;1.267342365273538;-0.4591857909523386;-2.346959081790285;1.2153629304443123;1.2703318305157851;0.5655766841293788;140;1.2566370614359172
218;0.4985852270614643;0.077715717877847;0.6649263326055384;0.2712255405299341;0.301561064198158;2.625331113169892;80;1.2566370614359172
219;0.4326470985391961;-0.2594790125993967;-0.5306004402641787;-0.0840215442616247;-1.0178536578654014;-0.0011482080513852;0;1.2566370614359172
220;0.5182452089383011;1.4516051673544823;1.1539946436203283;0.0327388323785122;2.650034953373701;-0.2667175071916395;117;1.2566370614359172
221;2.6425316260587133;0.4919239334534837;1.805282809606504;-2.3295461887943274;0.7735079761169366;-1.2598099082711456;126;1.256637061435917
222;2.9952611099955946;-0.0487647816852398;-2.409232970506701;0.5947449145673909;-2.1680253463916985;0.8769126613147479;124;1.256637061435917
223;-2.256892462650616;-0.1144705769141608;-1.873978374066652;0.6112315294969853;-2.51578625402227;2.577041333216884;168;1.256637061435917
224;-3.031566242194089;0.7276627320158477;1.5002745957513464;0.5957106853244086;0.199662201653558;1.7818222293113604;1102;1.161301477686864
225;0.4298765946034483;-1.0147522937009923;1.327942769533558;0.2354743862770932;2.8261038963481875;-1.53153119222684;139;1.2566370614359172
226;-2.263858474603234;-0.0058795939298419;-1.1015965574488742;-0.9651984973723122;-2.2353166195514205;0.2065072461465232;1132;1.0468274921145535
227;-0.575076856080781;0.621328077624572;-0.4900692769570379;3.0433650135449577;-1.428430783465215;0.1764346701461337;39;1.256637061435917
228;2.419481687850877;1.1076177210835336;0.4052035244664027;-2.757702233840075;1.3836651239533626;1.776999157793262;210;1.2566370614359168
229;-2.986969647756389;1.1160889388419992;-1.9928540107717927;1.2366592034450634;1.4680299475663372;-1.141458619604638;43;1.2566370614359172
230;-1.905533828594749;0.4994936632493937;0.4218806211808302;-1.902767999488684;-0.3666041087616832;0.9599828057408336;79;1.2566370614359177
231;-0.0441485538419547;0.6350166880369106;-2.664114300306525;-2.4957852266043346;0.5652735543875654;0.0184957699445058;109;1.2566370614359172
232;-1.563271910477285;1.2398295103326136;-1.4316106032313196;0.4554858852311362;-2.2663834229314515;1.943643120929878;176;1.256637061435917
233;1.783146167059033;-0.8349765407828101;-2.1501719550275062;1.2443707777770896;0.6261185392127417;-1.0888213173407255;140;1.2566370614359177
234;-0.7397095765064918;0.6222627919681066;-1.457932532148987;0.8717667960167788;-2.7625689691897546;2.2587786436264565;232;1.256637061435917
235;1.729311908145284;-0.4673618193290089;-0.537600394663141;2.954193428573081;0.8689408993628427;2.492761209800892;67;1.2566370614359172
236;1.5756980107649443;-1.586913057664158;0.052628475056918;-2.675864125808177;1.5082406118326792;1.11959615246008;183;1.256637061435917
237;-2.341225516233745;0.8404242777571562;-1.1678826927420516;-1.948127575869404;1.2415122502846163;2.6096551126041203;131;1.2566370614359177
238;0.4908166579332615;-0.7089557570816838;-0.0413730500935775;2.0417101547473884;-0.996699309374511;2.142147162239803;46;1.2566370614359177
239;-2.476056689920419;0.4015280371168058;1.1069829830767894;-2.6000063416488803;-0.7596990693929716;0.593905075131496;230;1.2566370614359172
240;-0.6782259695941605;0.4554786950786015;-0.8402131804009015;-2.828275198456445;1.1269134062276338;0.5316385339369893;26;1.2237496486988286
241;3.0967253874450864;-0.91720116075447;1.4779865028388226;-1.933908739975395;-1.897435526154108;1.3240619288887212;184;1.256637061435917
242;1.2434612902917628;0.593914626611987;-0.0997359978894081;0.3793501183845639;2.6237592116983923;2.6729080192195127;137;1.2566370614359172
243;0.5001968199806156;0.9955148847829008;1.7115417039590717;0.772721844149661;2.309696924931781;-0.8964230400941994;220;1.2566370614359177
244;0.7094374650721683;-1.5342869882922183;1.5465668362312697;-1.206696564215915;1.0861911113060574;-1.134930737068458;129;1.256637061435917
245;-1.5449086830847285;1.679971629324138;-2.0429322016688163;-2.6117987772557845;-0.993588188988449;1.3146223892409687;152;1.2566370614359177
246;1.8834995043510872;-0.2630569541767551;-1.8272526583393365;1.8156309525460317;2.934833796536327;-1.1377312683353713;178;1.2566370614359172
247;0.4320863744620127;-0.2811784329353955;-0.8550737417411902;0.4609617463346558;-1.8320008746712744;-2.0958862681174133;157;1.2566370614359172
248;-1.7125036387468977;0.9631457956741014;-1.327904638671959;-0.8710623284286781;-2.0998083471329188;-1.12407569146227;28;1.2566370614359172
249;-1.771973506815649;0.4267466274796523;1.5401591913617725;-0.8708063904231601;-2.739094998831748;1.4089961321696816;87;1.2566370614359172
250;1.3093706079074532;-1.2718234174333245;1.5788427653458457;-1.6787002611849542;-1.0305137299558091;0.5290468426097006;81;1.2566370614359172
251;-2.7824236600324856;-0.2165118672633198;1.9850534550619303;1.1949021594596712;0.320098764237368;1.9124096455745816;224;1.2566370614359172
252;-1.129962694447055;-0.5336746104406401;1.0592826131357909;-2.6410974132198675;0.714059674215988;-1.816025156313937;23;1.2566370614359172
253;1.7496426981234658;-0.7369521179111281;-1.429793951738044;0.8484233379431685;2.6383776022645966;-0.7436599993128807;246;1.2566370614359172
254;2.1508165189497648;1.0210592528391382;1.4875121663121067;-2.596358238123348;0.8836175736240726;2.00501654531176;228;1.2566370614359177
255;-3.048317712071135;-0.5306229363158579;-2.7272176029859088;1.33103332578678;0.6637011510027783;-1.0401035506564995;35;1.2566370614359172
256;-3.256440209758142;-0.8163891757096938;-1.508768668599566;-2.0646846466267283;0.2666907783670779;0.2609419005781022;197;1.2566370614359172
257;-0.627498857614721;0.0923629996859976;0.8848589630000336;0.1121545165826934;2.6914103275778687;2.414825320833401;137;1.1535708079734264
258;-0.344269238290813;0.1793533896795328;1.6519543943720751;-0.1574821281411775;-2.747955252622784;-1.6564028102423936;75;1.2566370614359172
259;3.131052597924812;-0.9243866360854636;-1.7302618327159245;-1.528277729384866;-0.2823351992804689;-1.6655994119137332;865;1.0605230381511594
260;1.2833587326104725;-1.2580456156432838;-0.2109819665012689;2.7578806054209384;-1.2138130354939225;2.388537953977328;238;1.256637061435917
261;-1.01382524073649;0.9686137762418562;0.0111668688688769;0.5345615528529856;-0.8530983529774779;-1.7158762248803736;10;1.178208392994065
262;1.8844321789039515;-0.7479586150707639;-1.0721308575418682;0.1767340007738872;1.528272333715986;0.4355508395863405;140;1.1936822686921726
263;-1.400428094668944;0.8655830793434437;1.0827007122352394;-0.3637027327847704;3.035114651646732;2.4032639543070697;257;1.2566370614359177
264;1.695001019711856;-0.5830529688851155;2.104030500537256;-1.890510397516446;-2.310603143705414;0.0360310393535739;184;1.2566370614359172
265;-1.4663678360428825;1.1229012152306637;0.423523017483849;-1.8181188332116576;-0.6572743142649572;1.911810317482652;230;1.2566370614359172
266;-1.506911124180206;0.9346894444952758;-1.3415458123410011;-3.027906602710089;1.5747650156790245;0.1180971129329537;240;1.2566370614359177
267;-2.063267224436206;0.7213386846422694;-1.0722393862036423;0.1113088590121039;2.003773201616774;-2.340493255871692;957;1.2298586557328808
268;0.5395828816730832;0.5418314429965793;-2.1673937616099144;-2.685982337040646;-1.929767241331406;-2.112809096111629;943;0.8809283993772015
269;2.340599619833461;-0.396336762652181;0.6396118982429957;2.041716277179821;0.673126940198037;2.28954238997406;119;1.256637061435917
270;-2.2375982218386024;0.7181314871854578;-1.5308761381274243;-0.5667904585131364;2.801644312643836;-1.8485883291343173;267;1.2566370614359172
271;2.519908894057128;1.074304134266836;0.7880725183347043;1.2370493287213964;-0.8913458957331514;3.0470545030175797;85;1.256637061435917
272;-0.303853770781721;0.8794244150278065;-1.3435270937773724;1.3934565560362764;-2.7543565395221257;-2.040566656300373;157;1.2566370614359172
273;0.9976342199554848;-1.6041240981507685;-1.324347579755616;-2.867502420485576;0.7400752952606251;1.4214456411993024;29;1.210764276591577
274;-0.758090130397788;0.2484459975005051;-1.3954906166306014;1.602416508117763;-2.125296751176545;-2.770355381752591;272;1.256637061435917
275;1.8102291340093013;-1.073160309341465;0.901311295460778;-0.9798365583058816;-0.0347606858450537;-2.458554298090448;84;1.2566370614359172
276;-1.5348971632066586;0.9269153469735754;0.666425252508215;1.0207830977267511;-1.0486097787234148;1.0825493150218568;113;1.2566370614359172
277;-2.845127922397176;0.2437162987578681;2.219378997622875;-0.723495013972538;-0.0823548361264254;2.2277570540959357;88;1.256637061435917
278;0.9157954020045866;0.3317386211592352;-1.0677268348269124;0.5183164093976175;3.1144256424799144;-3.195838132968931;173;1.256637061435917
279;-2.68372045161496;0.4192956760213789;1.1528679541675997;-0.6647731302343818;-1.6282130083347577;-3.1096191820349013;148;1.2566370614359172
280;-1.95994498495304;1.5796896505095777;-2.4204400449103374;0.1958197972263533;-2.001506838552184;2.3805784872436733;232;1.256637061435917
281;-2.617421951052269;-1.0938832738660085;-0.9470505545517182;-0.312988756777859;-1.6593387443398329;2.829038198858833;149;1.256637061435917
282;-2.768192333031001;-1.2070153116094198;1.443688540580839;-2.060491680780113;-2.3571028929999045;0.5260805337865497;90;1.2566370614359168
283;0.8912946273650507;0.5416332119222798;2.154746708486734;1.2492176125514791;1.760669985909844;-0.1926751000193252;243;1.2566370614359172
284;-1.0908258028755915;0.0201922628550514;1.0938480619343;-1.0683758267763137;0.0479815987063317;-2.263986907651005;11;1.2566370614359177
285;2.3589697924674127;-0.8748511104759905;-1.0584702535849952;-2.1309538962094137;0.9868214763296308;0.4383638083116397;78;1.256637061435917
286;1.0335397100686718;-0.3860192072472767;1.5150426017747751;0.2228635808929926;3.0465563354723337;1.9172973347552544;164;1.2017416857782557
287;1.2179898976562833;-1.3723107359213298;-0.0017264173477963;-1.0989987394484575;1.0771798500886705;-3.2154861916426176;84;1.2566370614359172
288;-0.760585127750023;-1.0730409729292978;1.7653360467562482;-1.3237727655329523;3.0333399489614057;1.8244159905612785;203;1.2566370614359172
289;2.3794849121397865;-1.0376667973882927;1.0268272231452933;0.6907427263847268;0.5194835063566842;2.54545929398174;119;1.2566370614359172
290;-2.8142884714612206;-0.1725524346292615;-0.2182235790668223;-0.4434344374223321;-2.0143960576081628;2.9604125893963174;281;1.2566370614359172
291;1.8056719061851212;-0.6908520412225867;1.5104529330223075;-1.697819346526774;-0.7500646721679389;-2.2721576448618985;275;1.2566370614359172
292;-0.4126174251937653;-0.3879672266012065;2.161240727808152;-0.7220933294882492;-2.364879248315159;-0.9299684053051184;258;1.2566370614359172
293;-2.5971496272357872;-0.6589967968040266;-1.6216945187920682;-0.6167498690411581;2.016570423162378;2.6375025412872874;187;1.2566370614359172
294;-1.8591598204763728;0.6167593074262008;2.126009249744924;1.1425956301099074;0.3995655687378955;1.8535857211128064;1102;0.99283292577356
295;3.1089684613479043;0.6967251982537117;-1.643613817767638;-1.3730899553309883;0.1764209230669247;-2.498799705472333;147;1.256637061435917
296;2.4347650303473376;-1.0401973902469122;-0.2548164325446308;0.6009025930824272;-0.9526177115408536;2.8983885843932837;104;1.184975273023514
297;0.1106572984169883;0.5758328768838417;1.8101154866488116;0.5432929975870715;-1.9403688060042088;-1.440333400357693;258;1.256637061435917
298;-1.2980456941519358;0.6622249873998873;-1.9375129594245248;-0.8526114678861745;-2.6765602512972158;1.281456518482958;31;0.7738006320567783
299;2.7799502246180388;0.5508612388266613;1.687511862952836;-1.1357970788992708;-1.4328161805433175;0.7626535014076282;184;1.2566370614359172
300;0.7864927909533803;0.4435871716935866;0.3646664283454333;-0.6324921570489865;-0.3220365455860811;2.88349453458863;218;1.2566370614359172
301;-1.0576998938437012;0.6338424046786225;-0.7329093722853897;-1.6974348404292887;-0.3807399996820952;2.900025595691949;103;1.2566370614359177
302;3.0289454093986645;-1.5743509777027105;0.9762034714558288;0.3651808125675534;-1.2436112430697277;-0.942942857725073;211;1.2566370614359177
303;-0.28294698419803;-0.1282056762214685;-0.8067831306550766;0.2598290357016038;0.7534595567770087;-0.9710045446839708;3;0.9354783280238648
304;-1.4447171238302725;0.0666753679821975;-1.991112485579216;1.8506954795039896;-2.668505265571456;-2.167730983146696;274;1.2566370614359172
305;1.6271851630647598;-1.7850838772350497;-0.036806512327057;3.37110378501248;-1.7642943187637177;2.357677844535124;260;1.0518306374464
306;-1.490685917956411;-0.2045077219724957;2.1360078783621828;0.8979924906339696;-0.3918506967104491;-2.608641847796092;93;1.2566370614359172
307;-2.192814448706691;0.8494011238807637;-1.3742531781295215;-1.395122691179947;1.9249844145182335;-2.132668923447562;270;1.256637061435917
308;2.152010131341258;0.2068014888790255;-0.1135589066065273;2.9458318426562915;1.607258003270129;2.9628393995873474;235;1.2566370614359172
309;-1.4740511157753686;0.0903871530223039;-2.0274085503991417;0.00602626428601;2.667586468582004;-1.9457203630550743;270;1.256637061435917
310;-2.846807848034361;-0.7825200119822775;2.414619300423793;-1.3823655373934316;-0.0654175102522648;2.4589645389750387;277;1.2566370614359172
311;2.342769125684825;0.6597092964891851;-0.3429165441425105;0.1568621012483909;-1.197444044688058;-0.4242638837356201;1313;1.1653038777347968
312;2.904241474383328;-0.8229387228112807;-1.426496422912895;-3.11317882179011;1.0960892149666377;0.8469860013369475;285;1.2566370614359177
313;0.230584320533542;-0.0360607066984159;-2.3676751925376416;1.0142036169861577;-1.7237881517378104;-1.702923123018159;157;1.2566370614359172
314;-2.7172810147868867;-0.7191116341769934;-1.302576474611828;0.0579066355154619;-2.324426277779107;-1.4479536429683342;32;1.256637061435917
315;1.1730939628714925;-0.9555012844621592;2.1357701383095526;0.8088350793990112;-1.995942933943513;1.435923701689798;56;1.256637061435917
316;1.820607715837467;-1.0415163607539952;1.4817309633499536;-2.596301467790399;-1.45228212060773;-1.878782833636819;291;1.256637061435917
317;-1.9521628288426085;1.2918254911858058;-2.271140634775786;1.1605415304510542;-1.2672929611071546;2.316064816274427;1226;1.0104160041040382
318;-3.3933012296122618;0.0160550658967472;-1.8645806467549708;-2.172704102057885;0.7771597787286688;-0.4235969099756863;256;1.2566370614359172
319;0.6294080850329551;1.152003871955953;1.1722726194345734;2.722988907684795;-1.094683855373499;1.65462468241646;208;1.256637061435917
320;-2.5703895010115843;0.7617332294377461;-2.829086765891863;0.2269669932105164;-0.1941508783461974;-2.9816971541681374;96;1.2566370614359172
321;0.907607844835471;-1.197155417888777;2.07447591920033;-2.061165672761181;-1.717251654905502;-1.7629438604661292;316;1.2566370614359177
322;2.6032495580242934;-0.971744031363201;-2.334629362256968;-3.0150063734659005;0.3671652320230456;1.1643566246869292;312;1.2566370614359172
323;0.0222221888187985;0.7574123970493152;1.8982222187759423;1.3830368685684646;-2.5715989195295665;-2.0937557691995914;297;1.256637061435917
324;1.7115543369455168;-0.0839884992602515;1.5620679427905897;-2.1901716895710326;-2.011289462315535;-2.2868267333392684;316;1.2566370614359172
325;-1.5563379269056337;0.1979337774011036;-1.0798890363387357;3.175442652844448;-1.5889011831138309;-0.0378503761656461;227;1.2566370614359177
326;-2.187751854151304;0.4374265780106851;-1.6200642344529732;-2.5917641483211287;-0.7764018437171467;-2.218847138250132;68;1.2566370614359172
327;-2.439847222984502;0.5942970518609079;-2.182893441302976;1.976933535508206;-1.2172837450792238;2.737930099810454;317;1.256637061435917
328;2.485075371147892;-1.7636492394217316;0.767043045810404;3.408408126715201;-1.3226285470655654;2.349475928063813;305;1.256637061435917
329;2.452883243477502;-0.580070201147094;1.610582276494961;-2.0354939014735267;0.447644492347037;-0.855536838164539;221;1.2566370614359172
330;1.855263313224193;0.1972152500107274;1.7384936884748003;1.4943084308266974;1.8442930955374612;-0.2467743126795168;283;1.1362724122984005
331;-2.071462994154432;0.9340959124792996;-1.3777665053795995;-2.576641743444118;0.7653937463538494;1.6976132236157295;237;1.2566370614359172
332;1.5036946053242786;-0.573405541829886;-0.7536375088588734;-1.1002126561838383;1.312999655219814;-2.7273496621541566;287;1.2566370614359172
333;-1.2724314607082226;-0.8324102937338163;1.5047294340572777;0.4078572676186905;-1.079109026840296;2.358522894395464;17;1.2566370614359172
334;1.174893202524344;-1.484610887754353;0.8954319562990559;-2.9322234840622072;1.3665577573949963;1.1487559706667627;236;0.9839066942931036
335;-1.680991120063699;-0.199516773091615;1.365245741490289;-1.8432278020906576;-2.9813444189136824;-0.492444800603395;87;1.2566370614359177
336;-2.208921794939064;-0.607523178404666;0.9695635472003188;1.3833579852234072;2.638584833582061;-1.1510241596307138;206;1.256637061435917
337;1.6626735104637278;-0.776575267669963;-0.906434624717833;0.0439036239055877;2.126044510623335;1.2680733957599477;262;1.0702898450643188
338;-1.3235245720956637;0.367288967194054;-0.7795839997569949;-0.7028742225450872;1.328550776402664;2.100717610185328;131;1.2566370614359172
339;1.6116755356267405;-1.091937652320878;2.0674998134030824;-2.604707019431712;0.1951690954758824;-0.741620317674716;329;1.2566370614359172
340;-1.5088835491985253;0.1016003017478111;1.786197711142107;0.7388112072679242;1.3403997804592445;1.6881418303834757;1102;1.2215965084351177
341;-1.484781360354868;-1.001149759788455;2.666445806629337;-0.6897797739168652;1.8318201264989584;-1.1671515041242388;64;1.0770204383952615
342;2.016331998918216;-1.5274543784551375;1.5846907822593157;-2.6679741857784656;-0.9031265240705576;0.3909508247244553;250;1.2566370614359172
343;-1.3000800193125852;-0.8174146724318208;0.401177760647331;-1.6889984707050192;0.5944842774673578;1.4696749125538628;89;1.256637061435917
344;1.538097516197006;-0.485415351978231;-0.3687043952094316;0.8239315127525046;-2.56741225828205;0.2461823821737803;58;1.2566370614359177
345;3.103679685931877;-1.3459033475835704;1.132452769484373;2.472831102891451;1.485917736081889;1.119616130280379;166;1.2566370614359172
346;3.30645914453231;-0.6318300409316231;-0.658114151527986;-1.2117017861689086;-2.3395754680611978;-1.7835810441015516;110;1.2566370614359172
347;2.614422987502769;1.3466082599366338;-2.582776554014776;0.2524713051687066;2.7650944073975365;-1.8668876672849644;163;1.2566370614359177
348;1.380669108817957;1.2496342126676558;-2.4813137911725853;0.1256200394705619;-0.0776684672697999;-2.135853922730339;214;1.2566370614359172
349;0.7280810651691155;0.5638479213772074;0.1259300857117996;-1.1000435547545846;2.975383988975425;2.70185127765526;145;1.2566370614359172
350;-1.0408329409399828;0.8499631608388823;-1.7510817420456195;1.1049514425276936;-1.0748138629097146;2.8087843182064245;317;1.256637061435917
351;-0.3399541580201028;0.6512689205248894;1.627065359535828;1.512021524647612;2.7628933570775573;2.7802570475287887;156;1.2566370614359172
352;-2.2899821702586034;1.285628170218772;0.2829756028160891;-2.0978327649027544;-1.3387757734318897;2.4702710346064687;265;1.2566370614359172
353;1.2016414515068876;-1.1807604628714752;1.1834866528718155;-0.3847950331286535;2.4169375497407377;1.7083315683847085;286;1.2566370614359172
354;-2.762350999234054;0.4412303448676163;-1.7809399468763325;-0.1356647519654905;-2.734037483701464;2.8777161333279517;953;1.230275078633534
355;2.850647746271693;-0.132123535108928;1.6399166981620148;0.5941599137073186;0.7761587889996283;2.2521257922354487;289;1.2566370614359177
356;0.291440770190181;1.1413602427459073;-0.5627483109350963;2.7290028919526845;-0.7303288670358997;0.7804780825101663;39;1.2227611469129491
357;1.822825152221409;-0.8969457988940934;0.9232867365020124;2.5852377691426724;0.4727971966699105;0.7030803142109702;166;1.2566370614359172
358;0.1849802949603073;0.2435015382850751;-2.6709714517031364;-2.880145673527934;0.3234724639972864;1.0988220268396764;231;1.2566370614359177
359;-1.8469927996623403;0.8149016355692397;-0.0023926324705167;0.6187504922606433;1.6442541321024626;0.4093451701447438;34;0.9427639804078166
360;1.755877285705667;1.155048784915777;-2.118355611934062;0.2267069348317819;-1.5636018897208317;2.2828738473551184;135;1.2566370614359172
361;-2.0354149636446093;-0.1402758296038273;1.1321768045121796;0.380719957648177;2.425522024923181;0.3411854277465527;61;1.1940671209897622
362;2.092672558266512;0.7689094843803824;1.043492740180525;-2.61537783024694;1.0690009463841506;-0.8180295334738656;221;1.150467653617645
363;1.314070279837934;0.1377248053505107;0.575136122812879;0.0826082368099601;0.9171519150572396;0.8558026952376551;20;1.256637061435917
364;-1.1032919084284016;0.2425970998085952;-1.2913695503895473;2.706092737402798;2.0052546158730378;-2.937060366215767;199;1.2566370614359168
365;-2.0371314370804483;-0.157733061937717;-0.0519582958505378;-1.2014969501435848;1.237155513439917;1.9026260123725431;131;1.0722728526657717
366;-2.786029138569565;-0.6569866218791921;2.18166114433863;-1.341512757797123;1.230082327724291;0.9043453710601368;1018;0.9904284994087998
367;-1.580017687152179;-0.1414560781514967;-0.6519591483478568;-2.377548839976251;-2.1368309095278457;-2.973659140587241;44;1.2566370614359177
368;3.073481879099333;-0.1460152262641483;0.744297060890548;-1.9024935657933937;-1.2854070598429472;1.5886422455563098;241;1.2566370614359172
369;2.5140646027694538;-0.9063952722941118;2.3030407709304552;-2.048335493800993;-1.6947534718154038;-1.6634048478542514;316;1.2566370614359172
370;-2.179340845962768;0.4546338044404227;0.8002960712412568;-2.8776813334952465;0.1831242163427102;-0.0604649872049786;239;1.2566370614359172
371;2.8450161466869552;-0.8157265919614288;-0.8390337553749453;-2.80980123258781;0.5213130571524233;-0.311394041974899;285;1.2359440814153273
372;1.206360152842763;0.5193681200272112;-2.3208579557139406;2.5288572438184067;-0.8622224997908716;1.6841204332844086;106;1.256637061435917
373;-2.444490479995864;-0.2804667407407164;1.0496189147510988;0.6807486692413243;-0.3357492142154057;-2.795228542183113;397;1.1533871873656034
374;-1.6806622457484908;0.9511549638719876;-2.099264332551823;0.7019670441067251;-3.1042584832517397;1.4206955720093244;232;1.2566370614359177
375;0.3216420033349664;-0.4163599312313842;0.6527594958951639;1.2238977053884328;0.8362688222608561;2.2935595342715267;218;1.2566370614359172
376;-1.6019783403076535;-0.4132524936891514;-2.615123324542635;1.2810980004358945;-2.266777684201261;2.607559661968662;223;1.2566370614359172
377;0.7750066039365098;0.6305199218168793;-1.114659378159183;0.2913826419955868;2.1578795965266337;2.9946150331561068;242;1.2566370614359172
378;1.8265869033489568;0.2854099651471438;-2.100125849575554;2.2376654434235035;2.7909600262861867;-0.136827103753574;246;1.2566370614359172
379;2.328084184593234;0.5829648843228544;1.2461079819140353;1.491378795688526;0.9619317611765578;0.1842251725146527;330;1.2566370614359172
380;-2.048344289882219;1.5040183073572582;-1.479948714719352;-2.824708842769052;-0.1878727744321518;-2.176159163910448;326;1.2566370614359177
381;1.3342088428398835;-0.812535219381123;0.9148861353428888;-0.4158671665403383;2.816041894538858;0.6158221782842661;353;1.2566370614359172
382;2.037430812931329;1.1698784520071135;-1.3936490605153091;0.107137025182028;1.8212574299802624;-0.8932264470357032;188;1.2566370614359172
383;2.326932134844979;0.7978392501985745;0.4772366852936673;0.6060447519074802;-2.0090523030755;-0.587609135559073;311;1.2566370614359172
384;1.4335651548493695;-0.2915690738116525;0.7784834801222366;2.106312454525545;-0.4522643760257571;-1.2231247000863812;94;1.2566370614359172
385;-1.9005862616021187;0.5278459464740151;1.201288727834794;2.609157320426524;2.341671357513443;2.3505226934453045;172;1.2566370614359172
386;-1.932175608227721;0.8041688727679667;-0.6627109421186614;-1.902594028298972;-2.040967083994169;-2.794411088552941;44;1.256637061435917
387;1.7361298298038952;0.2529318268545021;0.6072742000398386;-0.4196451682245244;-0.7029016288774792;1.993976693137704;80;1.2566370614359177
388;1.4080089833147071;-1.6124562584470947;0.85276137344907;-0.9383243332736622;-2.6252353172494485;0.8001973035721122;155;1.2566370614359172
389;0.9467167211615836;-0.179250157234463;-1.3929841331864097;-2.056896874007988;-0.1813387531416493;-3.033301276972883;102;1.256637061435917
390;2.3299636693637544;-0.0803917281486776;0.373853543328825;0.8086288831050886;1.0790117232507956;-1.1036339676783091;33;1.2566370614359172
391;-2.862673332385292;0.6459208696751668;-2.319365737125968;1.7370525801553742;1.4086984892767351;-2.511502328786747;43;1.256637061435917
392;-0.0837242068654836;1.4833024618579689;-1.1900845946681766;-2.0269334647993613;-1.0293990390738976;-1.0119422673525604;60;1.256637061435917
393;2.316127779007862;0.1687291301104576;-0.5544031034752119;1.5108258976473234;-0.5923504233835861;-1.4657575990915466;205;1.2566370614359172
394;1.003731871201314;-0.5777208221438749;2.048470115386241;2.784883410707648;0.6494266182009234;-1.8445708953828923;100;1.2566370614359177
395;2.725134081921494;0.6940015840988627;-1.1265549991730088;-0.2531698635009642;-2.6881107842091145;2.7254253848683168;115;1.256637061435917
396;0.1752156860884164;-0.0756497165732494;-0.4854497541973481;-2.568188028515799;-2.551143173940288;1.674075353728158;159;0.8786811577548055
397;-2.0804874423792943;0.1271389403810872;1.0866347965447145;0.3495170564244262;-0.6044992636075257;-1.87416923061856;41;0.9891328602036704
398;0.1612428928850915;-1.145705078364274;-1.3343187699799897;0.3708571567097272;-1.6473284015368992;-1.398408214334768;247;1.256637061435917
399;-0.5659911511279971;0.5560313569847604;1.3065163554140655;-0.0624958533403806;1.5671147124107476;-1.6684621758245146;7;1.2566370614359172
400;1.5263324058969194;-0.0447172900268137;0.7927786165331047;0.5945637372573399;2.148984427310913;2.824432197437316;242;1.256637061435917
401;-2.0356395585226847;0.5554706259345658;1.3547184278522852;1.1227386465700149;3.0020615859744795;3.0954477651312846;172;1.256637061435917
402;0.6714739762616684;-0.7613388986589918;-2.308652025773716;1.812315717202142;1.5617930542066216;1.3962459092605095;217;1.2566370614359177
403;-3.0685860046731785;0.6159833154975377;-2.722662129576382;-0.6395276082787428;0.2549370782458521;-2.044942719980612;96;1.2566370614359172
404;-3.042027886947459;0.4456338649588567;1.224471048268565;0.5918727006386584;1.8808126693074476;1.039160538874928;61;1.2566370614359172
405;1.007906007609351;-1.5567304218476672;-1.0755503788651932;-0.2809000363204651;-1.2013938184605597;-1.450851231638;398;1.2566370614359177
406;-0.3161080330945148;-0.715697732568998;-2.3496604202175773;2.229793526350214;0.5632308985402434;-2.1960776079690847;154;1.2566370614359177
407;-0.7198333239487286;-0.7038577105874126;-0.1714474102195172;-0.208224108820004;-0.9033976629263436;-1.0654989698452677;2;1.2566370614359172
408;-2.6839843891602317;-0.2604023799458285;1.4288644667798829;-0.1085893952514401;-2.5687003402716098;0.4435600517820541;87;1.2566370614359177
409;-3.070965269984923;-0.6827352338778919;0.5854113569828551;1.4027937162016022;1.713404338535207;0.7162338329472058;151;1.2566370614359172
410;-1.5545159520035603;0.0485639717132677;0.1472769052041581;0.2140080407424749;-1.0584962782527405;-0.301835427170771;2;0.9958662813746344
411;1.3981488065092569;-0.9981444047135948;0.7591312630341629;0.7811728753092804;-0.769740777536434;1.1528895656024656;56;1.2566370614359172
412;-0.8268829470189871;-0.64418521717643;0.697225998402058;2.2526205917224607;-1.212388901515272;0.9507056173749234;14;1.2566370614359177
413;-0.9805824267666112;0.8360530154673502;1.822175529140782;-1.044929332305833;-2.2095536742662087;2.037517504327216;249;1.2566370614359172
414;-1.3906374491771496;-0.1571519752417343;1.5274803117059113;2.695740729577083;-1.3721040127592818;1.2867555967375834;412;1.2566370614359172
415;-1.8001808290479562;0.924498682289732;1.1647717858298303;-1.9183807100684864;-1.2617620829553566;3.097262411252113;352;1.2566370614359172
416;2.6738365579362577;-1.015479067890286;2.423613072754235;0.4285101529653503;0.5707933267625024;2.5415436332465746;355;1.256637061435917
417;0.1023760200001658;-0.9673544759909396;-0.2993127449059231;1.5910989496016446;-1.1640299188587386;2.4091307733314937;238;0.765845384497761
418;-2.1500509147701217;-0.2174501666810008;-1.4409261268426108;0.121132960587552;2.627185443340984;3.1215242704031008;293;1.2566370614359172
419;-1.5906754555071747;-0.5741817474577631;0.0464627325487841;-2.3566269194666933;-1.474842296336993;-1.773593066700884;44;1.256637061435917
420;1.8299424015483825;-1.3786119403471249;1.6339299027621652;-0.0076121232552956;-0.0197359564384648;-2.515749350374843;275;1.256637061435917
421;-2.8382715126169558;-1.34460688246091;0.8620698307245283;2.0896406317419918;2.296914031136386;-1.0386220371025747;336;1.2566370614359177
422;0.1124318566532777;-1.530992390279147;2.136354848164118;0.3769562583843319;-2.0531166093896585;0.2066800367529314;91;1.256637061435917
423;-2.6552133084876157;-0.3165242479202148;-2.737778036644113;2.379892433139578;1.0997622679203831;-0.742780265054082;255;1.256637061435917
424;-2.2520737155295665;1.1259903985475903;0.7664100590060984;-2.104263725691961;0.9449438606187824;0.6070785442453065;207;1.0268844805865995
425;2.520453695395952;0.1930102293927618;1.3267140141229763;0.9284886535681808;-2.440524792775522;-0.1824947639475348;383;1.2566370614359172
426;-1.4972514422624812;0.5221434418837507;0.9341848520524824;-0.1079918685271048;-2.9262016543288656;2.123463866903263;249;1.2566370614359177
427;-1.751263683583007;0.1169232572436334;-1.8990565452495765;1.1487651103477363;2.827909151510008;3.0757144540126378;418;1.256637061435917
428;2.0275369608416023;0.675910970449245;-2.343764906023444;-1.8978630671708232;-0.8703965663027006;1.849338655564554;186;1.2566370614359172
429;1.4703918483543648;-0.2271387297541269;2.7468830077891786;-2.4863823927386024;0.0643668679942594;-1.3060908506540114;339;1.2566370614359172
430;2.174066968553264;-0.2263420662422579;-0.8330790476191466;2.316571944267256;1.0915291543420214;-0.9085062125841938;33;1.2566370614359177
431;1.555141877031749;0.4654161561060381;-0.4148662552102906;1.4512743596220103;2.981836054349666;2.97112333711355;242;1.256637061435917
432;-3.0848381098965385;-0.5144840821129135;0.5822196677508392;-0.9287399671192522;-1.4586213188819026;2.508853139235785;290;1.2566370614359172
433;-0.8516936050105304;1.1703838139760987;-1.7635351689077985;1.1411815649907515;-3.150393758248239;2.563794265574786;234;0.8499393880642896
434;1.6922411081167468;-0.9324560647688994;-1.915160176059309;-0.6733946903317779;1.00691128088308;1.99277173214592;192;1.2566370614359172
435;-1.5023141009540066;0.5096259009809128;0.5169807632402232;-1.1299800058189533;2.2344432696182643;-0.870564529093822;52;1.1426954892042351
436;3.3033283701155205;-0.5354608424092694;1.9843673254817693;-2.6273573586371803;-1.1627644332396252;1.6612445234084128;241;1.2566370614359172
437;-0.7431662124501606;-0.0898900980488315;-0.8618239749330991;-0.836278188781141;-0.6761311840303101;3.2331184156308805;301;1.256637061435917
438;-0.921636130463083;-0.3737884738183121;-2.6594500254289537;1.232065321667737;-1.7808139696794894;-1.743128500869963;313;1.2566370614359177
439;-2.7839344839564704;-1.2636737032196257;1.2366417604791875;0.4058455634992531;1.3330955695813855;2.585842059863989;209;1.2566370614359172
440;3.163879085875143;-0.361695298381928;-1.394355049121068;-0.3482410088878011;-2.920109079145843;3.0963229714194456;395;1.256637061435917
441;-0.8173541953549921;1.2580405528656255;-1.6660369994316864;-1.5226364848082157;0.0915106456836894;2.8137410926089594;301;1.256637061435917
442;-0.1475610689605765;-1.1480779935910528;-0.7648726473030246;1.7603801433279354;2.7935202430900103;-0.7666454243535528;194;1.256637061435917
443;-0.8622568996352133;-0.9861798977484644;2.5240790614326185;-1.4095914336719142;-3.00597408157506;-0.9915700484741188;292;1.2566370614359172
444;-0.3843045300342945;-0.9311350552167048;-2.346382098341452;1.218034236340337;0.5815286567690126;-2.9060566821100187;406;1.256637061435917
445;0.8113228838899867;0.5636747217186178;-0.8650366606326245;-2.541503374306729;-2.719877791408601;2.443814879959321;396;1.2566370614359172
446;-1.0173457263016228;-0.0754758020909496;-2.219859706776904;0.3365306168379814;0.6161936418887073;0.1554320099730785;127;1.2566370614359172
447;-0.1580324829623792;-0.995988366953506;-0.5011383282945991;-1.2724859053796198;1.5419883622438963;-1.4940022772155694;111;1.2566370614359177
448;1.8482212413011685;-1.1101711843814297;-1.2877722542029035;-0.7009273867864841;-0.578415041482899;-1.7038891804863805;405;1.2566370614359172
449;1.6396836270466122;1.4559111036938297;-2.560230089397024;0.3080027450104993;0.1045442188972514;-0.9539887310337888;348;1.2566370614359172
450;-1.4621472382323577;0.9183576886831342;-0.7033872110233892;-0.3215454434901702;-2.6786361988952274;-0.4259210552083869;248;1.2566370614359177
451;2.865403133995734;0.9549446170678868;0.6038975372016238;0.4881849669141828;-0.7829424352658904;-0.2223154426525948;311;1.256637061435917
452;0.9443483217998698;-0.5916997247503368;2.7029773530203665;-1.1940397003781495;1.2830221839372151;-3.197011656740807;50;1.2566370614359172
453;-1.185406547662382;-0.7764090843157923;2.07216791301005;1.0368125592713693;1.1967945022016808;0.9723257831059692;340;1.256637061435917
454;0.6751305350616676;0.8957937043520194;-0.3481808287318732;1.339215069776738;2.256274776066429;-3.2825688905782746;173;1.250300210725912
455;-3.1991041964884723;-0.5408388870069664;1.4020373465329483;1.9003196587664772;0.3824065658939505;2.5898475583735583;251;1.256637061435917
456;1.919804553204789;-0.0590712868205214;-0.4724523266268238;1.3392851763530755;0.616894031388926;-2.172742397154205;33;1.239051306718219
457;-2.7334693465709328;1.1930653581697397;-1.1770291239621886;-2.5159399164064613;-2.2729784650849867;-3.096535104678015;386;1.2566370614359172
458;0.1195594624338781;-0.0806512677118447;-1.8576256192205576;1.158565191656724;2.088017288245473;-1.7126354980787974;194;1.2566370614359172
459;1.914813010813372;-0.3612110230129969;0.0826220336049631;0.6012897931218909;2.334484099041423;1.164751356619722;337;1.2566370614359172
460;2.2203449143240217;-0.8733479138927969;1.4589713377764484;-0.9809589816944868;2.4122638606295657;0.507161166664853;381;1.256637061435917
461;2.5852535141091364;1.0290520860472343;1.2575946525325037;-2.889821247900753;0.3152673421230161;-1.940614088530081;221;1.256637061435917
462;0.5999431651545326;0.8162146547697365;-2.550705634232598;2.180491898778864;-1.1712749553083783;2.608011924111362;372;1.256637061435917
463;2.1759875140671;-1.0605072306018637;1.5410685881889097;3.0222890985707345;-1.1141367425540152;2.793908644584788;328;1.2566370614359172
464;0.692250109500409;-0.3823470154001256;-1.6551702075750292;-2.2703089319328185;0.1703658359679115;-1.883801370376201;146;1.1832814751379286
465;0.2457849380104909;1.6427771029357725;-0.4163946229045896;-2.368666769581454;-1.7966295199357;-0.6362990433989792;392;1.2566370614359172
466;2.654975455369142;0.7454274234580323;-0.8455945983709865;1.555236629050665;3.076681707116379;2.6782654579702143;431;1.256637061435917
467;0.1005661684188667;-1.4167147107365916;2.469849698601336;-0.2334269240910265;-0.0456610458119627;0.912646000141914;21;1.2566370614359177
468;-0.5078552913404522;1.0389804697155811;-0.8616610697718718;-2.5790633248126587;0.0133137510167882;3.304434575573483;301;1.256637061435917
469;2.889140670098609;-0.8425652119586347;1.389744263492784;-0.7732669127402896;2.820757330131333;1.4642954668275228;870;1.2257374365421392
470;-1.2827769524167167;-0.5024171616951678;-2.041227254798119;-0.019713467760256;-3.34208901232802;-1.3426006452451198;204;1.256637061435917
471;2.641985145391508;-1.0084541102303013;2.1541583944404765;-0.7919291746906505;0.5905708844472527;2.666458459110041;416;1.2566370614359172
472;2.5936552100617205;1.0524208943835798;-1.6415297577194314;2.358922858228657;2.78226572090769;-0.5579539544601286;378;1.2566370614359177
473;-0.6031936669604853;-0.3066327112629926;0.656559028078728;1.1399488906937734;-2.282842591379324;-3.045388632647495;132;1.2566370614359177
474;-3.067969699104837;-0.1077316537581434;1.0740102248136756;-3.2772142398998354;0.4664369897499413;1.7397649964701425;158;1.256637061435917
475;1.925547275303964;-1.5088455774714689;2.505847813432131;0.2236786930840273;0.6803900039132691;-3.014871546857243;420;1.2566370614359172
476;-0.2143387577347051;1.1291030295257654;-0.0343251645179406;2.0125178938003807;1.9836271369149867;-2.954896746200162;454;1.2566370614359172
477;1.5368640635382669;-0.742572724148779;-1.5703038444445307;0.8994729000772137;-2.0016157850691814;-0.0047095034128674;58;0.9651243205426714
478;-1.9552647402532528;0.0489969142489955;0.0487014883010449;1.332157367696475;2.129531217716718;-2.727218744482228;213;1.2566370614359172
479;-0.3793279211989343;-0.4925964779974528;0.8608802332673148;1.4863518726122322;-0.7551304840076116;-2.6783815771456703;132;1.2566370614359172
480;-0.3836831640828075;0.600158694392527;-1.7642467471096444;1.6602645365335869;-2.951787106050896;3.201169993363524;433;1.1221989655056706
481;-1.0544930075682166;-0.5941787562114016;1.0557107672218216;1.797557521317467;2.592163940729944;-1.4062011706425803;336;1.2566370614359177
482;-2.5991018176809493;1.048364055371492;0.5563442356452273;-2.555684171451059;-1.514123316621206;0.0730631255468066;239;1.2566370614359172
483;-0.8454919161881868;0.3038902999079939;-0.4419590187709499;-2.5982128274438803;0.3120678402987752;-0.2762422726232868;240;1.2566370614359172
484;-0.9149965909519086;0.9355078396062932;-1.0028904874254805;0.2169042487914338;-1.5219255888220986;0.1006635626137033;2;1.2566370614359172
485;-2.490102865419733;0.1020181675844617;-1.6126618011231062;-1.2536349232742077;2.086651432686157;3.3977119918639;293;1.2566370614359172
486;1.0376346174678366;-1.4189393703626365;2.207499105813926;-0.6095510109837673;2.1790976634381485;-0.6791783163165888;129;1.2566370614359172
487;1.7059266461355462;-1.0864957099002752;-1.6961241338256023;-2.769112455323544;0.7418332296791287;-2.1344864354472928;146;1.2201320130301645
488;-2.295864864137854;1.2503753376101707;-2.1891088784576413;-0.9326716774039364;3.044196530967229;-2.6649750027524632;270;1.2566370614359177
489;-3.0965019995701377;-0.4057787019772673;-0.7972607353702676;-2.827205306766904;0.8066273765837839;0.1851613907175897;256;1.2566370614359172
490;-0.1944229461241667;-0.6608948559290468;-0.0131928735769232;1.039739467541125;0.2683808407032228;0.3440455231636342;5;1.256637061435917
491;-1.472773069111654;0.5630027638595998;-2.3311508969482797;-2.258779431472885;-0.6527950107028058;1.3644324864329556;245;1.256637061435917
492;1.4923136389575304;-0.986084006999334;2.4233999903962595;0.4834954153101879;2.970900386918008;-2.0785261651036517;139;1.2566370614359172
493;-1.8067286261017432;-1.1305152354459127;2.024769091429848;-0.862604574503536;2.852666811383138;1.943577055598186;288;1.1935423147691353
494;2.045490135806043;0.0426870789862885;0.7223036057855021;0.7122573498968701;-0.6807808344175942;-0.2226912168759721;451;1.256637061435917
495;-2.8436817171271724;-0.3654694267663658;-0.5343905549018009;-0.1889792988381086;-2.787922027374416;-0.6915105360233204;314;1.256637061435917
496;2.25004201389236;1.0333139346344922;-0.8567433028831879;1.343872133675542;1.9764111534271969;-3.481681897960612;120;1.0554696524556375
497;-0.6407219523513148;0.1684065512405684;1.2734563157867873;0.1579775075672818;2.5735305815926424;-1.5555030644533925;399;1.1095818195846032
498;-2.770488850957883;-1.109201288002755;-1.4962767725239527;-1.4967660899748907;-2.502031123861903;2.2588377984392016;149;1.2566370614359177
499;-2.0457802708399884;0.0401948546539927;-2.146023191404564;-3.005429776379326;0.1848436608642066;-2.3904359938124795;326;1.256637061435917
500;-0.8599869327537641;-0.5640875246327904;1.993654120213131;-0.6834240236097666;-2.968905888459041;-2.220561304987604;258;1.2566370614359172
501;-0.6850441933399345;0.5877486986737275;-2.533296457527709;-1.4168465390680014;-0.7235628439217001;0.9135603848718032;491;1.2566370614359172
502;-0.4390755917536335;1.5012629080685007;-0.8083061066609399;2.4582049296987387;-0.0958962783563208;1.3967716356316204;356;1.2566370614359172
503;-1.7369976925650048;0.5522884529148697;-1.8072010203649185;-0.0632221225311129;-3.234778801755191;-1.4969357077641894;204;1.1114656759254478
504;-2.509538758051229;-0.1875968494942759;0.4714161206331358;-2.865038266555729;-0.9527192331915628;0.5510726147934712;239;0.9281528656738492
505;2.442394401945518;-1.4089046136981151;-1.7252304363266504;1.1247368415093306;0.0708484502478278;2.7248757517531024;191;1.256637061435917
506;-2.276188685643961;1.6806281598080564;0.4888986318745734;-2.383554676209549;-0.0090799197677123;1.0606804902311284;424;1.256637061435917
507;1.5828063870728395;0.5611233644639771;-0.6277005900273455;3.0623527263560337;-0.0610639036884502;2.855368219178578;67;1.2566370614359177
508;2.8497725379193053;-0.1913445966459698;0.0606467939164471;-2.966414866078748;-1.475954453614048;-1.602978258478151;216;1.256637061435917
509;-1.3358428482859457;-0.2998331222799977;1.4630570273396322;-0.1738912242349894;0.2912157235033236;1.3895907898459463;17;1.2566370614359177
510;-2.410139746723293;0.776499457031477;-2.327707799893714;-2.662665224462516;-0.5758002593310003;-1.2868157341878472;326;1.2566370614359177
511;0.2649117587592591;1.344946061461051;-0.044615152097224;-0.5363438303431771;-0.273371808915737;0.8296203422229623;908;1.0788908919317952
512;-0.0137592935461712;-0.869970595629108;-0.7236295416676497;-0.7044665445562345;1.758114320433622;-2.553994120674073;447;1.256637061435917
513;0.7038519676319279;-1.7390299150686928;1.117903618053727;-1.513591447575243;-1.6965786681678945;-0.0284777301823945;250;1.256637061435917
514;-2.3537066600880587;-0.0114736487153315;-1.905193331535977;1.2876008471693978;-2.101039037705722;-0.5665035330379657;15;1.2566370614359177
515;-3.1682750109182103;0.7964194350077642;-1.6009328635526827;0.3293479790713393;-1.410841353134157;-2.043741986574351;32;1.2566370614359177
516;-2.944925851331916;0.4881037582507553;-0.9659392920782844;0.4779875977590387;-1.8536216404453565;1.291747241042152;105;1.2566370614359172
517;-0.414088021889999;-1.4716504466351936;0.2747809413819074;0.984884195623634;-0.6163508975308245;-2.606689308152764;479;1.2566370614359172
518;0.8053117734001768;1.4270386610321624;-2.1789215465793905;0.6473655502096529;0.8317724837923874;-2.2967452258524648;348;1.256637061435917
519;-1.7632650649968056;0.1102318917388816;-1.5927902901300657;-3.112119248125171;-0.6641646668909928;1.236936822220231;491;1.2566370614359177
520;2.2400297225056143;0.4079428755715311;1.9489657928995487;1.0311839458694725;-1.9058917913640223;0.695415830452351;425;1.2566370614359172
521;-1.515393808017742;1.2889414445191811;-0.2607596750023677;1.1510543548765089;-0.8114851464832803;-2.592926270352372;261;1.2566370614359172
522;2.3867896226559897;1.3533896274806891;-0.4749639202700201;2.582845272303315;9.92614806364124e-05;2.6361308865755184;507;1.2566370614359177
523;-2.294542402590207;1.161662816638815;0.5126624879585853;1.185728648630126;-1.8868464455960352;1.522411461298958;276;1.2566370614359172
524;-2.1252125423403254;0.9926028794709768;-2.1108726323517977;-0.7041079585935299;2.123477920132128;3.0794345660087794;485;1.256637061435917
525;-0.3892913541310359;0.663950927627496;-1.032112136298755;1.6054412896760235;-3.0312783672569075;-0.8974105873230971;272;1.2566370614359172
526;-1.272645948496137;-1.1495725955197618;1.834578807010482;2.513359479577625;2.273055902495627;-1.4535918329934283;481;1.256637061435917
527;-0.6218098533342757;-0.1439340661226986;-1.885774356052012;2.9529709562459168;0.22348480900513;-1.6436591705357375;406;1.256637061435917
528;-1.266089928604318;-0.1388821978519822;0.1052679889372632;3.244919072189781;2.094379303395507;-0.6709653602910879;212;1.1486770024327837
529;3.0246367880664327;-1.063317537549294;-0.0525407724850125;0.0891717878949938;-2.4906986815463226;-2.524196084218466;198;1.2566370614359177
530;-1.4998740630703966;0.7445246185916581;1.2925836882147623;1.407098170937487;1.3352354691564523;0.9986384463508476;340;1.2566370614359172
531;-3.279384525463615;-0.7036050832369233;0.3361139463875045;-2.69365121809451;1.0262770964508627;-0.1409816288835757;489;1.2566370614359172
532;-0.3685733333136491;-1.0270859554150762;-0.4754872844414657;1.5588647165465723;0.7178030260994823;-1.4020427920600411;70;1.2566370614359172
533;-2.470922320437688;-1.242746588225359;0.8293068799163174;-3.3027102926293748;-1.2627808272693264;0.7713536027754535;504;1.256637061435917
534;0.6128419132084636;-1.1090082802017611;1.8169556653856165;-1.1997444793196563;-2.1908765120458424;2.4504758407743723;81;1.256637061435917
535;2.1255901758963343;0.480076231133923;0.2285358088421907;-0.0966626566644765;2.454771757671962;3.058843853126449;242;1.1414746250878625
536;-1.6336479759672686;-0.3614598431423969;0.4366133619466893;-1.4245033353253715;0.6398352022169795;1.0148475247022954;701;1.2249690662844586
537;0.5977891962636518;0.6274679306998221;-1.6981068241123385;-2.702499494079991;-2.646715113176029;3.340582447148586;445;1.2566370614359177
538;-0.7605706785373614;-0.8057633356296882;-1.3023560217844652;-2.0197970998360453;0.9777267456599188;1.2273589848918047;26;1.2566370614359172
539;-2.361143480552754;-0.0576300657931129;1.454346677986605;1.446619153328623;0.546199104756469;-2.131539113795116;93;1.256637061435917
540;0.0282515316515212;-0.5542321016931464;2.106683813857043;-2.3178722824075653;-2.136336709016164;-1.3757089529015516;321;1.2566370614359177
541;0.6923041713439424;1.1096748152592222;-2.763022421969533;1.248989233674517;-0.4152286542945096;2.6182900653478347;462;1.2566370614359172
542;1.200548125089565;-0.4761338280952154;1.3545948084397998;2.096443268208375;0.981599647722276;-2.1824071791669937;100;1.0515371359014527
543;1.7886524785451174;-1.1033175266707476;0.7751736644858014;-0.4505745225096097;2.077795046352903;2.3782147225764194;353;1.041819019702468
544;1.938171636433788;0.6489287458390578;-0.5088628487498628;0.2594346775744535;3.3457160322502637;-3.1751013577024567;278;1.2566370614359172
545;-2.246480858578892;0.3757272996121398;0.0693108218038926;3.2276465599817947;1.7356680139712986;-0.1988611906304092;528;1.256637061435917
546;-0.0239730655399628;-1.1614219203967535;1.0008447298580685;0.2445885484368962;-2.4438584440223217;-1.47963021603451;75;1.2566370614359172
547;0.0474425688269172;1.6467652525446517;-0.4660351818231246;-3.030814228245591;0.4450008273053388;2.709097532691889;468;1.2566370614359172
548;1.4465491847757108;-1.197134259943633;0.2721843618082373;-2.1766992460714083;-2.050468193968396;2.2432026978359256;155;1.2566370614359168
549;-0.6514838689661172;-0.5478229056680473;2.018363229269223;-1.0674413021069986;2.138410561025049;1.2237893030891618;288;1.2566370614359172
550;-1.5970728260858356;1.1017100200802734;-1.9457952719111824;0.5704575951234859;3.042121342930584;2.625108238240684;427;1.256637061435917
551;-2.459391276670177;0.9115643359972576;-2.0590481277059705;-1.2471928275983428;-2.4820169925393087;-1.5673662405646145;248;1.2566370614359177
552;3.2001481322459098;0.657192868288783;-0.4848615882597211;-1.146263863351412;0.3428161194259386;1.6653846142061957;210;1.256637061435917
553;-3.128139895862116;1.5341757079341345;0.4561481882040953;-2.874478735046293;-0.9129625032137728;2.4894492596825795;352;1.2566370614359172
554;-2.0060590481971583;-0.1697714552616554;-0.3914725288081278;2.386189205918119;-0.3249820215756827;-1.813940710242864;98;1.1691485728973183
555;0.209607600252426;0.4059399646144894;-0.6643309007079047;-1.1059592496322164;2.4294930458883948;2.099487016020138;349;1.2566370614359177
556;0.4477259568684266;0.5153982246659299;-1.4676436862206288;-1.2521252498097686;2.16504233180047;1.2198023392378428;555;1.2566370614359172
557;1.8316177125402788;-0.9739570593881408;-0.5358778328300424;0.3855819194337493;-2.8860737723119723;1.809304022103176;190;1.2318045557987465
558;0.6869757047032409;1.42990845613673;-2.035940785201229;0.381731403056477;1.1373624398643507;-3.454921407382329;518;1.2408762822505046
559;1.447065167880806;-1.004929360540101;1.523401745771341;-0.1407266553345991;-1.9374452447923751;-0.1228884480164059;91;1.256637061435917
560;-3.004033497936002;-1.1783110197458582;-1.0161963321666707;0.771778145191176;-1.494210144746387;-1.5197916274465633;314;1.2566370614359172
561;-2.6382012827966603;-0.4852834674175259;-2.182892569030228;-2.727533744107912;0.8994111737024449;-2.992809877407133;499;1.2566370614359172
562;2.927239415799476;0.7283700270569415;1.4419088594743286;-2.3942056637477878;0.1141919265811208;2.510660743621349;254;1.256637061435917
563;1.660678207234059;0.8831558893154892;-0.6984182391722423;-0.0025699873789572;-1.1595143598735451;-1.3785812294086326;311;1.2566370614359177
564;1.1772570128453697;-0.0935702990158932;-0.9014388141179772;1.808799483985844;2.5891442777279705;-0.3453748689579772;178;1.256637061435917
565;1.5213990711697705;-0.4317135566197349;-0.3024913159914177;-0.85217906077257;-0.665552822130385;-1.8076708345212291;448;1.2566370614359172
566;0.2026270140947847;1.6089487306776633;-2.168839043869325;1.149420035312389;0.4372629601293561;2.599089063046862;541;1.2566370614359172
567;2.05384257121481;-0.1091116291253096;-1.775325576883232;-0.9880435850650668;-2.768238642860946;-0.2001080538703614;83;1.2566370614359177
568;2.902460769683299;0.2403848758665918;-1.043212908443147;1.619825189212647;0.4051200390910475;-2.4457458891370267;456;1.2566370614359172
569;-1.3904407357072528;0.4195703395564945;-1.126345959358355;-0.3155028273042592;0.0547331752415043;3.392118067240997;437;1.2566370614359172
570;2.495456577012165;1.058887377866249;-2.1778761612103192;2.7520242891835425;2.658171448203732;0.3716344249363701;472;1.1538695464066788
571;-1.571969809272331;0.4458525943353808;-0.8836512753183763;-0.1431671069326263;-2.955878031312768;0.2369995776580161;450;0.9033066058907246
572;0.0585801634456959;-0.022623633152071;1.7484556127871056;1.3280436003199036;-0.3556527871977836;-0.2714006442233452;14;1.256637061435917
573;0.0874572739831031;0.8307152697320015;-0.0309612067291647;-1.1444214011796143;0.2778823797050603;-2.672817058054332;11;1.2566370614359172
574;2.6496053628401763;-0.0680381958405949;-0.9008590371325748;0.1038435281281493;0.8696595488097871;0.1846782257714083;262;1.256637061435917
575;-3.00920737398332;-0.6254394413608476;0.3855790864579727;-2.894819398364898;0.9957438758930516;-1.3477058844735883;531;1.256637061435917
576;-0.1311331071449138;-0.9711146541906316;1.7802702654817768;1.4015663745151414;-0.3585456954403332;-3.206406469511469;479;1.256637061435917
577;-3.04998681176332;0.6279022806359625;-2.1229393948709605;2.8292572248507857;-0.038026038404871;-2.1002193232826807;196;1.2566370614359172
578;-1.499249580826279;-0.7459345075329769;2.775693499593773;-0.5261074880803982;2.957127166366612;-1.6240463938332086;341;1.2566370614359172
579;-2.8027138514095005;0.2308710014823498;-2.083443849429385;0.3086289371704044;3.2836834527885923;3.392083920030845;418;1.2566370614359172
580;-2.45742985016934;-1.1141114296023864;-0.5357276264789101;0.2219544944072744;-0.7331105467018517;1.201956086564933;144;1.2566370614359172
581;-2.385614621979965;1.123146369514035;-0.7301375680637374;1.8928630318037896;0.6425810084391499;-0.2751633729501234;76;1.256637061435917
582;-2.942412568045912;1.4569773860221962;1.5354922047692017;-1.0449292997765145;0.294327148932678;0.9934166641901728;207;1.256637061435917
583;2.989185645859864;1.018712302920302;-1.172489523807284;0.8606057581991696;2.221341583057518;2.9461769369382047;466;1.2566370614359172
584;0.5698210991300819;-0.2018433068632346;1.4694751426127517;-1.095497892617753;3.149896432094336;3.102764733732883;145;1.2566370614359172
585;-2.796986957007375;0.3880221406869605;0.0371000220571438;-0.580501944132712;-2.142701869947496;-3.330052548523687;279;1.2566370614359177
586;-1.753075253364084;-0.3772385363114103;0.1969340931996697;-2.9283651529347665;-0.7917183690459132;-2.608932424920515;419;1.256637061435917
587;0.0522755044123682;0.0248818362437608;-1.5284850373547885;-1.8825188876995207;-3.0955975746851347;3.21485931756661;537;1.256637061435917
588;-2.042239716267212;-0.0649299594899825;-2.590433261747344;-2.913069248524077;1.6865003315284424;-2.516105291966074;561;1.2566370614359172
589;-0.594457142557284;-0.7822509859638612;-1.795393078689572;2.921033413474909;0.4022053850734752;-3.0244948087044543;406;1.2566370614359172
590;-0.2785772504907697;-0.8628235023435462;2.5276640860758968;-2.825487163671381;-1.949877302771;-2.3349272714363694;540;1.2566370614359172
591;1.5121950412903251;-0.4391906966724532;-1.174981118176878;0.5061343711386008;-1.6555730284522996;2.87104993631556;57;1.256637061435917
592;1.347610129638856;0.3678878345160576;-1.5173423363021694;-1.2500772983673474;-0.0427834732476837;-2.1468796104884738;102;0.4616200721557669
593;-2.719373252981962;-0.1886923938269564;-0.7947250523687406;1.3862883475258871;2.03637004915467;-3.0813764870793463;478;1.220148855202073
594;-2.0056062546460964;0.9000899368729137;-2.681116720933778;1.0206367889402637;-0.9529782185636766;3.0944091105484866;317;1.0240020849598994
595;-0.3879004577427778;0.8723643370014329;-1.593830112590779;-1.7930190627037108;-0.8879440353378121;0.3146344411275188;832;1.2495237708096854
596;-0.5452851369174071;-0.6588970724753267;-0.4046195654338745;-1.745797914687537;1.1920722725813722;0.3022307972180753;26;1.256637061435917
597;0.2681728467444939;-0.86895869507905;1.1884863410820992;1.2857846774161104;-0.4889250081642176;-2.58289132358863;479;0.8879428295187088
598;0.8947868769253227;-0.6284018719909157;0.6237250600111934;1.3768736729696989;1.4951436948455472;-2.5655295176017585;542;1.2566370614359172
599;-0.8345615388536319;-0.7745326529962808;-1.3767181144334095;-1.7420622592936;1.1497977449105097;-0.4294163856485662;596;1.2566370614359172
600;2.576139287573346;-0.1221721778138963;-0.8071462066094374;-2.8296583865801987;1.2367741732572817;-1.027304987857844;371;1.2566370614359172
601;2.439781385398082;-0.4044654223983072;-0.9498171043287902;1.9966220900185616;0.1019390299682302;1.7040863588527255;67;1.256637061435917
602;1.1764256973940914;-1.6728244390681877;2.6116519967362257;0.9394403553218844;0.7393210978800766;-2.333635653452253;475;1.2566370614359172
603;3.004149939181834;0.2067842963129833;2.65541489390568;-2.6600695337432736;-0.5730082117382289;1.2877290640307282;436;1.2566370614359172
604;-2.6756283354760177;0.0674381280394764;1.1849687429846627;2.1214080600252228;2.1072074252733257;-1.3306618022637997;336;1.2566370614359168
605;3.097276408663649;-1.0258411073278102;-1.1778164658532306;-0.0671128568730194;-3.017361580806287;-1.0636727214432602;110;1.2566370614359172
606;-0.470700336094453;-0.3000130747615558;2.309464911564941;0.6705715322897199;-1.9095575935768867;-1.895915302527397;297;1.2566370614359177
607;2.581158902952952;1.3406285678931111;0.6423205836893695;1.11690115262849;0.5560737376417736;0.705303065948947;379;1.2566370614359172
608;-1.411483690056134;1.5437434732871431;-1.3129513739743033;1.6941875689232408;0.8661145848470848;-0.4307030021405521;581;1.256637061435917
609;-1.4813847834816605;-0.7829973213558548;1.4842245712958009;-0.644703909457281;-3.287747624088732;-0.0024642865267071;87;1.2566370614359172
610;3.051269520790898;-1.0685793068744045;1.31612417611848;0.415382225332332;2.796071082380417;1.7521365120470906;469;1.256637061435917
611;-3.0103903232199944;-0.8835042157096056;-1.398957398669233;1.5455043656707377;1.1087398845767078;2.284675332397055;162;1.256637061435917
612;0.2389600251624932;1.4276605935659996;-1.3966145221545745;0.3849534512857168;1.9474800311991;2.2708503322099745;377;1.2566370614359177
613;-1.0416743314394123;0.2088809083468069;1.9554672827718969;3.077151999163932;-1.3526178794651864;2.2839287318570936;414;1.2566370614359172
614;0.8171957113490201;0.9756358920330368;-0.9995221728736876;-1.5725911891163773;-0.6354578917813776;-2.592290741961804;592;1.2539952672754342
615;1.727211403284509;0.7276493664344532;-2.1400903375638887;-2.490119992750992;-0.1002593099887958;-2.9603078895841253;102;1.256637061435917
616;-1.7272543916577765;-0.3372261801332832;-2.32176154354791;0.682726664672146;-0.4202448383630284;-0.407012549053332;13;1.256637061435917
617;1.6455852929703405;-0.4982517180135848;-1.7478266821836073;1.6222338432921766;-0.0760044774790369;-2.3540836060366663;143;1.1484269662580353
618;-2.024265017733992;-0.3814835503356879;0.2838220082758136;2.6162562431051706;-1.2967132734216076;-1.6854030792548735;554;1.2308089089444012
619;1.527739221133684;-0.1512509610329408;-1.4791749271610712;1.2933000064343667;-2.5856845597809484;-0.6035354599002466;58;1.0620358841482136
620;1.0597478961947608;-1.512605231071877;0.6276944677682982;3.3825629997059696;-2.2291986629180016;1.633055098298241;305;1.2566370614359172
621;2.6500373890039666;0.3308320798526982;-0.5614775781789463;1.839140794102434;0.1352511034361732;1.2231677846384823;601;0.9964287828367788
622;3.3405915049517088;1.1477774690050733;-2.0169820652992803;-0.3185104227913719;-2.385260137111316;3.042993907807237;395;1.2547503430058082
623;-0.602673671044158;-0.3317905237140676;-1.6137463990827918;-0.5274349595809287;-2.147661272088531;1.3850911855585373;31;1.2566370614359172
624;-1.437213960554938;-0.0906274514716569;-2.720594823668628;0.7132814868392319;3.25743038258427;-2.4108874717008923;309;1.2566370614359172
625;2.9947851024415293;-0.9213927084764746;-0.5961466226310633;2.5349354877821018;0.6590126154930598;-1.0473276733438748;430;1.211129727178582
626;-3.348103970655675;1.4346316277048268;-2.446821574850394;2.8344624542723023;-0.3280413086190122;-2.906702433116449;577;1.2566370614359172
627;-0.1025811261041989;-1.2390052215190783;2.646422469611628;-1.5283615642761823;-0.1790136941543265;-1.5314257925799264;101;1.2566370614359172
628;0.704267005761789;-0.0517322086821965;0.1808894775314433;1.3868718215152267;-1.1864395449348824;1.755532280149772;46;1.1281285676963615
629;-2.4212980677289453;0.2080438412954686;1.2299481630714606;-3.131643837393879;-0.0181983407700126;-1.1422034730150763;1169;0.9826251825846092
630;1.708803240524983;0.1817009452672006;-2.511816358998404;1.971602987578036;0.7225786767836196;0.292808049846095;217;1.2566370614359172
631;2.095511268251566;1.1595484424963023;-1.1418440090187525;-1.2454434433679809;0.3556926781221137;2.1792350141858385;175;1.2566370614359172
632;-2.0240375662967582;-0.9704237671963244;2.266738453019602;0.9449664770259644;-0.7505386783198151;2.2240806182237085;333;1.2566370614359172
633;-3.0461520814209817;1.2799642209857476;-0.3994769896009853;-1.2208090494340913;1.9444214671688091;0.8082212451079896;185;1.256637061435917
634;0.1239712019463064;0.9907549030879405;0.922787695141272;0.9588430078997888;-2.2255677571048618;-2.60677098406276;323;1.2566370614359177
635;0.9117653151237972;0.2525416649136925;-2.8342998315204144;-3.0688413039061118;0.7159532216496867;-0.3543547243381739;231;1.256637061435917
636;2.1881576513556182;-0.9486130831828125;-1.285507315495005;1.921043472467461;-1.4591560878953245;-1.3060210878374572;205;1.2566370614359172
637;-0.7401717769669129;-0.1771710040447449;0.3902862174612027;-2.8925467152559605;0.6177598013345301;-3.058391613464602;169;1.256637061435917
638;-0.7988529596121032;1.0576135325939988;1.50214684230039;-0.1663873914679868;0.4934234247515212;-1.4011614404239503;731;1.2424917479262647
639;-0.3645272856284822;-0.751777256829175;-0.0076218804955028;-3.236676438189297;-1.2881675935629442;0.6834236733169345;51;1.2566370614359172
640;2.6089214748695047;-1.3240817891337304;2.015344784491994;-3.130600565882913;-1.825675541439892;-2.288920636238116;316;1.2566370614359172
641;0.0642028239704281;-0.839413471237857;-0.3088686071170932;0.2426755879625917;1.451182624899724;-0.5043391465014399;303;1.2566370614359172
642;0.9814614899046888;-0.5559116798628642;-1.7230219312918065;-1.7769005514424356;0.6584589511532952;-3.205900702356085;389;1.0322086689201555
643;2.854552095003027;0.6052382498828381;-1.0196378158990351;1.3828831225580986;-1.2079290567366845;-2.163572763223494;393;1.2566370614359177
644;-0.3710068550794745;1.4179970930757573;-1.7419281464659138;-2.885118386464532;-0.49367938989253;-0.606562957243534;392;1.256637061435917
645;-0.344862914708113;-1.471197193834544;-0.1602325347764855;-2.108060222349996;-0.8814180480388195;0.076795833931241;170;0.7475662876217803
646;3.2052217956692357;-0.591245944072812;-1.2217297894048125;-0.7109879994151449;-2.515428272656042;-2.7674202291634007;346;1.256637061435917
647;-1.7939700271983012;-0.7742790226278667;1.9536309355859884;2.248937926390924;-0.9595210333548962;0.590945328774404;414;1.2566370614359172
648;-0.7674774346445137;1.3849225035898216;0.1188601017982151;2.463004880682101;1.770367404470116;2.7910923078179657;138;1.256637061435917
649;1.1925274749985983;-0.0937892982802353;2.1851326068286934;-2.268217204660344;-1.5278599329184854;-0.3794464478961737;264;1.1943228469566378
650;-1.410875651253748;-0.1315768168989471;-1.1379538498308024;-1.3013195527372694;2.0999434258393554;2.591662658362593;705;1.1524042666056729
651;2.328274439051706;0.4524677585164925;1.105994255361431;2.507976458331799;1.3230827691706648;0.7995092154561481;379;1.2566370614359172
652;-2.5911840750612627;0.4055240771789244;1.0719405341630628;-1.278514831479121;-0.893218225361905;0.8570370697952527;230;1.2566370614359177
653;2.2274991087848;-0.3906576333379109;-0.5302664919802866;-1.6803510629137002;1.8569228348173248;0.1412269054980723;285;1.2566370614359172
654;-1.5735089451330122;0.3884048757597974;0.0791681872005823;-1.0442476445769326;0.4385467635241483;-2.097030042809782;731;1.0653617501768835
655;2.510226431120688;0.7660992523805221;-2.254383265971164;0.4150012728280708;1.6713553920092257;-0.3149108090525254;382;1.256637061435917
656;-0.881319097202591;-0.7298304611950883;1.9625598210269557;2.3231042609143167;-0.4909510709507192;-2.9652698254442456;683;0.7838483698118053
657;1.4993721280358938;1.1313763587460832;-1.8258295609509665;-0.714630178099727;1.9193028359301676;-1.538558083966049;382;1.2566370614359172
658;2.6417810535064463;-0.0193977618148794;-0.9836412191655;-2.959288388633233;-1.1482272529577902;1.363674706990392;186;1.2566370614359177
659;-1.9421091800306396;0.1869184275275382;0.1260815120263977;-0.1252146804190816;-0.3322071858238268;0.3411459353995987;410;1.107164235104435
660;-2.176683614237221;0.448391931997008;0.0410773220281399;-1.5053719771401683;2.867063083113159;-1.4647040908591404;435;1.256637061435917
661;-2.963166294954174;0.1019950721601997;1.0779844048470206;-1.3704375815571668;-2.39254907490126;-2.5505238725122954;279;1.2566370614359172
662;-1.508656982455191;-0.1323901930308832;0.3342016548466732;-0.5023477419936233;-0.9776267236649164;0.5845949581458338;410;1.1727116598663263
663;-0.3890046695831009;0.986980050424402;1.6771420647094917;0.8760338345493046;-2.5364889542864435;-0.6177308250605009;297;1.2566370614359172
664;0.6835059247623171;1.103373528279573;0.9252335959213016;1.5147803309321208;2.885298340320277;-0.7129761504164674;243;1.2566370614359172
665;-3.2706255502240063;0.3720316748259532;-0.0804251559989093;1.475571697826242;-1.8279156870406024;-1.4375221166059435;98;1.256637061435917
666;1.673922532348457;1.4875342024734572;-1.4809574266061991;-2.6819002590444687;-1.2906345928876584;1.0692523149114042;186;1.256637061435917
667;2.259884686616222;-0.019403243943981;-0.2233010794576675;-0.4071954523095791;3.4375732027738737;-2.471829877389085;544;1.2566370614359177
668;0.2262365415647391;-0.5562634604760035;0.2409880361361732;-2.079810243582517;-0.8123361210869134;-0.4225337749710559;645;1.256637061435917
669;-1.2793893488407655;1.0400293591412264;-2.193687965993396;-0.3909531426207943;2.902894133327225;-3.0988211664656973;488;1.256637061435917
670;-2.658738998661012;-0.3722839776087913;0.6247673338675711;0.5601469682744773;-1.700522204477652;-2.3112785983989697;41;1.2566370614359172
671;0.8182259313389548;-0.6892135607006689;0.990384748484134;1.6150516283604892;2.4363616084029216;-2.0886018239307766;1199;1.0840306764974024
672;2.907103319233572;0.5830206948692788;1.679704416650934;0.5177877547463315;-2.411106948683861;0.3786224034461161;425;0.9542543856120244
673;0.7117679253738909;-0.9611082450444264;2.0445922591715457;-2.438505197584505;-1.9366377643415735;1.4062921582372443;81;1.2566370614359172
674;-2.7144024288693185;0.7277547201428679;1.6029138304008512;-2.0376121587657137;-2.242615977894675;-1.9320375313553055;661;1.2566370614359177
675;0.0505733234634482;-1.6871156393489013;2.5767555541623817;1.295789875011445;1.111515086398184;-2.544959553916113;602;1.2566370614359172
676;1.1729346618814465;0.2224749786060854;-2.3949133331378323;-0.1338977880897676;-2.8132213740986343;1.2604482380274835;124;1.2566370614359172
677;2.0650937216577967;0.1682702646936958;0.177012647507774;-2.0099349864159657;0.5860285455272665;1.3673215585423546;142;1.0828465254210835
678;0.8859700741605652;-0.5875394012836035;1.936229830971832;-2.251786909578926;0.9411063737193446;-0.4256078868690038;339;1.256637061435917
679;3.377831402230892;-1.3704686520181524;2.563077103713126;-3.083458212096314;-0.6914059098679641;1.3277237492874516;436;1.2566370614359172
680;-1.0965665335831538;-0.7366329059369361;1.6999851927902108;-3.0444064930503494;-1.764247340224339;-2.690834090895376;590;1.2566370614359177
681;2.633316934626017;0.5158613283335112;-1.579020482017334;-1.5477282163121555;-0.5403034633484286;0.5724736150936183;186;1.2566370614359177
682;0.885251017335031;-1.3301196441259324;1.1609893429492182;-0.2455416058060475;3.08763636977056;-2.503470083124679;225;1.256637061435917
683;-0.1851985788635193;-0.7358329456069691;1.6910702249664848;2.198950767984683;-0.4076716524534157;-2.7815790285493094;479;1.193834218949788
684;1.0205566807948776;0.9387687210130798;-1.7350410076105702;-0.5987653032014963;-2.235560750832378;1.020415237447153;676;1.256637061435917
685;-1.3677057533753183;-0.5601067034682422;1.0891745037696103;-0.2704274436156006;-2.3727303215293123;2.3088057594316265;1080;1.0805765411661157
686;0.4576859227063526;0.1794731688248613;2.0229618086540926;-2.7957147035023704;1.445483733116375;0.0740166776348139;678;1.2566370614359172
687;0.5016680800676256;-0.7737858559445843;2.469950358136329;-0.8386684287453818;1.5624213517941448;2.0507645560484447;195;1.2566370614359172
688;0.6104204882226297;1.4311125246803529;-0.7820940015303346;-2.394312482991838;-1.3539326980624198;-1.2712746972823925;392;0.9790606311094314
689;-1.2885210828690723;0.5652721768115173;1.6479905646501205;-2.925454859271005;-0.0049946847705178;-0.1911517100893729;370;1.2566370614359172
690;0.93207162703144;0.4794387947934226;-2.495168550313089;0.1808504330200096;0.2283920351844573;-0.801774017410438;1265;1.090758493979237
691;-2.4951417797639;1.2280307065967877;-2.5359658554578344;0.9590899622866996;1.4651554666868594;-0.1654014127994396;229;1.2566370614359172
692;1.8396561036319232;-0.0793660037388175;-2.3128255234330344;-2.6134839867854405;-0.6549517240918216;2.49269481968312;428;1.2566370614359172
693;2.886573077163792;0.3858581180481781;-1.5050942877705384;-0.0469592306346912;-0.4442435014597936;2.4404598344929345;135;1.256637061435917
694;-0.050309545068793;1.5857890641177883;0.3771708083354276;1.1820546074850116;-1.6912736038379237;0.6302226694205382;208;1.2566370614359172
695;0.798485797988758;-0.7382877951166495;1.7026718918795984;-2.3458712803716426;-0.5876116400939331;-2.0194866144211754;291;1.2505307199943194
696;2.08015306776293;-0.7177454273121237;2.569047926228812;-1.6451963023953318;-3.1333900875016782;0.7137138407848547;264;1.2566370614359172
697;2.1152217487094465;-1.2895979879060284;0.7925513133212284;2.3839075535075605;0.4782569105632706;-2.0840694787637517;94;1.2566370614359177
698;2.708123813518551;0.6713718958920746;0.5811290245640108;1.6108187577688264;-2.0951899891985333;3.226805612575696;85;1.0352464227942506
699;-2.7878718949688803;-0.6653938831061841;-1.9155002658838955;-1.3191367252303043;-1.1676328386203163;1.358165391064236;149;1.0697592325613268
700;0.9739471064408738;0.7150790611891313;-1.9645133006206228;0.2434742505122109;-2.768644772450356;-2.0361048408598816;157;1.2566370614359172
701;-0.6316974857866084;0.0220037916794844;0.5642600241142137;-0.8475560465409984;0.6189018136230282;1.0149824082419343;1;1.1438979011428552
702;2.7288797039084525;1.4199996115742368;-1.6937882494913277;-3.2179673262361748;-1.331075313567196;-2.333033447131491;160;1.2566370614359172
703;-0.0523704978996708;1.0824950998571008;-0.8324201694477641;2.9025508307435635;-1.5960230341853856;1.5584223103906416;356;1.2566370614359172
704;-1.838089843161056;0.0100071052455797;-1.687411671929426;0.9347801881565732;-2.573271651797809;1.0171830261467123;374;1.2566370614359172
705;-2.0793645082137444;-0.2516203124779021;-0.3376415343945851;-1.4149542441293752;1.6515785287770914;2.702586392234785;131;0.9781968431660646
706;0.7970687499119569;-1.423703111764107;1.1606123320965698;-1.9796485392075696;-2.467379103091525;-2.0962771286056023;321;1.2566370614359172
