Komment314/test_diploma/benchmarking/path_finding_for_benckmarking/pre_rrt_star_results/11_4_tree.csv
id;joint_1;joint_2;joint_3;joint_4;joint_5;joint_6;parent_id;cost
0;0.0;0.0;0.0;0.0;0.0;0.0;-1;0.0
1;0.3734719236442319;0.3007912874552414;-0.7269442795400147;-0.7683009631876345;-0.4279479791576115;-0.2174998835832099;0;1.256637061435917
2;0.8995128660613744;-0.4588976397129921;-0.3449506489598767;0.6091802733847772;-0.1340201829786899;-0.2266567869832282;0;1.2566370614359177
3;-0.2988570168920009;-0.2232568136790318;-0.6307843640489706;-0.0103458865135675;0.9018389986786516;0.4781924841948791;0;1.2566370614359172
4;-0.2593941249445937;-0.4765169475626111;0.1630135758476048;0.2414153819279057;1.5828480809663144;1.074989277994176;3;1.256637061435917
5;1.0748086155186194;-0.8150186856307219;-0.5400717683655135;1.087098717101675;0.7742549807679955;-0.8012382362913525;2;1.2566370614359172
6;0.5984227754805265;0.7981564797819656;0.5645151112962257;0.1204795564913289;0.5007798771200821;0.0;0;1.2566370614359172
7;-1.1700845931460198;-0.1156078677514014;-0.7634598537812008;0.2275373807469421;1.6563337976358643;0.0719200596841686;3;1.2566370614359177
8;-0.3573069465819167;-0.4625699292569128;-0.8580054176746441;-0.6099651897874812;-1.0708871752883902;-0.1352773146841003;1;1.2566370614359172
9;0.7222771429182613;-0.5291386188642847;0.2692008267840947;-0.2255717348606971;1.7238819842774595;1.6778540425517785;4;1.2566370614359172
10;1.1073480334807049;-0.7850517869862684;0.5405569066417687;1.1831245682763851;1.296030257006916;-1.1589408211332783;5;1.2566370614359172
11;-1.445099200423286;0.5781375004621994;-0.894945146855408;0.7273768840652621;1.4853023558932623;0.923883303377073;7;1.2566370614359172
12;0.5368183351465031;-0.6138588900421339;1.3891240831982623;1.6764630476009463;1.4360931398513876;-1.6501218876116417;10;1.2566370614359172
13;-1.899743641298256;0.1676697653766449;-1.0322585848219012;0.8382425546042176;0.5227808044426345;1.4202273985896217;11;1.256637061435917
14;-0.5534014874704898;-0.0901648485475435;-0.382208371385758;-0.173219601587679;-1.6633674307498263;0.6608606757980637;8;1.2566370614359172
15;-0.5875382556118982;0.4830189742772787;-0.1013917032781417;-1.0286153452524431;-2.0658360555057698;0.1346565165525478;14;1.2566370614359172
16;-0.3864416087404757;0.2188995114912618;0.0343826075075912;0.9901422914939982;-0.5136855000021843;0.369385810583943;0;1.2566370614359172
17;1.0764929630029292;-0.5272034457844478;1.4171278503234743;0.3510276604858893;1.373284964925631;-1.3709991352415216;10;1.256637061435917
18;1.7860557410123052;-0.5901523086318975;0.13476038587842;1.0780490005595087;-0.5803548772217524;0.129398584246995;2;1.256637061435917
19;0.2891198231967458;-0.3395852937213143;0.974436074192672;-1.131867041718909;1.5332293873926113;1.7003179548027725;9;1.256637061435917
20;-0.2085239325385859;0.4239490134789848;-0.1525410589795293;0.0150574912380602;-1.9011315743533868;1.68611966117508;14;1.2566370614359172
21;-0.39973089943462;-0.6504851390602352;1.6166964946261233;1.8593373487893867;0.7229021579664339;-1.976920241558535;12;1.2566370614359172
22;2.176872420920616;-0.6743489156760821;0.1041309436170771;-0.0652978103930413;-0.576636660396169;-0.2039421427232021;18;1.2566370614359172
23;-1.410238456049563;0.6488958176880048;0.1441935181601891;-1.042863600026082;-1.9075022973048128;-0.7537134876997177;15;1.2566370614359172
24;-0.9535501181973298;-0.9700811854784354;1.9751380391003783;1.3515145371709345;-0.161554517408034;-2.017557475686824;21;1.2566370614359172
25;0.0642984113389389;-0.0335040149893225;0.9704247214040675;-0.7613705701359672;0.8928719977562896;2.642424623331288;623;1.0139703875471382
26;-2.421189780268372;0.7742666356170973;-0.2958286544621539;1.4461355777215323;0.6585810420838272;1.5149173712064163;380;1.106270572211279
27;-1.7961672496292131;-0.4408100391817611;-0.1481750164794643;-0.2543282259484636;1.0355179972452335;0.3638423219017126;7;1.2566370614359172
28;1.3389281561271311;-0.4381941830967992;1.9093732626211397;-0.2913625199336997;0.6425937228474543;-1.9308754105583124;17;1.2566370614359172
29;-0.7815786184349419;0.3223084669647882;-0.3905865404504928;1.8544620488817416;-0.1254670153300106;-0.208497416464308;16;1.256637061435917
30;-1.2597315339976698;-0.3574055068566318;2.0868781434771835;0.3918556810128867;0.2586255726184711;-2.0115676146936634;24;1.2566370614359172
31;0.7155767675891468;0.9551662080817226;0.4220681146572236;0.5238451988812987;0.3413313655686315;-0.9240679084022192;6;1.0491412813032952
32;-2.3948279327165727;0.1772319275162758;0.5354539007806747;2.0075094890044887;0.7204709884842535;1.975340648317052;26;1.256637061435917
33;2.0811255876283488;-0.0388031965499255;1.623434787864782;-1.1634252977972133;0.6338397725774991;-2.09346564761472;28;1.2566370614359172
34;0.8148699521507193;0.47937711214792;-1.2289774943381393;-0.5681353195513315;-1.3728400206000615;-0.626751620524621;1;1.256637061435917
35;0.4802999904575202;0.5050679343881285;0.0721312438128554;-1.2666350956300374;0.7135394410126707;2.7895166597406384;25;1.256637061435917
36;1.8364350438418648;-0.3554825408986762;1.4041270878526673;-1.2540110590936533;-0.4627511203625743;-2.4936708461132517;33;1.256637061435917
37;-2.2533321158386914;0.0509422249238549;-0.7795602295708658;-0.3411347641979789;0.2980241341574771;-0.058338728762011;27;1.2566370614359177
38;2.3175486937647696;0.4404429601945074;0.6525060664930686;-1.7174147165995808;0.762788525973993;-2.2587814096363408;33;1.256637061435917
39;-1.995924629145919;-0.3041332589735941;0.6501539072141568;-0.8434096920944116;-2.084609106769806;-0.7272674820305326;23;1.2566370614359172
40;-1.704553231327129;0.1907430109379972;-1.2142575656533094;0.707490696920222;1.892366132187528;-0.7708990741829952;7;1.256637061435917
41;-0.2361498101950105;-0.56715941105008;2.4580366012348;1.2079593749256707;1.016065061144504;-2.5490599332826425;21;1.2566370614359172
42;2.323893050513578;0.5032735109156332;0.2378931585811991;-1.162029060880125;1.7970091337683425;-2.417461653004069;38;1.2566370614359177
43;1.5872614082229293;-0.6998211860812089;0.0109705653709369;1.7674540593274333;-0.9572696249110132;1.07540189978156;18;1.2566370614359172
44;1.3483033820501158;-0.7935446182327216;0.094394498455033;0.4731565051484461;-0.8583154999881777;0.6475412258827101;18;0.9727557762068308
45;0.2568899108507506;-0.7166632691916253;0.4269379571236621;-0.7412182227884321;1.6066990255676696;3.162045298634164;623;0.9288830704665386
46;1.463667347251816;-0.6976447370845086;1.662835231420167;2.392330353420839;1.6448618484143107;-1.936651779405289;12;1.256637061435917
47;-2.119282717416771;0.3315430904170618;-0.3742863588148569;-0.9615622915499512;0.7819356726855343;-0.8944505712252363;37;1.2566370614359172
48;1.4706136436681465;-0.5634133486738183;0.9238411982167296;0.5380968014306217;1.6478607547675757;1.6986278758335538;9;1.2566370614359172
49;-2.0498070719138384;0.2643975420794971;-1.7293825031545018;-0.272213950275058;2.33480721351326;-0.954154339756534;40;1.256637061435917
50;-1.310122634667074;-0.0424277673594283;1.2840933157440118;2.090265691152026;1.1881145900802756;-1.962276320876921;21;1.2566370614359172
51;-2.1211083778678264;0.6661443365320711;-0.7362665327183485;-1.0047994240332463;-1.9837032187774817;-1.293192666079889;361;1.1253232768349644
52;1.745112679635533;-0.2518373676418131;-1.1121386510517757;0.4241633610245475;-0.1775826894321011;-0.6699595309470769;2;1.2566370614359172
53;-2.229164100714825;0.0638693288789741;1.3574619171315951;2.474939597734041;1.485479105057972;1.7315874611476874;32;1.2566370614359172
54;-2.3348697166718417;0.8798779536617564;-1.4372046860337906;1.3824988009704064;2.29298634283341;-0.5681851106857078;40;1.2566370614359172
55;2.586665913144736;0.8927960117719105;0.3498434678953215;-2.336908375086217;0.462398799536069;-1.4005982625799829;38;1.2566370614359172
56;1.700608457008544;-0.8812869134023373;0.868921070899379;2.4379969380396327;-0.3765403017832309;0.9733922353124744;43;1.2566370614359172
57;-2.1973626988883947;-0.6056877214920705;-0.2693327885323936;-1.4158418621524436;1.128619226852598;0.4999793623168;27;1.256637061435917
58;1.4253093678239532;0.852594094746643;-1.573123634341662;0.1429871477140291;-1.975254705179448;-0.3436009070504308;34;1.2566370614359172
59;1.2658801682163183;-0.1493694481569221;1.7738723362719124;2.3106789720354337;-0.4579390194319416;0.8608203260048795;56;1.2566370614359172
60;-0.553089353743637;-0.6122561237301848;-0.0443628795882176;1.4155197537504849;-0.3232082982993653;-0.7579294951855295;29;1.256637061435917
61;1.822108007181689;-0.3401560036623214;1.4091603855516015;0.4926363684517097;1.5612982832132478;2.775962618820762;48;1.256637061435917
62;-1.6695784554015949;0.6256795997521172;-0.4710039434583625;1.7208880739898145;-0.9392779324818264;-0.0991275158408275;29;1.2566370614359172
63;1.8006238740975269;-0.9945922413651288;1.0608239569735105;2.475052712681553;0.6954121646428565;-2.263307435403508;46;1.2566370614359172
64;2.097053013180704;-0.3909999770197283;1.1937095730528968;2.700297927188582;0.134219671861422;1.8373494144314315;56;1.2566370614359172
65;2.1180230909809907;0.9646375236246868;-1.9160512722583367;0.3868825920593692;-2.442915557870245;-1.1748287014668963;58;1.2566370614359172
66;-2.444577358983031;0.6014896395775686;-2.1375060710936444;-0.3246986547919777;2.7308773079349407;-1.9458554196264477;49;1.2566370614359172
67;-2.497809782185784;0.1962678486947618;0.832551906389933;-1.2739143948163207;-2.9956576158410098;-0.5592376819150026;39;1.256637061435917
68;1.2799942746332271;0.2288109948271224;0.6722185741599711;-2.236420434023578;0.7672754389802205;-1.825129714512243;38;1.256637061435917
69;1.6595710431316033;0.4462129315429113;-1.4518521155255475;0.9106413154415248;-0.0684336989178144;-1.5188208695636138;52;1.2566370614359177
70;0.4865359151782674;-1.1517163074708874;-0.622961332583934;-0.1916342924104218;2.305712246582334;1.6597356368506744;9;1.256637061435917
71;-0.7033514408385169;0.6045785640553304;-0.6811122479807772;0.7982726146107656;-1.906993254757862;2.325500311526252;20;1.2566370614359172
72;-1.1205573717312325;-0.7152935708811796;0.8758224888605309;-0.1435129383072126;1.2303925163630942;1.0803751396057293;4;1.2566370614359172
73;2.208254814253756;-0.4721531423443538;2.381598027368145;2.756384063579964;1.2686748743925669;-1.5086236860325972;46;1.256637061435917
74;-1.6529855815444363;0.4695607376869753;-0.1544359872221613;-1.417773653876848;1.175202096425828;-1.8596103203064684;47;1.2566370614359177
75;-2.4817556268619856;-0.1382500587367196;-0.2741736967403786;1.8762409438116645;-1.1214880146779516;0.3906063394062455;62;1.2566370614359177
76;1.9281465665557092;-0.7273957162079873;-1.5566637899558395;-0.2193329612163888;-1.0044129791050695;-0.5145854219513142;52;1.256637061435917
77;1.8542654484586896;-1.1560435632418893;0.012613230845767;-0.1127769440445476;-1.149588288843972;1.5175340915168452;44;1.2566370614359172
78;-2.690374227757334;-0.4587773353243263;1.1168643184655611;-1.641062574575803;-2.6032995266885277;0.302966030490056;67;1.2566370614359172
79;-0.7431848853046725;-0.6291259530373376;1.7141117200461866;0.1892557160585931;1.9524591336519928;1.3877150817615624;72;1.2566370614359172
80;2.33205036186374;-0.0766841369751648;0.7543687260987194;1.9451513858515708;0.9141841027966175;-2.085555027431816;63;1.2566370614359172
81;0.4927152510524853;-1.026411535783665;-1.602293382302164;-0.5060539568284461;2.705865739921573;1.0720933758064066;70;1.2566370614359177
82;2.2493045361654795;-0.9680987177387108;-0.3272455528913263;-1.1911425704073262;-1.4694325424127448;1.6016815505507482;77;1.2566370614359172
83;2.8067805221377986;1.159278611159822;0.8349710832193536;-2.30485453934933;-0.5023438852343721;-0.8597021653930246;55;1.2566370614359172
84;2.200332671783504;-0.3520573829354066;0.4950334734282233;-1.117874483075036;2.669345664568441;-2.474354603158201;42;1.2566370614359172
85;-0.1942311900105062;0.0275437215808505;1.1853875034332078;1.8794703652078688;2.0958335055322395;-1.3105220190895814;12;1.2566370614359172
86;-2.352517634092504;-0.7809698444997822;-0.7290922746737271;-1.9168795014653504;0.3230158201132856;1.1425721397076136;57;1.256637061435917
87;1.978307128511508;0.1208509622824423;1.0379908963084388;-1.5008482349801515;-1.508407671804044;-2.702796367708273;36;1.2566370614359172
88;-0.3465362556909564;1.2014301288503215;-0.8993995347797432;-0.0931260656279361;-1.878374482306157;2.8280218101491346;71;1.2566370614359172
89;-1.4416963893924943;0.580108064845925;-0.3028807862701412;-2.298212619768316;0.3342166997763185;-1.993056195139391;74;1.256637061435917
90;-0.395279584531477;0.3019416128205189;-1.0957666248384912;-0.4122983183561763;-2.0551539645453025;1.5869775852303258;20;1.0749990620245653
91;-2.753711537509681;-0.653030425979896;0.0819132338422356;-0.2205381369937285;-1.8052344288740796;-0.4202661386056148;39;1.256637061435917
92;-1.398435959330932;-0.8961165854526983;0.6968208315499028;1.90033646827846;1.7538587558282612;-2.0285514051986016;50;1.2008350301866104
93;-0.3082869062719821;-0.4406407995504693;-1.7612136335644106;-0.7862977471689925;2.0977344386489234;1.4196404730974144;81;1.256637061435917
94;1.312720682085294;-0.5393320747396484;2.28790327327045;1.3480052750511438;-0.5418306078970714;0.3845162522963991;59;1.2566370614359172
95;-0.8506524453505424;-0.227145223633572;-0.9168645840659886;-2.102262483038384;0.5620981692290006;-2.325987666262903;89;1.256637061435917
96;-2.089624388396214;-0.5220055057561003;2.1969520468420614;-0.4434562866038959;0.6117179201566516;-2.181228574902554;30;1.2566370614359172
97;1.6628250065540944;-0.2511403728946533;1.6165362636147833;-1.9324667025760247;-2.330909180248568;-2.323702439429611;87;1.256637061435917
98;-0.8974189575505541;0.9830581282636732;-1.516732073724948;-0.9856829622226664;-1.4962844073599029;1.3754214326320258;90;1.2566370614359172
99;-0.1786855392240777;-0.9475731753471238;-0.1211668764374988;2.24808875916016;0.2647413224255537;-0.2271129510471894;60;1.2566370614359172
100;1.977938426482221;-0.0980072854324937;2.3637251786926377;-0.9861316802687928;1.505063808313252;-2.5693750715563164;33;1.256637061435917
101;-2.617823524106414;-0.5034941535445067;0.7373589189398391;-1.9899822009472896;0.9925969502386818;0.6741588417091002;57;1.256637061435917
102;0.8281378809903287;0.8104038770459935;-1.5018020120478244;1.2594446486175157;-0.2646910004796474;-2.288590231428602;69;1.2566370614359172
103;-2.8194688301387187;0.2335653119539975;-0.9594038878898068;0.3005956487382589;-0.0392871503680484;-0.8752439656079574;37;1.256637061435917
104;1.9027333024097213;1.054941197186111;-1.3930165207112797;0.4994424426115306;0.8680490484836871;-1.834910480322348;69;1.2566370614359177
105;-2.5603625175831035;0.7419823028961052;-1.3803650470949935;0.3413439450285201;2.406909340127599;-2.597132467904155;66;1.256637061435917
106;-2.316766787426342;0.4774813717463486;-0.7635192863381952;-1.9222564660016312;0.2139755453524118;-2.6525010161861884;89;1.2566370614359172
107;-2.5983797894046434;0.7233780665379766;-0.0103379920176649;-0.1938721518733793;-1.888165475875048;-1.6860924711170058;51;1.256637061435917
108;0.413450780643357;0.3381524163184271;-1.6654395578123975;-0.6195079316536767;2.39604159015802;0.848909477277388;93;1.2566370614359172
109;1.3262585328848682;-1.1142047125284469;2.17113112183324;-1.2534139857783797;0.8043074698241892;-2.249896433634041;28;1.2566370614359172
110;2.277254725620132;-0.0587274960966436;-0.2653986556448294;2.094455599043516;1.6293006643587302;-2.132488426050887;80;1.2566370614359172
111;2.2337284354322846;-1.0498398662953936;-1.6688494474568178;-1.1572225291976714;-0.6549467198784333;-1.1207512951640055;76;1.2566370614359177
112;-1.963291124678602;0.9049604755049868;-1.4700989138655796;-1.6271515399062213;-1.6047326279318557;1.2680138916929018;98;1.2566370614359177
113;-1.5166581869312703;0.8557437895539367;0.0697375484528444;0.5676032588908709;-2.273047345735852;2.647378400933071;71;1.2566370614359172
114;-2.96716584019092;0.4502122857754447;-1.839439343143805;-1.1270878197664949;1.991413903498641;-1.8852346902510029;66;1.256637061435917
115;2.2197945052914445;0.5164261818621817;0.4383504872319582;-1.4927140709445514;-2.200600794290024;-1.977831062989608;87;1.2566370614359177
116;-1.4363308173103695;0.106653558647047;-0.2819189904338646;-1.4141985276150266;-1.7852775333537352;-1.9126879431914128;51;1.2566370614359172
117;-2.8857189878426808;0.6819424605370321;-1.419388861225723;0.7942294984170774;-0.2414062880728471;-1.812043226035154;103;1.2566370614359172
118;-1.338465629236038;0.3946356123735098;1.7602711205236714;2.28002222987948;1.1402293223654916;1.1341419358443812;53;1.2566370614359172
119;-1.3365030665568116;0.5534416573458224;0.7418143239756578;-0.1856420020603673;-2.9141390095020987;2.806218323327822;113;1.256637061435917
120;-0.608310408726113;0.2223095319191749;1.4717128895295783;0.4071005029998059;-3.0651983655431443;2.985965786219449;119;1.2566370614359177
121;-2.3089452017498666;0.7585068803863572;-1.6031117763272718;-2.814988308733832;-1.5217079958705075;1.216345650314451;112;1.2566370614359177
122;2.477487799777696;-0.8403084053097871;0.2718521412598247;-2.155514478517528;-1.0249043757064498;1.7572521877105205;82;1.2566370614359172
123;-2.0117392236800766;0.284342066974993;0.7314736084981346;-2.4577957975889784;0.4392527409808641;0.9311386124841036;101;1.2566370614359172
124;-0.4405649299597439;-1.0497801558656343;-0.2972142611183392;-0.6515332181061627;2.92716358243245;1.5861842340075527;70;1.256637061435917
125;1.528022481446228;-0.9864452240547912;2.3926860957646103;-2.0355676559167435;0.5735730490221125;-1.3509992297154505;109;1.256637061435917
126;-0.447147460171698;-1.2016616265185842;1.7612500591154523;2.5489980565294887;1.4013812396281178;-2.5392647663434893;21;1.2566370614359172
127;-0.1747765467542698;0.9043059448026372;-1.679567154050842;-1.3216676487492207;2.7661858722372363;1.3802858512522862;108;1.2566370614359177
128;-3.0293276103144864;-0.0149470712111287;1.0455572841385683;-0.5575046826472303;-2.7625133136406;0.553426759994201;78;1.256637061435917
129;-1.2545972033176769;-0.8331337488079379;0.3951217947049509;-0.6251699251957403;-2.5591292505679686;-1.3690536555393362;39;1.2566370614359177
130;-2.761876089298777;0.570251536371989;-1.326856414185975;0.8259977089168562;0.0171047794631266;1.9956804413221871;13;1.2566370614359172
131;1.6209950260745822;0.8834010756236284;2.1774658605176405;-0.7952099468008382;1.5535452488019443;-1.9251145264819025;100;1.2566370614359172
132;2.2046233665550106;0.4092942736343682;0.4353459501833451;2.6034673817818943;-0.4498114451080259;1.7984836066429408;64;1.256637061435917
133;0.8791949904181424;-0.1876005443535328;2.20872951264122;1.3198022836535004;-1.496730435135788;-0.2058899944647413;94;1.2566370614359172
134;-2.1302146134198394;1.0219551142905732;-1.494234486093147;-1.1651673914283285;0.2147810244316718;-2.5003731468449475;106;1.2089356795812969
135;1.6375785940793204;0.7385045375607987;-0.7381435845746163;2.055756243161856;1.9998550832776016;-1.7176676815516432;110;1.2566370614359172
136;-2.007920720813245;0.1010209373436138;1.526568523293996;-0.7412340687846835;-1.638807150993143;-1.388751460758788;39;1.2566370614359177
137;0.5247722184230448;-0.6140055569267578;1.783220021501453;-0.2706084377424304;2.1623697406258;-1.7232726341250324;17;1.2566370614359177
138;0.8985908906935232;-0.9154643065168004;2.151275998792407;2.5522919893617724;-0.0355167397608708;1.552255790670754;59;1.2566370614359172
139;1.5821530029688264;-1.285547750639903;-1.5410850017711926;-1.099986856493901;-1.2193910071287175;-1.9930075212934053;111;1.2566370614359172
140;-1.516956188246623;-0.133708193104337;0.1987278310679122;2.464350489957852;-1.2940226137843511;0.1692441074924532;75;1.256637061435917
141;-0.2243898967434583;-0.6091834890244315;1.515738146294953;-1.667151135019763;0.7120976907208334;2.7603415218399108;25;1.2566370614359172
142;-1.050235486638701;-0.0774191216522023;1.0210001961122557;-1.942701767085647;0.1778016378634408;2.850764755227202;141;1.2566370614359172
143;-2.144694451027554;0.7388741165931438;-1.145606738984556;-1.2158188060225577;0.2253576993198677;0.3772547096119593;37;1.2566370614359177
144;-1.696320351350037;1.4116957432475776;-0.9181334614956238;-2.100740830677366;-1.933856620601531;0.4845552780478813;112;1.2566370614359172
145;2.852778418091701;-0.5155810783960686;-0.4251660668423415;-2.038104701255394;-0.1216542776613777;1.6254734288222634;122;1.2566370614359172
146;-1.0056388197684207;-0.5948177881787827;1.6371076924465282;-2.60427404644422;-0.4813442264595792;3.090987283408355;142;1.256637061435917
147;-0.965989653782266;-1.172326487354056;1.5452689957271262;0.5323669102536358;2.546859362700697;2.244968328711022;79;1.256637061435917
148;0.9662713365799664;0.9024683436868428;-1.0559697285795249;2.652223953271197;1.2498652695388743;-1.965891452164069;135;1.2483687402829544
149;-0.1820772092970368;-0.5831915923351811;1.6795881105027404;-3.0323890181385247;-1.3272334373362802;3.1024867406836987;146;1.256637061435917
150;-2.393761273195374;0.1230853695789941;2.253522618703111;-0.1315293239736802;1.4905090152437042;-1.7365682847734876;96;1.2566370614359172
151;0.9364339724833484;-0.9021307298937168;0.9321820824590326;-2.3145118387947936;-2.4398613632266737;-2.28452827267789;97;1.2566370614359172
152;1.7719621497832645;-1.144506979875317;1.7805608763501763;0.5914874114209844;0.776917313510141;2.367700147692988;61;1.2566370614359172
153;-1.533429896298851;0.6071690922951869;0.1078636289257861;-1.2551612185729677;1.5957463681466617;-2.7105442473769115;74;1.0146031473418922
154;2.154501310644028;-0.537876495984684;-1.0183575064749133;1.651228788158425;-0.6590090565577853;1.3383953499709993;43;1.2566370614359177
155;2.3020460207603834;0.8590458920437929;1.677973492472029;-2.1169090989431267;-0.6462660595880666;-0.1759259163028762;83;1.2566370614359172
156;-0.7893521689439664;-0.0107679106404435;0.0708472872903449;-2.1875774163753463;-1.6180492340425534;-1.2832093693601867;116;1.2566370614359172
157;-2.481582992471888;0.4234327525485549;1.9016055773483584;-0.136434299854496;-3.173758081744236;0.6411448371160732;604;1.172286728147559
158;1.511004393338258;0.740542234222528;-0.3842353142306118;-0.9441211895843592;0.7013303100845927;2.4036380850532635;35;1.2566370614359172
159;-1.5442686242879566;0.990229474087116;1.3419477725812865;-0.284604216740018;-1.8103587661134144;-1.9377924571534533;136;1.256637061435917
160;1.5267917410310128;-1.055003782872465;-0.7344801280514106;-0.8120125787267138;-2.19762092557052;1.1437278372435218;82;1.2566370614359177
161;-2.6756894327146523;0.4435961677360601;-1.365759422662396;1.9861207308364337;1.5039902118576458;-1.097956829478019;54;1.256637061435917
162;-0.8847760307911834;-0.1964271166855992;-2.045120777223425;-1.186895455131992;1.3633159395061218;2.057374233265372;93;1.256637061435917
163;1.2515313056403643;1.0095652501731054;2.1346568342441734;-1.4379559295265505;0.688347920786079;-1.4120897346139716;131;1.2566370614359172
164;-1.757498130318926;0.1755875201260145;-1.8775500641905276;-0.0111570731758914;2.231964459605549;-2.660604846491436;66;1.2566370614359177
165;-2.0830193852853034;0.2840810544441257;0.5753395904975784;-0.326759786365145;1.6926759273712382;0.4678096063938417;27;1.2566370614359172
166;0.5523958896801424;0.022809844735346;1.6228687294067057;1.426130250664269;-2.0386868494259582;-1.088959227992633;133;1.2566370614359172
167;-1.654544539056764;-0.4324506298829347;0.7264186672036088;1.852940584547038;-0.0468065346185384;2.0769796897827906;32;1.2566370614359172
168;-2.586181293589465;1.1243878039417874;-0.9526360022551696;1.229658064391509;-1.0512680797024967;-2.291963639259984;117;1.2566370614359177
169;-0.8767579463034725;-0.0289378778025803;-1.3231716055169698;-1.6064582808126766;-1.9455407439382943;-2.230138334252792;116;1.2566370614359172
170;1.67190028079803;1.0533757764359075;1.870607860490221;-1.7714007473926503;-1.408704456971507;0.4616418181977151;155;1.2566370614359177
171;2.952043849990645;-0.3456625456534104;-1.1704976406841323;0.1201541965982443;-0.097081839157119;-0.5634561997806737;52;1.2566370614359172
172;1.7395888772860053;-0.6861661861540297;2.250322080315025;-2.5251505114693096;1.2714909072395029;-0.5160377685938153;125;1.2566370614359172
173;1.8532325451513243;-1.1494657271809157;-0.2618959814775621;-2.470505709398873;-0.1888001320696308;1.8606300929601731;122;1.256637061435917
174;0.5350069679989373;-0.3183756264097718;1.89847981629028;-0.3855482212642329;1.7152789657027667;-2.8481054052985364;137;1.2566370614359168
175;1.4221256983701729;1.0524152105986482;-1.1680349197821334;2.1158676434531043;-0.8327613530135927;-2.2751385393419303;102;1.2566370614359172
176;1.7550836217378054;1.092370089907056;-0.7520048832400048;-0.1181386536272576;1.4582277289809045;2.3302631160568343;158;1.2566370614359172
177;1.4282719173693394;1.357111644399536;-1.390914870795705;0.8620074848936257;1.6406188830495796;2.3211107803629205;176;1.256637061435917
178;-2.9858860718683244;0.003410871101786;0.014000399875242;-0.5626758540994208;-1.8997336262206188;-2.504127038397053;107;1.214263886029771
179;-0.091453194401264;-1.0459853390872649;2.197859374719026;1.1763242888262422;-0.6225459230944558;-2.75060226630266;24;1.2566370614359177
180;-2.111875729553975;0.5033178637115213;1.13892874996165;2.6093587788467136;1.0417096944348228;0.4522866226615011;1209;0.919847063310813
181;-3.370842546095072;-0.2486144234053688;1.0383397134635888;-1.052885594586343;-1.8263777692817265;-2.234923087319717;178;1.256637061435917
182;-2.353287208115788;-0.0243720310491299;0.419912749052782;-1.4592704413581568;2.2009656968635287;-2.657621304251072;153;1.256637061435917
183;2.556438356382108;1.1910648510292197;-0.0226800644826444;-1.01974304532173;-2.930361870232752;-1.7732136172338662;115;1.2566370614359172
184;2.1530734526335795;-0.3262576460058944;1.5239660917500766;0.9208551207153324;2.3625580381680584;1.4993881702195666;48;1.2566370614359177
185;2.717566713976007;-0.5589202810899809;-1.7051582815572324;2.3003889179973758;-1.2639478023612014;1.3893477773217804;154;1.256637061435917
186;-0.5439308529342254;0.7292630345625865;0.2607302444447148;-1.3715137542297229;1.2818212847358703;2.457385555050557;35;1.2566370614359172
187;0.4537440175271907;0.7752065504195101;-0.188100014518091;3.0008194996815765;1.555359121796278;-2.542271273153626;148;1.2566370614359172
188;0.8186385765618288;0.7934151489151494;-1.1052298297909466;1.5164178911572987;2.613705361023957;-1.396718396174431;135;1.2566370614359177
189;2.0572228955236187;1.351858268470865;-1.3266243306185064;1.091838038501776;1.2816741975769;1.3222448588613205;177;1.2566370614359172
190;-2.877940693837004;-0.8487387686890823;0.1893000281712717;-2.1053346721348225;-2.5808505225981904;0.8646221125181418;78;1.2566370614359172
191;1.138704384571095;0.4540246936479155;2.1856152406151867;-0.4515553341716535;0.3577410154677357;-2.6791268311499983;28;1.2566370614359172
192;2.2419436690622705;-1.1836262237362274;1.18664979505254;2.6839753478787958;-1.1722541451256272;1.605900253479947;56;1.2566370614359172
193;-1.8141938741665495;-0.3082745204389502;2.048411286339335;-0.1482075723050324;-1.8421882930431996;-0.5468965697651685;136;1.256637061435917
194;2.452090920130984;1.3163239400830709;-0.6340694740132454;-2.308896144822183;0.9932649674604443;-1.7624851493607203;55;1.256637061435917
195;-2.911859444580416;1.4242912907076342;-0.4076058148948228;0.4735055964909747;-0.6571852930155391;-2.891131931276527;168;1.2566370614359172
196;-2.343803469077842;-0.550010829129888;0.8852309044390574;2.841572391141272;-1.2518307204714052;0.4960305901576667;140;1.2566370614359172
197;-0.1592831132562263;0.7102986385787372;-0.4112240864963467;-2.2379264500709337;1.2509844768705791;1.9802286824025053;186;1.256637061435917
198;3.219055105655288;-0.1266760985386332;-0.7256056845873354;1.8729995436695688;-0.7759027428043184;0.9803085954842576;154;1.2566370614359172
199;2.70668089996192;-1.116348116880815;-0.960102275197998;-0.6057299329411316;-2.1172396648068488;2.031909428273992;82;1.2566370614359177
200;-1.9230185772626125;0.5916477177465308;-2.014640611181584;1.8341122046784173;2.988505867559881;-0.0156415821650038;54;1.2566370614359172
201;0.0186641919263594;1.1370465948888615;-0.4636369352064413;1.306035101860083;-2.563010141765777;2.5225574484034303;71;1.256637061435917
202;-3.0461270001880263;-0.4394781553123248;-1.3499115767086225;1.6350496637992418;2.043128600761396;-0.6000409710946922;161;1.2566370614359177
203;2.469660481394244;1.3582300707273156;-0.6455045255575961;-1.6020378806108488;0.0564459391057769;-2.2093213978127437;194;1.2566370614359172
204;-1.7957913029259902;-0.2592031258823616;1.29426780907579;2.939771350387267;0.527124470673083;-1.5913318918286177;50;1.2566370614359172
205;-1.7434057910015193;-0.5770447450510142;2.064131695380658;1.70724810232959;-0.924857202390819;-2.3068494521896854;24;1.2566370614359177
206;2.2373881512589584;-0.5557816464705323;-1.1171550106036705;1.9240306349371292;1.9667203171569223;-2.8122670321582066;110;1.2566370614359177
207;-0.8664145885639485;-0.3058453388164925;-2.31480946255478;-1.1417801739125717;-2.3832287913218893;-1.8962075513133785;169;1.2566370614359172
208;-1.9085790791242545;-1.313976499522285;1.5157515468347746;-1.7158896892886262;-2.855584073894031;0.3935741343891584;78;1.256637061435917
209;-2.6181384000199137;-0.5743298032912598;1.9120576898068604;0.0349316586685633;-2.5062934474656724;-1.154232187567757;193;1.2566370614359172
210;-1.555920448072924;-0.3012189944527064;1.4234502831438889;1.027769074910125;-3.2033942943066847;3.006772744650892;120;1.2566370614359172
211;0.2936541166631142;1.1979427902893285;0.3285435831534991;-2.593361307530334;1.461519458172286;2.626968684197426;197;1.2566370614359172
212;2.501915886545984;0.1301356953705138;-1.9214268303669768;-0.2960816233636711;-2.336865261070052;-0.6672323631199386;549;1.126572455405807
213;2.1188941970437325;0.3875461779604565;-0.4489792832227676;-1.1819644865574874;1.931698411910255;-1.5398075907398936;42;1.1471819265830294
214;2.749887431776111;0.851456576780618;-0.2000699266062993;-2.177023676309501;-2.187809646846184;-2.5344898037751458;115;1.2566370614359177
215;0.6587207914620657;0.9590384981287076;-1.430477611783465;0.722996156439943;-2.018749605323911;-1.131952417140264;58;1.256637061435917
216;3.132602207583853;-1.080145180779379;-0.908875367364695;-0.534074140352355;0.4282524422544722;-0.079066269679166;171;1.2566370614359172
217;2.458482521019256;-0.3943654814876974;2.3922578448758904;2.478439770218261;2.4639209411744902;-1.4416008788671797;73;1.2566370614359177
218;-1.6271646264316535;0.5059501462806538;0.9675452016603128;1.9152934540665791;0.4615769578023591;-2.682850966605843;50;1.2566370614359177
219;0.6168799382595247;0.092747174060088;0.1396258805106747;-2.5896368263242904;0.7919105199758836;-0.981400472744464;68;1.2566370614359177
220;0.9736584674481182;0.7405191722215145;-1.9448172965486992;-1.3834015962095214;1.797029019344076;0.5608061383170642;108;1.2566370614359177
221;-2.343708300228513;-0.0900872624184079;1.8468340193861088;2.74894546356213;2.43818688993972;1.469211294864129;53;1.1523370386424656
222;-0.5721370504147488;1.045966665828792;0.0563821955219786;1.0618520423552;-2.6062003794510598;3.465894282859123;201;1.256637061435917
223;2.54538493702908;-0.2200704693007095;0.6786124621942894;1.150059684617246;-1.2624704721129305;0.4446016999085737;18;1.256637061435917
224;-0.7759881680878653;-0.3504286109530675;1.8522071941076657;-0.4679557295558302;0.9675535164063386;-1.7921241428594614;30;1.2566370614359172
225;1.148707742433536;-0.2447646344494857;0.849503933898181;-1.4912465443439689;3.0757476195009747;-2.6518128399671133;84;1.2566370614359172
226;-0.4827671319066779;-0.544188911019479;1.154680428274265;0.6780860218533672;2.034410595094957;2.9623794073765817;147;1.2566370614359177
227;-0.4731874109640422;-0.2242638680122618;0.0671971938582528;-2.4453421599572693;-2.6390156120868387;-0.7133254383190525;156;1.2566370614359177
228;-2.972938193348356;0.9964511545301962;-0.7232345555138776;-0.5016742259296838;2.0271239764982023;-2.8367708987342177;105;1.2566370614359177
229;-2.527836079889564;0.9569358144440072;-1.4332749000243372;0.3456406574844377;-0.899200790937026;1.4542438726212634;130;1.2566370614359172
230;1.4916090071170722;-0.5918447484590682;2.05886187198231;-2.406742910413024;-2.119516650003676;-1.339595917146041;97;1.2566370614359172
231;2.6626701525265632;1.2631717574121322;-2.070223236270797;0.454989697551622;1.2332722544794288;-1.2313379913397302;104;1.2566370614359172
232;-0.8568127449865088;-0.1064274868586577;-1.2220072078837796;0.9841598559776216;0.8629521307116088;1.9134713706766224;13;1.2566370614359177
233;-2.008340594182674;-0.1361994805870315;-0.2131465065113746;2.0251828930652382;1.1204180161421484;2.7569111504474426;32;1.2566370614359177
234;2.78427798451874;-1.258998847986276;0.8616252514257476;0.2795072591881743;-0.2218882643510822;-0.4272022046823983;22;1.256637061435917
235;0.1485109564536686;0.2333886202197691;1.653760865378378;-0.8837256171889867;2.567717508790366;-1.3201496833257995;137;1.2566370614359172
236;1.6482088967984825;0.4394416348181565;-0.8755274733908245;0.0715182851620657;0.8031623741168147;1.5172067059431549;176;1.2566370614359172
237;-2.704664141288048;1.1231712917890546;-0.5879573185953002;-1.2539230327032784;-1.787796633302348;1.4438008403470417;112;1.2566370614359172
238;3.478017895481285;-1.433146765659873;0.6902051994049867;1.164116319304418;0.1901267553082247;-0.5449298461477629;234;1.2276549835995307
239;0.4444228925876753;-0.7113784842371308;2.1676435006653065;0.2404341400695659;1.1661058705789915;-0.6448615173135483;17;1.2566370614359172
240;-1.2930957949877997;0.8394228633577544;1.6643131185968871;-1.312575798554544;-1.4332243587056233;-2.374176381668474;159;1.2566370614359177
241;0.0606404551485812;0.6048954597424036;-1.1526496983292265;2.878002630418394;2.226265970705019;-2.535611694826857;187;1.256637061435917
242;2.582941465417347;0.8985503269703571;-1.2685117118881148;0.2098851541421768;2.078210016821048;2.6424570214882714;176;1.256637061435917
243;-2.4756191658728914;-0.8900168290544522;0.2343682642214589;2.443497469722702;-0.329038575258048;2.235347540945739;167;1.2566370614359177
244;-2.896590679653438;-0.5053205115115433;0.9453346786783176;0.4294978980681699;-2.257014921158333;0.8385656922266437;128;1.2566370614359172
245;0.7273566604049215;-1.0821130980620617;-0.029377939736542;1.3189958278025422;2.28783124542378;-1.2987331997454474;10;1.256637061435917
246;2.0410778763704727;-0.3326077444070948;2.2012309849101257;-1.0300107754216277;-2.744976638914087;-2.004832465715622;97;1.2566370614359172
247;-2.7804949775298424;-0.2144820589855517;-1.9734401196221876;0.1031090383957758;0.0912866924474554;1.8659046686402525;130;1.2566370614359172
248;2.075360619207172;1.164445659761131;1.634422250430938;-1.5847814785078147;-2.0946698891258504;1.379716418921599;170;1.2566370614359172
249;2.0721427132136747;0.5377126220118124;1.4517857311379825;3.0449701810212515;0.8184539477553532;2.0872099340974857;64;1.256637061435917
250;0.7038280525059128;1.091193187546761;-1.7659364773514648;2.2381936792335284;3.0571786626465656;-1.6805123847186565;188;1.1560944495563066
251;-2.4283794065308477;0.0463549909618527;-0.0727919881160645;1.1101868562038406;-1.919136331870388;-0.1371932089776271;75;1.2566370614359172
252;1.3856709687410114;0.7728437156430448;1.7900183880467138;2.704587302953612;0.0523533545724413;0.3144807121415617;59;1.2566370614359177
253;-0.5786328999589498;-1.0283081808774492;0.4806743766737128;0.2783997931705477;-2.675998433891253;-1.8657427127820791;129;1.2566370614359172
254;-1.923389862579614;1.32617295233589;-0.9044036993966558;-1.1453728694149272;0.7556755484531633;0.538022953508241;143;0.8741399367256505
255;0.3754260015243393;0.7350426746049299;1.4007567461249772;-1.158390538453432;0.2645157356412655;2.249957791826926;25;1.2566370614359172
256;-2.721089134111525;0.1619286826915697;1.5763774278279412;-2.868492123646433;0.1950470401977594;1.2758181907061206;123;1.2566370614359177
257;-0.3249102377158065;0.4238214005420375;-1.269133494472923;-0.1953850434188374;-1.2020598402692475;-0.8038186003836473;34;1.2260747026009902
258;-2.5489293776887094;-0.9381929339584528;1.2177465519707231;2.7931137333454084;0.9325291325954956;-0.9920192140784831;204;1.256637061435917
259;2.5674063676422607;-0.2968505218646098;1.1712273533460926;2.86903654912996;-1.6680285496141145;2.243522265737054;192;1.256637061435917
260;-0.8174372910074643;0.1870510637292109;-1.7952520799028784;-2.117426102610968;1.0731019196007172;-1.7147957715718445;95;1.256637061435917
261;3.093321389367933;-0.2680474760376643;-1.3958562242084709;2.783162730996599;-0.3145613439083781;0.7503669276119178;198;1.256637061435917
262;3.010037481181332;-1.2187808164824778;0.8095582046400034;-0.1474998531214692;-0.6402786761437833;0.6528233856527733;234;1.2566370614359172
263;-2.7923596721264;1.5883552282255615;-1.495097557748486;-0.5566421201106754;0.2245704067294364;-3.170814757731786;134;1.2566370614359172
264;-0.1747314987718118;0.0503597728162182;1.902748259531148;-2.503250255597377;-1.9573914705873228;2.431064382240671;149;1.256637061435917
265;-0.3735472912396653;-1.0998853265728894;-0.3774730570518748;-0.4410858607813481;-0.5888644479362386;0.6899042124167039;8;1.256637061435917
266;-1.4271589451767288;1.1418642447628586;-0.6766690795243011;1.5570496775553702;-1.489278394782238;2.4532321435157907;71;1.2566370614359172
267;-1.0769748580726333;1.1347877290585593;1.1119466160925695;-1.0330571509525153;1.427284708738649;-2.791240490971867;153;1.2566370614359172
268;2.1837718200347007;-0.5534842001058818;2.421914099056755;-0.254431728174975;-0.0801802925690195;-1.6747117325079783;28;1.2566370614359172
269;1.7441246276594873;-0.5484349871065337;2.7047288945342403;0.3407238397782751;0.2977573286444319;2.09111965275673;152;1.2566370614359172
270;-0.1132216067020938;0.1327355229692821;0.4334005831308575;1.047530118235828;1.4804061567979552;3.1062253201785603;226;1.256637061435917
271;-0.1777651467326469;0.7298048030855163;-0.6073078263507121;-2.621662485553573;-1.707161015871943;-1.3028297419297687;156;1.256637061435917
272;-3.180958889650104;-0.2459890135596354;1.7070998857276771;-1.8260279582169787;-1.6906622846653705;0.5816909312004606;78;1.2566370614359177
273;-1.829723898045789;1.4900645922612783;0.273737589687094;-2.418840518532352;-0.0784072703733525;-1.7045218077209334;89;1.2566370614359172
274;-2.38928550205314;0.2808506946124414;2.4960441246977885;-0.8171128504946077;2.105257637231313;-0.9319134190567576;150;1.2566370614359172
275;-0.8854390474886221;0.7411600304859739;0.5285208789357452;-0.8456596269292678;1.316524219409213;-1.5394129388722178;74;1.2566370614359172
276;-2.3429470453156886;-0.6906906604160564;0.1925428510308816;2.187738115776047;2.145785824705276;-2.421403649700062;92;1.2566370614359177
277;-2.7089762046186805;0.415791974281478;1.334678835482099;-0.2465664166938401;-2.390119824241093;-1.7663605652691028;136;1.2566370614359177
278;-2.2210709039808547;1.385404647147108;-1.1946856131931165;-1.8566090023657773;0.658303093404173;0.4269873617104519;143;1.0132970700001274
279;-2.464478345693357;0.3437092763947156;-1.700834143073907;-1.2456069660196427;-2.506008201317149;-1.6031732450742555;51;1.2566370614359172
280;-2.748317293795293;0.4265891144885111;-1.580252577503108;-2.2839553187348445;0.9077398770307888;-2.985851531265236;106;1.2566370614359172
281;2.9546457757602327;-1.4071037151418275;1.1353080881776303;-1.217235178651721;-0.1140109775207183;0.7677085677228391;262;1.256637061435917
282;2.6983467152749023;-0.0759369621825217;0.8503371370119372;0.3897228618429326;1.8821414428340997;2.2616703658031256;61;1.2360895772482492
283;1.90124066558;-0.5263571708760363;0.1962175748384895;1.372737499245972;2.170469446054944;-2.570942993809717;110;1.2566370614359172
284;1.8449074919128512;0.1189381424227316;1.8380879694505;0.7933645348352143;-0.6254339802796127;0.972431673666872;94;1.2566370614359172
285;-2.7172863685766435;1.4354777249964417;-1.0200469532726066;-1.1522911177936197;-1.2733740840524987;-1.1351355925107955;51;1.256637061435917
286;-2.3960830015548327;-0.1524476787858396;0.4193715400105005;-2.6492020687178583;1.668996176552548;0.0310946949767807;101;1.2566370614359172
287;-2.7223463934506147;-1.4052029403797566;0.1276245930701278;-1.8137333146338483;-0.1891722793728045;0.9286636117239409;86;1.2566370614359172
288;-1.4327719513110533;-0.4114358021728426;-1.002967321900722;-0.9916290849865328;1.3757073057992226;2.165350969400872;162;1.2176015624978824
289;1.6817549149742463;-1.4348030154703195;1.667823533731842;2.972286325963904;0.6458962825528988;-2.431523659871093;63;0.9243125165209168
290;0.999263056130796;1.2323224177369287;1.7166990618689937;-1.1634093513800932;-1.9136271680979344;-0.2064791046925579;170;1.2566370614359172
291;-0.0522249955770583;0.5590994777932566;-2.157287971346498;2.170365452073035;2.459043045396699;-2.137539626603355;250;1.2566370614359172
292;1.4627723811222464;0.3279550715527838;0.1673312435485217;-2.094629486586807;-1.6154897800851065;-3.087994411205936;87;1.2566370614359172
293;-1.3265244124372044;-0.5712658175453678;0.7617452672779353;-2.5066431286262696;-1.1383574604793667;-1.6920829882702573;156;1.256637061435917
294;2.3450633865618005;-0.9533747111327886;-1.952285882181722;-1.9251674010578224;0.1448057297255816;-1.6185024250243476;111;1.256637061435917
295;2.566395872758087;0.0339684252954467;-0.1227761234433335;-1.139796137019868;-0.9367056266262036;1.2193086191346598;82;1.2566370614359172
296;1.26058000914618;-0.2961413950625772;2.28792054330787;0.123139594136888;2.4701031025803544;-3.1164321726559816;174;1.2566370614359172
297;1.2068881160353189;-0.0005927591938537;2.7127964387456625;-2.156100742102555;-2.9073617850762985;-1.2072804354809925;230;1.248721008999872
298;-2.070691759904291;1.4212275150810345;-2.0427452249560423;1.3351154004006016;1.5715618591462277;0.0035749325950769;54;1.2566370614359177
299;2.7490345544026136;-1.0682221693141698;2.4841963130807247;0.2557201754682267;0.3254875727198485;-2.4270142730207667;268;1.256637061435917
300;2.279057444691741;-0.9238974484749374;1.3438096115198377;-2.245606874697055;-1.629800099406386;-2.6114552260705333;97;1.2566370614359172
301;-0.3768235808654091;1.103183997547048;0.2188064105073828;3.258814532243652;1.9806893353143715;-1.9350769906004364;187;1.2566370614359172
302;0.4311880204210034;0.4753856283060956;-1.4508030907339453;-2.3416245170956604;1.160529173848154;2.255249527197381;197;1.2566370614359177
303;3.1027223094642364;-1.3409015890970797;-0.253739340542038;-0.5150849123083425;-1.4604002039725557;2.6901346569905438;199;1.2566370614359172
304;-0.0688864834358174;0.6657378008410529;0.1519506989346024;-3.146760924364861;0.3157098183829372;-0.4882102551749094;219;1.2566370614359177
305;-1.9262503544278589;0.2358680835298545;-0.4934357693571346;2.4335335358331944;-0.0866054384468836;0.2556767950999519;62;1.256637061435917
306;-2.3871253990074623;0.4911819427113603;-2.0328727705582588;-2.961903297835639;1.6416894121055137;-2.4945833109501825;280;1.2566370614359177
307;2.4663401533607408;0.585278598505809;-0.8163070478108024;-0.3504402984545769;3.048486167578842;2.555784173517248;242;1.2566370614359172
308;-3.073481551364922;0.6391696064562395;1.8087454224372443;-2.1506393950622664;-1.3713531767901783;-0.1709157634981936;272;1.2566370614359177
309;-1.558839050608154;1.513724022483266;-1.2503614779576349;-0.6288558141717309;-2.3498392619372237;-1.3633052266033476;51;1.2566370614359177
310;1.6739164914888562;-0.8040997120388466;1.770321000462566;-0.5030984274591208;0.8156296113787034;-1.4531097436816094;28;0.7539715632911828
311;-0.9161828032119986;-0.4127803200974447;0.4286115484796571;2.5431712879147814;-0.3629046065910288;2.6840597793826912;167;1.256637061435917
312;1.8225014862395077;-0.4184168438171927;-1.5652203813794971;0.3956076721460003;0.915683051787952;1.0487342018571444;236;1.2566370614359172
313;3.252524617776011;-1.2635724721396795;-0.4610970351853577;2.0983151259302746;-0.4609136712665682;1.2363028907709586;198;1.2566370614359172
314;-3.0718362334381304;0.4603606470504356;0.2815796314726052;1.6479720358970604;-2.494569590951836;0.3605856102611003;251;1.2566370614359172
315;-2.5213133404171235;0.1031665361267988;-1.222055393822408;0.5079488722844161;1.3792724576167863;-0.3813392021252829;40;1.0628576920012984
316;2.060267759336218;0.4492527373902277;-0.6599867628185518;2.6523813757842984;-0.5479265345197617;-1.8496791916799564;175;1.2566370614359177
317;-1.6010037987290897;0.8205916430987216;1.1560109873231823;-0.3377475831211894;-3.33669422522588;0.7927868030471551;157;1.256637061435917
318;-1.6881251911153032;0.0074046282441938;1.909996290107872;2.771614141554529;-1.0870754829525646;-2.5339003943655625;205;1.256637061435917
319;2.6269592324973154;-1.1398478493901978;1.172663426737311;1.6278597345962775;-0.3451566242642395;-0.7305623035886547;238;1.2566370614359177
320;2.407789839024756;0.876959868954007;-0.4488592460168414;2.6039291756634357;-0.962596857950632;-0.8217892186132563;316;1.2566370614359172
321;-1.5083277216291653;0.3958189900494522;0.3415023693855415;3.1789998110026207;-0.9422755206055068;0.971633649808411;140;1.256637061435917
322;-1.1977454050746397;0.7688649824459123;-1.0635813003919226;1.750659007422693;-1.3961497310838284;0.147921846046144;62;0.93001502202514
323;-2.463450638753719;1.129415195895256;1.2054744490209484;-2.9413499786422324;-0.0258189957549115;1.4230080421611973;256;1.102602236734792
324;-2.9427130016528014;0.8453280461746685;0.868309847913145;-0.0344653270362749;-3.274461177862064;-2.3099192486740416;277;1.256637061435917
325;1.7739644253743163;-0.9533437555542132;1.5505362819374806;-1.3665603302686151;-2.966209585733059;-1.3055932209044414;246;1.2374213222765278
326;1.2481741830023958;-1.4039376325058446;1.7084792680650356;-1.528055600022301;-2.4098048988460348;-2.374475206342212;151;1.2566370614359172
327;-2.3351523028626344;-0.7448652450183046;0.5717770791072604;-2.033928067376945;-0.6519991688330462;-1.5034619605204749;293;1.2566370614359172
328;2.5872363266099736;0.6490041126182197;-1.4653549146830542;2.1055208896418134;2.023312826116141;-1.3469744596312792;135;1.2566370614359172
329;2.478627233010576;0.3276805250014326;1.973483210176572;3.037985093909765;-0.1200192008966233;2.552875753916027;249;1.2566370614359172
330;-1.7362910174241424;-1.3453747030049914;1.2027640442888614;1.3045819440548714;2.5516805079371;-1.903107107117776;92;1.256637061435917
331;1.61943438650724;0.2375487918551005;-1.672239366064599;0.3480738899528955;1.212875511878036;-1.0532680056756991;104;1.256637061435917
332;0.3868335589664192;-1.5199456309082733;-0.0417542231703394;0.5932639550239354;-2.685019818100711;-1.683667533628277;253;1.2566370614359172
333;-0.0769784828359603;-0.892660982816622;0.9765716378731772;1.1345090254949517;-0.6325755874695932;-2.999652426086974;179;1.256637061435917
334;-2.7931773193133878;-1.375526083067152;0.8666605895021489;2.964383120268524;0.4188449043817634;2.125215152638612;243;1.256637061435917
335;2.579698150604483;-0.2315979961987794;1.4228478484599345;0.2973901094716964;-0.120214619289154;-1.7952308420667529;268;1.256637061435917
336;2.070381821725771;-1.6823874836218562;-0.7867550351258645;-1.206863096268476;-1.4110984237931743;1.0654441366411054;82;1.022042715094517
337;-2.4691547275653907;0.2169814931282652;-0.1225829546180677;-1.3601290886904798;1.8745536779186065;0.689302961353042;57;1.169425756880825
338;-2.584691580526132;0.0717507329559593;0.6481508184314148;2.8981371555275883;-0.0897866138980626;-1.3734724383981132;204;1.2566370614359177
339;0.6568598406113175;-0.1700340207669515;2.3843678918186964;1.787314395888998;-2.5089684516972564;0.2994346388992742;133;1.2566370614359177
340;-0.3516033790299714;-1.14473572354332;-1.3248468755995362;-1.636903368966547;1.7145424469907684;1.275665643324;93;1.2566370614359177
341;0.4072386243194147;0.394808148379648;1.2187967645907871;-1.775976930962316;-1.632730534703034;2.2907720548344845;264;1.2566370614359172
342;0.1472938966227208;1.0875774633584572;0.201469255533284;-0.7107237483180968;1.031863914962755;-1.9711447860750253;275;1.2566370614359177
343;1.4012663790373558;-1.10046045941212;-0.7308460367934204;-2.764526903207207;-1.0524680100131696;1.294788284313337;173;1.2566370614359172
344;-2.539081898587574;0.4489577592960178;-2.3346718704096747;-0.7837627420804716;3.0392618649446805;-0.5282780267904713;49;1.2566370614359172
345;-3.076779834183553;-0.5705307918194819;0.1769917751365358;2.7590067017581346;-0.9003630978586615;-1.5349590760009033;338;1.256637061435917
346;2.4942889456888904;-0.2876729185654644;0.4912139551125339;-0.1826091131946504;-1.5740199133618948;-0.6168544510732228;22;1.256637061435917
347;1.7563674632555195;0.9600347306680868;-0.8176262731275459;1.9258193363622915;1.5626702474267975;0.773123359982555;189;1.2566370614359172
348;-2.357015052663877;1.103112168020811;-1.876363628282712;2.328132647135951;1.6102422706259822;-1.564174516334683;161;1.0690425400099175
349;-1.3837488533677922;-0.8137783186676906;1.6792943755269425;-2.059368139227065;-0.5808882011297056;-1.286710940611059;293;1.2566370614359172
350;-0.957221247658729;0.290706990185108;-2.0937899023028206;1.318490384046224;0.6105976925736372;2.6033078101124545;232;1.256637061435917
351;-1.0521241392767955;1.039889646900668;-1.9468890856788168;-0.8129824282285052;-2.584521653904765;-0.6396143092196973;309;1.2566370614359172
352;-2.8980624303029634;-0.5592798302562858;-0.5023634893959019;0.0688631489140471;-2.18219412999727;-3.217951787265728;178;1.2566370614359172
353;1.3257716368638242;-1.3618447634882256;-1.321928245536977;-1.28570376000256;-2.8256493001823446;1.6312005018769415;160;1.1558928729353966
354;1.2395806131354918;-0.1052603194279278;-1.9963291079257768;0.8686599660008919;-0.2439260506477868;-2.70537526207175;102;1.2566370614359177
355;0.3443225101975796;-1.685338147577123;0.0532272621023618;0.7057630568212208;-1.8937456381707023;-2.63350039895938;332;1.256637061435917
356;2.5292143483758744;0.1879204640206234;0.2218324212500895;-0.9273519244771652;-1.7688457929286234;1.322343498784759;295;0.9444811969012192
357;-2.441994724633476;1.2099894418194417;-1.8428279377794847;-0.4816871754599552;2.787710003097911;-2.8653168071680297;66;1.1534290076216207
358;-0.8833290729845258;-0.9756119429019;1.01823078224217;1.0246232917674098;-2.5061969676267366;2.859616891146146;210;1.2566370614359177
359;-2.7606566466402027;-1.1318818568694955;1.1237751440593475;2.648616601856099;2.139148543260021;-2.7824564232555544;276;1.2566370614359172
360;1.1209583745400578;-1.343451477447149;0.7680646110063429;0.0710388751336031;-0.0936587578221965;0.4899866141763781;44;1.2566370614359172
361;-1.328518622376838;0.6224202279393197;-0.7842743664013229;-1.016052192294507;-2.018131623698118;-0.4978151033769715;15;1.1988608095565003
362;-2.6510668226344185;0.7174510263855132;1.307710278889605;2.5310114005132767;0.5228498596572633;2.5340475350141274;32;1.2566370614359172
363;-1.720762045494543;0.7028794482702538;0.9072488021895616;0.6696956774124238;2.096695944958592;0.3891023096468013;165;1.2566370614359172
364;-1.0704345408497655;-1.0503987900333824;-2.0631007162650863;-1.271566803542327;-1.63439578749418;-1.3112289263076464;207;1.256637061435917
365;-0.2506720232864326;-1.7658587106333752;0.851150804490259;1.334213454391226;-2.167104804879595;-2.9685787964979573;355;1.2566370614359172
366;-0.9254786563880182;1.0649470959167624;-1.593000769875269;2.091183459225316;-1.0599234652634053;2.563817066827871;266;1.256637061435917
367;-1.5596898834789918;0.6984478337274456;-2.3733485415471045;0.0675610148747241;-2.9901507845832587;-0.3512191057970446;351;1.2566370614359172
368;2.1323467831784058;-1.5173319280665405;-0.410174836638831;-3.060370443668445;-0.8076595534198172;0.507011840126081;343;1.2566370614359177
369;0.3403213642642987;1.518597145997848;-1.8520024597888507;0.7837635337793443;-2.732873292691945;-0.4439814031909084;215;1.2566370614359172
370;2.0197840382809096;-0.877361239363858;-1.2708213968598805;0.1715082981136669;-2.4669830918122844;2.508594411096749;199;1.2566370614359172
371;2.00417779568607;0.0807714006903471;-0.9729680331659604;0.7045140946048859;2.382704941249024;3.030639881397763;242;1.2566370614359172
372;2.132323994930754;-1.027611740678689;1.0201071640911152;2.828172020595301;1.1526207028025324;2.1356577857653134;64;1.2566370614359177
373;-1.0028832403450654;1.076358970449811;0.8241226796302803;3.1101254837667165;1.8811554000857984;-1.0473590163519575;301;1.2566370614359177
374;-0.3128186746198289;0.1674541759703821;0.6001831886744564;-2.641354327516756;1.4743402938233636;-0.8119368277232023;219;1.256637061435917
375;3.286321618493994;0.6447729809355937;-0.6415185241212863;-0.5750634365041953;2.808673290437879;2.14576877917442;1270;1.1514132759082538
376;1.3913076458645797;-1.274708026429832;-1.175611232382668;0.0649862963926502;2.196298472186677;2.261525005500562;70;1.256637061435917
377;0.7888044899606379;0.2467506006219501;2.285528819357849;0.9690348080451758;-2.8557463489477444;-1.4857681889608154;166;1.256637061435917
378;0.7421320126942237;0.5923489571140285;-1.021295535103622;2.233001697946139;1.5837777044170545;0.2449352962758195;347;1.2566370614359177
379;1.0420537464277355;0.3770205850419754;-2.1488313472509923;1.6918344962465066;3.196767013850664;-2.380580832768874;250;1.256637061435917
380;-1.705002266591907;0.9488736385223744;-0.2036923465464679;0.922271332788454;1.2890195664144344;1.5217613039382676;11;1.0567848432610756
381;-2.162669053040445;-0.4492356734253435;1.5540652879793553;0.9945497753667388;2.789731718682491;-2.467086207976158;330;1.2566370614359172
382;2.4768979778213147;-1.060559413073992;-1.6850054693006038;1.174056257005711;0.0435662789292428;1.5288538191689975;154;1.2566370614359172
383;-2.8224894891010104;-0.3627351108482138;-0.4870541213512623;2.27412743497579;-0.6538560402310681;2.960708706198117;243;1.2566370614359172
384;2.550609145304219;0.8091183019219401;0.1076644319249976;-1.4708459346452;-2.504120325388057;0.7360470668777286;356;1.256637061435917
385;1.906475218659048;-0.3816268727528561;2.588077389178324;-2.7961358094256727;0.6728628792760712;0.439302099512469;172;1.2566370614359172
386;2.1732449138209584;-0.3583392910248341;2.01135922400607;-2.8665294738099867;1.257441539706161;1.349322430164174;385;1.2566370614359172
387;-2.583272683538852;1.1977802161623534;1.010239728186698;-2.767846838554793;-1.427523246830383;-0.2421527481430759;308;1.256637061435917
388;-2.10611708449444;-0.2104586538215413;1.587986074907017;0.964872952564735;-2.6468561467413565;0.964029779496006;604;1.0805056679242515
389;2.5238987220624614;1.4158471492364273;-1.9431115966711976;0.1102884926642307;2.0622251630011736;-2.076577723530169;231;1.256637061435917
390;-2.6619131873812423;-1.1189396301141454;0.4205771912975281;2.700823549557627;-0.7289132536722707;3.344957994463829;243;1.2566370614359172
391;0.4073374528400301;-0.2324539997344166;0.1620024438751967;2.0458962260863363;1.748568868455944;2.925979635096817;270;1.2566370614359168
392;-0.8037127181300553;0.8684848162604643;0.4166282561470127;2.0687719163446507;-0.0692139041822811;-3.083884897275102;218;1.2566370614359172
393;-2.573083987323368;-0.1580517783412939;-1.2711842089698022;1.1378869079052032;-1.6565452976216344;-0.2399059248416688;251;1.2566370614359172
394;-3.1835235348049395;0.9172523531906857;-1.5096565635984605;1.373378730111572;2.19170415855293;-2.775911930430752;105;1.256637061435917
395;1.2419229474312872;-1.1454951915948317;2.005705343863561;-2.95700497014316;0.2393063793191804;0.4076027342043559;385;1.256637061435917
396;1.441346311162164;-0.7568050047682727;1.512743229692546;-0.3667278233356734;0.3893283140461151;0.8809747870483359;360;1.2566370614359177
397;-1.4949199175871657;-0.0576457016945942;-1.160658544758525;-1.6568761401522496;-2.571489549565781;-0.0177814915417026;361;1.256637061435917
398;-1.4943026509682544;1.2553886293285874;-1.3250025988798586;0.7961942281151916;2.900255260610272;-0.487826255053709;54;1.2566370614359172
399;2.648592715442035;0.009790238130255;-1.3475045179824785;2.1499344773600826;-1.0421381433924028;-2.115206023083718;316;1.2566370614359172
400;2.809159847220372;0.0305723096902279;-0.7323186831615376;1.6345048511379858;0.970552834314878;-1.920543185781423;110;1.0951420020954188
401;1.107291859144162;-0.6632617057511129;1.0257330682666224;1.5477636941198376;1.1459464368395706;1.3043727290853169;48;1.256637061435917
402;1.440604698010486;0.3494826417356832;-1.720392683376446;-0.2676495778804782;-2.019605977369189;-1.3264103358381794;58;1.188085511714477
403;1.2718085355388835;-1.4483536475544454;1.2027080167561437;2.4883363497463806;-0.3040648412517405;-0.0035940371424433;56;1.2566370614359177
404;-0.3002367233980454;0.5865841323652593;2.07236332591174;-1.068036255440238;-0.930488780187946;-2.5986591705467736;240;1.2566370614359172
405;1.6210013518989648;0.3221741047872193;-1.719975998974707;1.6841401248473973;-0.4401693557248229;1.221840716668829;154;1.256637061435917
406;1.4281669900691898;-0.5072799920333105;-1.5565314734247078;1.4077003785137625;2.194631017840228;3.207147037490883;371;1.256637061435917
407;-1.5895046765111278;-0.92860876258756;1.0207533665392017;-1.3599301340196217;-1.51121251343314;-0.1877594726071374;39;1.2566370614359177
408;-1.8914457566506049;-0.3802296749383155;2.214115299058827;-0.8016375189385709;-2.189870882112521;-2.133014689506225;136;1.256637061435917
409;-0.5791448506346977;0.9947096192572352;0.1362388350928163;-1.702213707933024;-1.4237188268783425;0.6938704444072772;15;1.2235749036272476
410;-1.3757357062593292;-0.6032641598327131;1.1737228426802977;-0.2071636822838468;1.4558796133926228;-0.0848843438915605;72;1.2566370614359172
411;-0.1402573544736074;-0.1862739217659079;-0.7077708151355446;1.480076758979071;0.0947001832186327;0.336432943797087;16;1.1776326737207456
412;-2.4943271488018763;-1.2666027066755368;-1.011420697275923;-2.5475704640408146;1.1175131458237868;1.605693138845665;86;1.256637061435917
413;2.3567629170630378;-1.4429088644080574;0.1135785732807502;0.0488027764861538;-0.8506423729112806;3.1232390519309368;303;1.256637061435917
414;2.966132475114688;1.2639439316711385;0.5897636190691057;2.751311818892055;-0.6962982571592424;2.2014178459536136;132;1.2566370614359177
415;-0.8280513016415455;-1.220724405448953;0.7451485362640904;-0.6695135951987856;-2.0816952444070047;0.0017407843372364;407;1.2566370614359172
416;0.8193996560806923;-0.449097332627239;1.6360631496963889;-1.717418133687115;-1.7265617233499095;1.5761120892858238;341;1.2566370614359177
417;0.2126961110739733;0.8449326001166952;-1.149000450640887;1.381018000176057;-0.0837178444156108;-0.0570698427627678;411;1.256637061435917
418;3.0827087675415354;-0.659947565533024;-0.1355433366584079;-0.1956425422826197;-2.612249800351396;1.6626748980458723;199;1.256637061435917
419;0.260009777013471;-0.6661618098014424;-1.1768824387540229;-1.1908035139393895;2.029309224312695;0.5025674742054353;340;1.2331914295785589
420;2.735946167432358;0.6619099781266053;2.0364608265882005;-1.259344841591949;-2.672532317813747;-1.855709150375337;246;1.256637061435917
421;-1.9973650012973407;0.3337683082835097;1.103194405349029;0.8018050861591249;2.429495368874304;1.4844476631849346;363;1.2566370614359172
422;-2.00867792321428;-0.1817397165550146;2.4456279154187595;-2.9552477715080445;0.3850879936422587;0.8830581042377323;256;1.2566370614359172
423;-1.4811387347811815;-0.0294677637673462;-1.852273830230693;-1.034895260309952;2.5727424941707127;-3.20457735184249;164;1.256637061435917
424;-0.2011977507166542;-0.2764485701234405;0.6663140004006294;-0.1100580402046698;-2.635771247598626;-1.038453915999169;253;1.2566370614359172
425;2.306867314952732;-0.5866659816254288;-1.824933959171029;-0.0207736619971112;-1.5127497514850226;2.111553088472948;370;1.2566370614359177
426;-1.1382051593145657;0.3518063899398486;-1.2783985310946844;-0.0435861475652799;0.1936154219502964;1.5570958243652977;13;1.256637061435917
427;0.2972725215527316;-1.5623761512914518;2.66023975499305;0.6232386681916849;-0.7074520402848481;-2.090948524154876;179;1.1746567929628795
428;-3.051067357562339;1.0566718530027164;0.0866128695827428;-1.1423036529949309;-1.3832133494680623;0.5363164700645261;237;1.2566370614359172
429;1.9417087552786647;0.1438446317976155;2.237243533271444;-0.8232648568724446;-0.4360886390181595;-2.475964123383826;191;1.2463152675715896
430;-2.2178316002499825;0.8663956998626935;1.7402463027546171;-2.7724692586076034;1.0187884008758492;0.9367436377946404;256;1.256637061435917
431;-0.3678617063408281;0.8675817514885783;-1.934914146022355;2.922369178831611;1.6409602556382714;-3.143912341768248;241;1.2566370614359172
432;-0.02670798620012;-0.9000337397045803;2.2858054531539653;-0.2543366902710171;2.440191715651627;0.9071783928658554;79;1.256637061435917
433;-0.4858530372275871;1.2573368636131903;0.0254621330695933;-0.7048228622037238;-2.8794769256066037;-0.2969494303682254;15;1.256637061435917
434;-3.2614626882074207;1.5422872492790167;1.3955751126692304;-2.4769435871141825;-2.066083503800831;-0.841854894095481;387;1.2566370614359172
435;-0.971806298964766;-0.0506150954688739;2.1520637344291123;-2.834702443704469;-0.5873342538346171;-1.238479946517096;349;1.2566370614359172
436;0.5627171597540976;1.3407421588567574;-0.8225678495279308;-2.827765736973341;1.5422780222427637;1.7385113426174772;197;1.2566370614359172
437;1.427822375528887;-0.8038759817955572;-1.1208571664435236;0.7049743027859733;0.2466602192058399;-2.852748578945115;354;1.2566370614359168
438;-1.3293272150231574;0.0104323194903858;-0.4292599151915741;-0.2776032093841905;-1.1786480988718655;-0.3172615693234291;8;1.2278324018716225
439;-1.1741397066134125;0.9661080470847188;0.1279711924498943;-2.609310562247735;0.8306441805167745;-2.903934089464415;89;1.2566370614359172
440;-1.8281447866199343;0.3957794513846469;2.329280765730001;-2.792779801641538;1.4647959391937344;1.7488423985117063;430;1.2566370614359177
441;-3.2081855470010727;0.2033106336427955;0.6996396361904528;3.3255344563000904;-0.0397462934344799;-0.9653275509925414;338;0.8720427555737352
442;1.7337447492439957;-0.822602975658853;0.936981975313972;2.192601000505708;1.7683530657796038;0.7125772235191818;401;1.2566370614359172
443;-2.5461691693095383;-0.7300229150061386;-0.8143156828024186;-2.7581009684726374;0.6496568362739829;2.5989042089830887;412;1.2566370614359172
444;-0.9711238209677066;0.0084596345631567;0.2183848263228895;2.9326200679192107;-0.1125552373360868;-3.238979565335402;392;1.256637061435917
445;1.5705370496781148;-1.5282527203300889;2.39059707908997;2.8984101852006856;-0.139670914800294;-3.0742205866366668;289;1.2566370614359177
446;-2.216360182826293;-1.5781571760140491;1.6533064896423617;2.402773524999117;1.3322386645154427;-2.479519818720312;359;1.256637061435917
447;-3.1749972412672447;-0.4835930151528199;-0.4817523057535697;-1.1746106845420838;-2.6051518860639966;0.6635903780463047;190;1.2566370614359172
448;0.0273944672972968;0.4274707675200687;2.0719825569231736;-1.5593259868621216;2.924167720900932;-2.196732608001669;235;1.2566370614359172
449;-3.304099392162108;0.9655406101746594;1.4829071309853268;-0.1439961593924842;-3.0368096327212832;-1.079307772906517;277;1.2566370614359177
450;1.6509638969947371;-0.6582161965394957;1.2678942037854817;-3.1583225983652508;1.822719411074047;0.8403916396939136;386;1.256637061435917
451;2.1554324767422344;-1.0715267712202543;-1.7447499826127697;0.6504892502116575;1.025036639427778;0.0830285641088606;312;1.256637061435917
452;-2.0719395452475764;-0.2566217727783301;1.8589844107609577;0.5943588311618333;-2.0754225088345435;-0.6129054637219841;193;0.8456616436543684
453;0.2241840049759503;0.8686525522932599;-0.2679292598472702;0.5868926888651073;-1.3696808587038094;2.689848534478489;71;1.2517639424903992
454;-3.169243057495227;0.1983236039004755;-1.3479718956809323;-0.675093027053955;-2.2906691611724384;0.5397369734473011;447;1.256637061435917
455;-2.3228000004051235;-1.051280954146092;1.851834365207744;2.1645263026666486;1.188905678010898;-0.184371479820842;258;1.2566370614359177
456;-3.0896704796534222;-0.290358132595869;-1.601424062889929;0.1661367669046369;0.9785087445664454;2.606349550937759;247;1.2566370614359172
457;2.4106329491869687;0.6210652622431704;-1.6268200507804336;1.793239487174835;1.5780596492099752;-1.974871135939798;328;0.8649072923981492
458;-2.9592297076369376;0.3611932738746938;-2.3640640677642977;-0.7447426520363326;0.3117471403652199;2.409730141229821;247;1.256637061435917
459;-0.81370240017348;-0.4968886096167544;1.8412551608904848;-0.8906852057736807;2.586553357227801;-1.0295984964831038;235;1.2566370614359172
460;-2.7188776479794217;0.6534817109478813;-0.5584858760872202;0.0893142366545422;-0.2997961956377361;2.5760583579557905;130;1.256637061435917
461;1.517691445916427;0.3173561542585044;0.128516597018759;-1.2855899924638732;-2.0095677644033416;-1.0444672109031858;115;1.2566370614359172
462;2.2125365340315506;0.0882532337836909;-1.5224910452098703;-0.677541935139058;2.200808817888814;-1.5785571243329968;213;1.2566370614359172
463;2.204771769825649;-0.9542005119866636;2.203815882969991;-0.2524650780492772;-2.3508400313870665;-2.6420418395633467;246;1.2566370614359172
464;0.761517905399882;0.5914978648270366;1.5461972618885858;3.1683482362435056;-0.8766782338493331;0.1764202073055145;555;0.9786352357084076
465;-3.063812615359306;0.023981402904915;2.042402810316016;-2.107185332986277;-0.4192271304995582;0.3164841253157727;308;1.256637061435917
466;0.616876071784068;-0.6074407381894912;0.0547814025567041;2.080125134967169;1.247503419837503;0.98966108706805;401;1.256637061435917
467;1.8932579871683952;-0.6467255119144617;-1.5509531235252252;1.5451862202798825;-1.2660587295122268;1.7513120606016426;154;0.9560380824972812
468;1.0192391207398306;-0.4825789297283723;1.47722226491145;-2.164795908611268;0.0277278755029334;0.035533356173471;395;1.256637061435917
469;-0.7729834800988535;-1.2393019465155126;-0.4956508641378445;-0.0433433452415234;-2.7758035816377813;-1.248427365993947;253;1.2369557166676175
470;-1.565760080232234;-1.1553809370925607;2.647895386598558;2.0336463429394294;-0.463168969719601;-1.6347193394834258;24;1.2508315637973462
471;-2.8846689479998617;1.629911528725981;-1.3713795085614808;-0.6910319364033239;0.6551708166024576;0.1799324475728654;254;1.256637061435917
472;-1.8001939777199127;1.0007914625250165;-2.301209371783839;-1.2176516036360283;3.088302068826257;-1.2609967203951336;344;1.256637061435917
473;-2.070996785452881;1.630681923022516;0.0936452484810264;1.297017334394812;0.2498122519245631;2.133008246951916;26;1.256637061435917
474;0.7782919706119761;0.1493873265673664;-2.1416428844449635;0.3894201125279654;2.025473266558568;0.6804782982147632;108;1.2566370614359172
475;-2.145248915888664;1.210425092065882;-0.0040075058610615;1.280400493090755;-2.83689551510605;3.123580653206889;113;1.2566370614359177
476;-2.481831684199282;0.3229090757204289;1.8078586102538856;0.5564112874356838;1.7931708606667618;2.10302035618774;421;1.2566370614359177
477;2.582095421239288;-0.57825580602167;-2.5352442254607057;-1.8734606401577596;-0.2117265208477747;-1.843834059898612;294;0.846936827000976
478;-1.979294278182043;0.2160197731972032;-0.2355095591475104;-0.8488547950267642;0.5306613460339331;-2.291348381036637;74;1.050158326251118
479;2.2750721500601623;-0.3412850452619675;-1.9185171985884408;-1.1097784508814237;1.8011445903643684;-2.5205370887022336;462;1.256637061435917
480;-2.462428955208506;0.9984164851776332;-1.3308922336262865;-2.8083054153595963;0.4379970878658131;1.058105508926948;278;1.2566370614359172
481;1.6635484678814922;0.5213684167606655;-2.541856378544048;2.1141185997271648;0.3825550362305362;1.2419355138561268;405;1.256637061435917
482;-2.8935383493373927;-0.8491668140729101;-2.049237716070932;-2.1762997856156328;1.106335426396287;1.6962024577622523;412;1.2477360564026188
483;1.656588762751498;-1.375233727362061;1.974999493126261;0.3750131885943358;-2.437136533591113;-1.837162889151392;463;1.2566370614359177
484;1.9382583896321848;0.8541551444415679;-0.9285582409118254;-1.422134383664658;2.880320112028945;2.359408530498046;1270;0.9819066976698826
485;-2.6607424922715475;0.8462654945139096;1.672822530479424;1.8711049319086528;0.7398347793924693;1.892946897824343;362;1.0215492018238683
486;1.3613683133357266;-0.7386657964336696;0.5355162673748513;-0.9177346802821726;1.2220945862319337;2.7522744267635546;45;1.2566370614359172
487;2.733507550579615;0.4682373894116746;-2.401187189591312;1.957018109510519;1.1482939020476657;-2.775099751397492;457;1.256637061435917
488;-1.4748155228494526;1.1790171307892776;-1.9421616462457547;-0.3583395842752576;1.8599235858576395;-2.181823581439552;164;1.2566370614359172
489;0.472875331090808;-1.583407396230781;-1.1063094527252524;1.448115895253503;2.567874716992343;-1.3892989900499697;245;1.2566370614359177
490;-3.0447600653945384;1.3323288886633304;-2.3331211705100974;0.900471099173008;1.9855687150681824;-2.110054989237835;394;1.256637061435917
491;-2.5442596200657346;-0.868088462658618;-1.5864237432129058;2.369061051735557;1.9598346955739243;0.1361046967006666;202;1.256637061435917
492;-0.0005624279546727;1.1794953604308709;1.4438588537157084;-1.5490547622359694;-1.711275419794961;1.4608412917060905;341;1.2566370614359172
493;0.4836190008708392;0.5958677751977411;1.1723465842860945;0.9942410839104128;-2.0580007814415504;-2.014237331322028;166;1.256637061435917
494;2.720279948309738;-1.2003180918284289;-0.6481906019361878;1.70824076319814;2.774400459910127;-2.7041703680979423;206;1.2566370614359172
495;1.1148710206123231;-0.1997482291614702;0.6038533587808435;1.577513834870866;-2.1510108503385608;-0.7157296221459764;1231;1.2100965953118956
496;3.024523677863728;-0.2604850608697169;0.6237046718956992;1.924424758357128;0.2339785807930768;-2.8508343168847694;80;1.2566370614359177
497;-0.6816386149160507;1.139197723139382;-1.7569335238577823;-1.220512939486219;3.186326241849736;-1.3154135115937529;472;1.256637061435917
498;-2.952733922321039;-0.7484196299656909;-1.7217668190713664;-0.0239730341049326;1.042055800472695;1.3358764427588252;247;1.2566370614359172
499;2.5397991248970966;1.45864734484674;-1.0895542600615291;-2.6018963175444845;-0.5486706343408798;-2.176602628885916;203;1.2566370614359172
500;0.6576033071754679;1.1217610671353964;1.8818602484567435;0.5651181034447159;-3.168659432483868;-2.095905894782432;377;1.2566370614359172
501;-2.705554092955916;0.3159859145552399;-0.602128093977676;1.3126776457954226;-2.96948487085344;2.8255816923247585;475;1.2566370614359172
502;-1.85042894961172;-1.475749754470934;2.4661947083637044;-1.9336320399415527;-0.2617583626590511;-0.8551154635260977;349;1.2566370614359172
503;-2.9190581011982646;0.0672824506171582;2.0469609355029554;2.6525081190159017;0.9509495947044904;3.1172077469745103;362;1.256637061435917
504;3.4001950204286957;-0.0484752863397147;1.5012665137941;1.999462516546892;-0.5369741415617005;-2.6993547788706684;496;1.256637061435917
505;-1.3259272364893653;-0.2765436480052569;1.807895738782947;1.5373368800592744;-1.451697985524402;-2.372365981799612;205;0.8006057507507256
506;-0.4723783926077016;0.6460569163606255;1.577603030446392;-0.0944713199369832;1.008687486965231;2.59264193121304;25;1.2566370614359172
507;-0.1035604233744384;-0.0228405478954947;-0.0067104010535271;0.0391488672319803;-1.5908407821361152;-0.248436618987157;14;1.1068289487272385
508;1.175070735020204;-0.9827761335079024;-1.1189913093683008;1.522086389727792;3.144846738432335;2.78106378399116;406;1.2566370614359172
509;-0.0954165004439069;-0.4590997792305784;0.5696525134471866;2.9101907986787148;1.0019489038256908;0.8015848568260941;466;1.2566370614359172
510;-0.3340796874394607;0.4659654780288504;-0.7354742660276337;-0.4751226093941307;2.136665308596412;1.074830047552317;108;1.2566370614359172
511;-0.1768522961764759;0.0999923138376148;0.2298702419471801;2.98258785979339;0.0465054451040745;-2.284012433958741;444;1.2566370614359172
512;-2.893582525274677;0.558733756208934;-2.0857477835941407;0.2970708759840939;-1.5584035401667296;2.1055296859313013;229;1.256637061435917
513;-2.082219946658223;0.2413319532617894;-1.4636079716471853;-2.8555957564639343;1.2262258554000731;1.5274096662455277;480;1.2566370614359172
514;-0.8706628348555652;-1.3159376146583748;2.209994806444839;-2.715382529506059;-0.0013103338848319;-1.4124374350425453;349;1.2566370614359172
515;-2.7791524542794948;-1.0730181843873268;-0.7842120086299919;1.529634906129409;-0.1073775021755598;2.598016229028156;383;1.2566370614359172
516;-0.447661130251894;-0.9352975119759884;0.6587371003181335;2.719127297661537;-0.780432055871064;2.238740912861486;311;0.9742141061383603
517;-1.4345806006108957;-0.8357667122577666;1.6156470441233766;1.6301220474827294;-0.3938980107651258;1.438825313426225;167;1.2566370614359177
518;1.3779518673610742;1.4318338482390864;1.94921209464756;-1.9828163365611224;1.09345898632588;-0.5851229010702634;163;1.1719832170899127
519;-2.357726420804505;0.3477079215315851;2.0110790258560245;1.3331211980621396;-1.3466092851414202;-0.4335263545984144;452;1.2566370614359177
520;0.4707949510472149;-1.2298238253364415;2.1025604427393407;-0.9633851315898498;-1.5257841356084954;1.7230150333588743;416;1.2566370614359177
521;3.152370692546195;0.427112950234233;-0.6923520181348508;1.728566847139424;-1.3774006510944503;-1.4579315134636597;399;1.2566370614359172
522;0.3797845464656684;1.367258768975531;0.9281859777870984;-0.5631658546927083;0.7977705287704661;0.7208506217568627;6;1.2566370614359172
523;-2.5364573312665746;0.8517386773707256;-0.9070130148530862;-3.132291308109668;1.5125862897304727;2.2566888042866484;513;1.256637061435917
524;-1.6687722438288948;1.1886999009159422;-1.1396732701649888;-0.7552071665730331;0.8604409391014035;-0.8114049147948735;47;1.2566370614359172
525;-3.429905713613976;-0.7824647143407553;0.6487726586578236;-1.6152810711464467;-1.4744854909889356;0.7164233675047595;272;1.2566370614359172
526;0.728685840250841;-0.3625903056842423;-1.3278729043479602;-2.669482383801613;-1.3124615238076038;1.6811153359047744;343;1.256637061435917
527;1.9146949301622225;-0.8844336767038586;0.9123255224964985;1.4137311526483134;1.3611202574226828;-3.1012256745141253;283;1.2566370614359172
528;1.2393719714914315;-1.0222623149432368;0.7248422058038125;-0.7168305342330356;2.486300113507427;1.8736932234843784;9;1.256637061435917
529;-0.8323511601416455;1.6770738923112594;-0.8017742080934454;-0.5493746835646689;-1.826861598606096;0.8439761747342633;98;1.2566370614359172
530;0.7039707008084767;1.1199809598243593;0.3976009691804655;-1.1559276646336014;1.3178039253834064;2.230725039505369;35;1.1062173994499112
531;-2.906209998687894;-0.1502037263855191;1.0389577996315116;2.9228090975644583;-1.1108692402694278;3.403643469685319;390;1.2566370614359172
532;0.4533879469504638;0.5102472716545935;-1.2487489196437644;-2.6721820995913874;-1.3083622476377066;-0.5548072811788645;271;1.256637061435917
533;-1.6016117933138498;0.0755963649071857;-2.0935983435994285;-2.6812524452672437;-2.1156906176790007;1.250575351897859;121;1.2566370614359177
534;-2.311106945488539;-0.7226572895232043;-2.200430582368752;1.4060908392857383;-1.5392400412904816;-0.7323819709827881;393;1.2566370614359172
535;1.993883206293639;-0.1631326225073971;1.2111041542330674;1.714525451298107;2.6950488627935902;-2.442006367447236;283;1.256637061435917
536;2.3128223828538084;-0.5051137589658014;1.822968871796252;-1.4755059657314933;2.105308003247166;-3.20895000139197;100;1.2566370614359172
537;2.4960250738069267;0.1844959165498599;-0.4952257023400652;-1.6931155577868535;3.326139335364889;2.959097519132101;484;1.2566370614359172
538;-1.3209141772618498;0.9507444628921456;-2.548053936246249;1.0142839479975267;1.3978630412899866;2.907496229017619;350;1.2566370614359172
539;-0.5493255143751044;-1.595047240086361;0.4786083208149169;-0.6249047096690362;-2.265164315276005;-2.387601557333061;253;1.2566370614359177
540;-0.8010079635074191;-1.4699129600448044;2.324054268524794;-0.4466209793823821;2.2852877962107754;-1.3629904807571889;459;1.2566370614359172
541;-1.6865243692850276;0.1694375009454748;-1.266322430705977;3.0264096854833467;0.3388569881966045;-0.3667225440054054;305;1.2566370614359172
542;2.8865017764995384;1.5170614086400482;0.1309936736606106;-2.89953396411966;0.0237403329364981;-0.2950958604496154;83;1.2566370614359172
543;1.8106253610934695;-0.1294865892888251;2.242221834786006;1.7942163982149362;2.790325322337849;-0.7401418780604605;217;1.2566370614359172
544;1.3698490255648983;-1.0155909113376154;2.3434776776110025;-2.4645181982851305;0.536954059875222;-2.519548503113971;125;1.2566370614359177
545;0.9708612806011524;0.1726799924331246;1.3516625871413377;0.6254463562550335;-1.643173981899778;-2.921099345021917;493;1.256637061435917
546;2.964478873234587;-0.3327370833670775;1.651621539019699;2.1531102858095528;-0.547808092129855;-1.2477013326334576;319;1.256637061435917
547;-2.561341911407124;-1.1358039296204248;1.101035606648768;-2.572097325296544;-0.9995217876916462;-2.3308851897561973;327;1.2566370614359177
548;-0.8004038530077;0.235892244879627;-2.079503785612106;-1.4515646865686904;3.133878937126205;-0.5480260397320025;497;1.256637061435917
549;2.1580947360111837;0.9688162091544634;-1.455672165588216;-0.1770869643952064;-2.198621562677125;-1.1114947323923474;58;1.1429251683676414
550;1.7284187191617335;1.2510302944895138;1.844144085344757;-0.9496274692394132;0.42234379252644;-3.15589077647658;191;1.2566370614359172
551;-1.590729195661348;-0.1820839334696063;0.7658421786386312;-0.2481903537405709;-3.0691137739670538;-0.4759946216320577;39;1.2566370614359172
552;-2.070352273498377;0.0220086344473914;-0.897675832134754;-2.67682969139538;-0.0271743365008579;-3.078855436652613;106;1.046654487272308
553;-1.560804485893639;0.7951859447125567;-0.283405206934383;3.107375268939072;0.70234480734473;0.3658200779009304;305;1.256637061435917
554;-2.33845765799457;-0.230477294838573;1.5553156882503;2.679395182591959;-0.4230123554857067;0.8833785632487854;196;1.189295445251688
555;0.7531571638870356;-0.0572214971106696;1.7215552732582262;2.706987964590213;-0.5655957954763411;0.6196404642240583;855;0.8016269196894927
556;-0.2861208902686232;-1.291815540910349;-0.4936728298735826;-0.0336264533506699;-0.1296333106421316;0.7974729052977957;265;0.6681844055487485
557;-2.8812791566992884;-1.5528842481964231;-0.2043533360984251;3.145774460636221;0.9659783805290112;1.8790644594163628;334;1.256637061435917
558;-1.9010952829587533;0.7799671504342126;1.7405324691422417;0.7601453221282392;-1.878902797280318;-1.547239577786803;159;1.2566370614359172
559;0.9890327104112638;-1.1941788586088105;-1.6364961998125096;1.4374649801520396;-0.8566331395557043;1.226662283079228;467;1.2566370614359172
560;0.3711612306332639;0.4833503492165735;-1.8280872260124963;2.6908842279801077;0.8353047849341718;0.1508304001297806;378;1.2566370614359177
561;0.5140054306961118;0.6333446989188947;-1.5852130013792622;1.8239779632401103;-1.034471265373854;-0.4484174789976909;417;1.2566370614359177
562;2.7878333751794706;-0.9642588636253246;1.1941938941616828;0.96860274809731;1.657463884350738;1.0981604452930571;184;1.256637061435917
563;-3.224718414616625;0.9380252765986156;0.1695312951471474;0.0599622351573675;2.5436451294142297;-3.2015576325962525;228;1.256637061435917
564;2.387137543245553;-1.174734341872953;1.6558836199238207;-1.2033731059859698;-0.3751501495106509;1.6970582737592634;281;1.2566370614359172
565;-0.9941763205906576;0.859022589779829;-0.216021769628083;-1.1237007576858475;-1.369798621169348;-1.2256738677679044;361;1.2051467723191234
566;2.5701308317352165;-0.6739266697535872;1.1085640977210984;0.0451485326316211;-2.613001703940929;-2.743120801296832;463;1.2566370614359172
567;-0.1297312657496611;-0.3055634372499091;0.3980003784824161;-3.0532428699778618;-2.167638064159327;0.1546573654503358;227;1.2566370614359172
568;-0.990049910297684;0.8432945876077433;-2.090781730392417;2.2455500186721205;1.1773925162788494;2.906624382077048;350;1.2566370614359172
569;0.6682356953620349;-0.2920964187205395;-2.478530077894903;-3.008217250853253;-0.9510802300597152;1.7152242115171497;526;1.2566370614359177
570;-2.810530830675376;0.981635457209692;-2.0714208490015364;-2.6441670944877744;-2.0986139316328214;0.3818107704375395;121;1.2566370614359172
571;-1.6865583080942494;0.536549922430542;0.1813098831755452;-0.8654383191112864;-2.477211093274157;-1.0798735359062752;23;0.7434918324539886
572;-0.7617411161915358;-1.130927295151522;1.3678657813841824;-0.9385714925051925;2.6285800022842127;-0.1554565893144574;459;1.1819415990805713
573;-2.1426609936119365;-0.6144570042355941;1.7336563101192686;1.8648943932294983;2.699803876560986;-3.3351867711097944;381;1.256637061435917
574;-0.7310699993480287;1.339333976953072;-0.3005490684410805;2.222324498516054;2.19993844073004;-2.011021000483187;301;1.256637061435917
575;2.490357087007264;-1.3523774121101808;-1.208610773914352;-0.4683296273627596;-1.369040095972848;-2.4598169311851272;139;1.256637061435917
576;-3.167259268944873;0.1555348573489832;-0.6401823909991741;-2.416932889724078;0.3550551451993043;2.179782500555308;443;1.2566370614359172
577;2.9120142714473616;1.3566074470909733;0.3314178336917792;-1.5322573912123778;-1.4547103742524647;-2.783561771357108;214;1.256637061435917
578;1.946120651312689;-0.0593926263451489;0.7028513503977635;1.287814923858008;1.5489725612053584;-0.6612093513143462;10;1.2566370614359172
579;1.3048496761619035;-0.7800916442794847;0.8995498553549979;-1.152168075440629;0.2842333009209161;-3.0352471637771723;36;1.2566370614359172
580;-1.7921335760810015;0.2713355854226631;-1.1126198220483572;0.5451920208130405;2.4316602557646174;1.5471084376156758;11;1.2566370614359177
581;3.1113256454238223;-1.4160958880008092;1.215640023428413;0.4645307140295107;-0.7863416953565643;1.6372653139813034;262;1.2566370614359172
582;-1.0399828043986543;-1.7120333847327045;2.7850445450714885;-1.8856670385378655;-0.3881287041242355;-1.8866073872913272;514;1.2566370614359177
583;0.9345339022886892;-1.2273877153168102;-0.6523784415686662;-1.0049294712645267;2.5811797357104203;0.0610193710271354;419;1.256637061435917
584;3.0908321312676312;0.3433008460474636;-1.0154877511677114;-2.397754702746939;-0.6210338290576216;1.3855125512374062;145;1.256637061435917
585;0.2779626671725904;-1.035077150514324;2.291235099648536;-1.6103957128452735;0.2285225550731351;-2.226187278589105;109;1.2566370614359172
586;-0.1094521571297548;-1.3668629406570247;2.4327249875492285;-1.5395472616845094;-1.59960209939474;0.8413973384840312;520;1.256637061435917
587;0.3486643461315251;1.039328899882147;1.9140301808841689;-0.2725045055247585;0.7787857339726995;-3.2529701278016687;191;1.2566370614359172
588;-3.1609350504940386;-0.4825969525366786;1.9366941459064029;-2.678345785893796;1.045030203662618;1.5618318866863057;256;1.2566370614359172
589;1.5082125463779583;-1.061705739973738;-0.9732468912837902;1.9743975063363144;-0.8587061464563216;2.5094447516587794;467;1.2566370614359172
590;-0.354078608476542;0.7814342619972328;-0.5578147474036019;-1.2192264355141051;-1.9287782326813243;2.704084161153268;88;1.2566370614359177
591;-1.834127851664336;0.9277803769592436;1.587674757875128;-1.7776692256652096;-2.2663450277255763;-2.976122047147432;240;1.2566370614359177
592;0.9103108240395918;1.3979336450635116;-1.948317607985277;-0.6005156270946704;-2.3425699071776456;0.0900240775950379;58;1.256637061435917
593;-2.9192310417169085;0.7080392703789468;-2.0743153391431224;1.3994242470241889;0.470371633316246;1.3305285913095386;130;1.2566370614359172
594;-3.38480966930133;0.0167111135167577;-1.037758818715908;1.1043193011606256;1.8721043040646992;-1.520887718720047;848;1.2241479733352527
595;2.371711401860252;-1.4618879627352768;-1.2004070620853298;-0.2946747013378453;-2.34734536483181;-1.7076448687058168;575;1.2566370614359172
596;-2.2862369947346197;1.3594347425305482;1.124522336999852;-1.888272410131639;-0.3310779971752245;-2.2378965718321213;273;1.256637061435917
597;2.5690139191853483;0.9096054778283664;1.5931605196658891;0.6954864136263357;-0.4051154749980767;1.5305910817580086;284;1.2566370614359172
598;-2.6949280009616308;-1.014948515645154;0.4976345016704218;-2.7796859549878787;-2.06935073338026;1.7051966445104263;190;1.2566370614359172
599;-1.3732202197039305;-1.0564956145069768;0.4825576971651318;0.7610158189680936;-0.3373597511647861;-0.8122653326961025;60;1.2566370614359172
600;-3.209469848730512;-0.20832397656753;-1.1213790241212258;-2.169638062404481;1.3832661402433248;-2.2691913663588936;280;1.2566370614359172
601;-2.890472317906848;-0.8307294099952385;-1.5433428168309689;-2.295014923469087;0.4575536463646128;-2.071018878432791;600;1.2566370614359172
602;-2.256785403617344;0.7825660693901879;-0.4125665885646098;-2.8048297355213623;0.0873799233479487;1.8915413463711888;861;1.135418643099095
603;-2.9930807720446944;-1.7103762421901074;-0.3475002585134681;-2.0475968544168075;-1.1921984230758658;0.6052184771147882;287;1.2480151552673024
604;-1.751847384219907;-0.1809288552988461;1.4056808740113835;0.1874649459938377;-2.922102937089109;0.3915315014792407;551;1.18294685494025
605;-1.2712810851966982;1.119726210877298;1.998000725605291;-1.597024975218554;-1.7348244989760804;-1.3223391375803095;240;1.2118699740615346
606;-0.0107826749904759;-1.1929443364631578;-0.9379385546311272;-1.385197068517646;-0.6609250458482745;1.167626183576317;265;1.2566370614359172
607;-3.004225063896881;0.1476738924380496;-0.8831312509680388;-1.1103738718366267;-2.2660564580251075;-3.0689082628913664;178;1.2566370614359177
608;2.4290401057991806;0.9085573920321096;0.9507367323019472;-0.692747511146021;0.124247613880572;-3.289880868567845;550;1.2566370614359168
609;2.130602871339203;-0.989715022672404;1.2072044422249957;3.1099084251715987;2.209890009328223;-1.851480590525021;46;1.256637061435917
610;0.8203308533825651;0.6929019318179878;0.1523332321291288;-1.8923947048945773;0.5518326215782134;2.252495060345918;35;0.9292208238717504
611;-1.1926993321005614;0.1874081360301451;0.8221586558239002;-0.5071944554319472;-1.8953498444788843;-0.6225001505330438;23;1.0120459145158058
612;-1.162022788991398;0.005283147556469;0.973869843439772;-3.121560326824925;-0.0814114596959882;1.0250231662459284;123;1.2566370614359177
613;1.552536181624415;-0.7768451694919978;0.05320631615963;1.503169719916969;-2.149764328300431;-0.8490108483129688;495;0.9225488191657572
614;-2.688060884191866;-0.0252851236403162;-1.5036991639080683;-2.3864266452015377;0.6871462002037148;-1.1617414980980412;601;1.2566370614359177
615;0.0912337244202089;1.4064065119382008;-0.1661634093381987;-0.8919610219657581;2.016806103561099;1.035074232446746;510;1.2566370614359177
616;0.1173937382389351;-1.164678750489822;2.407519957100206;-0.1912476703335772;-1.9849360336361983;2.4646236742512406;520;1.256637061435917
617;0.5731268142450114;-0.6127406875894282;-1.3067052346756396;-2.396121202287916;-1.672988911955735;-0.2528533220683742;532;1.2566370614359172
618;-3.015867923740319;-1.7049355227870036;-0.7366195345490677;1.2980011302002104;-0.7138595526333942;1.7613303615401197;515;1.2566370614359177
619;2.7456402142720844;-0.5617709543193646;1.650685087587667;-1.8687724502004064;-2.429604700038705;-1.780386080020455;97;1.2566370614359177
620;0.8089165096008859;0.3375289174119386;-0.3828815491400843;3.1887152631353546;1.5912582749114592;-0.1894913228648462;378;1.2566370614359177
621;1.8040180456517207;-1.223072650265304;-0.7256948756588115;-2.6244527885199016;0.6992803320417954;2.598058482661393;173;1.2566370614359172
622;3.2076885715293315;-0.5821354286549973;2.011220664060777;0.3598182715374385;1.9481443360325288;0.7318360097214716;562;1.2566370614359172
623;0.0944495684485782;-0.2688565147148892;0.4748544679509408;-0.4940699016084179;1.6673123388271585;2.4078213624001243;9;1.0546806794048802
624;0.3008866360764229;-0.2585652895266521;1.9586949549922252;-2.6401938805574297;0.8477101344906726;2.8977259915006948;141;1.256637061435917
625;2.349581784740935;-0.9467246246832446;1.0622351607358405;-2.71775980514308;-0.7277430949060834;2.479970938090469;122;1.2566370614359177
626;2.7037366065016104;-0.5885577503311502;0.3041459558408128;0.4275992648193275;-0.7521303316808576;1.4946276860557912;77;1.256637061435917
627;-2.711299620462917;0.7713076618304724;-0.2720479920251902;-0.3178253163938832;-1.23387705456773;2.405186037030606;460;1.0786352763388494
628;1.5465017689005616;0.1900582514121763;2.294370574057968;-2.3476622440919384;-1.2904167719606576;-1.8069177612889995;230;1.2566370614359172
629;1.7920071086430014;1.0123356005043176;-1.1011378779926215;-0.3718774194315206;0.2060881925197323;2.9176579392175417;158;1.2262656905646088
630;-2.8581634829134543;1.3114590437197728;0.3467597258757785;0.985035691496292;-1.8921942212351397;0.4108155970141379;314;1.256637061435917
631;-3.0525900279060667;0.9231717859310072;-0.4669529243320454;-1.308836308229807;0.3659548379534063;-3.24556704559122;106;1.2566370614359172
632;-0.1567670982426455;0.7787001645631016;-1.9151800390509708;0.3649300999257913;1.56928883302051;0.4596227449743211;474;1.2566370614359172
633;1.0870815179113955;1.4825355134145763;-1.2859407865262014;0.6389534473406554;1.1370750779421197;-2.6271910073644618;104;1.2566370614359177
634;2.02764721209562;-0.4004774779910947;-1.9365467187867336;-1.0759695354778729;-1.0322239773796178;2.44277192904472;425;1.2566370614359177
635;-1.8249247895155836;0.1465436376262607;1.3322319128389568;-0.913519514533004;-2.3819200451181817;2.921800751975886;119;1.2566370614359177
636;0.1438209862523344;-1.313271131708474;0.0022616521921754;2.0267939516920315;1.2132721369333186;2.7553763084896064;391;1.2566370614359177
637;-2.60305962623718;-1.2818425044356547;-2.1082751266610487;-1.8516565624745;1.4707270905186367;1.396104624214343;482;0.7767269625598586
638;-2.878164770132277;0.2050096863223848;2.10324556579521;-0.2574344204316525;0.6005561293187769;-2.8019378918729254;96;1.2566370614359172
639;1.7345031833292317;0.0066403310232816;-2.376092656819138;2.006209549676333;0.8002221724413427;-2.281286353680945;487;1.2566370614359172
640;3.3407138232574907;-0.9145982251432068;-1.0031283123418098;-2.1933231374830093;-0.0225435887183459;0.7233176704682682;145;1.2566370614359172
641;1.436564557313072;0.0064402774622409;2.712571384116757;-0.5705488274446602;-0.1422216069983025;1.7004841377395086;269;1.2566370614359172
642;3.0808940343001376;-0.6121884157606831;2.631787558559152;-0.0122137395603375;0.0345287949109649;-1.6114318407571615;268;0.9634071801303312
643;0.2222016320647082;0.6296321848444284;1.166822156089617;3.0429607520572235;-0.1719570738636783;-2.742405961225709;511;1.2566370614359172
644;-0.0859159803150285;-1.585511041597498;1.1627641321043358;-0.3947076241231638;-2.3350828770764807;-2.381050427018969;539;0.8607152434149941
645;-2.582310256103459;0.5066792298609888;-2.319251590896868;-2.8830537620294336;1.6559193027720815;2.1114651477093043;513;1.2566370614359177
646;2.774508641064684;-1.3563282421370255;2.256753106591556;1.0319809197918937;1.106104299775008;2.3643316373169943;152;1.2566370614359172
647;2.287626838492329;0.625856103543135;-0.949681198471054;3.413326055656078;-0.827250058967942;-1.0016023081669871;316;1.2422143950798767
648;1.1018057481519432;-1.4937546777290698;1.359691373180608;1.4920392335563384;1.927229713978848;-3.243800296935031;527;1.2566370614359172
649;2.763516660165254;-0.1624399225075463;0.323768901209454;-2.091629485891166;-0.1139251863786156;-2.2517276133520854;38;1.2566370614359177
650;0.6661353130037888;0.0005247686318128;2.4273970734937884;0.5285925589864392;0.2386985147614613;2.0862833187794494;269;1.2566370614359172
651;1.5604664458915494;0.5622252516745141;-2.021727450938076;0.1628655337563118;-3.0711223364154434;-1.104989387428165;402;1.2208546391419544
652;-1.4698145824706037;-0.4480968832087849;1.065543403634986;0.2518113282449217;-0.9246832333060656;-0.3067489659824305;599;1.2566370614359172
653;-0.0924028033489454;-0.1557139857230303;-2.257531351213288;-1.2542498419555914;2.9795551550367843;-1.4591094531868964;548;1.2566370614359172
654;0.4213903666472846;0.3138649331661832;-1.598988274385078;0.7601093090934303;-1.8878350919252904;-2.161345541935825;215;1.2566370614359172
655;0.7729977465824286;0.0242585564667352;-0.3140964093756876;-1.7109562860116363;-0.8230059454827576;-3.0239027073855924;292;1.2566370614359172
656;-0.5216113528014867;-0.7203934191398332;0.537106932129678;-2.281179177385307;-2.6062851414822696;-0.3653662950804771;227;0.7863847059065199
657;1.4686893077355911;0.5596869809485047;-2.511964011152552;1.6223772611718652;2.1349167736535755;-2.6960744430136443;379;1.2566370614359177
658;-1.8043587390208016;1.6267559995766123;0.9134748323873104;-2.813817032505369;-0.3075062138236522;2.269477521579383;323;1.2566370614359172
659;2.7058943453353503;-0.2541977571919784;-0.1865031339419249;-2.7670771786666384;-2.154309438278096;-2.461961541655438;214;1.2566370614359177
660;-3.212557914220888;0.0878409196644721;-1.5206250117624864;-0.2124535788051829;3.038521647198649;-0.6063446178363202;344;1.2566370614359172
661;-0.3416763754866071;-1.1851880501704448;1.17996724886167;-1.269998359149611;2.990333529027638;-1.0371303240701069;459;1.200349954943617
662;-1.8813534019308191;0.456751053428778;-2.019846872950727;-1.9960171435566991;0.3482515490441903;0.1721044787142235;143;1.2566370614359172
663;-1.2943526806894767;0.7437310164699789;2.42653146684056;-2.0276000923325057;-2.698754932890468;-1.695215270298133;605;1.2566370614359172
664;0.3788961746366237;1.3013254966897438;-1.1670770151986292;0.9354861395579052;-1.2045332620879272;2.048960741309384;453;1.2566370614359172
665;2.9874142088413245;-0.7676301952922734;1.8293265441152091;-1.3158051498635708;1.093316054534772;-3.282944719437705;536;1.2566370614359172
666;-2.0744022853641804;1.366445705061591;-1.4984115346798423;-2.6326289410151613;1.1530113552019825;2.866614775607044;523;1.2566370614359172
667;0.8209127513017341;1.5898205382397457;0.3087391924621545;-0.2115071343338564;2.296826789472914;0.5389865809870992;615;1.2566370614359172
668;0.7051721328133698;0.9605636348748224;-0.4392345474477205;-2.7158870617973347;0.2168816071674246;0.1018138070928427;304;1.2566370614359172
669;-2.912534985197753;-1.342061356659997;-0.4539235204878792;-2.42630317735881;0.6250450181645926;-1.7793594628041989;601;1.2566370614359172
670;-1.31303945159073;-0.5075677534074605;-0.1828002105332181;-0.3337222210923835;2.194597733638617;0.7524801480694266;7;1.256637061435917
671;1.9630259130203656;0.6336858156056246;-1.5318809143236407;1.534354751182098;2.7878232038280046;2.7041602560016664;371;1.256637061435917
672;0.065601026761486;1.2231420562090678;-1.2125350250301172;2.738503962376236;-1.1270266889556375;-0.6638149916430962;561;1.256637061435917
673;-1.4573025952815888;1.5953519517272354;1.7537529434118362;-3.2213384081443617;-0.7169527741136915;2.9159410254547757;658;1.256637061435917
674;-0.4010515966750572;-1.5873485930169438;2.144271423756184;-1.1169357055151534;2.5023196092596867;-1.7147500013100143;540;0.9089760694208115
675;-2.327358030353639;-0.0370518786415175;1.4997534864022182;1.2185055760574894;-0.9266044456722676;-1.3623034001898826;519;1.2093732908693606
676;0.4200417215665832;-1.5930715109605245;-0.6774903534571131;-1.1784352366981503;1.706946915464276;-0.5600216735108191;583;1.2566370614359172
677;-0.8364166163053558;-1.668292952969001;2.276508283344265;-1.3329979360287068;-2.270184961047802;1.5070186046730625;586;1.2566370614359177
678;-2.45766139596776;0.7530083902393453;-0.0309129195313675;0.101523309611423;0.7136392550302533;3.018170917544756;460;1.256637061435917
679;0.8758038083182296;-1.52014510406653;-0.32944146673261;-2.4224294019122734;0.2233426282447833;3.0507792357317527;621;1.2566370614359172
680;-2.495139760398705;1.1558789169479171;1.5259268565231274;-0.9412035711926466;-2.1937095700441307;3.1154074919555703;635;1.2566370614359172
681;-2.087268207414317;-0.7721241747496796;-1.2658226323506658;-3.0904985685219475;-0.3703042663384773;2.70893490662066;443;1.2566370614359172
682;3.2225581697510397;-0.7423884763777948;-1.6180985797612373;3.027959892689841;0.7921924370659067;0.8070584392450069;261;1.256637061435917
683;-2.800642176224018;0.7077476637092737;-1.818291496117368;1.0748402520743972;-1.3499654864970536;-2.99695023321102;168;1.2566370614359177
684;-2.359800934051066;0.5994727270409466;-1.4312761440080624;1.9423383042707696;2.766050115070793;-2.401877005036479;394;1.2566370614359172
685;-2.089206135796603;0.4916079992099598;2.105168402750795;0.3796985598053467;2.8646554712758165;2.4619392669964566;476;1.256637061435917
686;0.0969267384584919;-0.9603154528246916;-1.3149352879847531;1.0685941759444813;0.7683376534447739;-0.7699064426651222;5;1.2566370614359172
687;-2.957492979953539;-0.2665236733344255;1.4931177163533478;-0.0608220538361709;1.891411509599288;2.8211860872440906;476;1.2566370614359177
688;1.8172463767979368;0.0235062300778667;2.6795264861517283;-2.302130306912475;-0.6702683664822859;-1.481624581223349;628;0.861313038479466
689;-2.372555667966528;0.1508155854102868;-0.5157833021003286;-1.0427158925606352;1.4061200761343906;-0.0340497822614494;57;1.0794186042501916
690;-0.6167753751173832;-0.2505843413744555;0.4457240699636837;-2.9555175079666287;0.2021528562687393;2.913466545011405;142;1.256637061435917
691;2.177240647012265;-0.9871367678148114;2.1936626167469133;-3.1932899327538777;1.9989794195588455;2.052066423153552;386;1.2566370614359177
692;-0.3148364674355878;-1.3913589968055975;1.7741273996095508;-0.1798219841373591;-1.2942627664541004;1.322534381385332;520;1.256637061435917
693;0.5193457838056608;0.2652083169038346;0.5310091447685128;2.215271185977127;1.3031138730561806;-2.884182244900059;187;1.2566370614359177
694;1.756038576875362;-1.0332584966605298;1.7823946310591845;1.5153249755204945;2.4755751713246084;2.1984569924331887;184;1.256637061435917
695;3.1688598759810844;-0.2217366746292617;-0.4165693205741095;1.406129953884387;0.0415167617340769;-3.261883332335571;496;1.2566370614359177
696;-1.1407518879161678;-0.2625209480337671;0.1488945699107463;0.6676429382114778;-2.3155599394638138;-2.3998072099766765;253;1.2566370614359172
697;2.4351512431393227;1.67425029618996;0.683644459766302;-1.7781661765681482;0.0851550056127804;-0.3134351266233836;83;1.1606753035364
698;-0.8304783184234555;-0.7179960347576643;2.180843202638806;1.4691139412114724;1.9439886557563144;-2.105124626874917;41;1.256637061435917
699;3.136602295751014;0.4128365400396845;1.4199918760282664;-0.3040925218742978;0.1022155556652077;-1.130073784916814;335;1.2566370614359172
700;-2.894809454445742;-0.0369457545924559;1.1539840528169714;1.4098176075923916;-2.234366342508358;-0.2835974615251877;314;1.2566370614359172
701;2.083958965068722;0.267100116065868;0.570037603430755;-0.5268188538565053;-0.947895278067858;0.5588665467974625;295;1.256637061435917
702;-1.8540042863158657;1.033994014094942;-2.408937812783868;0.3238347518872367;2.848448072506638;-0.4842409258619292;398;1.2566370614359177
703;-2.9463941581214246;-0.4621613134672437;-2.0443446911446337;-3.240523826070622;0.2367131839079577;-2.567412409172678;601;1.2566370614359172
704;1.7879947974876904;0.2140983055646359;-2.396667941530145;2.7369277777702936;0.0700025722025612;0.2608265001781524;481;1.2566370614359172
705;-0.2282013170560681;-1.472498349672827;1.015779669701417;2.930790432274089;-1.2940858694007304;3.1366654283330124;516;1.2566370614359172
706;2.4671155183167546;0.6482534824284758;1.395499746613989;-0.4276385495325603;-0.5967954868045706;-0.7067075408663758;699;1.0896570934805303
707;0.1866301947937709;0.5653006887493693;2.010456504733473;1.701129258095437;-1.3262446184050471;-1.2216753219900498;166;1.0858715813638455
