Komment314/test_diploma/benchmarking/path_finding_for_benckmarking/pre_rrt_star_results/11_5_tree.csv
id;joint_1;joint_2;joint_3;joint_4;joint_5;joint_6;parent_id;cost
0;0.0;0.0;0.0;0.0;0.0;0.0;-1;0.0
1;0.0774081238516503;-0.2020415508816834;-0.7161992059320931;0.5229756493467983;0.7738824445773014;0.3833862645439755;0;1.2566370614359172
2;-0.6973493735533514;0.2952376947221904;-1.2915553332449017;0.6524783703904844;0.1546907407302995;0.403308166401306;1;1.2566370614359172
3;-0.3188077682499761;0.1806029590395496;-1.485189608183063;1.2222431759118;-0.2181265324176246;-0.5566829530391753;2;1.2566370614359177
4;-0.2020861522961963;0.6135190973411806;-1.543537570219352;0.7613953727823627;-1.28188116105046;-0.7320034979865391;3;1.2566370614359172
5;-1.1192096708367056;0.117556715052438;-1.455404392985885;0.6514929578710865;0.2326677188970415;-1.1928120611396802;3;1.2566370614359172
6;0.6783440433281162;-0.4950560953778835;-0.3148650361901802;-0.6651349780270043;-0.1978173554871948;0.541506499815829;0;1.2566370614359172
7;-0.0608372476805001;-0.1582359652844471;-0.3807007321461951;0.0790065790636315;1.0347192681925304;1.469849509325072;1;1.2566370614359172
8;-0.0280363327939402;-0.2308895897850947;-0.4821206007581079;0.6439520894475876;2.018699354982896;1.9943645466229527;7;1.2566370614359172
9;-1.7056581710423708;0.6289588719205981;-1.6812925429186345;1.0183844201711365;0.8347622386105862;-1.84513872982158;5;1.2566370614359177
10;1.6396995937926553;-0.1063310224618105;-0.7521197412162585;-0.709211024034777;-0.6868026540894974;0.8090584205777793;6;1.2566370614359177
11;-0.4756047698351257;0.2559968610972362;-1.6358671768415156;-0.0840326243702085;0.8840089930074967;-1.577433443405391;5;1.2566370614359177
12;-0.6430391051689748;0.1482136032025607;-1.8023167584770527;1.205552541771839;0.5055386685077461;1.333205189977069;2;1.256637061435917
13;-0.7173706261505833;-0.2464180538294483;-1.2836633573657552;0.2988897846830182;-1.7554135486785751;-0.4703782630544577;4;1.256637061435917
14;-2.255529509428161;0.2125926455554634;-0.9771216094017354;0.856294034338547;0.7350433650376391;-1.0892660352476196;9;1.256637061435917
15;-1.0528673285771395;-0.6789742293742015;-1.5306185347008217;1.1348594077054968;-1.5311249538760376;0.2147030298195081;13;1.2566370614359172
16;0.5957390007422798;0.762389036602258;0.5490338483168599;0.108344151560179;0.5742979037595841;0.0;0;1.2566370614359172
17;-1.044074516128339;0.0665236416219639;-0.1555182781988618;0.0725605212568061;2.140223809094921;2.0964571012829447;8;1.256637061435917
18;1.2292175133328156;0.1298682623879521;-1.4689470877463584;-0.7308676425587656;-1.412166529609899;0.2483554173194899;10;1.2566370614359177
19;-2.5577335674884925;-0.8901317614399261;-1.3114519501971058;1.1531590536013367;0.5248501930982334;-0.9227682643477112;14;1.256637061435917
20;-2.1345311533958853;-0.2591509617640635;0.0187486767796002;0.9376421092329744;1.318596920530684;-1.1444401473695491;14;1.2566370614359177
21;-1.1260102782967751;0.6725892330698998;-1.579247543206116;1.90032664581057;0.6442834705483684;2.0537499133394594;12;1.2566370614359177
22;-1.7109826637086327;0.4839523592495066;-0.2612179727870889;0.8302538258842043;2.5329548447928367;2.566153020843198;17;1.2566370614359172
23;1.6615338936522752;-0.0938789308731341;-0.6519197838813839;-0.6106916383401949;-2.075218947993293;-0.2212849218920027;18;1.256637061435917
24;0.542927541966307;0.0347204472996498;-0.637222623201957;-1.5801596330540226;0.3448520100177338;0.7523650227476162;6;1.256637061435917
25;1.5673758981833863;-0.6281270400356636;0.1076540215646947;-0.6752761804286654;-0.9879038027266812;1.4950689924963636;10;1.2566370614359172
26;-2.372907582903313;-1.2377737687339552;-1.720788979892424;1.9767022464119572;-0.235262062096589;-0.9466483723695632;19;1.2566370614359172
27;-0.1478397031106566;0.5052671432903285;-1.9722030371206931;2.113861071840448;1.2200671652573818;2.304318295015659;21;1.2566370614359172
28;-2.705980300552038;-0.8054297731318794;-2.023887517034794;2.0737890487035826;-0.8359661291701925;-0.0415859481117696;26;1.2566370614359172
29;0.1204290595600822;-0.4479995185216338;0.4650640346854575;0.0927851371090529;0.869024447218818;2.31799669588876;7;1.256637061435917
30;1.8892580161467607;0.266414146952037;-1.0662501710443215;-0.182500583444359;-1.5112424600589525;-1.0723904371587814;23;1.2566370614359172
31;-0.886575498862298;0.278173155620848;-0.0139538504873892;0.3393596882275567;0.4900643474226746;1.925814556805241;7;1.2566370614359177
32;1.357703045003048;-0.3997230963477536;-0.3836088769279319;-0.813076295919639;0.5663401994998265;-0.1641637860050561;6;1.2566370614359172
33;-2.20849717138084;0.3056551861395765;-2.095687873880589;1.9090564879812284;0.8655419646264433;-2.350902267890037;9;1.2566370614359172
34;2.115471666337497;-0.8014635657376317;0.8810744122980456;-1.242369215801433;-0.8614331675128546;2.054455932656399;25;1.256637061435917
35;-1.627782748560355;0.5348665840031089;-0.9108908711927785;-0.4721434676674647;2.0831300532715584;1.711065864827345;17;1.2566370614359172
36;-1.9840635734242835;0.0747295386086142;0.0851392487015986;0.3730685564697594;0.2218679511017257;2.426196698733696;31;1.2566370614359172
37;-2.864720443759344;0.860337684225412;-0.2019847290671006;1.0974037630111195;0.4106305945604365;-1.2449411598414388;14;1.2566370614359177
38;-2.178286126363803;1.083851916256502;0.0639176699619938;2.076935041601624;0.2782719942882499;-1.143542887947974;37;1.256637061435917
39;-2.814829469860239;0.9345056843049252;-0.2079455778764294;-0.0125176305460736;0.1518812640016116;-1.7667020773149429;37;1.2566370614359172
40;-2.4241910174777512;-1.0406426123412271;-0.3648374476025071;0.9595709167876884;2.173521659352597;-1.2218298813371569;20;1.2566370614359177
41;1.1755154130512755;0.3276136555751263;-0.5420427839822491;-2.494413177139058;0.6206425964416441;0.3373907273381225;24;1.256637061435917
42;-0.1078181942173805;0.4772475259191289;-1.0100201388192591;-2.273900016616258;0.5387449009979478;1.3018996577738216;24;1.256637061435917
43;-3.0979751301545697;0.8043340458146033;-0.9663426426104692;-0.5211510148481646;0.2835973179953628;-2.560929650155396;39;1.2566370614359172
44;0.7097545739713171;0.3824610918754042;-2.312284196734752;2.7639269512536653;1.4997204446222638;1.8437310237356503;27;1.256637061435917
45;-1.310604482542305;0.1444363964136988;-0.5425826700209565;0.6300625934536171;-2.38185416721709;-0.6224941121651564;13;1.2566370614359177
46;-0.4787774663344626;0.145219502167544;-0.0343817185194058;-2.595419346958284;0.574722488195783;1.82605986259571;42;1.256637061435917
47;-0.2980415096982342;-0.3350446912780985;-1.35632599735933;-0.9632704448949454;0.5906492075566104;-2.088330200492807;11;1.2566370614359172
48;-1.028808082503471;0.6913235383344193;-0.3797584545457574;-2.792677530269888;1.2365432010138937;2.4442595637818285;46;1.2566370614359172
49;-2.187936441161474;0.0457975191501149;0.3918865040769158;1.4461774901489717;1.2620070651852515;-2.184751889045837;20;1.256637061435917
50;1.5850188739479565;-0.554692079025002;0.1605353498386796;-2.5929099244028366;0.2650719595877894;0.2805392608472055;41;1.2566370614359172
51;-1.829651410075893;-0.485786703783246;0.8662503501239258;1.955308323589879;0.4351512137594426;-2.168599750834734;49;1.2566370614359177
52;1.4336501980742336;-1.2710991235189233;1.4596299631065162;-1.2030884160274689;-1.4329173281450114;1.574003042144266;34;1.256637061435917
53;2.387585759865108;0.7833396009361399;-1.7983676171480123;-0.3848538259543673;-2.1844414344272;-1.255296397433579;30;1.2566370614359172
54;2.083907197255015;-0.1452339601722229;-1.2084782347818237;-0.6989484040820514;0.0670144311313704;1.5860360757580387;10;1.2566370614359172
55;-1.8454396254816128;0.2859673058243631;-1.6537586891712752;0.9039065638385888;-0.0306515677602279;0.582697014075238;2;1.2566370614359177
56;-1.7658318771464814;-0.2011385426537637;0.6391754994224406;-0.5042037874954054;2.2632520074886635;2.1814792481549583;17;1.256637061435917
57;-2.4677809444137697;0.2474842689521696;-1.041814400361575;-0.0922698108943309;0.7854231541493819;-3.217013543637352;43;1.256637061435917
58;-0.8770737189791608;0.146364239838253;-1.435552393243652;2.170312377379324;0.3859489118712915;-0.5665488674484125;3;1.2566370614359177
59;1.5913112447748954;0.8216955864527369;-0.4944899710063563;-2.942715036478684;-0.121975395700289;0.9756824057372728;41;1.2566370614359172
60;-2.352787944797635;-0.5470337281987496;0.0040082856562122;1.415659931430422;1.521810969367781;-0.0588021216641152;20;1.2566370614359172
61;-1.551738549675434;0.1100782725351137;-1.605254940880807;2.224755027097098;-0.0110100922932183;-2.3828545760087625;33;1.256637061435917
62;-2.626547992219251;-0.3651798507012315;-1.1059557894029688;0.7558959139722108;2.798520871455596;-1.5389647077613715;40;1.2566370614359172
63;-2.7442320340391064;0.2238828323140017;-0.7110774911256281;0.5615560505680921;-0.2801911620204563;2.6659505836991397;36;1.2566370614359172
64;2.1905837789371114;0.7270750320663272;-1.2197955982936992;0.1528638008729725;-0.5397964852354353;-1.5155363355718012;30;1.2566370614359172
65;2.028024301509367;-1.2338288360298015;1.208587102618383;-0.3241601691595032;-2.0556877404562672;1.5410380968892632;90;1.233936804428908
66;0.3487012075981294;-0.7254026096135674;-0.8982665062997769;-1.7616893351630587;0.3149907737421275;-2.380224810877198;47;1.2566370614359172
67;-1.0724478175269034;0.4561516457089743;-0.9225263230926812;-2.573462507427214;0.0810288886685211;0.7177040088580042;42;1.2566370614359172
68;-1.4723877791655533;0.1819125683344233;-2.35743851857912;1.2953249139752696;-0.3704784451696396;-2.4768866284399813;61;1.2566370614359172
69;-1.77960904820533;0.7637318031893567;-0.3441026456515322;0.4481275909052714;-2.8887992253880213;0.1813445927242147;45;1.2566370614359172
70;1.8144910419742772;0.9117325867128996;-1.1302206029480697;-2.0447388408627445;1.1301120372489373;0.4854875117656807;41;1.2566370614359172
71;3.110272230705017;0.0668060397297486;-1.050323653314117;0.0036019995973341;-1.3951440408837643;-1.0652541050937072;30;1.2566370614359177
72;-0.3753660252113488;0.3266795435053624;-1.221253316287655;0.3756018725278173;0.9639402264452354;-0.8212442256785415;356;0.9495897201000324
73;-1.997353231037082;0.6924852189228973;-0.978403240355291;0.0081019159061427;0.3070989380904918;0.4479535791842776;55;1.2566370614359172
74;-0.8500693765542556;-0.3112871974577139;0.8029543564094881;-2.784887765387097;0.3000916444726648;1.1776552277467809;46;1.2566370614359177
75;0.4328086432888562;-0.5128785258436225;-0.3609518620576196;-2.146025425548876;-0.6823471521539479;-2.6897275758612245;66;1.2566370614359172
76;-0.8177158798703208;-0.2160806187686777;0.9477302570423616;2.277150358548694;1.0440562060380387;-2.1312466483088373;51;1.2566370614359172
77;0.5700779328799036;-0.0528947805179458;-1.6485030888240704;1.9115793585017369;-0.6004229280459124;-0.2625885457044667;3;1.256637061435917
78;0.1378793457242393;0.2713507555354429;-1.9190470178211727;2.7931238110177854;0.4701299904725968;2.949419260369325;27;1.2566370614359177
79;0.9398529375636774;0.3136591103062163;-0.8433335892706145;-1.582424760347992;-0.5397998145804792;-2.950918578448078;75;1.2566370614359177
80;0.1652047420725081;-0.1454049718594177;-1.6249780468673498;-2.298235152254392;-0.2655309201348345;-2.1434295883336936;66;1.2566370614359172
81;0.2548017346146806;-0.3096715415569362;-2.4173276622086077;0.0924961037192549;1.095330400721297;-1.7753290756997713;11;1.256637061435917
82;2.1210331077686444;1.0777617357614664;-0.7091122469554583;-1.158327651380632;1.827720527802713;0.5743038240085108;70;1.2566370614359172
83;-2.2452975732569977;-1.4570514062916768;1.0465989291806408;1.833470131109622;0.940743929956932;-1.7685676282723812;597;0.9400908307606048
84;-1.6030304049675463;-0.4758535827934012;-1.5599982683909597;-0.3141999475514374;1.7664059107102177;1.6092423952020296;35;1.2566370614359172
85;2.4091642948646603;0.9068300794756984;-0.250105594173489;0.3678265382694605;-1.0483787105052331;-2.019405190277042;64;1.2566370614359172
86;1.4230661041925436;0.50278503015366;-0.2827736230996504;-2.207737191939121;0.1669047982742514;-2.6265752362834767;79;1.2566370614359172
87;0.1055601373910764;-0.2268314332396966;-0.1348655095557305;0.3468200869661557;1.152513038380632;-0.223118982685032;0;1.2566370614359172
88;0.1041216272352744;-0.7317708137118405;-0.7797483411859495;-0.1254466766500019;2.494214950685734;1.3586624446981954;8;1.2566370614359177
89;0.4333347197816596;1.0699156867987432;0.5954194600358219;1.1086958528945507;-0.0655061213040422;-0.2144401345228057;16;1.256637061435917
90;1.6657378502700562;-1.1704703283530546;0.2108086535436477;-0.8837445457719867;-1.78752137219762;1.623041481123262;25;1.0068150121550756
91;-1.1014728048610694;0.3254417357418503;0.5099620048075677;1.055494697029024;-2.693224633420266;-0.9643177190344988;45;1.2566370614359172
92;2.19501512534137;-0.7125609416564048;-0.626394967321221;-1.2757428293565407;-1.98589109135092;-0.9001390890280254;23;1.256637061435917
93;-0.6165949565273867;-0.9780934148727868;-0.3657682439112756;-0.3289704915705508;-0.0165119036961472;0.0;0;1.2566370614359177
94;1.945341583477732;0.2070124571570569;-2.5358957619460565;0.0817615637581259;-2.6556958317418844;-1.515383734101439;53;1.2566370614359172
95;2.283915455768617;-0.1538517240822006;-1.2487397863781824;0.0735538883978495;0.7859747502214105;2.2370156530076963;54;1.2566370614359172
96;-0.3811463475321173;0.4097584453561783;-1.702736181765524;2.368007986573843;1.798362110898038;1.2825772721018365;27;1.2566370614359172
97;-0.0134901673723363;-0.2722233122937715;1.498763695189497;-0.2592960653402436;0.4587622368036026;2.729692976679794;29;1.2566370614359172
98;-2.7271663925936327;-1.0907216285704624;-1.254086367512798;-0.0533644473082823;0.6339897030188573;-0.7245468573147811;19;1.2566370614359172
99;2.3773101620482917;0.6358621618133283;-0.6293216571966473;-2.5297722914282774;1.615296265588252;1.167180927802198;70;1.2566370614359177
100;-0.2429879166116904;0.366798737255887;-1.8256187317979256;-0.1409562098245207;-0.3956947752443658;0.7904580403028393;2;1.2566370614359172
101;2.424340071779495;-0.6217906204403227;1.5093148560615604;0.3866776208909072;-2.727812121960587;1.5400344035891864;65;1.256637061435917
102;0.2638253615505042;0.115631610207073;1.1366008054281416;2.4731494160737832;1.2221910742500086;-2.5711926660848534;76;1.2566370614359172
103;-1.8453098311911549;-0.3095706301566717;0.9965764025246708;-3.0100112977467006;-0.2975417719882972;0.7991127691104525;74;1.2566370614359177
104;1.600558389974859;-0.9958856465685966;1.53535137772073;0.9137900245219808;-2.116128981192787;1.868503131327631;101;1.2566370614359172
105;0.0794483422204521;0.0893358003580075;1.6604327044294789;0.9029699327980224;0.2856452716754187;2.910815982052539;97;1.2566370614359172
106;-2.160944391729721;-1.4943638200106495;1.104853624843861;1.0060887282568105;1.3851880295529762;-2.596302414120937;83;1.256637061435917
107;-1.1724921995572084;0.3529754032496879;1.314671316875233;-0.0126159517853976;2.143728173059001;1.7256247543558685;56;1.2566370614359172
108;1.189755180867648;0.6308396598023214;-1.9439122229205088;0.2484092220881995;-1.077433660503135;0.4215198956028951;18;1.256637061435917
109;2.340355346895176;-0.1038251853329672;-0.0863075722581826;-0.5758955028344136;0.863654185467815;-0.7054005026073585;32;1.256637061435917
110;-0.4378723095545075;-0.3188113683293391;0.7259944046887818;1.0438061025689842;-2.871142004017082;-1.7675909060007058;91;1.2566370614359172
111;-1.6679756662335914;-0.8549866728101907;1.194419148019937;-0.8573937862290283;2.3516483631463974;3.018850664340236;56;1.2566370614359172
112;-2.311516538966739;-1.0113553985848438;0.4987210491289389;2.105180024598695;0.9088482451657168;0.4568884669237382;60;1.2566370614359172
113;-0.8402767280693587;-0.3860078612062317;-1.55994163343203;-2.3898413809869226;-0.8930186490429589;-1.8211072638381505;80;1.2566370614359172
114;1.3585108318005088;-1.5594627784006596;-0.2490603637965712;-1.1708489751030826;0.6915806853009123;0.1048160457425294;32;1.2566370614359172
115;1.9246031516690247;-0.6935253912473437;0.1990258413654088;-1.0416384470155626;1.7074200418458665;-0.925100334444955;109;1.2566370614359172
116;-0.4177210937428115;-0.7401988406595797;-0.7953961196232883;-0.0241145342232088;0.1676549860179466;1.892558792942025;7;1.2566370614359177
117;-3.47004368656532;0.8335927970198606;-1.2375878177570503;-1.3822437496347524;0.178540633616157;-2.9572667897949967;43;1.059464847611597
118;-1.9203268225523067;0.1363258523701629;-1.9486239318249785;0.4573989872279976;2.256349692074024;1.2668153293972984;84;1.256637061435917
119;-1.7082820171344046;-0.9150654282620634;0.7728941424059144;1.235567789417995;1.9349894699374364;0.4248985786376615;60;1.2566370614359172
120;2.3790127251406057;-0.7057530612775712;-0.6708099287313762;0.372605849254595;1.6979831707677924;2.1355081521280868;95;1.2566370614359172
121;-1.8101166728492928;-0.6614915325260475;1.7548430749576431;-3.002755195044632;-0.6696126511247956;-0.0614638327126182;103;1.2566370614359172
122;-0.7070120274113412;-0.4125992095772406;1.1632096400174472;1.8009107385813987;1.0599440694547084;-3.107128533815682;76;1.1299151818879605
123;-1.1208423994567258;1.0805865754137474;-1.4138202277956358;1.8010173259663826;1.0528955031116924;-2.3797258305311644;9;1.2503592536449546
124;1.107220624253164;-0.3642272021399207;1.2230449392234377;2.751426539172901;1.1717917901959365;-1.829501475698428;102;1.256637061435917
125;-2.830343378661869;0.4393771497961676;-0.0933634366251218;-0.2300515305475395;-0.8081744481232532;-1.1737545906046605;39;1.2566370614359172
126;1.0617592770807958;-0.4313597237972684;-0.9523958964911522;-0.6256702700988812;-0.2755125129997535;-2.8409141869630434;79;1.2566370614359172
127;-0.3329100656387379;-0.6376116151454619;1.825257111525752;1.0810869620445356;1.6536416659058857;-2.8249514903086808;122;1.2566370614359172
128;-0.4089031460191213;-0.116615027161081;1.1501903341378106;-0.1932646989000775;0.1850612385855604;0.0616372142327638;0;1.2566370614359172
129;2.047679857486492;-0.7931493518449388;1.072136789563532;-0.6504115874149885;-1.4989174528126088;2.938292438385238;34;1.2566370614359172
130;0.6947842565581939;-0.7168973395631645;-1.9829469551677896;2.843568982819117;1.691662344933636;2.3113591537982385;44;1.2566370614359177
131;-1.6438992322070063;-1.236622951943788;2.512173630950017;-2.3575400783132925;-0.4704884184072556;-0.1625007140189356;121;1.1824193065545496
132;-1.834507223846288;1.362650277230886;0.6136301161403517;2.7196880958620984;1.071680687078824;-0.94755404072464;38;1.2566370614359177
133;0.1833286405832803;0.0511485854883687;1.8611417217162551;-0.8137035616054455;0.6893984611691556;-0.1739499107224199;128;1.256637061435917
134;-0.3799143150161463;-0.763995260806171;1.3451343092261296;-2.0839715147006075;-0.2153657262255503;0.8579564023753059;74;1.256637061435917
135;2.516449337322637;1.4762041994891837;-2.444635596024262;-0.5076971733844279;-1.4679437556873658;-1.624549452238664;53;1.2566370614359172
136;1.147694899999017;0.3804878130310001;1.9800348917382429;-1.1956688592372031;0.1887195307403938;-0.53444627579194;133;1.2566370614359172
137;2.5994507441786263;0.7351785424129244;-1.988096813646724;0.436206477869793;0.7381344045846856;2.3305301337323288;95;1.2566370614359172
138;2.573598516292974;-0.4773230472300968;0.5117234936142395;0.1445187335034379;0.4081488798801813;-1.2541361075908508;109;1.2566370614359172
139;2.732303204083251;-0.0943895440868353;1.1867233110758229;-0.4587468913586545;-0.2937112441891743;-0.945672727355782;138;1.256637061435917
140;-1.3829319681036054;0.9601704877757202;1.369596677708516;2.4799159767864243;1.779177666495164;-0.6582472408099609;132;1.256637061435917
141;0.1466309595031044;-0.0755961430605224;-0.8482940660217063;0.5346434570273823;-0.1180170396892759;2.542427646422661;116;1.2566370614359172
142;0.2577633684089794;0.9886551385751354;-0.4443107629496673;-1.6368156909963678;-1.1355466869826307;-2.57518069054357;79;1.2566370614359177
143;-1.7599746920723678;0.845622239987736;-0.3282805718009354;0.0132533708176078;-0.6555740618839788;-1.220382457526829;125;1.2043955205071546
144;-1.7195406399666897;1.054665699006799;-1.0017607948488942;-0.4474048384183109;-2.7357602063834885;-0.3013275985782186;69;1.2566370614359172
145;1.3086074036418027;-0.5206142322842038;1.460647304318013;-0.9875681719687924;-2.303534714417212;3.1541843106116527;129;1.256637061435917
146;2.429227142255684;0.2461245504503239;-0.0331632181853518;-1.6061212235767055;1.57348839300553;0.3088370989189851;82;1.256637061435917
147;-0.206036392599159;1.2141137533539197;-0.9921238134898496;-2.2483274757873226;-1.722568119167586;-2.032451535476065;142;1.2566370614359177
148;2.5306932972776868;-0.1623836018306936;-2.033155951854022;0.9369041904767677;-2.990109218525145;-1.450591103443413;94;1.256637061435917
149;-2.49212943275403;-0.1616280672845129;-1.2799543912713276;0.6689500946930742;-1.285238719818227;2.5186844055651925;63;1.2566370614359172
150;2.6166468522069226;1.1962680531145984;-0.2503375646373554;0.6344646972612704;-1.8156131020472623;-1.2556966229496689;85;1.1703925415006748
151;1.6893119062913804;1.0796639923445646;-2.2255841549352877;-0.1533343246297697;-2.404479362796865;-2.248453800505279;94;1.2566370614359172
152;2.164055465380659;-0.0381965035662102;-0.9374426974067328;-0.7925532724971184;1.6037781023982414;-1.1793128671353708;109;1.2566370614359172
153;2.191667321569974;1.1068118738288155;-1.841782223385405;0.9085481407254218;-0.1629200763741324;-2.094305244783861;64;1.256637061435917
154;-1.429749440525768;-1.126334325198855;0.9309718983054132;2.673905540589677;0.6950397878306251;0.9389670592040512;112;1.2566370614359172
155;-0.4665704336598487;-0.9814157474075452;0.7151068603634363;-3.0282239945206832;1.2428934584053677;1.0127673015969394;74;1.2566370614359177
156;2.582192192458865;0.9723396210049357;-2.3169378186085496;0.2897307429781374;0.5222669686311142;-2.669070539963013;153;1.256637061435917
157;2.10569271795431;0.666945029212746;-0.1809107828685727;1.638670156680793;-1.6696065589531095;-1.198136916115695;150;1.256637061435917
158;0.1095991416693118;0.3583406730338745;0.163460552682082;-2.860437730757456;-0.3943778169411553;2.198883317349618;46;1.2566370614359172
159;1.1087100257268296;0.2060217128845637;-1.6110766082017465;-0.3759924360246662;-2.474734533665519;-2.4644523639332294;151;1.2566370614359172
160;-2.0630943452368298;1.3289567964514442;-0.641165484446268;0.9889650879597058;-1.045743732572537;-1.447318992957131;143;1.2566370614359177
161;3.113290704253573;0.6475014968112166;-0.9988035269947726;-0.2931139323097407;0.8468773699739869;2.45720616858186;95;1.2566370614359172
162;0.3222853292649016;-0.2271187275271215;-1.1833174263851471;2.426297618384642;-0.264104004371684;0.2049068081611559;77;0.9511835101707358
163;2.6042145845453897;0.9247420352241364;-2.05677955692541;1.92255616488359;-0.1269599320627835;-2.642085105120929;153;1.2566370614359177
164;2.76794806584904;1.072904162243551;-1.4251922309573473;1.1700150348691782;1.4808924079559287;2.158307187049961;137;1.2566370614359172
165;-2.459273830357382;-0.4146634548390818;1.2436550425628383;-2.876020660921302;-0.555856231155341;1.8215670248928977;103;1.2566370614359172
166;0.5332183506320282;0.5462211632815515;-2.17783191706978;1.1088836765735772;-1.6084434480465528;-1.367782243473407;4;1.2566370614359172
167;-2.1598928665372843;0.7410272617706833;-1.5476706790932038;2.437596429247815;0.91904196281754;2.428438566115356;21;1.2566370614359177
168;0.1821916812913765;0.0231440656198135;-1.2583765597829035;-0.777276659991761;2.4241379243512364;1.2536337280848078;88;1.1161991435808407
169;-0.3976798498330718;0.8608283438665942;-0.1629095862233582;0.3060795046548761;2.6622639838908477;2.5473218131521014;17;1.2566370614359172
170;2.4220956873212067;1.0681866675158156;0.247300032831645;-1.6312009618791992;1.091295732375396;-0.4602541387119638;146;1.2566370614359172
171;2.0764826753376298;-0.0727360074969019;-0.3037202836419884;-2.8616699491507114;-0.0955751211556923;1.4382167939991295;59;1.137099647307781
172;1.931699537573146;-0.4383055971816802;-1.2339589509835982;0.0112068108128308;2.446977542097882;2.682116618781129;120;1.2566370614359177
173;0.3847368952247378;0.7505530584156924;0.8965232636152289;1.4627931806556158;-0.103844825928987;2.90274737085404;105;1.256637061435917
174;-0.7809619652434807;0.631256844013941;0.8652530921177353;1.8020954618979963;0.9297531763121344;-1.533065772320971;76;1.1500855649225503
175;2.750144946098572;-0.1307808224186926;1.2534738330743205;-0.8833416549257443;-1.0913044409067243;-1.8155019050635344;139;1.2566370614359172
176;-0.9083226149514564;0.3782536135074257;1.6192480761491457;2.895374630252185;0.8055242168385831;-1.55883158674571;76;1.256637061435917
177;-0.0176702868515709;0.8685240393965944;-0.6385779312751023;-1.5047416486809866;0.4819883247424152;2.1296179259752708;42;1.2566370614359172
178;-2.0771627339533487;-1.4115803966879008;2.275651078640735;-1.7018743345214102;-1.3994439312266729;-0.0529082661643346;131;1.2566370614359172
179;-2.909353198714485;0.2647710881698186;-0.6685699744673097;-1.908852221028556;0.7590192429604853;-3.0134053729321963;117;1.2566370614359172
180;-1.9797689336183528;-0.0766046205296633;-1.7549838116509924;0.4995272614903518;0.8935644121243613;1.0182042488607148;55;1.169236348826776
181;2.736446619160037;-1.40187729415122;-0.090432767539885;-0.8836127953989477;-2.591954026555328;-0.8501602604681764;92;1.256637061435917
182;-0.0121806527690624;-0.5339125082901226;1.9185238066182693;0.0071428896807822;2.1745430019072103;-3.004180657313636;127;1.2566370614359172
183;1.2573256952870075;-0.207638759731057;1.835171369202976;2.838892130002908;0.2622987531315875;-1.261559003963025;124;1.2566370614359177
184;-2.396919846273609;-0.7768486253881685;1.9705530687218684;1.2401440815036553;1.6291498246597047;-2.215658956897422;597;1.1704074037409269
185;-2.6899360016535843;1.4667003024754592;-0.0554723227032527;0.5127932273047222;-1.3376135820541066;-2.16304857797835;160;1.2566370614359172
186;-2.377645705148069;1.2571583407223796;0.9829017818572986;2.2003743358523398;-0.0718781207596037;-0.4176068126555503;38;1.256637061435917
187;2.615481460568572;-0.1547277103629486;-1.7125285185522838;-0.1795950411316497;2.146370878625969;-0.8778348272529771;152;1.2566370614359177
188;-2.3620701893121385;1.1867394214021854;0.8182400580507646;2.621852799342949;-0.5942232863289674;0.6294525136557564;186;1.256637061435917
189;-1.673270198700468;0.7618168292921603;1.0786523148744294;2.8391684618689257;-1.2273431080776185;-0.0094924905879685;188;1.256637061435917
190;-0.2050625315127779;-0.92919755204707;-0.0133020104064624;-0.3104596766380236;1.1221258917646744;-0.9590635092903816;87;1.2566370614359172
191;-2.9433652051285404;-0.6563327702751562;-1.259193444165119;-0.1762100025566241;-1.0591105103250609;1.914590319593179;149;1.256637061435917
192;-1.2417156441836004;-0.4838661724755044;0.8761799183404679;0.7670733615106237;-3.154433520393949;-2.619845989552191;110;1.2566370614359172
193;-3.0249480374411557;0.953647140289963;-0.6352159734358575;0.191173972126977;-0.2375329489470659;0.3639101467764422;73;1.2566370614359177
194;2.4396337786096773;0.3592474945960557;-1.598053488149743;-2.9357721294682007;1.607434265103961;1.7959875411830435;99;1.2566370614359177
195;-2.2918484291487977;-0.3198566871909399;0.5386131139103942;2.5559083811212093;-0.4821952312199152;-2.33708346385042;51;1.2566370614359177
196;-0.2841649362420544;-1.4963260169850383;1.6237704311978316;0.1117073636155337;2.712756392101106;-2.5666483075558992;182;1.256637061435917
197;-2.689108788801192;-1.612796366097576;0.3701978819152116;1.7439377382218142;1.7570545638660506;-2.848746198757042;1161;1.1813246343204449
198;1.858224853443757;-0.9704142415346664;-0.0740175380633234;1.272878352214431;1.8752347837591197;1.936005557959992;120;1.2566370614359177
199;-1.8046575545941816;0.2568015547484986;-0.4327336757680937;-0.875594441991983;-2.448589551114846;0.286634507530811;144;1.2566370614359177
200;-2.5230916594992494;1.081656214004715;-1.793991289628808;1.5752412972062495;1.458411584120621;2.9141807328535614;167;1.2566370614359172
201;-0.6161231601676278;0.6224975552605122;0.6875156257268001;-2.1711606144744757;-0.4363168359737239;2.679704950006045;158;1.2566370614359172
202;-0.9487707815981548;0.9286585141070004;0.3607146932238319;2.910448745277678;-1.513753821742336;0.6415487882221927;189;1.256637061435917
203;-1.4480990343653042;0.6542890043663001;0.5349719810174788;-0.6502972358487731;-0.2128947483139874;-1.4729542671831857;143;1.2566370614359172
204;2.989361599574178;-0.1411514482316264;-1.7617010976512368;-3.0106183654052634;1.1577563468319343;0.9060750759720572;194;1.2566370614359172
205;-2.751848505414224;-0.4144414594163653;0.2353655914719117;-1.8930924545514989;0.7700928119982636;-2.4884970100499992;179;1.256637061435917
206;1.8136215089059864;-0.8359108283874295;-0.977394019067862;-0.5471657300034537;-2.8053740998697814;0.380627995331133;23;1.2566370614359172
207;2.970477883448845;1.4007858506319857;-1.078488291035629;0.4741644738304236;-1.5085145708550045;-0.4770609694654464;150;1.256637061435917
208;-1.1245220425219709;-0.2426042181822332;1.687300195588292;-2.8823161580452403;-0.3906842822825228;-0.9762105122860468;121;1.256637061435917
209;0.880488747612909;-0.7850762861350125;-1.0679419441113545;1.091976993921085;-0.5155767150453686;2.6849331565719634;141;1.2566370614359177
210;2.8190513316965395;-0.5712065896621448;1.7014090746332762;-0.3524588511123555;-0.8614536610139291;3.1474446212151417;129;1.256637061435917
211;-2.6307148567725887;-1.247308792567927;-0.6676097837644457;-0.7480629208930327;-1.5078715245412064;2.418336654149557;191;1.2566370614359172
212;-2.7825320595121426;0.5535220689356593;0.5684828649994392;-0.8733403752664785;-0.4707243688056106;-0.4003930331008754;125;1.2566370614359172
213;3.278482318369241;-0.3770654242628126;-1.108330455184653;0.901504790404944;-0.6646208614165228;-0.9624831583571928;71;1.256637061435917
214;2.532616945020406;-0.1125781927541045;0.0958367072766602;1.8130572546844008;1.6224276029602087;1.998408622055836;198;1.2566370614359172
215;2.0521926648627757;-1.1060859132041732;-1.262404652660577;-0.1815363576852362;0.2476152146718797;2.750438042159133;95;1.2566370614359172
216;-3.348740447334774;1.5505545070991136;-2.0021725797331453;-1.922918365481456;0.5923853549802435;-3.00418994760401;117;1.2566370614359172
217;2.722535693245677;0.2403364119269573;-1.2354200751896085;2.525151578432926;0.0795832394832361;-2.769807655319186;163;1.2566370614359172
218;1.124340428632938;-0.1396553723677273;0.1986684764987311;-2.959421976219334;0.337103816616017;-3.127959109294291;86;1.2566370614359172
219;-1.1336173475304774;0.8949296573870918;-1.5548707082599555;2.8643875581854723;0.9651015113685726;-0.2178700237253076;58;1.256637061435917
220;0.6321589256254064;0.9515117180139424;-1.251759453278563;-1.540672390970846;-1.2774061848143283;-2.768021063098473;79;1.1169606794386606
221;-0.1709050088603728;-0.0607801337428186;1.4060094948294086;-0.983191234840388;2.444045729439289;-3.122606672133759;182;1.2566370614359172
222;-0.8607469826323615;-0.6725278359103148;1.909974475497674;0.2367653498341351;-3.0085403185758675;-2.784660308855157;192;1.2566370614359177
223;1.9718737519762584;1.1042148289775722;-1.6478354877508028;0.2998802296057116;-0.0043777001323697;2.9333644399173204;137;1.2566370614359172
224;-1.5009094096728466;1.371432685345962;-0.579034484889369;2.1701734296946924;1.7307034618211037;-2.619574153201384;123;1.2566370614359172
225;2.519331771098913;-1.129810668717714;1.6543725216457668;0.0748095523936532;-0.0643953127146891;2.549787833847251;210;1.2566370614359172
226;3.0550063222529813;-0.5621695482535677;-0.9535020500234024;1.6502634268604244;-0.3273007170161768;-0.0699948188893652;213;1.2566370614359172
227;-1.8157391522312687;0.6874050785163957;1.6932191363758526;2.8395502799433454;-1.1771505636815436;-1.0925854586254604;189;1.2566370614359172
228;2.088853474445645;-1.0035334921279493;-0.2435720308769257;-1.578252755075804;2.6282514586859222;-1.277627244995619;115;1.2566370614359177
229;-2.873783209478605;-0.9352763256505398;-0.4093029273552434;-1.9343734775524155;-0.1223899068255814;-2.2071206627713846;205;1.2566370614359172
230;-2.1045858403323447;0.9528986032677588;-1.0363034029314258;-0.0939595483118536;-0.7424616737806047;0.0237394696788759;73;1.172441053205478
231;0.881750018862387;-0.0549835828592187;0.2593472785454839;-0.8767260535115072;-2.05201440640655;-0.4817470973128396;23;1.256637061435917
232;0.2270137518424863;0.7599015970175895;-0.6313873063083599;-0.1552636189699057;2.5319681744306246;0.7610152995942989;168;1.2566370614359172
233;-1.0053128280363586;1.127164433360653;1.1382791013509104;2.254415266817426;-0.4207744778260994;-0.0681966238064261;189;1.256637061435917
234;-1.7530349847894442;1.327917930206146;0.8992054307197997;1.7447500662296362;-1.0234014054594165;1.1071794215556117;188;1.2566370614359172
235;-2.685959179371142;-0.6806507519889717;1.6922441989456776;-3.0766620256735564;0.5229248635218714;1.5940953216750569;165;1.256637061435917
236;-0.3188878670377031;0.8376282400029098;-2.4686030162492423;0.7573971609335279;0.6523385374854911;0.7566296846393692;12;1.2566370614359177
237;-0.5728372240208743;0.7498283587451878;-2.208301960977036;1.960402126221882;2.4862491553043102;2.011834350015968;96;1.2566370614359172
238;-0.7088916517083876;-0.5448419464772427;1.792618468563997;0.3616991920326534;-0.2310732246793238;3.0005690712682265;97;1.2566370614359172
239;0.6527816519741892;0.7372268514453135;-1.1821564762629488;2.212103063895263;1.0874385588682594;1.821698942740714;27;1.2566370614359172
240;-2.406981726305818;-1.0780727093535234;0.818907022445483;-2.442483922719699;0.9444230106686684;1.5657458157121689;235;1.2566370614359172
241;-2.225541042775;1.112849011881952;-1.391031738148219;-1.195803903370774;-2.689604357735227;-1.0797565346743077;144;1.2566370614359172
242;-2.3980740003749044;0.1894721510986748;1.5080950980974668;3.0504975456547;-1.8704456886379248;0.2795675511970755;189;1.2566370614359177
243;0.1849144453343253;-0.2562409941583203;2.3770971491966666;0.522543052917387;-0.0539891106746389;2.0892892123386053;655;1.0322995943471127
244;2.5966595728091724;-0.4998121354021504;-0.4191670816807014;0.3975192036651579;1.085427272225515;3.1602936723151727;120;1.2566370614359172
245;0.2203387030433984;-0.9634145053657344;1.8959683754944756;1.2031632456502566;0.6320934826586715;-3.1465748543284504;127;1.2566370614359177
246;-2.75594718983483;-0.0813248367564492;-1.398327764237054;2.5496768513401573;0.4532972199936897;2.97232226802087;167;1.2566370614359172
247;0.8498850014113218;-0.4970356621894151;0.3655808573740738;-2.5099085693038266;-0.6482616608427592;-1.827457047599293;75;1.2566370614359172
248;0.9291158039475532;-0.9487359366751998;-0.6873342119342812;0.2423384138081312;-0.9478449660258084;-2.975586263531999;126;1.2566370614359172
249;-1.9941558872836984;0.6048021510572971;-0.3654106008249697;1.039659300074368;1.6523458435426823;-0.4071191139817813;20;1.256637061435917
250;-2.7426057258131604;-0.8403721235381125;-0.5521638891186511;0.8169524917158759;-0.5805894450073976;2.605807949171357;63;1.147596791515845
251;2.0936264075041136;-0.1798603699333321;2.1603021975522783;-0.2347508437768014;0.1510812562832025;2.237884884529354;225;1.2566370614359172
252;-0.8560319131572818;-0.7819680231821956;1.9771360830132705;-0.335745179048325;0.8127710097355468;2.23027970015075;97;1.2566370614359172
253;-2.2400742677726;-1.3057517449489326;-0.2527066672453067;-2.772484451554039;1.4078195842342724;1.7314208828002224;240;1.256637061435917
254;-0.999152491643658;0.0688221844809463;1.3840095623343298;-1.828155404890804;-1.0794577622823844;3.0105858811122;201;1.2566370614359177
255;-0.2348013072115659;0.3347953166771668;-1.022149361056644;-3.0505026209748785;0.7021308111196487;0.2283186273481627;67;1.2566370614359172
256;2.978772544296264;-0.8648385548250273;-0.2377112344297555;1.297764884265732;-1.2445931851986436;-0.9669934480703326;213;1.2566370614359172
257;0.0362343848773868;-1.6568539755185343;0.6020178780460521;-2.7774437159971708;0.6944012310334102;0.3520180394376005;155;1.233751458960615
258;-1.3536362024597437;-0.3804969947349118;2.340873273130993;2.4403407814661398;0.7361562231306137;-1.8281258132628728;176;1.2566370614359177
259;-0.7337498853837559;0.6282071471312672;-2.41739058617316;3.000997542899975;1.2514695767432766;1.4875030826844078;96;1.193541711934294
260;-0.0955278852705555;0.0651057675595787;-2.547736554369433;1.2272927666884454;0.9395119814686108;-0.0326253237052044;236;1.256637061435917
261;2.830165180355006;1.0930309096188648;-0.6221360206812306;1.0681033888733231;-1.469306241909836;0.4727694487083387;207;1.2566370614359172
262;-2.3877803713249133;1.1093171409189169;-0.9097245260784595;0.7096347861632126;2.519279154104153;-0.5206704273792508;249;1.256637061435917
263;1.3501658595885444;-0.764719157909467;-1.733753664763453;1.060942678712576;-1.36957903929262;2.2553550424960065;209;1.2566370614359177
264;-0.409783324041173;-0.2217643970542538;2.0571231846989337;0.098675797100137;-1.339394695421496;2.8672601221848515;238;1.2566370614359177
265;-1.3524415215915218;0.0762918774190427;-0.1320000056784467;1.9311095182237317;1.698626447924288;-0.598718633788785;249;1.2566370614359177
266;3.093874069168022;0.18606118724856;0.096039183954098;2.0977701173615158;2.3177021035943155;2.7797367087626075;214;1.2566370614359172
267;0.8475578322009734;-1.033306714535519;0.3582154018590776;-0.2776593910970228;-0.5176524011186757;-2.8463754666147785;248;1.256637061435917
268;0.0059944230220407;1.5141214242698526;-1.679739327031079;1.756824026582808;1.256603945830521;-2.294520960810921;123;1.2566370614359177
269;-1.9057535537012047;-0.1669690576343984;-0.1743711489651762;0.4543515855861608;2.7514829396757747;-1.782507459203581;62;1.2566370614359172
270;-1.642885838425436;0.192619841460692;-0.8931374223461273;0.3876143565341825;-1.99288212688113;2.5724810991653424;149;1.2566370614359172
271;-1.325919379589014;0.7814269239684697;-0.0065940052677982;2.218395154352601;2.6078188259319783;-2.3016691427199234;224;1.2566370614359177
272;-0.2575464825429867;1.2580222432593278;-0.4691696027436839;-2.8138142675858955;1.3794857891171457;3.2406709699388645;48;1.2566370614359172
273;-0.0482087257975239;-1.084570144600667;2.6076188780032297;0.2957880341675035;-0.0826060051313153;1.2329691336562163;243;1.2566370614359172
274;2.545057769308361;0.1668857290537684;-2.075175981565276;-0.9980511397712626;-1.6637637164903496;-1.926552527400294;53;1.2566370614359172
275;-1.7750809546002977;0.7435015172262973;2.0071026712016864;2.8593473356093746;2.1135953576806847;0.1880347416221165;140;1.2566370614359172
276;2.0037536931941697;-0.6673703806009508;-0.938827920533168;0.0408561364079876;0.0606174278666541;-3.1213733040749765;126;1.256637061435917
277;2.450178437137958;-0.0874140795905854;-0.5046145620616922;-1.977667631654405;3.0972312727064737;-1.6797325605579612;228;1.256637061435917
278;-0.6945020295817445;0.3719068029110319;-0.8038223154045496;-2.9309451299856857;0.3821354771703982;3.1048566198641256;48;1.2566370614359172
279;-1.3694623783775626;-0.5614913818591215;1.9444005003648728;0.7420356644186751;-1.678010366890199;2.90546348897236;264;1.256637061435917
280;0.1846710114905493;0.0531007860299793;1.341370601289086;2.258225902276697;-0.5314448618464493;3.10080421851731;173;1.256637061435917
281;-2.023279375643691;-0.3589171853864518;-1.148901813124226;0.6547178878655628;0.8812673265410165;-0.9934702146098876;14;0.6937314169715806
282;-2.899719291599059;-0.4257791608699382;0.7531010960022914;-3.0912754662911777;-1.2271851368132851;2.6261542703998666;165;1.256637061435917
283;-0.8556583430373859;1.6447843480494884;1.0354062271213589;2.588828770145204;2.0522815539127994;-1.454671815808369;140;1.2566370614359172
284;1.4191129638603632;-1.5867147111943602;-0.5627949537928274;-2.0367045957349394;3.271283238906673;-1.5324071172204297;228;1.2566370614359177
285;-0.2148614096831962;-0.7859526013694588;-1.77482840617814;0.2527464119342947;-0.0062520160080938;2.5576576017068184;116;1.2457066734441111
286;2.1891563047873586;1.1938117755571722;-1.3609021433886217;-1.2440640518922244;1.5914866407763315;-0.1740264498488915;70;1.249824791350956
287;-3.0034116912608018;-0.924555337017756;-0.220292400764235;0.2302748149508687;-0.8853046885363056;1.5604668702403712;191;1.2147864387288665
288;2.2062121587812693;-1.1906788569013869;1.2686333392536704;0.1202181934759603;0.3439970222391508;-1.8521904243434892;138;1.256637061435917
289;1.986178557458542;0.6324505291384501;-1.1157739128293438;-2.861028655653194;-0.6930191871689418;0.1579749978730445;59;1.2566370614359172
290;2.481107907602289;0.3334572416491794;0.2165946541689666;0.0875751790905058;1.694384945875181;3.179239138099132;244;1.256637061435917
291;1.0694138433239866;-0.9762485533557852;-0.6752770396643515;-1.4950986931233332;-2.9128824927707404;0.4453377415577452;206;1.2566370614359172
292;-0.4631415164279369;0.7091708060547222;-1.2878116309360257;2.4870883123590235;0.3320670320529715;-2.4292367320351484;123;1.256637061435917
293;-0.1728033469906883;-0.922068088953633;1.4545733220728807;0.0571663815440993;0.9886482367966082;0.3327869168537946;128;1.2566370614359172
294;-3.020812321412404;0.7986754258932486;-2.583265096404823;1.650151872167462;1.0965874108452898;-2.914876290486946;33;1.2566370614359172
295;1.7565452036414937;-1.033338780628314;0.5145506402061775;-2.7848104178836515;-1.0120648335283675;-2.3167086965624706;247;1.2566370614359172
296;0.6151060796134197;0.3069085843239149;-2.5787142072941656;1.369716571200434;0.3115009235261631;0.3445204313296735;894;0.9842771507235596
297;-2.7108136367572477;-1.0128941714397302;1.4048251474955225;-3.180312251747731;-0.6475029955501731;-0.7613709507977335;121;1.2566370614359172
298;-2.255493867324176;0.5215888681269866;-1.697272691504133;-2.030419203285577;-2.457712986245244;-0.4596669070018523;241;1.2566370614359177
299;-1.271451316394111;1.3548601560779536;-2.2724494411985248;2.2677434190590047;-0.0422320026685967;1.9785000321546995;21;1.2566370614359172
300;-3.135620145575312;1.0809311201830445;-1.7867980806514343;-2.4446175907257683;1.044955064000664;-2.115485993738784;216;1.2566370614359177
301;1.1125831288488932;-1.3284600167876686;1.6796227687701963;-1.880083603435516;-0.7589627694006129;0.8585812759203342;776;1.1897783357921234
302;1.425410164463397;0.576364817006839;2.727354702400941;-2.0193429028533574;-0.2645858779208631;-0.3887359044597539;136;1.2566370614359172
303;-1.050022514205301;1.5709488570870231;-1.3711645557785066;2.9567658757795696;-0.4171022910247561;2.21475739053258;299;1.2566370614359172
304;-2.557683618679706;0.8729429156448457;-0.4962680932239401;-0.5470574732052124;2.008086838168424;2.3567978754477816;35;1.256637061435917
305;1.3276038701460178;-1.711371498570917;0.6970636418547609;-1.1496870279097204;1.2489411054867998;0.6954564647482847;114;1.2566370614359172
306;2.536437248480784;-0.6218043331401533;1.3496650607232523;0.808324914904274;0.5095226979300238;-2.651574012648008;288;1.2566370614359172
307;2.33897184469944;0.1488870107853512;-2.272310420057363;-0.9507627819480772;-2.3528831876692924;-0.4800571110588583;53;1.256637061435917
308;0.7036072069335527;0.919482226900288;-1.2690503275167435;-1.968123586583597;-2.449230032426871;-2.897718133902922;220;1.2566370614359177
309;-3.044900014245417;-1.041420069018088;-0.3831699439450647;-3.0315239323928167;0.267848850998799;-2.633595641589468;229;1.256637061435917
310;0.5932486235613325;0.291608969770338;-1.0546567364198258;0.4290674103854338;2.571625492773081;-0.0777565841409471;232;1.256637061435917
311;0.5720151933879096;-0.5743456953384255;-0.3683448661530479;-3.3649868687783355;-0.1010746261950785;-3.096054308400831;218;1.0830623801327397
312;0.7448995028726701;-1.1926648166128897;1.1694692931654482;0.7088507768284394;1.324869493859527;0.1213300596707434;293;1.2566370614359172
313;1.48617137570196;-0.6678933186661878;-1.6425652447550516;3.062285599573808;1.0748908101210168;1.6739127290845015;130;1.2566370614359172
314;-0.5117754007632802;0.6105067967404874;-1.04346093691342;-0.6323460758225153;1.5344529493111587;-0.4942620961091283;356;1.1302407864056463
315;0.9374509384781462;-0.7055441419555326;2.241836677545926;-0.2895466252232109;2.5077425838521687;-2.417408738050973;182;1.2566370614359172
316;2.8213295514474765;-0.5054985090309738;0.3537785575675642;2.188393941114078;0.6400743161504792;2.1659530620258955;214;1.199267313752565
317;-2.252900295706097;-0.5213265999554442;-0.4367730461005983;1.901819262465007;-0.6812265037453955;2.413047799606378;250;1.2566370614359172
318;2.8112522457996785;-0.8565853000632273;-1.6382711050730754;0.7493593030294711;2.3455736534085947;-1.2520731806200107;187;1.256637061435917
319;2.901303626957188;-1.1398272135503815;-0.1606782369209928;-0.2773658946385785;2.028388350990574;2.7065277265873684;120;1.2566370614359172
320;0.2584835863853573;-0.6067964453177122;-2.1901896224075235;1.9226570572412407;1.5435203621442266;-0.194373799380141;260;1.2566370614359172
321;-2.064175080608996;-0.5756586051911863;0.5926097593294705;1.8797046409742704;-0.0603069527854566;2.721119910004033;317;1.2566370614359172
322;-2.60806133572023;0.5032637280681421;-1.3598334999881798;-0.9625341425695864;2.579019189452632;2.799071844593374;304;1.2566370614359172
323;2.081067597147926;-0.6704727764783336;-2.2441382325938357;1.13135526218682;-0.5808793929911329;1.869946813825292;263;1.2566370614359177
324;0.369361763905307;-0.0811208077732764;1.6213606849983333;-0.5726730557824149;1.483036034136137;2.246299799538787;97;1.2566370614359172
325;-1.0820553622407667;-1.206803047018408;1.4596353529405677;2.904352245557676;1.4324042971233268;1.6975665353749203;154;1.2566370614359177
326;-2.9661641721740626;1.2616900817276422;0.1617257599677686;2.9548295466268555;-1.367682027941519;0.8911137445728349;188;1.2566370614359172
327;-1.9668327952016704;-0.5188251557931883;2.047695163094664;2.787882586921626;1.4915366074287222;-1.1904317432291829;258;1.2566370614359172
328;2.326316064349703;-0.2690443294545976;-2.190156812118076;1.1811399601422783;-3.1554967107985576;-2.6398500054952283;148;1.2566370614359177
329;1.0206447781962191;-0.7055952120995154;0.7309603850823154;1.219956532294219;2.2245062949117904;0.1760924384007157;312;1.2566370614359177
330;1.0902932872525923;-0.5222798133588717;-0.9488387419868952;0.6796072320362666;3.094329059638418;-0.645631294067715;310;1.2566370614359177
331;1.2893062462531495;-0.6352728003339188;0.1263904960585206;3.051213092624485;1.5217677124396112;-1.5896896272822432;124;1.2566370614359172
332;-0.7376382157551847;0.0332970513664076;2.119241228235196;-0.8756550774583673;0.4893675475139348;-0.1430872714407066;133;0.9797534599313412
333;-2.6107408174466085;0.3851302852253444;-1.8978850885906176;0.0590097331588374;-1.210002291843849;0.1512782820776512;230;1.2566370614359172
334;-0.9955803672098054;0.943390654042884;1.3034268101274484;-2.653074872457145;-1.3655725648122532;3.223674003727086;254;1.2566370614359177
335;-2.5527856245583083;-0.8479810500228763;0.9822178189199526;-2.470402780292982;0.3688861380450142;-3.035773758998748;205;1.256637061435917
336;2.936500640503853;-0.1070814414974844;0.8353570098503248;0.4073543946412705;-2.9561702549409445;2.2783490877107653;101;1.2566370614359172
337;0.124550768279943;-0.4885041690198446;-0.8982084046527118;-0.1966815442040594;-1.7193971288275842;-0.471254458468748;13;1.0783792164034998
338;2.4370633579797616;0.0883583244438626;0.8655308018571954;1.7036578530378703;0.2729518845046492;1.4972438998104138;316;1.2566370614359172
339;-0.3495602741406198;-1.543606685773407;0.7486701184144768;2.8326530548236954;1.754862824134145;1.1367108331606957;325;1.256637061435917
340;-2.777970812604723;1.6310461507180298;0.2013285009114044;2.9285024358578933;0.2688474524739574;-0.8785009042519347;38;1.2138484632244524
341;-2.8348325716539837;-0.3906125001343449;0.7374451875957903;-0.3418985524536903;0.0372561566565546;-0.0598223585699564;212;1.256637061435917
342;-0.556130421531313;0.3961597821668396;0.7187788742767205;0.3282949033627532;-3.04165442544974;-2.943331966910611;192;1.2566370614359172
343;-1.936541666845985;-0.4168808950213101;2.118998681196139;2.7480403091303613;-1.1402654881885186;0.2547905488441995;242;1.2566370614359172
344;2.639617934197042;-0.2725914501853032;0.3070675864435592;-1.69809469022669;-2.260394857984369;-0.6495275538802809;92;1.256637061435917
345;-0.0223985026398452;-0.7489042540210916;-0.6138786526902146;-2.7098302339463505;0.9475011525360872;-2.133339437804169;66;1.256637061435917
346;-2.85364336066777;0.4481403441402662;-0.6822084281548172;1.1857011467267278;-1.7979499679426378;2.9539109653865303;149;1.2566370614359172
347;1.651763259291229;-0.0051839679360614;2.016260476206942;-1.4727295030391907;-2.0637511223793488;2.3833868530725386;145;1.256637061435917
348;-2.581924426508574;-1.1584856498445937;-0.4224473443134207;-3.241634076176545;1.3613581717233532;-2.3024848777840856;309;1.2566370614359177
349;2.036885662226657;-0.8311567381330175;1.246580588781096;-2.626680819737562;0.6082154664361754;0.2922951698240315;50;1.256637061435917
350;-2.7415271484832933;-1.245026158574451;-1.0117911439511296;-1.913685011304597;-1.5389870202229747;2.1204301430839747;211;1.256637061435917
351;0.2905728994175955;0.0854379426914041;-2.1941318229049487;1.0864094259691388;-1.3996055844852977;-2.4918617249490334;166;1.2566370614359172
352;2.583407480998475;1.006321679795054;-1.841033182125264;-0.1663640734582012;1.4717758091117537;1.92383799543651;137;1.0780181696404596
353;-1.0918620622964867;-0.1827513086260722;1.0244125452770498;-0.5569261544602218;-0.0028572489269561;-2.1506042228387727;203;1.2566370614359172
354;-1.216997117076529;1.0972854064473387;-1.0596883072060308;0.4191818162639751;2.411244250479561;-0.2211125709692998;262;1.256637061435917
355;-1.0737482046066524;1.4488573646597795;0.2562171464627201;0.0568447454216782;0.2606806264768847;-1.547998295478416;203;1.2566370614359177
356;-0.347267629432945;-0.1047004517664365;-0.7430340122501888;-0.30986279014729;0.8485865995634597;-0.7666507225075285;87;1.1869575915813602
357;-1.5912384752801807;-0.0615642033629534;-1.082953175820125;2.957989168541941;-0.6617778098597857;-1.822332267508525;61;1.2566370614359172
358;-0.6147619501960649;0.8545742012806744;-1.6068668547512477;-2.12454297877034;0.4553940074506306;3.3030449962812045;278;1.256637061435917
359;2.187342474843889;-0.2070424534698888;1.3156921774668933;-2.692063857960968;1.2698323003613623;1.140936803895566;349;1.2566370614359172
360;-1.1803444860502703;-1.1313038422534916;1.130055280089429;0.1238698688365132;2.8627683101936245;2.8271824884709984;111;1.256637061435917
361;-2.9108523966541857;0.5183182726855943;-1.2585561163744243;-1.3307576424889498;1.6435471397099803;2.3789722687457107;304;1.256637061435917
362;-2.286925840799988;-0.3640768281514191;1.3413839002384298;1.5406724329431554;2.567314113387169;0.7779080531297201;119;1.2566370614359172
363;2.911005466500666;0.3229264764000711;0.4230678950953994;-1.5025470271203245;-2.780564452727592;-1.5597871559449323;344;1.256637061435917
364;-2.8512478853065413;-0.9102512428466298;0.9818425220819488;2.5649036655283277;1.859418658452484;-2.82218796365765;1161;1.2560666904648454
365;-2.885478247628542;-0.6476385192429451;2.1807659580187164;0.4557837681135153;2.3199005167986773;-1.7829869536764205;184;1.256637061435917
366;3.227165566374484;-0.6737934266379378;-1.3929990689065854;0.1779452087742753;0.707763377988798;3.2704658601202192;244;1.256637061435917
367;-2.9340128171676425;0.4846963450024047;1.8869373156271512;0.7098826518880426;2.585399642058213;-1.512418005698813;365;1.2566370614359172
368;-2.6007221627871284;-1.1415258812695377;2.394111895004852;-1.496657460213012;-1.005975210958142;-1.063417159253048;178;1.2566370614359172
369;-1.062473413636492;0.5571426071500825;-1.8246689200569293;0.7596519725760753;3.135354009742298;-0.4161886504365888;354;1.256637061435917
370;-1.1287738309530089;0.5302566896592635;-1.5662941952855458;2.61644587129851;1.5667675735045823;1.5272022836870902;96;0.8759462912365268
371;2.861961455338726;-0.6103384016344761;0.2290752812799081;-3.061034259481175;0.0371906089926783;1.6122172721171997;171;1.1302713814547347
372;-2.363716925357103;-0.3547150594397882;1.762739957560219;-0.1822552029462404;0.1583953469365626;-0.5741258273119845;341;1.2566370614359172
373;-1.2413548858959924;-0.1339940425773714;0.7368160036010012;-2.385905078188713;0.788899353020423;0.1816105253091476;74;1.2566370614359177
374;2.736598206860018;-1.0907895655208033;0.2190227600149494;2.747210083660419;1.1574448660168997;1.3714187389169314;316;1.256637061435917
375;-1.7859704595406232;-1.0185064163184865;1.0348157726810403;0.1739571086636656;-1.5757186388043838;3.095920205312628;279;1.2566370614359172
376;0.1277429933699322;-1.019181963920426;0.6553341713701202;1.0011806778074206;1.3274764519066558;1.8922380779632983;29;1.2566370614359177
377;0.1825989267533269;1.5504764881483153;0.1642063679295171;0.1824036957594503;-0.4652223241527833;-0.5000879044796439;1098;0.9640957799926664
378;-0.6147674113884263;-0.3097112240918846;-0.3269943120904438;0.9268749418706588;-3.114288162990133;-0.1559515685966963;45;1.256637061435917
379;-0.6814456562573967;1.1175278314020245;0.8728681206898521;1.4149160869582482;-3.1733110364515915;-1.49718353405082;91;1.2566370614359172
380;2.4230975283406044;0.3552164472124532;2.560189136229255;-0.3889336274237515;1.1363854009338583;2.0653388544421567;251;1.256637061435917
381;2.4447574282956857;-1.3024992109155895;1.916392346836528;1.5013592629357655;0.8252871644763815;-3.10566912978246;306;1.256637061435917
382;1.205737029913544;0.0625011598253372;-1.3918702277739117;-1.3546153655379078;1.843144761126614;-1.4455982157857343;152;1.2566370614359172
383;0.2913451537728833;-0.5455104677110987;1.5997085426921809;3.1850389014684155;1.6693430126275477;-1.2788946026846777;124;1.2566370614359172
384;-0.4457952216185155;-0.8633870481134435;2.5894852189407804;-2.1257422702215454;-0.3368332756559144;0.854901104300356;134;1.2566370614359172
385;1.70797774770681;-0.9938274383063;-0.0408837729757862;0.7866168910858572;3.2984485263395493;-0.9582770989746208;330;1.256637061435917
386;-1.9139633054680216;1.3800637565744454;-0.9495074469897444;-0.2931901674597291;1.354658423211113;2.815868786120267;304;1.2566370614359177
387;0.7475332052947056;-0.3822839069961187;1.2591715615425303;-0.1849690017915787;2.509096002022265;2.1408038260176854;324;1.2566370614359177
388;2.5993812820928897;-0.458887757044267;-1.8407585716621984;-3.183705854883331;0.1795272062698226;1.483096808281952;204;1.2566370614359172
389;1.4076136611688934;-0.375370736409512;-1.9866233582709985;0.4763481060733064;3.432227175766264;-0.9529359831643296;330;1.2038259789102332
390;1.966442130825662;0.6130451121484876;-0.2760006327901265;0.2957828774951604;-1.2342682485063317;-0.3491600623831781;30;1.2566370614359172
391;-2.893245750011411;-0.969282520664253;2.078711451780038;-1.7781163155459665;-1.84679926607613;-1.8238231437917871;368;1.2566370614359172
392;-1.232386883643789;0.4763968409920874;-1.5470528572074949;1.3406326456140143;-1.119525135026558;0.2146996993855329;15;1.256637061435917
393;-3.1694107448363646;0.7431883110739388;-1.107661261659946;0.4441346417569393;-2.428252384383246;2.4399438171402643;346;1.256637061435917
394;-1.898185312910586;-1.3394860061496376;1.9290156439673476;2.267968290757543;1.534152938689715;2.207280826481323;325;1.2566370614359172
395;-2.47609038524526;-0.4713805608573482;-1.6726496313823662;1.4290090720545152;1.2525930160156862;0.5970905041962251;180;1.2566370614359172
396;1.3325820983915106;-0.4920440035512847;2.881507313061308;0.5047407197437597;2.960958835675232;-2.780657801792788;315;1.256637061435917
397;0.1378917679480113;-0.769852339612746;0.1422798303749076;-2.712877561721736;-0.7960011020395311;-2.1100166077956404;75;1.0375726536952603
398;3.061954161512675;-1.3577150539825922;-0.7915620638693334;0.7928878335924662;2.655136670575251;-0.5808697626144189;318;1.2566370614359177
399;-2.8500857760066047;-1.307478087904199;-0.4359607678054086;-0.1034979890465518;-2.0672133529073733;1.5549686787494963;211;1.2566370614359172
400;1.7688107820484276;-0.5976655625953564;-1.1449565606044618;0.0986237919053645;-1.6307454269117874;2.068222261905449;263;1.256637061435917
401;-0.7931933809655196;-0.11191212122305;-0.5014399957226443;0.3557543725073617;-2.500050398829363;1.9785466524985384;270;1.2566370614359172
402;0.9891376145074062;-0.0738610143670219;1.5650088498355512;1.2771074318290607;-2.458778739441763;2.1923610572488093;104;1.2566370614359172
403;-1.582596267842437;0.0573946323077901;-0.5563686449018137;1.796288260890274;2.9334638791278405;3.013319888651931;22;1.256637061435917
404;-1.9628771136897416;1.3695975650755496;-1.7231542044131425;-0.5508078234211315;-2.638297476416589;-2.0364523448176564;241;1.256637061435917
405;-2.8807074021905312;-0.6339973558610739;-0.8677580765078154;-1.1879403114702822;1.8347612697581432;2.177195327156182;361;1.2566370614359172
406;-1.2459959473796374;0.8520218492800612;-1.0736319126266511;-3.2258033921116755;-0.418765363505977;2.6116021875849458;278;1.2566370614359172
407;-2.087579045605908;0.7660004494507191;-0.9747367138571986;0.997569287678445;3.2497819605559477;0.3455756725332567;262;1.2566370614359172
408;0.2498766001008551;-1.3065634080360078;1.202263967240771;0.7215480898813201;0.3887744913564915;-0.5447071575024909;312;1.2566370614359172
409;-2.606531981529731;-0.1757207350525644;-2.6086715466924;1.0683062747464007;0.8225381596257574;0.1276974661314551;395;1.2312393269592057
410;-2.177409595742912;-0.5687884884737463;1.6601553255741168;-2.232761589973876;-1.487921611861616;1.6803787130152597;165;1.256637061435917
411;-1.8664821282726216;-1.4375804905410208;1.8285354027647345;-2.4248751936677118;-1.5810224060386662;0.962308271575693;410;1.2004281889176518
412;2.452324254348264;-0.4378630211803541;-0.3204526387418235;-2.171813114317377;1.125781856649254;-0.4037501310623574;146;1.256637061435917
413;2.2285664618888705;-0.4374881013149387;0.729035513587903;1.267720274314751;1.4095567448696469;-2.86155828098138;306;1.2566370614359177
414;-1.5773398366231768;1.3080214703243502;-2.4785481893374177;-1.0660843913418652;-2.696864433251281;-2.442287482456923;404;1.075496568444649
415;-0.0494000481019306;1.3320389389564946;0.3967556800894827;1.8802520030395529;0.6620594784004616;-2.0386348922921123;174;1.2566370614359172
416;0.1731722628999986;0.3724491478750257;-0.3734730426215995;1.1067357764723251;-0.363785384954322;1.668047308758421;141;1.2566370614359177
417;2.657097711281197;0.2500853308719925;0.9985407163737992;-1.7594349339047664;-3.0217791452890697;-2.586440374389272;363;1.2566370614359172
418;-2.8153800651850918;0.1504769268574243;-1.1507525607084403;-0.5897828646111757;0.5296612786733276;0.871617738246862;73;1.2566370614359172
419;-0.7254124773244918;-0.1071565187111959;0.9110099625668204;-1.551251098698463;1.642104402806444;-3.3648482153933617;221;1.2566370614359177
420;0.8462417461508471;0.49914587420003;1.6695354644945906;2.681811136918227;-0.9300980345936236;2.396202440245143;280;1.2566370614359177
421;-1.346337724140186;-0.1004405788453201;-2.084358178671589;-2.176604223316504;-1.7751807354098164;-1.5020592202442402;113;1.240214015231151
422;-1.6106783975581749;1.2539676131291502;-0.1243104531017861;1.6203134455639958;3.226248593693085;0.3903148356754146;407;1.2566370614359177
423;-1.0385686617370566;-0.2438253517253172;2.52452757095339;0.2933350659546199;-0.7661082534189387;2.32783010540407;238;1.215936966837803
424;2.562327133037136;-0.8393701130705754;-0.5755178602002642;-2.322993088119432;-2.3094998742135413;-1.3735245539171477;92;1.2566370614359177
425;0.133817731949386;1.65370753070905;1.4756187678720916;3.152422351495181;2.0595476122421155;-1.1571544609573643;283;1.2566370614359177
426;-0.8719490723950276;0.1917148019988988;-0.5726491513548013;-0.3054806837297509;-1.3922362231937366;2.7747764761825167;270;1.2566370614359172
427;-2.170240984244975;1.386484837936804;0.1418493315116772;2.9359354369273944;1.8710732159540973;-2.5479027934255463;224;1.2566370614359172
428;-0.8746408418008322;1.3658861056933234;-1.3756025059542336;-0.94022066181798;0.8562400072160138;-0.9544684607638668;314;1.2566370614359172
429;-1.2005915449858593;-0.1591219632521794;-0.0846980148917482;0.5689663318444449;1.899949373050805;-2.361760808460318;269;1.256637061435917
430;-0.7228789949445756;0.6660392759347104;-1.6861073086911726;1.1520055611472328;-1.435467466252496;1.2771677169108857;392;1.2566370614359172
431;-1.8079586617573584;-0.5458759336972688;-1.7578113393361363;0.806796617522931;-1.104057108996603;1.8531966743919224;149;1.1570590692964209
432;2.2533434032716366;1.1753539457629747;-0.9290297775915488;0.6368589453650634;-0.1692047251702861;-2.9089605132910266;153;1.2566370614359172
433;2.603264984723488;-0.1704261629789062;-2.022681795266812;-2.0488524609702887;-1.152621432443317;-2.232761313968672;274;1.2566370614359172
434;2.5420539694822883;0.3649413034987443;-0.5135022178063443;-1.3011701741492645;-0.7652975142064418;1.168614088985984;10;1.2566370614359172
435;-2.7179869506249648;-1.2480662627734609;1.528403651428079;-1.0713692556134222;-2.3879432369544604;-2.43663127320754;391;1.2566370614359172
436;0.813594900522284;0.3572632567796054;0.1467179649437397;-1.9934886395661813;-1.7292414561183884;-0.2804569736244294;231;1.2566370614359172
437;2.7599724066057565;0.850198004080181;-1.5981362035772675;0.1587495110690863;0.5493143360236573;-3.042718351604579;156;0.8489407937179709
438;2.4961836265068;0.9860130642596928;0.4937820901468224;0.8188464443044134;-2.4196176890000043;-2.0092786853364286;1125;0.7178947022460131
439;3.237364400523882;-0.3780662333576756;0.9285384355672476;1.6524334040973483;2.718954674961441;2.3462346163158383;266;1.2566370614359172
440;-1.4317640540094476;-0.8413998052257547;1.5806928562873783;-0.5691669243157933;0.843172155642735;-2.217103274485275;353;1.256637061435917
441;0.8889542545834554;0.5951789035476193;-1.444323254233986;2.2838597711346766;-0.5699864392985257;0.8372619241240513;162;1.2566370614359172
442;0.7879729408201858;0.51588115877481;-1.73645664316583;1.007378965450156;-1.5803064714981965;-1.1214247333620435;4;1.152467976108412
443;-2.570739952871436;1.6558662631700454;-1.332978024261612;0.8964977021892431;-0.2231195213361371;-1.6724799158635355;832;1.1726116777326316
444;-3.061061572643785;-0.3102077406216746;2.240747921791292;-0.5814906544846673;2.81162013551954;-2.119325209901511;365;1.2566370614359172
445;-2.994984856391269;-0.0799104692119891;1.4051432740267515;-3.283829440765494;0.1060303818921624;-0.9836238988932384;297;1.2566370614359172
446;2.206692527799849;-0.4776644059377174;0.8625968769408332;-0.2324564943509029;1.1241684648151835;3.21131088912322;290;1.2566370614359172
447;-2.4920353390796097;-0.7184114832590318;2.046392680971953;-2.6351870899229244;1.0297975860980662;2.575351227341611;235;1.2566370614359172
448;0.2580426165531647;-0.9852151607428664;-1.4999892336538825;0.5159680288156318;-1.5413086585820388;-1.1138038635790053;337;1.2566370614359177
449;-1.9441505257651044;0.6137180825266009;-1.015381204776922;2.544267557770716;0.515041831062312;2.1343714237354523;21;1.1952521290167275
450;3.1153124383879423;-0.8918272719317845;1.0238696119937891;-3.2401102989451807;-0.602701605276104;2.2142851233882905;371;1.256637061435917
451;1.7119313135532357;-0.0271377861128847;0.026885989780911;-0.4366086339528366;-0.7167230440744912;0.5575737654491071;10;0.8699372066591071
452;0.9698229300235174;0.5274911694078517;-0.5589010823970975;2.881296769127539;0.3180427245708574;1.9016678424946425;239;1.2566370614359172
453;1.8140613808331665;-0.7085420158495345;1.3653285855048511;0.895949524550758;1.819091399090252;0.703210378385505;329;1.2566370614359172
454;-2.117550306435922;-0.3751798379694148;-0.5740803971425656;-2.1186465025412837;-1.8515252505030453;2.439611795351916;350;1.2566370614359172
455;0.3183881345542614;0.709157713542107;-1.7729563879983217;-2.675953904738833;-1.933063336796432;-1.5717315461595447;147;1.2566370614359177
456;2.2026611010258885;0.1190529504989371;0.7869168885649223;0.6267710800644282;-2.905306856223984;-2.627862931504468;438;1.2566370614359172
457;1.5896925614147268;-0.1624015466653537;1.9437513806942133;2.980961456188872;-1.424081556929021;2.820546165129012;420;1.2566370614359172
458;-1.740287976954528;-0.7504456927843756;2.3491220975073;1.6756943417805132;2.516986218156346;-2.0544070511138406;184;1.2566370614359172
459;-2.557792799387117;0.5900511627245331;-1.1609945750245811;2.991098448997977;0.1135065305797125;1.22887264150441;449;1.2566370614359172
460;2.1934327998561605;0.7067203734246497;-1.29963759875005;3.216868259956064;-0.6130283924568379;-2.424313657816269;217;1.2566370614359177
461;-0.4268679699205525;0.1492262988361777;-1.4421271618028193;1.9056153910714528;0.0075644145888071;0.8735816602329135;12;1.0610314182197802
462;-0.6194524337928479;-1.4877420611332035;1.9589220858376275;1.046421486774056;-0.3602164678422986;1.4030986684964253;273;1.2566370614359172
463;-0.2761108351375438;0.3690321170826157;-0.3646823309516696;-2.200196438238019;-2.1944210353108224;-2.523795324951505;147;1.256637061435917
464;-2.5227303564664747;1.1340028367068875;-1.7149464985458511;-0.456962381461881;-2.7990979554648443;0.3428709244093786;144;1.2566370614359172
465;-2.635501539937267;0.7231017489205629;1.9297090449537937;2.3000823338084686;1.6871640545442683;0.7692285114080315;275;1.2566370614359172
466;0.4536211071091164;-0.8637884608386249;1.8607974726221608;2.458487433095169;0.7127536515160504;-2.275736052666555;124;1.2566370614359177
467;-1.8247181276409872;1.5144005324227177;-0.4446504416058319;-0.8710660297795627;-1.019308061203006;-0.7733752806702825;143;1.2566370614359172
468;3.190179559900411;-0.5041962078592588;-0.6066286082940535;2.2455529923200794;-0.0278783561815372;2.4329265168891663;316;1.2566370614359172
469;1.82984337685046;-1.0922749818235675;1.307488781391587;-0.6611835301106495;1.6531718664314312;-0.7386139930643411;115;1.2566370614359172
470;2.1919137651419183;-0.5446347920863621;-2.29043324711834;2.9689403001695065;1.5848460106749234;1.0596073330735338;313;1.2566370614359172
471;2.74234662008637;1.2081080794048422;-0.1129028853538495;1.6992093675709825;-2.816534358278311;-2.4198464757221627;438;1.2566370614359172
472;-0.6147914229633331;1.0678378797118018;0.2667107779621855;1.5232011139000736;2.718021160165592;0.0268894264774859;422;1.2566370614359172
473;1.6700267045636443;0.3952405268158118;-1.6478117838211452;2.841378227547499;-1.3147920371646848;0.6885427658462966;441;1.2566370614359177
474;0.3076532793590768;1.107595263001309;-1.2928851877333496;-0.564490162541781;1.214851137656468;0.2068899553037512;314;1.256637061435917
475;-2.6581489038784905;-0.9332506160162224;0.5752632270722429;-1.6502832311272306;-2.517475061695774;-1.9718187651083627;435;1.2566370614359172
476;-2.6816112381730903;-1.3133833975301576;1.3752969024369324;-0.198400773488771;-0.4060087193002584;-0.8743093998147569;372;1.2566370614359172
477;2.1617264596033063;-0.0236594135195456;2.038797646630484;-2.243219238433544;-0.6236615981553602;-0.5429407517277371;302;1.2566370614359177
478;1.2361486849270649;-1.158586977470561;-0.7453331977930971;0.4930319105816364;0.7625020563949444;-3.0027126948767164;276;1.256637061435917
479;-2.2679382201713114;-0.2673208681450694;0.7436846788576223;2.3015937180416546;1.5660033561118096;-0.248072239478425;60;1.2063228196925213
480;-3.1977660877441414;-0.5633640592830669;-0.4672601391002653;-2.8326862322112407;0.0487239686718816;-2.2589934817385964;229;1.0419113352849
481;-2.758139684965185;-0.9196253353004252;-0.1527088566796903;0.8382440188444533;2.4574554886499893;0.1476006398546596;60;1.2566370614359177
482;0.595805642003537;-1.3110966494686775;0.9397752190248954;1.83592751875626;1.036470746266661;-2.1409026347063564;632;0.9799889931110072
483;-0.3055257655856689;-0.0505105329662608;-1.4637209267761506;0.3710771773435501;2.0327617422263597;2.651176579319423;8;1.2566370614359172
484;-1.1491519543965347;0.7099584839567342;1.1106751269634998;1.360992594556114;-2.327309956230601;-0.5729359865910073;91;0.9441318038045629
485;-2.6096237800238957;1.2359621176275557;-1.6077880333261232;2.641849130478668;0.100644182411917;0.3137309196442673;1014;1.134511736951315
486;-1.090346516057999;1.3351226737057316;-1.127420273162381;2.567063925884272;2.4106400116011164;-1.9205078851384665;224;1.2566370614359172
487;2.389960094252827;1.0121173841268405;-2.111840255596681;3.1308584323332824;-1.4085899663802857;-2.808054883703724;460;1.2566370614359172
488;-2.789021051330801;0.4205123646117532;0.6149405678397116;-0.4772254750638451;-1.5747016403669225;0.028059843275802;212;1.2566370614359172
489;0.8812817684898766;-0.0624999112704713;2.2211154989542394;-1.2992639738489304;1.4537680193002267;2.900693457455339;324;1.256637061435917
490;3.15428632522553;0.0708015582440501;-1.3189094975175777;2.9918608111603158;0.1037514290832596;-1.7027491112814983;217;1.2566370614359172
491;-3.1971375075137973;-0.2712811050454028;1.619620515521662;-0.3319391880778063;3.2601248402044423;-1.1654525235136912;444;1.2566370614359172
492;0.2229178753446909;-1.0432079296256975;0.4615683787777345;-2.004725665640647;-0.6904041867224306;-3.436228217957557;75;1.256637061435917
493;-2.8179999924839483;1.036551944602865;-1.6678450343089026;1.0845334749831914;-1.2942611008193707;0.14063677270897;333;1.256637061435917
494;0.2319144277031208;1.2986446709625383;-1.9309748594975535;-1.8034444063849229;1.087525548351684;3.063594257489666;358;1.2566370614359172
495;0.7247515635947802;-0.8437451914379719;0.1627917513699067;0.1294253686992269;-1.4909040781896905;-2.744304873510788;248;1.066140511018336
496;1.8636075403504813;-0.7140239050733976;2.378602813538109;-2.388396696022427;-1.8202627427496905;2.4361095192876867;1127;1.2502157309464257
497;-2.6756562634173515;-0.7936041302948933;-0.6014901627155218;-3.094776395445523;0.7277944135129779;2.39410753079029;253;1.256637061435917
498;-2.013809920894212;1.417871069252831;-0.4826208992199501;1.745505866316401;0.5873934963548636;2.11126946708442;449;1.2566370614359177
499;2.129721580555759;-0.9737044409625868;-1.6969675709077423;-2.9864958540614586;-0.1733696495830365;2.436730083546994;388;1.2566370614359172
500;2.8283983253015856;-1.433117964453032;-0.3362041873003666;1.218149077868802;-0.6355167051817114;-1.3923306282941563;256;0.9557611139450012
501;-1.5545155221092697;1.530429040586048;0.2565965100957492;-1.552267829973383;-1.7310096924882543;-0.5646459074807779;467;1.2566370614359172
502;-0.2988230088917576;-1.4205253129731752;1.228289214197138;-0.1194760993884731;2.052735315131563;0.0163887958340714;293;1.256637061435917
503;0.4243429364230866;0.8637830254828277;1.3064207377958823;-0.5224936756868946;2.11553522646306;-3.322407173408517;221;1.2566370614359177
504;-0.192988341737496;-0.7981725826594025;-0.3117647197091235;-0.7092369022173951;2.1124058827561263;-1.5361819117603;190;1.2566370614359172
505;-2.4018908839491946;-0.5505177444751835;-0.5694602260105467;0.1985822871840083;-0.0081742977133216;-3.195157970302999;1446;1.2164186267080326
506;-1.1722639739492506;-0.1410518620764708;2.044145138970441;-2.977406964982213;0.4513661368231804;-0.4564776761664418;208;1.0621411758732415
507;2.751617036326204;-0.6136741112700616;-0.0254940860519305;0.578243998109929;-3.185486301195315;-2.622557511741737;456;1.2566370614359177
508;1.873483134170292;-0.1774243447239209;-1.2697241099091623;1.6039840270757983;-1.8996755865126471;2.6666224172280337;263;1.2566370614359172
509;1.0634813437864998;1.0622094350521785;1.7565020763197;-0.8791659069706602;1.801778483765921;-2.483935841192309;503;1.2566370614359172
510;0.166044648123908;1.0802726748961953;0.4683822515476484;-0.4609095867368844;2.311719499464421;0.4126479242538863;232;1.256637061435917
511;-2.5590415898991163;-0.3325035399165562;0.5247348022676843;1.6201803003496642;-1.1681334097842202;-2.7386973862287656;195;1.2566370614359172
512;-3.2589651691131047;-0.6918764385486043;0.3729358636415958;-3.3165149359471164;-0.3313300774798958;-1.5729982027640752;480;1.2551138982334236
513;2.464214956117803;0.2771605326192274;0.5526986387766808;-1.0601548480428489;0.9209663419009356;3.463962379102792;446;1.233824886206155
514;2.559811314038276;-0.1041372349386819;1.254207142938774;-1.8837020218373448;1.0006737054630648;0.0257825416258803;349;1.2566370614359172
515;-2.19765848304004;0.3821747158512505;1.8504408204377012;-0.4859824355549899;3.3104372155507065;-0.8940944508868984;491;1.256637061435917
516;2.546601165664315;0.3413478045430971;-1.194267523501602;-2.8119381475791885;-1.3648064201603272;-2.253276726871916;433;1.256637061435917
517;-2.767068147341792;-0.9821946798535552;0.3805709954519362;-2.332705791319852;-2.4518534123560807;-0.9437302647264354;475;1.2566370614359172
518;2.0783512531812063;-0.5904649642217067;-0.9918597303704568;-2.8460702919331893;-1.5978091679760331;-2.581525909151097;516;1.136531891646079
519;2.3295437125922134;0.3741036534199952;-1.2023283951360495;0.1384473735198605;-2.192441434516376;2.068382180386981;400;1.2566370614359177
520;-0.8475348342870952;0.8622952858883001;1.5419482171728836;0.5278136598053269;1.6703246392123976;0.9216951481536012;107;1.2566370614359172
521;-2.5655394018194904;1.2936520884680014;-0.5753098941449533;2.211770337101324;-0.1480758245427326;2.812975958708139;498;1.2566370614359177
522;2.888883093395858;0.4202913388207228;2.3266081520225623;-2.834336834662325;-0.6531818411781982;0.1052577666821888;477;1.2566370614359172
523;-1.1423623002468843;0.1798841523593783;1.188506793082821;0.9791428413557266;-1.4844598770072586;-1.2331242547657313;484;1.2566370614359177
524;2.4899109613376487;-0.2291108540939895;-0.8473711460716132;3.321126038118717;-1.2051091880471152;-2.646761450584022;460;1.2566370614359177
525;-2.35423700493778;-0.5091042614188757;-1.6550481583541024;1.2065755988245923;-2.281085893746319;2.3847644054996486;149;1.2566370614359172
526;-1.6683844295397383;0.2456674445536641;-1.5608524562085415;-0.8389766189366559;-3.086726103209576;-1.5301329037933151;241;1.2566370614359172
527;-0.6068739383143452;0.5242817201344837;-2.121415000279735;0.53481046492156;-1.594179712594184;-2.008401514416753;351;1.2566370614359172
528;2.7673582886941137;0.6798003756066787;0.2168737259321345;2.3802712837303845;0.3056579633783569;1.006726990113533;338;1.2566370614359177
529;-2.807081135184992;-0.3781109930807893;-0.9668460609485136;-2.6180792727314794;1.7984803775855325;-2.5103073437542123;934;1.1362699773265574
530;1.6808680462007333;-0.5617847896531756;-0.888568942770761;0.5274149837082432;-1.9835043365109213;-0.2325065316661923;23;1.2566370614359172
531;-2.380555975704869;-0.4412495264181426;-1.190599621806003;3.3466924619927525;-1.1449926844986729;-2.467141557460929;357;1.2566370614359172
532;-0.9072876403509258;-0.4708010020910059;1.215926283899007;2.1794528610292683;0.0465647044371861;1.2998604587722915;154;1.2566370614359172
533;-1.5448707028441917;0.9616122136045698;-1.0331792422042885;0.5870729917998039;-2.829465589092694;3.040362623932804;270;1.2566370614359172
534;1.9066974931033256;-0.524208866099339;2.493824539914842;0.4538959752078159;2.017169593270623;0.8718138011407275;453;1.256637061435917
535;-1.2387398433956518;0.2306951247317594;1.797161266450918;2.2111434380346124;-0.0103779411190902;0.0808530706083088;1385;1.1486152667870038
536;-3.0266647228066166;-1.2106788893779743;1.6773880258369178;1.3861827798416315;2.1744728181683364;0.6226729669378884;362;1.2566370614359172
537;-2.4693532374137908;1.0928424035264;-1.993073684047388;-2.986766733211106;0.4040355480696573;-1.492725936062389;300;1.2566370614359172
538;0.2416092789265053;1.104760197342889;-1.0860320461776656;-0.5278945554403853;-1.8669761908798717;-2.719593059188014;220;1.2566370614359177
539;3.341528371085408;0.9466677156097748;-0.6201802093752427;1.3604344316207984;-2.9556630783433206;-2.075901057656604;471;0.968051561953774
540;-0.7033200074787879;0.1498449185543561;-1.7454058813596591;-2.925641541948311;-1.2740995805134134;-2.7191829194519896;113;1.2566370614359172
541;1.582128071787681;-0.4937306760269584;1.7539711072459447;-1.1318261397948195;2.834201031302033;-2.1631638947385894;315;1.2566370614359177
542;2.789499858146648;0.337633042744257;-1.0708132445545142;-0.290607853674425;1.4494822294559773;-2.8838214873737997;437;1.2566370614359172
543;1.4200225037621923;-1.566493416635214;2.098942777341465;2.5993101983701927;0.7753029775803355;-2.0093638802281744;466;1.2566370614359172
544;-2.518819320545434;-0.2169021538416216;1.2929337124699591;-2.168957190361641;-2.228216982227514;-1.0387103098717785;517;1.2512209732706028
545;-2.305849407716117;-0.0879573097993329;0.4927836019528611;-0.8797880387718049;-0.3386514114792792;0.787067517060389;341;1.2566370614359172
546;-0.3698908187432295;0.7365307638313288;-1.3924582533820726;-0.6075001811165027;-1.8025705972699235;3.0887394401289114;1405;1.223030512777165
547;-0.3278290045436493;0.3223748217769329;1.7537581820925077;0.4565420169720625;0.5325702473570098;1.594844967574569;243;1.2566370614359172
548;-0.54283286158505;0.5483209408452953;1.5568242296448112;-2.362664204979984;-2.113687891209957;2.5096353686063333;1397;1.0287971865085994
549;-0.2235884679468146;-1.2760075931932051;1.8667864253415185;2.887938407024289;0.9780847502305284;2.3794274932122303;325;1.256637061435917
550;2.999063915079156;0.8213947212563;-1.949486144357502;2.979246629809508;-0.1394267941724879;-0.9714961196123671;490;1.2566370614359172
551;-2.11435666434633;0.5966219455373075;0.0927161505803936;1.5712884027634075;2.015724750043418;2.4315323076432804;22;1.065577934839174
552;1.1186820410701444;-0.4205311853016897;-1.36804281091939;1.0739816917412843;2.398765418985861;-1.5133328299914688;330;1.256637061435917
553;-2.87116906516657;0.6226826573227962;-0.8579408280886971;1.528948443492832;0.6266253962494043;1.9614492979358684;498;1.256637061435917
554;-2.1706909762805746;-0.6958956804930145;1.3793708991299474;1.133428236242244;-0.1332947822666697;-2.564544835630946;51;1.2566370614359177
555;-2.583192005059628;-1.0842490139551142;-0.8803139168716301;2.13807330806765;0.6660801294235655;3.218092599134512;246;1.256637061435917
556;1.8194903049921385;-0.3553898309570241;1.2760045500558863;1.4797406886225657;1.1994096519930024;0.181653033099013;453;1.0628096619700431
557;1.0871060630292262;0.1406001583597128;0.0651716918323421;-2.470264624885715;-0.2782325619800068;2.8319871936404395;158;1.2566370614359172
558;-2.476817088333206;-1.3631914946526256;1.8377468370758057;0.5048652740113165;-1.1358711589175048;2.9077832264719072;375;1.2566370614359172
559;-2.370425935254832;1.101942935796788;-1.5882041117112546;-1.1188828820113572;0.4691581492337345;0.8417238641975326;418;1.2566370614359177
560;-1.1112136893702778;-0.1480606065663352;2.2673636947439237;0.492662429015392;1.7521689566548897;1.6356417763742688;107;1.2566370614359172
561;2.3754329377760057;-1.5713157710380208;1.7660752104439887;-0.7397618001584414;0.7705803376612973;-2.338635942429481;288;1.2566370614359172
562;0.4349605921795025;0.1452482196294558;0.7820641817437917;-0.0399037970679189;-1.427487950719942;-2.426723993573306;495;1.2566370614359172
563;1.941721574961551;1.1908106808349197;-1.7106191265502078;0.509657117161824;-2.0936082095886346;2.6648687077646525;519;1.256637061435917
564;1.2006159442435755;0.1835020412772103;2.094895880802518;-0.0705053268418858;2.794341578011722;2.651525753557729;387;1.256637061435917
565;-1.713857621734936;-1.0295615208294533;2.5665029512399067;-1.8840839439310015;-2.4841490541262665;-0.135535869892463;178;1.2566370614359177
566;-2.716833603731805;-1.3626639486997023;0.4662043402110929;-3.2461145931794686;1.4431916146874393;2.510001972075957;253;1.2566370614359172
567;-2.4733551754335883;-0.8244973121900816;-0.851326462927692;-1.8150101326135712;-2.0040459828373414;1.323195243236504;350;1.0658844625728168
568;-2.7199585313253407;-0.9980202770262148;0.9180622844748192;-1.4951557501109225;0.2839971557608701;-2.1327660676730424;205;1.152754567358416
569;-3.142024556524744;-1.109066192346873;-1.437296168120449;-0.956312833772571;2.753537011985249;2.4281651637853243;405;1.2566370614359172
570;-2.851312093140926;-1.382635754411981;-0.7405278405519163;1.676042175832687;2.0256479695829626;0.4788530123686578;481;1.2516718912412927
571;0.1120298115216446;-0.6691117308031795;1.76522826593438;0.4682226535605059;0.4196157030610311;-2.3697263666404;245;1.142022753229054
572;-2.5698117300148358;0.2509127194977057;1.5585986669434293;-2.2448438302703897;-2.576292928025846;0.0384118783863032;544;1.2566370614359172
573;2.4362353395538547;0.2347996212264072;-1.4686066147949923;1.152394508176407;-0.7247436990239988;1.974280826758113;1414;0.7270225543221345
574;2.3837122473024643;-0.2173634247644021;-0.4159307707131437;1.8722069065065936;1.476849734682374;1.6255162274845434;198;1.254765388453449
575;-1.1143377785350894;0.4286233379331392;-1.6087891013431104;-1.1078046246054958;2.3240015552225266;-0.3762369874427475;314;1.256637061435917
576;1.4275607417759542;-0.7854317102415991;1.1929589036539434;-0.2533276482737067;-0.8163972605293419;1.108414208414371;25;1.256637061435917
577;2.368868803859489;0.4875174091077305;-1.3855206182659945;2.4639930962052383;0.5183746827435687;-0.7385354687348687;550;1.256637061435917
578;-2.273028150297339;-0.7573141144994961;-1.7204055925167323;1.424327411563523;3.1006951111953587;-2.1592329126664627;62;1.2566370614359172
579;2.4865788338171013;1.1103874788630974;-2.091820494034526;1.0990877115806772;2.1946891917539677;1.423709824181933;164;1.2566370614359172
580;0.2571727189452848;-0.307966819790202;0.2489624318411302;0.9055896862308058;1.746073360963272;1.1761021319414722;8;1.1975391630672452
581;-2.3021131838205773;-1.0389213778985962;-1.3770531644887332;0.6779759792798014;-2.912850903343362;3.1195350042468384;525;1.2566370614359177
582;-0.790612859741092;0.1136894253588462;-0.932038828068334;-2.8314867308524523;1.3064522018320353;-2.126744456012401;345;1.256637061435917
583;3.037802185586114;-1.0118637209610248;-1.372942574643224;0.1067829898812223;3.078440461450791;-1.9472732491983475;318;1.2566370614359177
584;1.9847291743671187;0.9835158992393256;-1.9443495120523997;2.910930623863216;1.1994404138323078;-1.1964279569806733;577;1.2566370614359172
585;0.7253698416081232;0.6990617033756417;-0.8826899578061196;-2.580994011163554;1.1073262521119291;3.2046133866853874;272;1.2566370614359172
586;0.6607572325911727;-1.162684198754975;-0.1342545655224195;0.1977096479566697;-1.8602459320333848;-1.8738261614090328;495;1.0454009829653843
587;-3.0171228456593244;-1.067508622383092;0.7849614035465505;-0.2870163367731363;0.7963003317383259;0.6517257366141351;341;1.2566370614359172
588;-2.3638784053393755;0.949407074703812;-2.568977713157402;0.0089756697755956;-2.9025326583112654;1.092978147126994;464;1.2566370614359172
589;2.189522881631413;0.7057096565014578;-1.518463869428153;0.6219439628565171;-2.7205971661458084;1.6421468288649606;519;0.96119925932598
590;2.429649595500269;-1.3728996825006037;0.1356647563966724;-2.42964569003648;0.4793472564954433;2.0681382084930835;371;1.2566370614359172
591;2.967666060587714;0.5150046791510381;-0.6802195625665379;0.4305895050247977;2.3677542509085567;-2.8793213658040155;542;1.2566370614359177
592;-0.087795572020538;-0.2686939055495286;-1.9340694760563115;1.4346235823052071;-1.9762750607517068;0.3839762546599242;15;1.2566370614359172
593;3.114996147369772;-0.0025711619757222;1.847877615502436;-2.037694218509785;-2.864118871857293;-1.892198151879792;417;1.256637061435917
594;-0.6656579928780519;0.4109480170605714;2.2373403404979944;0.7644249418584743;1.7243776642067736;0.0273426851019058;520;1.2566370614359177
595;2.63375024581018;1.142007085453937;-0.7113281353865493;-2.8418576388246466;-1.3864599319608142;-0.3473325789755035;289;1.2566370614359172
596;3.049884184158561;0.5030485693931456;0.5239832907524313;0.9968459722420824;1.7279590893805448;1.754810695082864;214;1.251618514619067
597;-2.03068283892844;-0.5991115167682743;1.3008497687458518;1.6885856807835538;1.0621648608514749;-1.7328969676586543;49;1.2528855031660284
598;-1.032467303790691;1.1260329633840789;-2.04891755089548;-0.6921355400993879;-2.537931326427305;3.1865136029286134;546;1.256637061435917
599;2.926730980862506;0.1244814103764768;-1.0782435477949597;2.979859649158444;-2.0227529166423897;-1.9948478027743008;524;1.2566370614359177
600;1.042950561372308;-1.414668267046952;0.3746731788553067;-1.6885606142039549;-2.227669488193296;2.1361976104083924;90;1.2566370614359177
601;-1.218736112103137;0.5677131212202452;1.7162351515114298;-1.7463557543679875;1.3140086174694137;-3.071217173588923;419;1.2566370614359172
602;-2.592649176716918;0.5041559054033026;1.2199434521807762;1.5142005667650391;1.782367715746279;2.5475801092521437;551;1.2566370614359177
603;-0.7569745269048731;-0.0459751466972291;-1.8121808167211768;-2.517197605753397;-0.4178768302565286;0.2888401401812366;67;1.2566370614359172
604;-0.3451169532854564;0.26646123036249;0.97762978437765;3.129553055789884;-1.6598744232203777;0.0703296022835087;1255;0.7292232194027408
605;-1.1744349902690732;1.2854277721475924;-1.6308888646250763;0.3405177518275506;-0.8409555117323233;-0.121165344623809;230;1.2444906945999117
606;2.363187738740796;1.4033156567412932;-2.106341623785702;-0.525113257272501;-2.0803303099335992;3.023786925377024;563;1.256637061435917
607;0.1374494540642919;-0.0238171017577791;-0.7138317462299182;1.9192442302368995;-0.1947021036311425;-1.05450457291198;3;1.2566370614359172
608;-2.4833214147410185;1.1202268205906374;-0.5437743529155675;1.894274344259496;1.934599768998407;-0.889139259531317;249;1.2566370614359177
609;-1.1032871339160617;0.2308027564993695;0.7348053915394712;-0.2441601525088833;2.9428152642303638;2.7866029949935944;56;1.2370479214489236
610;2.41259226579296;-0.7595380669533848;-0.1849258039922707;-0.0384349126249452;-1.283447237857246;0.722552256924059;451;1.2566370614359172
611;3.026947250601264;1.3770531070612109;0.9943106651293796;1.1885835220110756;-2.390089253016656;-1.1395614468609372;438;1.2566370614359172
612;-0.7918689704265967;0.8872808031524471;0.4559599425586503;-2.202320122260576;-2.6913513633863224;-2.8761453602532057;463;1.2566370614359177
613;2.526579575474241;1.6078939262139191;-2.456065660724348;0.5408510537062553;0.4087246081472616;3.301860101873328;223;1.2566370614359177
614;2.515382457395261;1.5460869344819872;-2.352564782386914;1.986452962861473;1.7945424118725912;0.8130127460179651;579;1.2566370614359172
615;2.7807532874229093;-0.3221949908271819;2.1748243563083007;1.063444259831816;-2.8634835737206514;2.2056364327935816;101;1.2566370614359177
616;2.6432883534710774;-0.4938413249957336;-0.2200087443634198;1.8120567865100423;0.1654351765974161;-0.7547934665687591;226;1.204204219102765
617;-2.396270023979929;-1.158718909780011;0.2546999145220145;-2.536804939649192;-2.0522404807861614;-2.5672979105337954;475;1.256637061435917
618;-1.010015305398854;-0.5867191430141115;2.277354663616313;-2.8607657552155583;-0.5341722485578128;-2.014667222153093;208;1.2566370614359177
619;-2.72400684685374;-0.0708383887636551;2.087289868475352;0.4935705443286271;-0.1334839022634432;0.2752712123696163;372;1.256637061435917
620;1.3676189768208238;0.8184784984573824;-2.223910648188469;2.72170486486505;-1.333419436070614;-2.2505225506106794;487;1.256637061435917
621;1.9514695288779995;1.3030692149508365;-1.031602530571224;-1.2186729013510458;2.7345552098328203;-0.4822728019390715;286;1.256637061435917
622;2.203141994696498;0.0342011392519543;-1.8611350718702309;-2.910236584449625;-1.4776514383337092;0.1809704614588183;289;1.2566370614359177
623;-2.7308614949306302;0.2162996210440975;2.196343935799635;-1.7108423442067602;-2.5843482454620235;-1.4787811248039548;544;1.2566370614359177
624;-1.81727931904131;0.1388676162204112;-2.1678480267565434;2.0021721996388178;2.970428298759668;-2.0280489234736248;578;1.2566370614359177
625;-0.4353638449160935;-0.7939240904428441;0.3316045655240652;2.548410198356145;1.296092704265302;-3.33917741733933;122;1.256637061435917
626;1.5236021960005213;-0.6800561680242833;1.724585274828502;3.2889048416040896;-1.4855692666652205;3.087229268052476;457;0.7000698321093788
627;2.9732303369507083;-0.4893970027989824;-0.9569674396745724;2.582168594537138;0.0732264373940359;1.2990917923140106;468;1.256637061435917
628;1.9397041461895883;0.8048144195795932;-1.1233528261654946;2.582254233491294;0.2403301269062587;1.517626843878627;452;1.2566370614359172
629;-0.8774075747364272;0.4504737391507574;-0.5114032846148138;-3.3693581491351896;-0.6893929931308767;0.3368603821143126;67;1.2566370614359172
630;-0.6281772415822372;0.6312775623188328;-0.2346502185073087;2.766513755597208;1.88713298913972;-0.5477595881063678;265;1.2566370614359172
631;-1.715094627417023;0.2259594871239998;1.7651272131062892;0.2141097361017938;-2.3684622439745717;3.133559279492215;279;1.2566370614359172
632;1.4248275575140328;-0.8208283878709008;1.0732824237340357;1.828964011315565;0.9898506142467292;-2.253561504917484;124;1.1813781075929994
633;1.6939967122506283;1.3166788095690225;-2.112633331072618;2.941772826163555;0.5859524575339028;1.3462352570158012;628;1.2566370614359177
634;-3.388015805106161;-0.4365299601378987;1.3138022076648213;-0.8078981730129536;2.481870884428181;-2.2268530989976405;444;1.0740772365993596
635;0.019398339556093;0.4744641116204381;-2.286569317461388;1.0804133428377578;1.5251634400428142;1.7655277876612423;27;1.2566370614359177
636;-0.8838090612441822;1.5773725763439037;-0.3409264124564575;-0.2578018369455197;-2.773131122612173;-0.6665932394281648;144;1.2566370614359172
637;-0.2215318783809362;1.5431474329907615;-0.7157519614681598;1.9724934638312943;2.542740799465638;-0.000398087298829;472;1.2566370614359172
638;2.903517946002264;-1.0168017079088354;-0.4385937973141566;3.15024033273778;1.2246168357408311;2.3442472490478945;374;1.256637061435917
639;2.923472322022053;-1.623465970548946;0.5450586337817352;-0.0085977497755589;-2.606245572134529;-1.4205563067724172;181;1.2566370614359172
640;-2.4097784735796832;-1.5290279050704647;-0.8520672556953497;2.3909355291857963;-0.9783952786514496;-0.8265041029881042;26;1.2566370614359172
641;0.375945993009134;0.8851419143323755;0.4925070754900192;-1.3504859684371788;2.849575944261095;-0.2321655485061809;510;1.2566370614359172
642;-2.4968145911443216;0.2564733698026089;-1.6360897359859132;-1.6750609490205068;-3.4541585537285058;-1.561922653422163;526;1.2357702657988474
643;-1.0089027067663152;-0.7150010519826578;-1.9067966849407207;0.6497774556187115;2.6365019200031963;2.7171898967728625;483;1.2566370614359177
644;1.5368936462701352;0.288525770438878;-1.2313642190053151;-2.850770621131468;0.1117766137663804;-0.4981637423946735;289;1.1882010961556424
645;0.0848553710596203;0.7696033492120687;1.9743879164169171;0.1984889811375532;-1.886623808904126;2.679133148633084;264;1.256637061435917
646;-2.6403441750008567;0.7687693891469513;1.0269609749835678;-3.181243338366265;-0.4068290854634003;-1.5462415277690196;445;1.256637061435917
647;2.812400754126079;0.0371589188377468;2.6023691184250475;-2.230411878197706;0.2071890733899223;-0.9223760246883836;477;1.2566370614359172
648;-2.5764122646128285;-0.0251889703617635;1.5328830236185842;-2.5182029820450618;-1.057980346840949;1.040345163172887;165;1.1133437600143958
649;0.934965556266362;-0.8948829018248843;2.3317457146554905;0.3691651524405664;-1.872814638056005;1.499912208112085;104;1.2566370614359172
650;-0.4291475103072206;-0.445430933168297;1.560135042840592;3.044148808833678;1.6690414581909725;2.395792954623931;325;1.2566370614359172
651;-3.0530885567186523;-0.4174586733358807;-2.533012856140756;2.257054695430256;-0.2849853985284633;-0.5624074081317102;28;1.067068593259891
652;-1.6977808378090655;-1.648072912561549;2.5108889813494253;-1.4428074622548133;-0.6822270472641118;-1.5331862074980185;368;1.1890859824349775
653;-2.95503181636304;-1.1239212163726862;1.4296235833778697;-0.5543123963357227;1.773470629980946;1.012559113901308;587;1.2566370614359177
654;1.9896896772186736;-1.589947940754687;1.9199178585939192;-0.8779919040444728;2.5687961174046285;-0.9518379968741232;469;1.2566370614359177
655;-0.0363119997699503;-0.3313501171909663;1.471187603230518;0.5511511169383281;-0.2127838678038941;2.494694725894657;97;1.0806480646759695
656;2.4572359041530083;-0.774420492580628;-1.6161001523794525;-0.8339078764618147;-2.302850605040093;0.6972541156453247;206;1.122928803341192
657;1.099617094462383;-0.5831242022422978;0.1809328770709849;-3.380482056699704;-0.1184659721813294;2.778753069040579;557;1.180757865296707
658;-0.222313216234941;0.4788818847609551;2.4452473119150544;-0.2968372028878768;2.177677477220876;0.0819662487239658;594;1.2566370614359172
659;2.905344981778009;-0.6289627363950384;2.156604465293421;-0.2595579555933868;-0.6828612465575284;-0.5828486106946906;139;1.2566370614359172
660;-3.202139994019629;-0.3968512481365306;1.4337982970293055;-2.152579514776516;0.2947893172638104;-2.995432812336422;335;0.9681081976871416
661;2.594040220142852;1.3443689936078074;0.0969596653361339;-0.1645235202770451;-0.0743758112596876;-1.9880241750728291;85;1.2566370614359172
662;1.296604281063226;-0.3714428977324103;-0.597397938945728;1.9785778551828677;-0.5044358331550551;0.1183285303636466;162;1.2566370614359177
663;0.5740093251980902;-0.460447465289422;0.8191510710091128;-1.1458134103683135;-3.0634663079026754;3.006443565156941;145;1.2566370614359172
664;2.164869846721033;-0.5874220806641443;-1.381917733632039;2.7442853028950123;0.878981644007143;-0.3870360501776207;577;1.2366391570911617
665;-3.2892293050363444;1.1171169843109323;-1.4834330447586686;0.9581825719454604;-2.298744209456298;2.4631853331231905;393;0.759566575738799
666;-1.1903144725061507;0.4095738802827549;-0.620613073952126;0.8230029665696679;2.7594153973338464;2.7454230909123973;22;0.6994762876935078
667;0.1231436166970432;-0.6291936323683887;0.5242812847939133;-1.4769256680987128;-2.089609281791497;-0.3284182196356967;231;1.1664276997593916
668;-1.4608326864860062;0.4613972681694186;-1.9351881282495704;-0.7656233157971228;-2.341460058735428;-3.022770871658406;414;1.256637061435917
669;-1.3481773785824065;0.9697546390352648;-2.1383931741572164;0.1949634054188303;-2.8846637680055607;-3.24396956025813;668;1.2566370614359172
670;0.4840406909451853;-1.083362780627216;0.993976446533694;1.2619384869481245;-0.2174386999087303;2.5940722614248117;655;1.2566370614359172
671;-2.354356320394836;0.594039718548494;-2.260527949024924;-2.905355521325481;-0.4719183489210868;-0.8059555990641809;537;1.2566370614359172
672;-2.407873155947713;1.527226589657028;-2.4230350392894486;-1.3891705439403337;0.0159688255502973;1.4909461394339956;559;1.2566370614359172
673;-2.62852858909478;0.2879996977083063;0.1224605324642231;0.3654460400192735;1.5543370478659106;0.2045643811055558;249;1.2566370614359172
674;-2.730410548714631;1.3680808727281484;0.3314930992918015;0.9429031796990796;-1.8238844722783496;-1.164761777683538;185;1.2566370614359177
675;-2.3160366984186926;0.251283585223706;1.3562212711890715;2.1883595089824577;-0.0228327820260668;2.3311271391779087;321;1.2566370614359172
676;-0.3510893756874468;0.045752699446357;1.618330831225314;3.1801972422170035;1.0386845226875854;3.0216079531813875;650;1.028710181682534
677;3.25391081572709;0.1154296789131805;0.8355255665907011;-2.288099624081961;0.6236294782899875;0.372310350811096;514;1.0635127186643498
678;-1.8393654147351768;-0.0949976387260342;-1.616385540268397;3.23922563505242;-0.428564239262883;1.4047083192972782;459;1.2566370614359177
679;-0.056003372364364;-0.9413124631316244;2.3071508889586125;-0.7373190910732181;1.437379100871126;0.2574937429648739;293;1.2566370614359177
680;2.2773969884154166;1.415755420556292;-1.8715538612252776;-2.3749821015935515;-0.4303906931878052;0.092068490115586;289;1.2566370614359172
681;3.1682081756131364;-0.5434751338950354;0.7163529794458905;-1.307865259658988;0.6402238954321198;-0.4891669997145735;514;1.2566370614359177
682;3.3661213673467563;0.7696020571663539;1.9992628542401625;-1.2448276782176886;-2.8607750367536933;-2.410131859269005;593;1.2566370614359172
683;2.010125147989567;-0.0953284239952805;2.0594535937159755;-2.260888123382311;0.3775569990946106;1.1395485623834425;359;1.2566370614359172
684;-1.480047305628606;-0.8737288787123694;0.5176831341866321;-2.132650912789714;-0.3386060722498135;0.4432206817114601;103;1.2566370614359177
685;-0.3658690113460099;-0.8906679296140152;1.9105900629525248;-0.4413404814871725;-2.119175444435013;-2.595320348853866;222;1.2566370614359177
686;-1.3292357142684583;-0.6443567169514002;0.1203417512648781;1.1876300322749178;1.125797955568049;0.953352776659834;119;1.256637061435917
687;0.3691263670831513;0.7187077789826279;0.7506976282355501;2.8591659499005218;1.9319598359770365;-1.3046447937146275;425;1.256637061435917
688;-1.6505531220045997;0.1725162104512417;-2.2833210785116496;0.4686705878005759;2.2755751090950858;-0.642263348276191;369;1.2566370614359172
689;-0.7429546683148793;-0.0613514714229622;2.308723178285569;-1.3868425998752096;-0.4750712591654106;2.72524592551854;898;1.1745349852027374
690;-2.666700107348755;1.0575249915851443;-1.175765503909615;-2.3408461359789303;1.213052977820907;-2.17269167683405;300;0.7975541189007015
691;-0.3752714939713715;0.0057133711045507;1.6539272797502007;-0.8151527867829735;0.9316066956205624;2.3616150900144897;97;0.9488151421045656
692;-1.7502864645343537;0.7543384424886392;-1.7649813595451769;2.6375105613241274;-0.9740086586803616;-2.4202492865016687;61;1.2566370614359177
693;0.6054843852172507;1.0678339043003149;0.4721887908110531;-1.4287041656916102;-2.305769841700633;0.2426284234888677;436;1.2566370614359172
694;-2.9514045950271224;-0.0668754023952425;-1.3591303986399514;1.9501655369804085;-1.783008206857532;2.6990942392717403;346;1.1758326651129345
695;-0.6732398120065055;0.6168611123491442;2.751885944403218;-2.0758284070009845;-0.7790637274313185;3.317528065837796;689;1.2566370614359172
696;2.1492848261674427;-0.7325412602189756;2.110216557699716;-1.9817994022335592;-3.0584669125861352;-1.955165539723052;593;1.2566370614359177
697;-3.122916721821691;-0.6447853838301283;0.2790139623404695;-0.941118310997438;2.7802797451924555;-2.7634224726205776;634;1.2566370614359177
698;-3.003490752917241;0.4786191820266411;-2.478636122898414;0.3151810567737237;0.916517512867575;-0.5051222449128261;409;1.2566370614359172
699;0.6793954222625062;1.6954493681023466;-1.9093203682072415;-1.023151612089513;-1.4700457412117622;-3.3029398216365387;220;1.2566370614359172
700;-1.5179851169370946;-0.638151318229665;-2.1374178564093738;0.4438698554288631;-0.0090023560901937;-2.454458132418221;1215;1.2288648513269569
701;2.988329892337576;-0.3860063453961426;-2.0394269080010368;0.7871987255108847;3.146653809218876;-2.4699315899033207;583;1.256637061435917
702;1.0084856981908097;0.2711598174888087;-0.5213397323978141;-0.8953324314893041;1.176341818309923;-1.7342153660955144;382;1.2566370614359177
703;-2.7514366122581944;-0.4507672827885064;1.9467321672232611;0.747851580235019;0.3750542200341099;1.3197864172356752;619;1.256637061435917
704;-2.247701599687377;-0.3543689157383223;-0.4756560753070397;-0.9261671027871016;2.7731924886639003;-3.1621615297341883;697;1.256637061435917
705;-2.9300243307672287;-0.5166917263171664;0.0372236382198181;1.095170522630551;-0.971458752380747;0.7952109285145477;287;1.2566370614359172
706;-0.8158887396061694;1.019728513527843;-0.854596400612021;-2.4458735311498483;-0.4666989446929691;1.2152848756996633;67;0.9756676514702984
707;1.262205550153265;0.614507748630625;-1.6951700143178472;0.4048880226343965;-0.2215363067732439;1.2902559518129608;108;1.256637061435917
