Komment314/test_diploma/benchmarking/path_finding_for_benckmarking/pre_rrt_star_results/12_1_tree.csv
id;joint_1;joint_2;joint_3;joint_4;joint_5;joint_6;parent_id;cost
0;0.0;0.0;0.0;0.0;0.0;0.0;-1;0.0
1;-0.9489816111587918;0.0759741590531784;-0.2690715146848421;0.7145821506886902;0.1675677391765958;-0.2483796604041856;0;1.2566370614359172
2;-0.4816685101527528;-0.8579095873499781;-0.5148120577856363;-0.187234052897916;-0.5577053388918329;0.0;0;1.256637061435917
3;0.6349543603106481;0.4718401710760664;-0.6782899248944796;-0.5790538188107033;-0.0924711310656681;-0.3865295073891764;0;1.256637061435917
4;1.3237658461534976;0.777031512508058;-0.6604656414707244;-0.8072356476536715;0.8095723818377787;-0.0051287535942692;3;1.256637061435917
5;0.8200578734098977;-0.0128582658124067;-0.7102207898370105;-1.161975012399973;-1.0524285108232403;-0.6047173848433177;3;1.2566370614359172
6;-1.583692968968366;0.1735944563432059;-0.9094793898217834;1.2467591531240914;0.5236688582088042;0.340352756372994;1;1.2566370614359172
7;0.9339677965649118;0.168268643875013;0.5305145604362049;0.5426670515906361;-0.3000950740949559;0.1119653581671301;0;1.256637061435917
8;-0.6613541926238857;0.0389521268050571;-1.2280389210581677;1.7553558591810363;1.0043644625964818;-0.0047273509804254;6;1.256637061435917
9;-0.3275325745109703;0.3061606872959825;0.16808877029467;0.2820099424667903;-0.3921460119809231;1.0566753585189372;0;1.256637061435917
10;1.672620719640099;0.3239797257760697;-1.2582908086987308;-1.6820762429952103;0.721499964448401;-0.353960104571151;4;1.256637061435917
11;-2.181516137546613;-0.2073594861192602;-1.2707696317309192;0.4575538329420162;0.2878663358418117;-0.1769863501621455;6;1.256637061435917
12;1.2840641133487418;-0.2212994320542512;0.6909152170017208;1.2514337430504017;0.118011822075581;0.8877965364466792;7;1.2566370614359172
13;0.8696208840525999;0.0587854274658185;0.9078128319556932;1.2822318907538788;-0.6389468551860483;-0.7591712199779822;7;1.2566370614359172
14;1.4285752204553412;-0.2654424647607378;1.1736929864635604;-0.3005409182136854;-0.378412547281427;-0.0128668492068301;7;1.2566370614359177
15;1.320142761983444;0.7421219820205124;-1.062791780752259;-1.43920583110036;-1.7406273020701435;-0.8950203766137835;5;1.256637061435917
16;-0.9844768843554248;0.0764908399848162;-0.2968805285003828;0.0235216788986778;1.203173312340138;-0.4128779968954511;1;1.256637061435917
17;1.9361207038186776;-0.5379390003279558;1.145485347180929;-1.0232690722294626;0.0354375887155682;0.7306896947156576;14;1.2566370614359177
18;0.1172864730412825;0.2375048882209665;1.6585081353609687;1.8174824267462275;-0.3447698111473719;-0.9703874230869636;13;1.2566370614359172
19;1.6985642434097328;0.6830241324049997;-0.4876748238707717;-0.2310475693980026;1.679281885826952;0.5530660946215649;4;1.2566370614359177
20;1.31368222108102;-0.2376814794532971;0.7036684899870205;0.672444613158618;0.2125807223007352;-1.1534286926240565;13;1.2566370614359172
21;-0.8097131153496966;-0.1048308886705415;0.8777969479025668;-0.019508909246333;-0.7671557552368616;1.7218767805382498;9;1.2566370614359172
22;1.329710316311923;0.7412846378783795;-0.8732135047406397;-1.267859407711609;0.580661783340376;1.1209207855658765;4;1.2566370614359172
23;-2.7551697836787987;-0.9579140762027808;-1.2354372953152717;-0.2184845346124179;0.1263706114598776;-0.6268406469763513;11;1.2566370614359177
24;-0.3635132997472189;0.5627867887787427;-1.564966314568197;1.742586669268665;0.9476829953113995;1.0436661076874412;8;1.2566370614359172
25;1.9589223927384625;-0.789109107385024;0.6689037450262454;-1.7522822621151417;0.0544654990175295;-0.1391252560454624;17;1.2566370614359177
26;-0.1657368813197878;0.7235404115938578;-1.9433793397496824;1.325607122582036;0.0543257995171746;1.6753495932882725;24;1.2566370614359177
27;0.4308569652376626;0.4000865240486409;1.8056327332162012;2.3328621507899374;-1.1505459167500016;-1.6899987228037197;18;1.2566370614359177
28;-0.1589592926708462;-0.2822874025694958;-1.6160071085150896;1.648562639675289;0.7859248515654214;-1.0116539935737547;8;1.2566370614359177
29;0.8054989621887794;0.6791286089763612;-1.6342016559952175;2.1065984213814577;0.765221123411529;1.2122519719072449;24;1.2566370614359177
30;1.5741420620944344;-0.9519092881413812;1.6193412245714345;-0.8067061307015246;1.0372806458045305;0.7707940174168375;17;1.256637061435917
31;-0.6081213266298631;-0.0143732491044639;1.3834412907611593;2.566214705951099;-1.3543318256415644;-1.921636767811316;27;1.2566370614359172
32;1.7922650201867378;0.4495844764562823;0.0808748678564311;0.915652747847666;0.4446643320056547;-1.7673308183599044;20;1.256637061435917
33;-3.114451519640033;-1.1245006385822345;-1.4630930817235144;-0.4555067769904568;-0.9841838113355866;-0.3422981560265073;23;1.256637061435917
34;-0.6447016917626401;0.7991545540671748;-1.7006097855859248;0.5001740808731443;-0.5467210814420527;1.1829292442923247;26;1.2566370614359172
35;1.9881474898672071;0.6588556941575608;-1.4075164657228898;-1.5988021840073403;1.356283212348368;-1.3210614487000203;10;1.2566370614359172
36;1.6318493688122262;0.8802853408576923;-0.6600000950907048;-1.0122637309930749;-0.3461547894991866;1.8271427294319285;22;1.2566370614359172
37;1.0072578865782358;0.9724866438957566;-1.6787795893650914;-0.7014468675106325;-2.3179515865330407;-1.308710216141952;15;1.2566370614359172
38;-0.479530219642711;1.0534713319417208;0.0485422935570581;-0.0792636809471877;-1.313419225704512;1.1199674990123956;9;1.2566370614359172
39;2.224755414909136;0.6439215937914329;-0.751284647026924;1.228869947290278;-0.190502005485947;-2.1676945266964105;32;1.2566370614359177
40;1.3636218002458216;-0.0062364254805663;0.0047892902969495;1.8008470106916308;0.6014134825108062;-2.3786415456189176;32;1.256637061435917
41;1.8774732444046769;-1.1805611722705132;0.5464953490278952;-2.3363446062339825;0.3927286706167217;-1.1131547272721074;25;1.256637061435917
42;1.1558230013258133;0.7422213490821196;-0.9198967912292364;-1.3059632856262111;1.756060028128143;-1.9504053512955808;35;1.256637061435917
43;2.455092029509637;1.0235215450583106;-0.8615093569770481;1.9093667521757527;-0.7711057429167225;-1.4129365939223644;39;1.256637061435917
44;2.404660489548815;0.3798245450937971;-1.391555480964588;2.490663589283976;-1.4389044740200645;-1.7250863729366857;43;1.2566370614359172
45;1.6491328745745877;-0.5483395985116706;-0.8266153239878173;2.024988973247401;1.1331045664141868;-2.8024051821721714;40;1.2566370614359177
46;2.550067932775994;-1.1272930055245254;0.1681832385341678;-2.004451164752985;0.8115029551867917;0.3382628613021747;25;1.256637061435917
47;0.8871881240457385;-1.499476730834077;0.2878034139732496;-2.42736592249911;0.6681064613392032;-1.7011391030644571;41;1.2566370614359172
48;0.3099049384305378;0.5074537887055759;-1.05962931272658;-1.2906580119834312;-1.768493703452643;0.02517233779428;5;1.2566370614359172
49;-1.2454960012567624;-0.1886850398382145;0.0728088737897921;-0.3369171290966645;0.4994792956909685;-1.236841479098281;16;1.2566370614359177
50;-1.4269474968465905;1.1233013805596743;0.0709469016580254;0.417032859383004;-1.3745594671564745;0.4671960077482475;38;1.2566370614359177
51;0.7732822169487802;-1.3850154372009622;-0.3904574868999364;-2.5346474670803048;-0.1340918017928594;-2.362948386717549;47;1.2566370614359172
52;-0.7003570289336503;0.7805908744988438;-0.7427790345699286;0.4579232950738068;-1.3151200683468345;1.855593964004998;38;1.2566370614359172
53;2.077463848636456;-0.9316646777433792;0.1539472739045253;-2.546553371282312;1.0030924278575797;1.3316045196188404;46;1.2566370614359172
54;2.561633603103281;0.9552198014688502;-0.4321220747781228;0.1555525585528962;-0.2703558804507862;-2.4970751735971537;39;1.256637061435917
55;1.078474240729057;-0.0916449790618568;0.7385690047748639;0.8234560548853197;-1.0413419657153429;1.0170197376736798;7;1.256637061435917
56;-0.7090213854315308;0.7068329016669832;0.4815756961265117;0.3748645732926863;0.5481005547495795;1.5878110535780656;9;1.2566370614359172
57;1.8398597454474968;0.4617876543615213;-2.1292291272601216;2.269798077633668;-0.6269464134106519;-1.6904598297657798;44;1.2566370614359172
58;2.299139290351198;0.9172960199975406;-1.1554213804330329;-1.358955640952213;-1.108894850360056;2.257353309930613;36;1.256637061435917
59;-0.3535249657992245;0.7178604507972013;1.432933214962736;0.8911876460729644;0.7714846665707805;2.0685046019198947;56;1.256637061435917
60;-1.9412269020617448;-0.0266116854537063;-0.0711103126785175;0.2988247459977422;0.9788365863592094;-1.8803968920495544;49;1.2566370614359172
61;1.4875359248692783;0.6313891829305469;-1.4015621146050503;-2.1614286287972453;-1.117325435277674;2.6235154732262487;58;1.2566370614359172
62;1.5590413652992137;-0.5958951950854047;0.4983337968263635;0.7218600958747733;1.2654916802744336;-0.6661989553467549;20;1.256637061435917
63;0.2431294848808901;-1.0278930275315854;1.1596842884141214;-2.5208895700469185;0.2635990038053613;-1.6042640845921483;47;1.256637061435917
64;0.671903866276844;0.4311081869515989;2.510906259579761;2.4980316591696585;-1.5979958550273503;-2.581720423421318;27;1.2566370614359177
65;-2.900548576788726;-1.111434757625957;-0.9961143063377276;-1.1558721527178293;-1.7892578950174316;-0.7624010024510072;33;1.2566370614359172
66;-0.5476129382828909;0.1758709088103057;-2.0059308286111337;1.278316388153023;1.0300370900122349;2.0939232096238847;26;1.2566370614359177
67;-0.4509402267531258;0.9944842715895496;1.4942983907010887;1.35164083275534;0.024601394259429;-0.4200883983258187;18;1.2566370614359172
68;1.3568597758443384;-0.840916793551933;-0.6760474505441372;-1.4082574632980474;-1.7884348110790007;-0.5626298617521767;5;1.256637061435917
69;-0.9092388296244996;-0.4956946616071382;-2.072938362263075;2.086093054657797;0.2930748454655116;-1.5839777648726583;28;1.256637061435917
70;-0.5134366479562611;0.8869807957126925;-1.3140912502532132;-1.8901638393522604;-1.1950197384255004;-0.0394348134324904;48;1.2566370614359172
71;1.1305346367490143;-0.4360092016015394;1.2721349369794088;0.1529494586248264;-1.722945554629897;1.5259249837812892;55;1.2566370614359172
72;-2.464160837402143;-0.2783711293193243;0.097733467637966;-0.7508610648530673;0.9908050566145484;-2.214765278615682;60;1.256637061435917
73;-2.5408861570962005;-0.1644087782304427;0.654209815793687;-1.2964680881709585;1.7674717604316037;-1.6234122594656548;72;1.2566370614359172
74;-2.232137274098857;0.689752737262715;-1.0841688214054035;1.00467321250372;1.1515905301895888;0.9797506685217146;6;1.2566370614359172
75;2.050957446238632;-0.205639552089086;-0.0070682548061261;0.6735471095045996;1.9838128486241893;-1.3073737577613052;62;1.2566370614359172
76;-2.7196846599522795;-0.2004131457078976;0.7250537211173481;-1.4241053514347666;0.3121363183917145;-2.662411351974527;72;1.256637061435917
77;1.548445132155046;-0.0679587053892403;-1.1096637414249757;-1.5119677268589873;-1.193160162028806;-0.6878004455637569;5;0.9177918181816876
78;-0.360095557706247;-0.4390990358568513;2.2131399545056247;2.144284397472284;-0.6257042181603751;-0.337844849899777;18;1.2566370614359172
79;2.2707433171857287;0.2455325290360839;-2.3799541748089514;1.9124572329345504;-0.7022980580441487;-0.6178572130230902;57;1.256637061435917
80;-0.9560965854030754;0.9393978060271642;-1.5228341772165432;-2.83696422598038;-1.2135654016841515;-0.7028297317741194;70;1.2566370614359172
81;1.551717438206501;-0.9097971136760332;1.0921949844799428;1.0675698921044865;-1.5410489430683365;0.5155671451164388;55;1.2566370614359177
82;1.49124611577722;0.254127358009851;-1.3515867458098962;2.4403606930377126;1.019307833751811;2.032272084090353;29;1.256637061435917
83;1.2471560479508617;1.2202893681480982;-1.4128847683535506;-0.3436529457956692;2.1372162373376566;0.6442589082186767;19;1.2566370614359172
84;0.0138146181097099;-0.6490497822793142;-0.3492364931258829;-0.3983992579512973;0.8504034673067329;0.3921811909687048;0;1.2566370614359172
85;-0.584563278520418;0.932694920413118;-1.5247284287653071;-2.2712663218893234;-1.304004815861093;-0.1864769985344616;70;0.4798489900408135
86;-1.1848285278376085;1.1567278203810436;0.2923190165869596;-0.5642150687019325;-1.7887323333903382;0.3780095428501329;38;1.2566370614359172
87;1.087715231940269;0.0441644589587702;-2.0892933137037484;2.75059855002983;1.0577131667359507;0.5886214471322202;29;1.2566370614359177
88;-0.0343052130696264;1.003484470503347;-1.0356996468796833;0.3918881692207145;-2.033426924692151;1.1629885461921787;52;1.2566370614359172
89;-0.1335321409309786;1.1875448653067382;0.8658629744402208;1.4774408121267188;1.554808959869583;2.2453605633157;59;1.2566370614359172
90;1.4934044295333984;-0.1040673849537218;-1.2105364322110046;-1.55633292600609;1.104782048744671;1.7259126187361815;22;1.2566370614359172
91;-2.788914365947372;-1.1225451569134872;-0.2713722443615318;-1.9173250406903692;-1.5234603803148257;-0.1372280740939925;65;1.2566370614359172
92;-2.8052741856513075;0.652357540474453;1.148327950978616;-2.0326621084728345;-0.2226591244822629;-2.5670975117786683;76;1.2566370614359177
93;-1.990398221159524;0.1094668707775612;-2.3002189747905866;0.2833868124426922;0.7394914618254391;-0.5619101743278094;11;1.256637061435917
94;0.0461822646983872;-0.5901893205906219;-0.4096744624567295;0.482554230637362;1.6597000414808742;0.7662557069612158;84;1.2566370614359172
95;-2.283201295917734;0.6563233319773887;1.6133634269031738;-2.4948553816473016;-0.6653849062727117;-1.7420677299045753;92;1.2566370614359168
96;-0.7020156168880713;0.8263383009084547;-1.043274495074653;1.9127298101290773;0.4212606305738573;-0.7521173650403111;8;1.2566370614359172
97;-1.461674821326903;-0.349878020178985;1.0702122101429234;0.8649334237855741;-1.0138580298587343;2.1843815432678;21;1.256637061435917
98;1.9085524086570709;0.6110602501380117;0.1061900454509744;2.335496007469211;1.2376454373950316;-1.931193909415288;40;1.256637061435917
99;3.144091504028585;0.3222077924788908;-1.2629332694212692;1.8250648696609453;-0.1253247770972305;-2.2624432475471896;39;1.2566370614359172
100;-1.0356819741519974;-0.1382507023737915;0.4576966646353065;0.6257990618273089;0.921386778158981;2.333050837717512;56;1.2566370614359172
101;-0.135810229134214;-1.029759103774017;1.9053117151470944;-1.949762688311976;0.8712949980775073;-1.1751984496541132;63;1.2566370614359177
102;-2.172358697261433;-0.7199969617333025;-1.5523445789342571;1.3468339967534797;0.6766410355567273;0.3661584153269962;11;1.256637061435917
103;-0.9288251579187689;-0.4113330477548205;0.3001140853487294;1.1897706819474012;-1.3807496783606168;1.6821881567563384;97;1.1717864692453208
104;-1.5810336002525447;0.1808239615298275;-1.7658212259601402;-2.845140426990668;-1.9239314914710428;-0.9251507079564458;80;1.2566370614359177
105;0.9570911806157828;-0.3185746718990506;0.3222824907959045;2.352332693014474;-0.0676569597016268;-3.05961197999125;40;1.256637061435917
106;-2.8431693753204934;-0.9649088580295024;1.5686748377621829;-1.6677743832275835;-0.0808693837804163;-2.8945963378002166;76;1.256637061435917
107;2.5258797642680264;-0.2291314456086412;-1.5622015989067215;-2.179583817782101;1.0071583956950791;-0.0022820638764271;10;1.2566370614359177
108;-1.7933049540606694;0.0851901367372683;0.1068017416836178;-0.2428231222030511;1.0656937471316317;2.5712987528582887;100;1.2566370614359177
109;-1.154235361727242;-0.0034126966789602;1.7045233618634914;1.8021547004838645;-1.21583177084232;2.3918706073830918;97;1.256637061435917
110;-0.5395980292315803;0.4962376194927191;1.3633671805929437;1.446051682568389;2.1382604720787914;1.6559285394786154;89;1.2566370614359172
111;-1.1549459613232298;0.0375025158427552;1.2066069883420778;-0.7277003035281544;-0.2382442371993585;0.9800589453161715;21;1.2566370614359177
112;-2.406764946057005;0.1729114315962896;0.88157950821822;-0.8187118896144628;1.5783618954563667;2.552552378043018;108;1.256637061435917
113;2.36865006381056;-0.3467148291620218;0.4651533196526017;2.194987482761357;0.5628783781601718;-2.669094028344818;40;1.2566370614359177
114;1.1091429019377417;-0.3494555131135372;-2.004857508777216;2.4660198889825526;-1.1809248395873817;-1.8523571015406088;57;1.256637061435917
115;-0.0786098613067499;-0.8416506630026326;-2.3630609033964656;0.8394565484742358;0.7933981300316892;-1.228438510490956;28;1.2566370614359172
116;-0.5493620410044795;-0.085729773256589;1.343347423608395;1.7651248277138565;1.1363737331878383;1.2893636450374228;110;1.2566370614359177
117;-0.5323964093530591;-0.0272194292449004;-0.1784099749606293;2.4041151738711752;1.1259258017863123;-0.1487453616923681;8;1.256637061435917
118;2.3179632251124187;0.4206707381970471;0.5341226926648347;-0.1247191194094956;1.6106708022018978;0.8110756241278294;19;1.2566370614359172
119;-0.4332609641593867;-0.838881159352596;0.359054050448606;-0.614313307822621;1.44616714102356;-0.2711403375693453;84;1.256637061435917
120;-1.8954457108731004;-1.2037132181874806;1.998895002289767;-1.3118626880893878;-0.6165308299205455;-3.0534463551342523;106;1.2566370614359172
121;1.2911945779744347;-0.3804065109871309;-0.6433601524612349;0.4040932718309781;2.2534229808838417;-1.956366227042068;75;1.2566370614359172
122;2.61295571520142;1.2126802333129898;-0.5186278823537949;0.4480609128725035;1.6844965737695683;0.5708351623610686;19;1.256637061435917
123;0.9634914247613158;0.1330884339318534;0.8354582351178597;2.2350383726845013;-1.12199955961302;-0.1123414169813426;13;1.2566370614359172
124;0.4647638547083608;0.5750622549858637;-1.595549276535213;-2.063748510463713;-0.5308168614373954;2.995989018812826;61;1.2566370614359172
125;1.420491848163441;-0.7808519255071928;1.023971392405224;1.6334042670895497;0.941906610465084;1.4461823035232473;12;1.2566370614359172
126;1.090886247190964;-0.474365763235634;-0.1099222645635724;2.369265653827441;-0.7893453096284474;-2.1490940119877284;105;1.256637061435917
127;1.924075914997148;-0.0027881955178248;1.424230083261239;1.77841056496324;0.7901299544849214;-3.012892159772291;113;1.256637061435917
128;1.7826430798103443;-0.8822624493297755;-0.4503215114186107;-2.8693695185798056;-0.2342414741325344;-2.7894624847528844;51;1.256637061435917
129;-2.965147584438228;-0.5894397000038216;-0.8124992762492771;-2.230278205671234;-1.4375114100119075;0.7932189985976656;91;1.256637061435917
130;1.4357089124321032;-0.9445067602659925;1.786420185452079;1.7628046602029357;1.811377408104753;1.891233029266664;125;1.2566370614359172
131;2.5710539184158554;-0.8751640643579712;0.3736524244272546;-2.6303095345299425;-0.6935190462448616;-2.687109880966749;128;1.2566370614359172
132;-1.5535033694418103;0.9254851809515652;-1.117957160511469;2.624543621202198;0.4208275882644605;-0.1759067976900014;96;1.2566370614359177
133;1.040469715204533;0.8186228627063403;-1.2062100296579157;-2.592835806002708;0.7710557489841119;-0.670502066903364;10;1.256637061435917
134;-0.0826832330891631;-0.8272507106452129;2.3373961400323964;-2.6085041992185665;0.3703941607142219;-0.3604803389638447;101;1.2566370614359172
135;2.9241248760903558;1.3038957859321805;-0.998904403188836;1.1650449874667923;2.50220611783657;0.324645027910394;122;1.2566370614359177
136;2.589826085232572;1.0341977461660818;0.534532530971722;-0.0293344762704765;0.8825111395423424;0.0432885393735488;118;1.2566370614359172
137;2.1686306978783243;-0.8142934601908663;-1.453219103171138;-1.9729025244985;1.44570106006206;-0.930819201307035;107;1.2566370614359172
138;2.8790503736877087;-0.3501670777785282;-2.5535454216133258;1.0998373375869557;-0.919107043083072;-0.9595442867464992;79;1.2566370614359172
139;-1.0466282792154231;-0.4302215189102321;0.4013438698166427;0.3857340993729716;-2.2533829723497734;1.2991852934710584;103;1.2566370614359177
140;-2.86405521895656;-1.4772205647232486;-0.9998972966649172;-2.027316373248936;-0.5772885155681456;-0.0392083374668088;91;1.2566370614359172
141;0.106686267913083;-1.5689792726607394;-0.9732295326202788;0.4276495327414966;-0.7503902457774514;-0.3193734232358459;2;1.2566370614359172
142;-0.5784168334925497;1.2045465277841831;0.8975235964314859;0.7302774955471611;2.72280561595038;1.5859832886687957;110;1.2566370614359172
143;1.1567827380139215;-0.2177903795115106;0.8895604363784793;1.364052986555103;0.4120655526547255;2.352387545646813;125;1.256637061435917
144;1.6451803577961108;0.2516995217929348;-1.877289405621899;2.825448671316048;1.7514283562611863;0.5135578562765606;87;0.9440665619540642
145;-2.115556571077664;1.106468925657165;-1.0768721696725714;2.354560589520068;-0.1865183488612951;-1.063053846180756;132;1.2566370614359172
146;2.8896236594327496;-0.8784736644064934;1.1409626476882877;-2.034682581377341;-0.0006470815441015;-2.919555714053092;131;1.256637061435917
147;0.3697602614503061;0.809974796909429;0.2895443375078449;1.3355511856272029;2.309492996447649;2.756682842197121;89;1.256637061435917
148;-2.0027774429543355;0.2333782987792994;1.0713872976253969;-1.9320020100245792;-0.5428138066456671;-0.9077710508756124;95;1.2566370614359177
149;1.3342661364979411;-0.8003657202470195;-0.0674540478389275;0.9757230408160222;-1.317468117116362;0.1740026596840869;81;1.256637061435917
150;-1.700598640419924;-0.1469809218754589;1.1373268956772966;-0.3798401900936101;2.3545160940685803;2.8956329812423958;112;1.2566370614359172
151;-2.0933848749158086;-0.6353156286328694;-0.729577619834116;-0.5799231983962153;1.3305858447871672;2.865620797903612;108;1.2566370614359172
152;-1.7624599263716223;0.507945041490295;-2.348648965827953;0.4571465701659952;1.63371269779718;-1.2941850196626377;93;1.2566370614359172
153;0.0123281412929379;0.4513841149795665;-0.2930509264379898;0.5417547188645131;0.5630751247027656;1.7004952542364336;56;1.1074384471489414
154;2.195054845475774;-1.2753459663736642;-0.0621034020874503;-2.823297700220147;-0.3835182680931862;-0.6040187845378739;41;1.2566370614359172
155;0.6886502553111076;0.2845873376839221;-1.649080064858893;-2.960334281183482;1.175512071790308;-1.4923243806863424;133;1.2566370614359172
156;-1.3187938784495306;0.2817825935810556;1.9465506883074524;2.334431256457218;-0.1841894146564597;2.6459165388615995;109;1.2566370614359177
157;-0.095418405175776;-0.3930393384903694;1.9129114031895744;-2.996356588521821;0.5186212659886327;-1.016956014213955;134;0.9860274108515203
158;-1.9193168738928328;0.8168562806973679;-2.0747007675048468;3.1625978988473755;0.4462482471141702;0.3015971300988699;132;1.2566370614359172
159;-0.3572725388662935;0.4368579116958411;-2.4799848625258325;-2.2748029423935625;-0.7516756365983523;3.089495990421605;124;1.2566370614359172
160;1.3568278394396804;0.2946855505594047;-0.3709452695610514;0.5439135755176816;-1.4452888823755123;0.4648392186391779;453;1.1127272712103533
161;-0.2320228572162539;-0.6638175683323904;1.4853272129710045;2.64933922828547;-1.6071106507383366;-2.53526468464774;31;1.0104230621719112
162;-0.8540608182385452;-0.0831198365885215;1.4751989532823342;-0.8351900003834898;0.6074759885172911;1.1943989329391211;111;0.9746597510290927
163;2.3235950406764787;1.6113021655405353;-1.2907972690413327;0.989804142293094;1.1403091907915297;0.182716027034041;122;1.2566370614359177
164;-0.5779040825164123;-0.2321130484035543;2.11344672566392;-1.242744397600012;-0.0305671723880926;1.901587241315271;162;1.256637061435917
165;0.9509579598788908;-1.0266570786395923;2.3360732309533807;1.3713940890251428;1.798187361971739;2.8303335885192915;130;1.2566370614359177
166;-0.9641134717333956;-0.5774055536229404;2.303519818857096;1.4773727060533235;-1.1375388262456243;-1.0308498865241429;78;1.2566370614359172
167;-1.6119553342426616;0.6372892212356658;-1.6476453816251446;-2.6814027155644173;-0.3598585720924399;-0.1651273628191403;80;1.2566370614359172
168;2.0788062732758483;-0.2310791510434512;-1.7102182601650693;-2.788108325323283;1.789596974808637;0.6099573222270364;107;1.2566370614359172
169;-1.007331544272861;0.2810516686721555;2.194898044583155;1.0043707425275517;-0.5385839469841378;-1.5268777134984577;166;1.2566370614359172
170;1.9062969594386308;-1.1021847195741343;0.3288938924085299;0.9332874515365374;-0.1338367714124786;-1.543401202684058;20;1.2566370614359177
171;2.5973544677707268;-0.6486192537049486;1.084183940613906;-2.5008269861640158;1.1706415461617463;1.9088669129984168;53;1.2566370614359172
172;-0.9863401200984724;0.7858545712769368;1.399491454126924;0.496847223790251;-1.1968798255501;-1.5431523519762689;169;1.2566370614359172
173;2.8943726740649938;-0.2414444659692161;-2.4518657795262238;0.9926457861557904;-1.4531695283017012;0.1629662069842841;138;1.2566370614359172
174;3.0208702892419965;-1.2180629058141876;-0.2623729060079579;-0.9288574350287336;0.7388698653274964;0.2971941414031025;46;1.2566370614359172
175;1.2298698636959866;-0.7274972870887555;-1.0641460644475953;2.3571519811982817;0.6760101544415852;2.6152241262940947;82;1.2566370614359177
176;0.093121142097154;-0.4653759533865618;2.07771859118605;-1.5529922059248584;1.428403814469563;-1.2458964183242291;101;0.9345893728532316
177;2.0421353867719705;-1.070425740207027;-0.985155333388566;0.2964011131320238;2.7754797851557327;-1.5847034558009774;121;1.256637061435917
178;0.5228729381112782;1.3808677453412133;-1.4513484846984437;-0.7118764553011012;1.949948226168525;-1.6378849449219943;42;1.2566370614359172
179;2.7845401954573217;1.2589446091914642;1.1210863274449796;1.0141337109330766;0.6714307762979332;0.1585527289706601;136;1.256637061435917
180;-1.0969937166298966;-0.5027228774208973;0.4731688641435166;-0.3483866580793298;-1.7705474023592016;1.420566679130382;139;0.8942867935047116
181;-3.163224162867257;0.0442283908655375;-1.305641840804991;-2.283063782499217;-1.127684798971705;1.6856307246859232;129;1.2566370614359177
182;-2.888220240681127;-0.3794393980332045;-1.2853191030863305;-3.1831986744744407;-1.3350183354691898;0.1711274279382873;129;1.2566370614359172
183;2.083282650997511;-0.3434502754018969;-0.9524705206562114;2.9542889730830075;1.7073349799157176;-2.4289182974374985;45;1.2566370614359172
184;0.1002580050589382;0.240840921293569;-1.5398842685403873;-0.6544325318295501;-1.726579651200444;0.5695834010652473;48;1.0240127614002437
185;-2.374803188240091;1.3342163867955947;1.27988565069713;-3.0322078980671883;-1.4768016390022425;-1.5121665871346337;95;1.2566370614359172
186;-0.7628490114164622;0.4430840913084565;1.8156880738769188;1.1565589604996782;-1.9550620246068688;2.892850872980522;109;1.256637061435917
187;2.3413953973488457;-1.1986926582053978;1.3025663842607331;-2.2497089344913483;-0.5299990461216013;0.3848327389678839;25;1.2566370614359172
188;2.56958187645343;-1.0760908570625562;1.1211238424310128;1.1622703878351957;0.4598708110275663;-1.2178881290621075;170;1.256637061435917
189;0.460977953486461;0.2084719153864517;-1.6921519939998382;-2.181229455015992;0.7757474419936532;-0.7828371158132049;133;1.0612706707020745
190;0.8214334207433116;0.1066006440814906;2.12150884244815;2.3634508900646125;-0.4870838476462043;-2.7999053246186203;64;1.2566370614359177
191;-1.7474344120697576;-0.936804907884454;1.878055243083016;-0.7982411134775871;2.750205721376829;3.1654719837880063;150;1.2566370614359172
192;2.829959661385375;-1.2796695742780204;-1.5033943423491098;0.6724398695141348;2.131104188293427;-1.2855548173852769;177;1.2566370614359177
193;1.888674924140119;-0.5030464115362011;1.4704474009286483;-0.2562886877255478;-2.398705418391215;2.1059344095981345;71;1.2566370614359172
194;0.3388037187144069;0.1412606558426406;2.1911147862998672;-1.758529874927236;-0.5828978910851323;2.050715975076811;164;1.256637061435917
195;-1.7364376449429222;1.309889629513553;-0.4436254017917093;-0.8254774747253895;-2.580959551464775;0.260071637484609;86;1.2566370614359177
196;-0.1961857243209604;-1.0655886024988772;0.0757902742587879;-0.1800982211099188;2.3823557794143606;1.0783044000605235;94;1.2566370614359177
197;-1.467013000720638;-0.5750056798442519;1.921208036603369;3.0425938693176526;-1.2844847870011509;-1.843378957183487;31;1.256637061435917
198;0.1591900680797104;0.7802665844027542;1.6233769445723674;0.4291550506323304;-1.2097316870698935;-2.00358036270768;172;1.256637061435917
199;-1.1093509360529872;-0.5393129974672008;0.4763198891925311;0.119534397613639;2.1351647736817814;-0.3439174008846689;119;1.2566370614359172
200;2.0428476780244464;-0.8077495375025108;0.8127377635530209;2.2987173954728566;0.5418445161093554;2.183593694528106;125;1.2566370614359172
201;0.1119416266235127;0.4667802001602085;-1.2424849079064657;-1.333177933531736;2.1873097171981644;-2.3008344151580657;42;1.2566370614359177
202;-1.8105955761983623;0.6090915386614566;-1.927455414367456;-2.4701279559238523;-0.1853702175782268;-1.34220288495101;167;1.2566370614359172
203;1.396963989454152;-1.769367190081694;-0.9044038230853586;-2.179331045609059;-0.4938496011648408;-3.085869690056888;51;1.2566370614359177
204;2.2213553762314517;0.2789744586974619;-2.029728923713761;1.0780153417519611;-1.3271097054356715;-1.515807557253504;816;0.902943708352448
205;1.938126911528642;-0.3751486271614099;-1.7201632381628884;-2.2809815933814823;-1.7976154061800134;-0.6289696512709756;77;1.2566370614359172
206;-2.18523647315425;-0.7927049626449948;2.262319907005125;2.8956441274339486;-0.7024205983378302;-2.577646289695822;197;1.2566370614359177
207;2.6614213742989934;0.5739024018986324;1.5499857249644102;2.318716441152038;0.6144442563982897;-2.4093393891745625;127;1.2566370614359172
208;-0.9248293097808872;-0.896717284874702;1.62153792847085;2.2097177094699023;-0.8067107873029005;1.7688599232116724;109;1.256637061435917
209;-1.040212712765279;-0.4943061256669823;1.3347859569376486;0.0829272007346668;-2.896659793187744;1.517839863381442;139;1.19531127048895
210;-2.1849475113149834;1.3629084194950016;-0.5292461138947504;1.4352444430672364;-0.1807784951275224;-1.6659559672343571;145;1.2566370614359172
211;-0.0983940766656666;1.0076961717076165;0.1990071790057304;0.765782538091988;2.436463530598241;1.2431508971416352;142;0.9787152505926416
212;-2.527979747283438;1.3245703679341103;-1.4943037954758531;2.809186975073146;-1.027365902259218;-0.5400656359290734;145;1.2566370614359172
213;0.8397112814333276;0.4131121106420604;-1.1646245856568216;0.0164323909214445;-2.5516345818625057;-0.6732173121732824;37;1.2566370614359172
214;-1.3165045440706875;0.1573832974325523;2.2365390157121547;3.236343697605025;-0.9570496031840044;-1.694171277605845;197;0.9085679738759884
215;1.902283545106611;-1.302858914533499;-0.1805683992624921;-2.8309135314320626;-0.114872480379404;-3.154726608544586;128;0.6427500826468634
216;-2.9861694404410173;-0.6828973055207661;-0.5487493842654905;-1.4056653816541782;-2.174944134563398;1.3191497197209492;129;1.2566370614359172
217;0.6242459462656819;0.2773469985653085;1.3504936139595836;0.7777895379868942;-2.3019681888681145;1.239395788495635;71;1.256637061435917
218;-0.555536651362466;-1.1329704314244202;2.194917523565884;0.9295876960181216;-1.510317099063495;-0.2229372451225848;166;1.2566370614359172
219;2.631612510914805;-0.6451705192356234;-2.2783978134753213;0.4424062109710471;-2.457309761222377;0.2400813289397131;173;1.2566370614359168
220;-2.879250691735193;-1.5214069209974832;1.431626129468535;-2.562871870839481;-0.2891624750281616;-2.25837556160902;106;1.2566370614359172
221;2.724605631601276;0.6953608648098842;-1.7690283889258938;-2.354719039213019;1.6127926014573666;-1.8382995494432692;35;1.2566370614359172
222;-2.639477751069636;0.8811351784405378;-1.002493797594474;-1.9087235962177624;-0.9010928331246466;2.252234818441231;181;1.256637061435917
223;-0.4181266698243936;-0.7172959255525244;0.8963190678402112;0.0713369107041584;0.7650947264055615;2.9146208547596357;100;1.256637061435917
224;1.6774415480729423;0.0203417483232495;-1.8736663356011207;1.0066072991113042;-2.03669585271872;-2.342509699780398;204;1.2566370614359172
225;-2.4388605153801075;-1.1553241878183325;-0.7431263862614386;-1.6407524682548806;1.1028237971368475;2.9749666948705333;151;1.256637061435917
226;2.3190331284874843;1.0285708151762671;0.0875091842222016;-0.9357787775066236;-0.0856805756601429;2.4997939881650098;36;1.2566370614359177
227;2.1693677922876646;0.4689662723942041;-1.3505679198244105;1.3677832444055031;0.9432370645097006;-0.0725117378590239;163;1.256637061435917
228;2.423009178722171;-1.411093109122854;1.4954381496893068;-2.1978127479569824;-0.3936633571293267;-2.041490777938761;146;1.2566370614359172
229;-2.18546492839966;0.0120980866113597;0.5938882276484059;1.1388039122544034;-0.2811441135058494;2.4767488109638185;97;1.256637061435917
230;2.263801635879839;-0.691503607324297;-0.2273649682943701;-1.2455332396716714;-2.479846751779722;-0.7312218304066646;68;1.2566370614359177
231;0.6854351417281381;0.5846419585793868;-1.019042346113217;-1.1448235695284672;-2.1162106025886667;-2.1165516427317583;37;1.2566370614359172
232;2.24198438792443;-0.4577240436656378;-1.652228117830608;1.211040869958944;-2.9237241080305543;0.6779858608824135;219;1.2566370614359172
233;-0.2013042974242231;0.761733270185901;-0.9403686154578914;-2.0852197587228;-1.242876390132332;2.5911527958579192;124;1.2566370614359172
234;-2.930912681603328;0.0294769225306608;-1.1322233743512005;-1.600148804349924;-2.3512593908111263;2.1310940439141124;216;1.256637061435917
235;-1.7128894456241928;0.9669303797180236;-1.8656888315874087;0.4917633135540026;2.530679137461715;-0.7223333546026884;152;1.256637061435917
236;3.1789598311238185;1.0321362823393592;-1.6719358337744006;1.9371600459813345;2.880933851828667;-0.1731249545499923;135;1.256637061435917
237;-1.7164262596621005;1.3489653843729918;-1.466854417014789;1.2079654028307787;2.9549884845427927;-1.484646089237736;235;1.256637061435917
238;-2.038118210898387;-1.1245171197447998;0.7483947803084494;1.412155268682782;-0.70717102805602;2.571303842269537;97;1.256637061435917
239;-1.9845622956109967;-0.7407746464890489;0.6415628099178183;0.7789449316822881;-2.5276284598058174;1.860828200303019;139;1.2566370614359172
240;0.4069083810863584;-0.7937067811464318;-1.1885323564733974;1.801281789218054;-0.0122469410571249;2.9303843327470998;175;1.2566370614359172
241;-3.4272112387089333;-0.3611654020148978;-1.2097844895073495;-2.71683630010019;-1.539526847818087;0.0844901944670354;129;1.0830004445998185
242;-0.2167080791093;-0.897847954329738;-0.3138309396762438;1.7415330441719494;-1.3981841817420118;2.0741767482917046;103;1.2566370614359172
243;0.1822961960833572;-0.646740438372372;0.4489517713267882;-0.311836098710285;-0.6563056723594655;1.862365776905384;21;1.2566370614359172
244;1.690551724845355;-0.6191873582213538;-0.9361168749725428;2.9605117381846204;1.8630004312567063;-1.85169738727216;183;0.7668053179289155
245;0.3665010481570318;0.9100884042254632;-1.3534328165099083;-0.4823269276032202;0.8787888790447719;-1.2866178990561123;178;1.2566370614359172
246;-0.0038908726023298;0.4356640909453897;-2.2577013050095704;-3.11393142900897;0.8010394087561792;-2.2288416118521237;155;1.2566370614359172
247;2.260115120084001;-0.5608831084046322;-1.7760394394794146;2.5130398441640174;2.0971312614046087;-3.118615510928699;183;1.2566370614359172
248;-1.7431989572489217;-0.8376226789316092;-1.783610839754176;2.8420873198990813;-0.0306717069722674;-1.5022289660966497;69;1.2566370614359172
249;-2.286502858443229;0.5717061122132393;1.6436892693443197;-0.3049898178034976;1.0564146535529737;3.089661267160217;112;1.256637061435917
250;-2.4883308123798686;-0.7063793372700111;1.12888351088205;-1.390531578863922;1.881072616512057;-2.6410439912124546;73;1.2566370614359177
251;0.500334625268746;1.1030768881403337;-1.951364213569855;-0.001775442373205;2.8881801112072933;0.4522468742112565;83;1.256637061435917
252;1.1369004078846896;0.3120295522952802;2.3785147887118243;-0.9118340285554016;-0.7133591165652953;2.4301677037498703;194;1.2566370614359177
253;-0.6846407990350556;-1.594338777044759;2.5126330494751965;0.1939456826744061;-0.8591094404956414;-0.7553133632100989;218;1.2566370614359172
254;-0.1089998622944471;1.101442181828159;-1.123742213045551;-1.228083837715458;-2.850418962271209;-2.468646811664818;231;1.256637061435917
255;-0.9945369574677748;1.362014437757778;-0.5337349675073821;2.557129247638057;0.7843518539260119;-1.3844959258717244;96;1.256637061435917
256;0.5801227133879333;-0.6579984316129324;-0.2883915337439966;-2.1454750943608296;0.6714878823703149;-2.812883006330284;51;1.2566370614359172
257;-0.66515555889244;0.3154516887226295;-1.895574498143968;2.426217476343236;1.7429210151838743;-0.252810822057504;8;1.2566370614359177
258;0.689049836708294;-1.0434981273220132;2.308933800713949;-1.050930197818291;0.846641527846951;-1.7416850384841829;176;1.2566370614359172
259;1.6410945845131246;0.3862001130463053;-0.383105055601618;1.888926630401283;1.7208926649922949;-1.045372737961228;98;1.256637061435917
260;2.655099773321727;-0.4168534565856624;1.6700366845055636;-0.8505549455200214;-0.0437780113234467;1.588760033641233;17;1.2566370614359172
261;2.681127582736241;-0.1899669989980569;1.4619991718002174;-2.724512011382954;-0.350345812030032;-0.0189731930774621;187;1.2566370614359177
262;1.6017779330301791;-0.9652094135899644;0.2854781658664981;1.0162270595749652;1.5188354620779931;0.3395052203302906;62;1.1600874087383346
263;2.832803858012485;0.8690880895767161;-2.575054095123621;1.1416252222329315;-0.2374974593861891;-0.4562479577287308;79;1.2566370614359172
264;-0.0118880369505896;-1.4980097084800454;-0.93118447929566;-1.8815447248452148;-0.5682420388300544;-2.156886816588057;51;1.256637061435917
265;1.809561240505272;0.5423602249807127;-0.7846366339868485;-1.0199644054210708;-1.0022390420862728;1.081994312580659;773;0.8880499136042495
266;1.3646369697449234;-0.6386088448119355;1.087972489096921;-2.583200422994936;1.284327106107939;1.5113091951949094;53;1.256637061435917
267;0.5321818768982058;0.6555899649081018;-2.887605285393118;0.5139207459627505;2.863700858851637;0.9367969472121808;251;1.2566370614359172
268;2.6469664839153766;1.630911892150248;-1.3922442961773165;0.8431991683295119;0.8209205464847844;-0.97503586723195;163;1.2566370614359172
269;2.7633083169282675;-1.4591821773150035;-0.9918157548844714;-3.051587669668237;-0.8294780779736428;-0.2768071973643413;154;1.256637061435917
270;2.178551275136962;-1.401255181493308;1.7227028554607793;2.3560516159088327;0.2511292484506254;2.724549552507765;200;1.2566370614359172
271;-2.8262069681915287;0.0429074247355694;-1.276419818916273;-0.7058480717980745;1.8172441444630043;2.691287185025255;151;1.2566370614359172
272;1.3796083813615567;-0.9235965882638054;-0.457138632418912;0.4816728487475707;-0.3572329796120361;0.6678687864155685;149;1.2566370614359177
273;-0.7461611439320553;0.7818996710746842;-0.2236681611214031;0.5117685000017509;-0.0641227112307141;-1.1942849608549293;1;1.2373678168190008
274;1.6170757953484438;-0.7650747216765242;0.7290369445469824;-1.139769511866083;-2.212285899322832;2.373762178048514;193;1.2566370614359172
275;-0.0472818743017093;0.3292881653409688;2.139369429302659;-0.7407263938242697;1.1904690267873397;-1.7016848528309612;176;1.2566370614359172
276;3.111746454800044;-1.3741497419873223;0.2226058014234726;-3.067527706470601;-0.0234110529641041;-2.074915431515626;131;1.2566370614359172
277;0.4548095702111908;0.4355988388108323;-2.272228579804993;-1.0692076875861287;1.2749292696333083;-1.261004010698649;245;1.2566370614359172
278;1.8082535162826665;0.339009420622487;-2.3702987556674526;0.721268094569002;-1.0431513645139232;-2.1129951851374718;816;1.2010038934152971
279;2.070563225396584;0.1387297004087397;-1.474602180477358;1.5143248731139476;1.2943629702464376;2.5631970375784743;82;1.2566370614359172
280;0.4846050738698549;-1.4721990446132365;1.4644316030963624;0.9153730308439404;2.027849722837271;3.208070154826314;165;1.2566370614359172
281;-2.240209700119024;-0.7933881658404243;-1.110134864596184;-1.2786373180332886;-0.8873750257826184;-1.2101408311984458;65;1.256637061435917
282;-0.2317722818526073;0.4124052045811922;0.3722033325997643;-0.4947776939782252;-0.6904914369953286;0.0960359889428028;0;1.0455324320142807
283;-0.5685323773428808;0.191384325441162;-1.891840609843352;1.4779650370925286;2.2039691285419822;2.4779359998011063;66;1.256637061435917
284;-3.0005275823968303;0.3274671398984677;-0.12602996360526;-1.991560347504718;0.5377387282325161;-3.01506033164625;76;1.2566370614359172
285;0.6420689809901838;0.7730360404655942;-2.177716305974428;-1.0240724152359273;-1.5114586224566795;-1.9431684353104155;37;1.2566370614359177
286;1.249491762103108;0.2526816017968201;0.1912988823333683;-1.3396101371987623;-0.9308569277984472;-1.286729269970384;5;1.2566370614359177
287;1.667939269834178;-1.5528175847392496;-1.3088041194366065;-1.2074308584880564;-0.0530954805621387;-2.690367981109609;203;1.2566370614359172
288;-0.5065845044438781;0.0175674714426453;2.1264367350513047;2.644529059165963;-1.0531505255199618;2.887021353682216;109;1.2566370614359172
289;-2.2079502498117805;1.2520817407567637;-0.7558653412402683;1.0106335319957866;1.5575681739512168;1.9745879598053648;74;1.2566370614359172
290;-2.294791590667549;-0.3103097477848608;-1.460673774761082;2.9294958855474627;-0.9574241745282516;-1.3409075411033855;248;1.2566370614359172
291;3.118515244658594;0.0363331300705971;1.976492979966696;-2.801421003099181;-1.3338675346389357;0.2951655317939924;261;1.2566370614359172
292;1.6934819204053817;-0.9997356469105068;1.6939893828534482;-2.7828657428487684;-0.9197725271219016;-2.5096908036288275;228;1.2566370614359172
293;-1.8872725029842576;1.1758700712156354;-1.316941398943697;-0.3895275025398819;-2.601753235644929;1.025093677255802;195;1.2566370614359177
294;0.9996146980903344;0.8410799320435276;-1.948532695989674;-2.8089673297816096;0.4448406673370326;-2.217782359049425;155;1.2566370614359172
295;0.8893536453990524;0.4667531164105485;0.3857276145349005;2.268626409140244;2.2265741579080407;-0.91674883131077;259;1.2566370614359172
296;2.8504717869320038;1.17872656478848;-0.9851061827594724;-0.6029278743539234;-1.8773707549462528;2.382584241743931;58;1.2566370614359177
297;0.5730003640270293;1.3778271289196704;1.3542821822052298;1.1048730293728282;-1.9923490244841204;1.6426228791407969;217;1.2566370614359177
298;0.6003790812878328;-0.546943772322015;0.0376388185323091;1.8979639706756912;2.55549504834424;-1.2350311240770844;295;1.2566370614359177
299;-0.0615605363481489;0.8189053239153271;-1.4804725443291982;0.2124029489022985;-1.920805649757044;2.300881253232215;52;1.2566370614359172
300;-2.092338374910772;0.4984065372286047;1.5763066023944106;-1.8965742504465373;-1.0079650070829642;0.1062858048876377;148;1.2566370614359177
301;1.374341705740463;1.0938898137722504;-1.4167769150241458;-0.6076616695865473;1.1639456589142247;-2.518385227983195;42;1.2566370614359172
302;2.333499016752932;0.8249801473956146;-2.0105995464934145;1.8061974849054052;2.9090885303400675;-1.0030539049153295;236;1.256637061435917
303;0.3703961214900184;1.2110897976151895;-0.5713741885662849;-0.5780375195894024;-1.4740260206034188;-2.5082096336403032;231;1.256637061435917
304;-1.7921827023318015;0.3031855331568337;1.5537031514911377;-1.2872466818968362;0.2382376994818441;-0.639940848743035;148;1.174451226397713
305;0.746314598303485;0.6091953855352075;-0.0430490916393069;0.8455071329242525;2.8539720117659244;0.5593815639601624;211;1.2566370614359177
306;2.3593030658025778;0.8317218670893369;-0.0841293997025725;1.3772959088070715;-1.54358277171764;-1.1914996462893996;43;1.2566370614359172
307;-0.0097941979933721;0.9526670185402256;1.351262151013769;2.3310102602857223;2.0184702661411937;1.1151246019840948;110;1.256637061435917
308;1.3818697289627346;-1.161219999748644;0.8725761436288038;-2.172075267127568;-1.8697427253712056;2.777852797997721;274;1.2566370614359177
309;-2.5235435061058915;1.3851819041076847;-1.1195597593635676;1.337842236561871;2.4265675540718865;2.6581981253997418;289;1.2566370614359172
310;2.396073702059474;-0.5850581170134539;-1.8938268518583548;0.9213164250622644;-0.1484709234421924;-1.4388334501343234;138;1.2566370614359177
311;1.9062890051995949;-0.1171800435861648;1.989976688907357;-3.05688188439089;-1.4879752846490026;-1.99065539920596;292;1.2566370614359177
312;1.0535940031305169;-0.9996934841711492;0.6244662539616345;1.5321396555471911;3.029965106172152;-1.9172590426841567;298;1.2566370614359177
313;-0.6350900689793021;0.2145270261061018;-0.7232216166440235;0.2170051472746654;-0.8087241410702845;-1.7892789304629069;273;1.2566370614359172
314;1.3001274035267714;0.9395493278792182;-1.713194528245341;1.3858333705360673;3.2769576356159096;-1.3155763903317652;302;1.2566370614359172
315;1.0058958388503976;-0.889569564800812;-0.8480520522293808;0.8171446117102366;1.639465372603342;1.279990028370019;94;1.256637061435917
316;-1.0129006982849902;0.784606795431965;1.507394310484128;1.3360894135283938;-0.5708396240301659;2.9077144917950664;109;1.2566370614359172
317;-2.361182676828381;0.1877079271281285;-0.4326865464507713;-2.3254966504511008;-2.335688672987885;2.5934614912234637;234;1.2566370614359177
318;-2.1849467215204457;0.3517098939728881;-0.3419770105855239;-0.581280160151661;1.1457908453167378;2.737010762483652;108;0.7577912676409622
319;0.0302932304669811;-1.549014042110714;-1.0723806761791557;-0.1815909814954402;0.2682841998388489;-0.7120560151147627;141;1.2566370614359177
320;-0.2872900019047697;0.308673083352097;-2.232985255392594;2.5802671544753872;2.1099535742339155;2.860027907690341;283;1.2566370614359172
321;2.610443006542053;-0.7186566337983482;-1.4923174224396418;0.8652009138048484;1.6517412153331237;2.6194130992637668;279;1.2566370614359172
322;0.5119042275437615;0.5281570350927928;1.7900875141615793;-1.999580042471637;-0.1677665303559648;1.0466133872862369;194;1.2566370614359172
323;-0.2087476977759639;0.3680256127098149;0.0174386445735673;0.5614411657745413;0.9088306043426146;-0.5882951455598192;1;1.184818004187348
324;-0.3717302222324279;-1.1581337234146225;2.558480404538809;-2.627051547618497;-0.7317614548308015;-0.7099595473292506;134;1.2566370614359172
325;-0.4795506390251167;-0.5592554375845451;0.4707422516812647;2.8988214285153324;0.8525327103245269;0.5944941961660289;117;1.256637061435917
326;-0.7985308367902741;0.6115786464140884;-2.5937636957895305;-2.771535653224947;0.2794896939530108;2.91368491082992;159;1.2566370614359172
327;-2.406349207659649;0.9166677552091764;-0.1084305687836117;-0.3746800205514419;-2.8405407983174245;-0.5098474591733889;195;1.2566370614359172
328;2.5034058175368945;-0.7633992879805742;0.7317156305209005;0.7340462629836015;-2.1653073392255866;0.370268526857632;81;1.2566370614359172
329;-1.3178529506942047;0.2234177845156791;-1.615149864050029;-3.109941988324171;0.1417919082686921;3.173699971904101;326;1.256637061435917
330;-1.4437810105825457;-0.7846837147441654;1.553624057849649;-1.254731135099895;2.413118336582982;-2.6424221048591297;250;1.2566370614359168
331;-1.9573761333279476;0.5871727086102388;0.0306110964198402;-0.6309101030487609;-1.756747659562202;-0.6067953292591951;327;1.256637061435917
332;-2.1221620886153434;0.922729836940785;-2.064839364307816;-1.5917581541385195;-0.5079895604769957;-2.041633318636172;202;1.256637061435917
333;2.747445537907647;-1.0667822268135136;1.802974534810113;0.7545001724562257;-2.063746329786732;-0.1485873976636851;328;1.2566370614359172
334;0.8624948361373139;0.6108789601935017;-0.4109947525806356;-0.5199796348731819;-0.521178552658991;-2.7074881603947616;303;1.2566370614359172
335;0.3624063333412472;0.47410436205589;0.0277565006115567;2.624070133237053;-1.3942187478481611;0.3606389892999554;123;1.2566370614359172
336;-2.269685823138059;-1.4520524083129112;1.317879718575825;-1.6661806107204633;-1.4241566864010504;-2.684900349609012;120;1.2566370614359172
337;-2.854271687438766;-0.2262732302779056;-0.0305266355127453;0.4560227685826353;-2.5404171735315417;1.904234114401341;732;1.1214256909540026
338;2.9292903003512216;-1.1243698338000003;1.5601348423956547;0.1253853572039531;-2.4540821333252776;-1.1158692839624902;333;1.2566370614359172
339;-2.001546270482704;0.95548331050307;-1.6091256493698114;-0.5085905355373828;2.3013208996216035;-1.3359661561351672;235;1.2566370614359172
340;-0.2958081832415159;1.4440527460840975;-1.9471531638463917;-0.1169037971272121;-0.3611898168071665;1.9349437061086483;34;1.2566370614359172
341;2.368673813256366;0.3566211062258363;-0.9406641083436418;-3.156541115227097;1.5599938766056296;-1.9145287600147884;221;1.2566370614359172
342;0.9755363104856344;-1.2573365275422237;-0.8055505466017485;1.4088618234805743;2.276013326754987;2.1081406968520278;315;1.256637061435917
343;1.1140952357729372;0.0264105759658689;0.4883557814735787;1.5023604914969435;2.409093348072486;-2.2603219574026494;312;1.2566370614359177
344;1.4851480881804788;-1.3745517958342233;-0.6693605943613619;1.1033837522298926;2.180363186266133;-1.317686354486942;177;1.2566370614359172
345;-1.6884051038629828;1.4270987324456674;-0.2054915589466081;-0.3476478602052111;0.8253754103247647;2.7214033562887723;318;1.256637061435917
346;2.0987088058937795;0.1516617102591952;-1.5737557607247576;-2.221289568660949;1.2514958730980814;2.4686948092346093;90;1.2566370614359172
347;-0.4017409586716668;-0.4086925218316367;0.59939310245954;0.3152552389640402;1.4975828073073103;-1.0637004327128536;199;1.223039504293029
348;0.7128148317862141;-0.6795028842422047;0.0808731488730747;-1.2043615667239091;-2.2665219653089754;1.8020137332206296;274;1.2566370614359177
349;-1.883931282307035;0.4614202707895157;0.457736463796803;-1.2639818719110936;-1.4718480275018218;-0.7041331808753201;331;0.8337063172677224
350;3.103805130370491;-0.3836866062383753;0.6036996540155426;-0.9351560156945562;-0.244505292231432;2.027139688504932;260;1.2566370614359172
351;0.2249334992066089;0.4962070556744344;-2.148047872496879;2.30989613084747;-1.023157907746509;-1.963697764140599;114;1.256637061435917
352;-2.475954385052999;0.3732401077505089;-0.087487129848287;0.3905177726222311;-2.353119322921473;1.7961696524657795;337;0.746213132386258
353;3.317472384816837;-1.371948386962076;0.2284496322457439;-1.1192530505958898;1.6190026916122056;-0.3475477553105205;174;1.2566370614359172
354;0.011549704581133;0.4397995428454673;2.022184698842748;0.0999879179050057;0.8772872158863246;-2.039760011454557;275;0.9739529730889428
355;-0.5532402023862064;0.9683519113669062;0.8382862512554162;2.129511857002911;-0.118240689080262;2.67964410703905;316;1.256637061435917
356;-0.2201043022205261;0.0315132341997064;1.365572318537217;0.5318701595390314;2.3367809482737254;-0.9447147747627412;347;1.2566370614359172
357;2.4254294363783613;-0.960810488811616;0.0247740322774582;2.3579706699520107;-0.2861991612931758;2.498690701027636;200;1.2566370614359177
358;-1.7541227072353829;-0.2753207780099513;0.082017347702758;-0.9192447155102632;0.1373933468404027;2.2139036426538827;108;1.2566370614359172
359;2.947284767332365;-1.3186585103629065;-1.2431724252860503;-0.3857922713520922;0.935375740005349;-0.2205899561577241;174;1.2566370614359177
360;-1.62784467799708;0.3725640597683628;-1.5330922716990505;-2.0481035101061957;-0.6196017497835626;-2.7687105388468445;332;1.2566370614359172
361;-2.998795089395012;-1.0769412125001034;-1.5031053990869236;-0.0977206268685953;0.7219780866398193;-1.6586533992397356;23;1.2566370614359177
362;-2.330840798068995;0.4079421521012647;1.9582382180169775;2.7702679416588007;-0.3051156949144489;2.0677572851245367;156;1.256637061435917
363;-0.6301859877246829;0.3102270184801984;1.939088701872465;-1.2826563016407586;0.1421512374421191;-0.3733417964565081;304;1.2566370614359172
364;-2.7036387294130844;-0.3909473667572649;-1.166659068616116;-1.749164772051379;-2.5585668825263816;-0.9822718041089804;65;1.2566370614359172
365;1.0310055146792458;-0.6077101001821573;-0.1424244016775069;2.287611138749233;-0.6031560564758254;-3.056854181560278;105;0.7719915078972517
366;0.5927636262659255;0.5636816170548807;-1.6028861235388003;0.4277200918709765;-1.487090453974747;-0.7047995027382229;692;1.0031391915956265
367;2.5831958707740195;1.2329841887447546;-1.7509299189086902;1.7695537906014227;-0.5448381827670329;-2.253864710933269;99;1.2495618648292246
368;-1.835169071578257;0.9620292963279716;-1.8871781628967728;1.361072640686601;1.8863270284338816;0.7907105961516643;74;1.2566370614359172
369;2.8286465846401705;-0.7986418811180982;-1.5770519070927265;-3.249387815839489;-0.4462108201495423;-1.0578539881841411;269;1.2566370614359177
370;-2.564310298821286;-1.2825291160875636;-0.5711110641194934;-1.498148130818176;1.349538644058393;1.7764574214671138;225;1.2566370614359172
371;-2.3139245910862942;-0.325775774352074;0.9113408953543446;-0.8088771374106128;2.160638915703736;1.5616944404640276;112;1.2566370614359172
372;1.3816792250842338;-0.1866555718610479;-1.3778428893706085;-2.1542191737399534;1.1762821134030574;1.1844282683458047;90;0.8384988412193928
373;1.7092580610913903;0.0555672366997691;0.0367309167447865;-1.9176670691373512;-2.278173466468545;-1.1202213762024074;230;1.2566370614359172
374;2.2766864060491296;-0.3461028913822134;-0.6752901460396381;2.210718407305982;-1.4983793485440586;-1.6472402792472465;44;1.0697432491053207
375;-1.4480382261284757;1.269888590231876;-1.436278928060495;1.5949194829672166;0.1620803527524588;-1.914334482879304;210;1.256637061435917
376;2.326854632331384;-0.9015767163063004;-2.3208079877426457;0.8658312380637658;-0.587413655615904;0.3591652973520213;173;1.2566370614359172
377;-1.7078423626427854;0.9309244110533804;-0.4241650116708932;1.893848436042121;1.2912736514655974;0.96134435524247;74;1.256637061435917
378;2.91989950845235;-1.196521207031867;1.4816683882859605;-0.392833606303427;-0.4210298905824117;0.8719437506482466;260;1.2566370614359172
379;2.9233635830072515;-0.8830107751900582;1.6953827266338437;-2.78405328234374;-0.2597708047690821;1.1772611713515224;187;1.2566370614359172
380;-0.1573057267147559;0.0339924924595054;1.1755945727650134;-1.7302411362771597;-0.5131095724841435;-0.6313984785097779;363;1.2566370614359172
381;0.3160521879233838;0.3649788898820787;1.7335418538206206;-1.7189110246685513;-1.3349729577030731;2.917900889681173;194;1.2566370614359177
382;-2.449465351159155;0.8098472639942776;-0.8739513731845382;0.7662072702620396;-2.429834383192495;2.585001333636548;352;1.256637061435917
383;0.1733455924498848;0.7170303384975927;1.8129889656687177;-0.8443375375946177;1.674452304510132;-2.71589239716015;275;1.2566370614359177
384;2.612683222927761;-1.3229097126836369;0.0278854432084503;1.1632842439411293;-2.2094397344782983;-0.386417268115697;328;1.256637061435917
385;2.040178431276831;-1.1943504856716765;1.1287696640702494;2.575281065492544;-0.1314157825599061;1.289151840248418;200;1.256637061435917
386;1.4942842725052303;-0.4080340158559796;-2.778165837122566;2.0686094399011985;0.5406906021287472;0.6374888865489001;87;1.256637061435917
387;0.9793471605779446;0.1459440249968748;-2.0306248196745544;2.081947592020862;2.302331269629862;0.0187659722686992;144;1.2566370614359172
388;-1.7505914900951467;1.044111230280848;0.9116999889541512;-1.1343958529460314;-0.7703353323538044;-1.3417247309472142;349;1.216070194981136
389;2.037912831555843;0.5688451692920229;1.417731834191548;1.345764760198174;-0.2353660592284659;-3.036268709454525;127;1.2566370614359177
390;-1.482175886327476;-0.4004521092514062;-0.2912753628963986;-1.8194028176491623;0.1472870231602808;1.4791970078327243;358;1.256637061435917
391;2.8055810661800917;-1.570043375732739;-0.4866039666816517;0.4155021799254262;1.4300611898689233;-0.0290694867370035;359;1.2566370614359172
392;-1.1816139956382996;-0.1944652956964083;-0.6583581447573876;-2.725680704377237;-0.413532790534116;3.053463816675782;329;1.256637061435917
393;-2.811165749757394;0.4447221967951671;0.3152491942599879;-2.199945020092249;-0.1374589305683641;-0.6373492640221359;148;1.2566370614359172
394;0.8010226792065309;0.8519291985841408;-1.5006874347707304;0.8176862289193995;-1.7728217533422364;2.9682047127760667;299;1.2566370614359172
395;-2.5835285986007253;0.9226972028678984;-1.0785726820216222;0.0905519425108832;-3.01284971876517;-1.1101814911608925;327;1.2566370614359172
396;2.8512522019623647;-0.9355868202758576;-1.6443076963086023;0.0925337931350969;-0.7608361292573309;0.8252878874074036;376;1.2566370614359172
397;-2.642136919899675;-0.0645155593647373;0.638655522419437;-0.0759779746392912;-1.6771636821586586;-0.567546505810221;331;1.2566370614359177
398;-1.4115310521562734;0.9978864801866936;1.2244291516402137;-1.3268941831370968;-0.4921960580446525;1.3888632679345063;111;1.2566370614359172
399;0.0202527537169213;-0.9366207722865424;-0.3843093445093582;-2.12084884317324;-1.2228398750072431;-2.848341034049306;264;1.256637061435917
400;2.259288475567432;0.4602669841061303;-0.5613476525947803;-2.407490258162009;1.420866718199398;-2.8267318940772546;341;1.2566370614359172
401;-0.9124118631350628;-0.6315411440146381;1.2513282458012205;3.1077315039738496;1.355123396884696;-0.0990383044573348;325;1.2566370614359172
402;-0.0615214721546203;0.9114534374494554;-1.5523365141696677;-0.3612904851864581;-0.5404463533140207;2.931360522296201;340;1.2566370614359172
403;-0.959732875549834;0.7419169206117548;-0.1610030265052588;2.820300053781011;1.416095947535752;-2.1500779766184435;255;1.2566370614359177
404;-1.1082780851925926;-0.0157791016110557;2.016900283244847;3.009792516596581;-1.2982632307059787;3.3585457420880687;288;0.8893695934549816
405;1.2252470072963408;-0.5602712283464997;-1.0216727272399684;-0.021649785085752;-2.6704483440781277;-1.3418140423409934;213;1.256637061435917
406;2.8281257788267644;1.5119733764892382;-0.0817547259082798;-1.4140762100635813;-0.7277936592863269;3.145205038452904;226;1.256637061435917
407;2.427922320534784;0.0956569109635421;-2.3138229185744863;0.4168788695845764;-2.7003629257526063;-2.5106510648861606;224;1.2566370614359172
408;2.750032277460557;0.991693378066239;-1.5136313695626116;-0.3302131235100794;-2.7384722280247176;3.045048762171204;296;1.2566370614359172
409;2.6973696707242047;1.0847090236196373;0.9736017974535308;1.825148511725368;-0.9021769665384904;-3.116523356533736;389;1.256637061435917
410;1.028733148788907;-0.0436396666034798;1.5269786328975807;0.2479342109660209;-2.852969446792445;2.511877719234171;193;1.2566370614359177
411;0.7493342901544894;1.3420815992961093;-1.265850927252692;0.2701310285375331;-1.2565346034582283;-2.9197838957799767;303;1.2566370614359177
412;3.160943788497865;-0.2756599587270577;-2.1477401661714235;0.4439065275316229;0.9917537319387258;2.4265708632971297;321;1.2566370614359177
413;-2.37092824540783;0.4447838958560955;-1.2950167000026247;1.5244768861245002;1.5549592656910258;2.562906819017507;289;1.2566370614359172
414;2.3728437568127707;0.6516673377016547;-0.4093551250860262;-2.351516511194973;-2.5851572990426086;-1.6697650320132609;373;1.2566370614359172
415;1.1643200969484189;0.7028867542988242;-1.2742088919427714;-2.19270221489607;-0.0644754658351759;-2.355091068547808;294;1.0765579931108926
416;-1.4136062481616112;1.2057671561006518;0.4761668132905782;2.361338122648218;-0.4278250978640319;2.517881788265349;355;1.0504661774123183
417;-2.311311711179138;-0.2914672888279246;1.2033019083306844;-0.5788758820485153;2.4649393270523285;-2.6096593465940328;250;1.0998618866835037
418;3.124032154762584;1.4648243101258809;-1.1779009095828394;-2.336803986114041;1.2535782425875628;-1.247762876990368;221;1.2566370614359172
419;-1.8359305165708133;-0.6368248599070201;1.8046397834456065;0.523169412115809;-1.2389370261638717;1.3782278139802149;97;1.256637061435917
420;0.9314930062499368;1.1033824679102269;-2.2324070631310264;-0.099142576819736;-1.511902002445954;3.202336430644764;394;1.2566370614359172
421;-1.4253707244227127;-0.2495338239067257;1.7333016549871172;-0.5540632980193982;-2.8519029526067152;0.6210111736932872;209;1.2566370614359177
422;-0.2387685153433262;1.1932451580604764;-2.532067448818165;-1.8142094809074016;-1.6226983665785166;2.9500961861918693;159;1.256637061435917
423;2.407412517188376;0.1511378975785588;1.6224089900397445;-0.5629078233876893;-2.043864789440489;1.3065149874126778;193;1.256637061435917
424;2.816517665889586;1.0669034043987742;0.154545016762017;-0.3932039640504967;0.4148830019062466;-3.119034391117554;54;1.2566370614359172
425;1.3827190406596566;-0.7999385413610491;1.2030851137313632;-2.8110983947140404;-0.3276765577442668;-1.23146120660065;41;1.2566370614359172
426;1.661571500552637;0.373873984077431;-2.233036615823913;1.5242828634965937;-2.8127171966448694;-1.668302246876872;224;1.2566370614359177
427;-2.754670400208833;0.0840970168022789;1.785507554051976;3.06310283760186;-1.0873664371452416;1.31468018509356;362;1.2566370614359172
428;-2.2138850694477226;0.8805707328240332;-1.47831057999488;-0.9821452320257354;1.9528222947939264;2.085451114978707;271;1.2566370614359172
429;-2.146062410669715;0.2223142302311143;0.374988774643284;2.3252563997735405;1.0458938958017514;0.9605224819050612;377;1.2566370614359172
430;-0.0932750222494394;0.933403072823792;-2.273600023364948;0.5834341714951647;-0.1974687215404882;3.148816833314586;402;1.256637061435917
431;-1.213768480821532;0.4060824582314148;2.1289345242422484;0.3639954636528458;-2.7479248049507947;3.032592032916031;186;1.256637061435917
432;-1.482071321750491;0.3177154014724753;-1.958752968003952;1.1217231025073977;0.3489800040833726;2.535758486291728;66;1.2566370614359177
433;-1.5905535753481472;0.4370751977163892;-0.2598455456968767;0.3675170277610516;-3.05487498018116;-0.2570964473046241;327;1.2566370614359172
434;2.981532424396884;-1.4466004361425395;0.6183962340135871;-1.7504566220814022;2.5699996452341107;-0.2711500325957767;353;1.2566370614359172
435;-2.171705859547019;1.525563921011663;0.1082037435398618;2.698469821681209;-0.8606776672837071;1.8354334294149648;416;1.2566370614359177
436;-0.7630906280876835;0.4442360839171717;1.7239406538656237;3.276566627878279;1.2369642765886275;0.2666307587298195;401;1.2566370614359172
437;2.288733798053675;-1.499197186451474;-0.939734725739206;-0.3185307416231536;2.834600320004097;-2.5597837188462558;177;1.2566370614359172
438;0.5220315920061561;0.3635410863704807;2.1973503312106435;-0.9949825981457062;1.0836398710251385;-0.7331446390690894;176;1.256395905861101
439;0.4929143448021467;-0.5229443318822159;2.313278674506866;-1.6774690641765513;-0.8310486982048617;2.2071387162267637;194;0.7566109425828975
440;-3.207397438530616;-0.3169966670986183;1.2382203495401902;-0.0874438640446064;-2.584085437876743;-0.6848240439574679;397;1.256637061435917
441;0.9781875580783916;-1.055577131027835;-0.4327020943431662;1.2352560679460964;-1.7969471578699852;-0.804030165840599;149;1.2566370614359172
442;2.0010889414386064;-1.4461782404129957;0.8585021948614322;1.9759958446942087;-0.3995517443961544;-1.6595452851311874;170;1.2566370614359172
443;-0.5453616083268269;0.6844567835758683;-2.235090889928959;-1.0635417646136238;1.3266906476717435;-1.50815702162794;277;1.061813460458623
444;2.40168244351415;0.6844455203126517;-1.3743349611707156;-0.9190808538966092;-1.6199384057641388;-0.7403365301862933;15;1.256637061435917
445;2.359807778400137;-1.198512914316212;0.6654318115303266;-2.7431414853483886;-1.2729050435235862;0.999220392734601;187;1.2566370614359172
446;-0.3754952521055187;0.2506406213863984;-2.057904791971488;-0.1952132781439389;-0.235502652504999;0.4774387401055992;34;1.2566370614359172
447;-2.83727107965563;-1.08243761634609;2.0603121222823395;-2.8827283118713103;-1.1635549958524292;-2.6084667854558536;220;1.2566370614359172
448;3.2908003652307856;-1.5364470347617718;-1.515325084779258;-1.2031138375785593;0.3147634559689963;-0.7558101697427739;359;1.2566370614359177
449;-0.5326663492268173;1.7101189952741551;0.2829355787740656;0.1856874375851438;-0.9050993109659966;1.2797946762517525;38;0.8668441548224504
450;-2.941619416158221;0.8886480870157576;1.392060317020798;-2.470656134572261;-2.158231431375829;-0.995393080276095;185;1.256637061435917
451;2.418996358700669;0.8417783233289782;-0.4216458808961465;0.9188450794441152;0.8724346441848014;1.2873966934162382;122;1.256637061435917
452;2.382312745566933;-0.4160927675463419;-0.5975254273670305;-1.5957796958002244;1.141272402248845;-2.5866496812834017;400;1.256637061435917
453;1.1336450258985291;0.3044411285504807;0.3333562245580868;-0.0740887812135925;-1.469836327258815;1.0213337432654284;55;1.1460096765548429
454;-3.173963187376893;0.8927678613519516;-1.7984143059875382;-2.6653666149356665;-1.7700645919072284;1.9251514712833917;181;1.256637061435917
455;0.6311667883535828;0.1206888606600166;-0.475717685411902;-0.6783437290102221;2.5857958154206435;-2.181537554580294;201;1.2566370614359172
456;2.8109204844662528;-0.3780778560305144;-1.8437484907256212;0.5028925999049433;2.5721846729073987;-1.938829163007174;192;1.2566370614359177
457;-0.7120412965771534;0.3789769837249808;-2.446858395293872;-2.0188310533371814;-0.7634186656234898;1.9134140369188883;159;1.256637061435917
458;3.103661848051107;1.2633308315580791;0.9162193878489276;-0.7793383657615767;-0.7785806903403562;3.3451292199291025;406;1.256637061435917
459;-2.516871262388095;0.6366536716043476;-1.932685816520612;-2.7633312933853618;-0.4294637274711155;-2.876631170675393;360;1.256637061435917
460;2.857114151105459;-1.4646935418814422;1.0288950772307732;-1.053390694544347;1.9756017108906263;-0.1265089060917176;353;1.0205896143225863
461;1.761141556490444;1.4724571603171457;-2.5353837399812726;-0.1129272490906741;-0.7352555348311907;2.9585347917668967;420;1.2566370614359172
462;-2.124940308361768;-0.6150614978311395;0.2721268358546164;0.7990942813159094;-1.8296336051174495;-0.8594398599682737;397;1.2566370614359172
463;-0.8092063629742323;-0.471126828876842;2.404826708118826;-1.5780795613655825;0.4657138826874669;2.5067056025373464;164;0.9593974229427666
464;1.3597418140363884;-1.162773859124669;1.095095686462243;2.994560264070055;-1.0366589092803802;1.633755277762022;385;1.2566370614359177
465;3.2614200918275;-0.5149153284016345;0.850148714368596;-1.1617816547450135;-1.4191177401736648;2.239889607644335;350;1.256637061435917
466;0.8006394159874665;0.2698381773576645;-1.819603742365592;-0.6848618706931622;2.1159455958496407;0.9328101557600588;83;1.2117312761470662
467;-2.788909894164872;-1.1870630957094224;-1.3408500164217174;-2.308780417367511;-2.7107766441698957;-0.2263714730920082;364;1.2566370614359172
468;-0.785798571533401;0.0458739354597242;1.2380877503808685;3.0514163431398025;-0.5488037224491944;-2.720707460619841;31;1.256637061435917
469;1.599846991276344;0.1987214133869952;1.7255056340567827;0.2824019753243081;-3.045238058887791;3.3497296411127566;410;1.079107952587114
470;-2.7155049379166845;-0.2408197951148665;-1.42661776984912;2.073832827651321;-1.3041994326907156;-2.0782920882063607;290;1.2566370614359177
471;-2.444315225579149;1.1054485520604167;-1.6446243864144914;1.130224427698925;-3.2249356603160804;-0.8272602473351969;395;1.2566370614359177
472;3.1668787024973004;1.3501137311660931;-1.5505103524682573;-0.1059783983557545;0.3644510450129147;-0.665795219054832;268;1.256637061435917
473;-3.0940931694992755;1.6262323901439797;-2.0357618067357066;-2.886332475489365;-0.8336546572556958;-2.7308893955283096;459;1.234024348842663
474;1.4475353163530391;-0.9044433218958076;2.0399319804008744;3.261330689112095;-1.7700228731722425;1.5790784718537283;464;1.2566370614359172
475;-0.4081205939439623;0.0539877483385523;1.8346691471935035;1.554487482496917;0.4953165994526252;-1.0225064289942876;18;1.0575404188544166
476;1.3061232727095942;1.4536743887609511;-1.440575699208666;-0.7031783358343893;2.9272444468546697;1.5200563375168652;83;1.2566370614359172
477;-2.54339243156288;1.38271366577753;0.7438412761777335;-0.794853911130498;-3.390164194319204;-0.8815432954808929;327;1.2566370614359177
478;3.001814860112564;1.1932620259432254;-1.0650698861988377;-0.5362361958939841;0.4048698183111743;-2.9747563330743394;424;1.2566370614359177
479;2.61063360014211;0.3324011188080092;-2.071609914601644;-2.2943849725035017;0.4317515241961284;2.463413789740901;346;1.1045108021598202
480;0.2649166293097157;-0.7044616796405733;-1.0815811618237192;1.793215774584221;1.3832414162023818;0.0407037681645732;8;1.2566370614359177
481;2.142882347323809;0.1480427290433741;-1.9861232348731737;-2.112812135491274;-0.9499033383974866;-1.2966906140974237;205;1.2566370614359172
482;0.707600185319857;0.6148181864129095;-0.9648077089350576;-0.585368938566004;-2.427256269351536;-2.449844550099065;231;0.7246836156366354
483;-1.983202975097296;-1.028617252853365;1.799991802963916;-0.3163030517395047;-0.7678096868424092;-2.3554563803558577;120;1.2566370614359177
484;-2.7660134126391425;0.301525524979459;0.1132803306294736;2.64231987636029;1.335622042638872;-0.0067210619827289;429;1.256637061435917
485;-2.4838597786758365;-0.892806044644052;2.672165692335633;-2.5883390231293406;-1.8765000566385968;-3.2785089627219794;447;1.2566370614359177
486;-1.3078161038043503;1.5013320189798385;0.4141091951714266;-1.2627804080175935;-3.005818108268664;-0.2412494199015447;195;1.2566370614359177
487;2.965356044899246;-0.9512365157487012;-1.5207072681580238;1.124373367768749;-0.966828640385832;1.4912227310465929;396;1.2566370614359177
488;-0.7356119652148003;0.6328251215423072;-2.2372147830400717;0.8723409360475102;2.7072144366164226;-0.2769082366254367;235;1.2566370614359177
489;-1.7434304598691273;-0.1604832655464561;0.3741912150508387;-1.6178295994817724;1.5121305108055612;2.195406120963918;112;1.2566370614359172
490;-0.5581283557731369;-1.2995819342877482;1.1407212759165757;1.9334997217648728;0.1285751459880858;2.085287453050816;208;1.2566370614359172
491;-1.7692477706690397;0.7977426104521619;-1.0256047312946417;-0.0937202971309801;0.7838535268275546;1.0696374905675317;74;1.2566370614359177
492;2.1419883835778046;-0.1438780397822479;-2.5705764419472588;-0.3930913373117627;-2.468475566147359;-0.3117896603551715;219;1.256637061435917
493;0.8191537143716237;1.3996663675195558;-2.4748151538455176;0.9334204252538638;2.7108497751103204;-1.4912800164259865;314;1.2566370614359172
494;1.918698329898216;-1.6735674085055086;0.3883863668294312;-0.759979450611483;2.3130718994378303;-0.3378296674935455;460;1.256637061435917
495;-1.7549548663468355;0.4641409276693263;-0.8182130127922682;2.460209474693774;1.3137378432852973;2.367423321743522;413;1.2566370614359172
496;0.5716534716542377;0.9963346725279636;0.5628507140212582;1.949286737310376;1.02680386785864;2.497046251760185;89;1.091072021478678
497;0.3552928175104383;0.6013064719207888;-2.822470909250463;0.7872006985119409;3.45369891747702;-1.6716176679781825;493;1.256637061435917
498;3.173798163233964;0.9568848222971142;0.0351302044587485;1.2805641344886822;3.002488265483485;0.5766943774086489;135;1.2566370614359172
499;-0.7541197966823323;1.5048338628725977;0.8888506836794499;-0.002100347205693;-2.352160978385562;-0.1541314612960275;86;1.2566370614359172
500;2.675887417310922;-1.4627537713029288;-1.5934095221493807;-0.6757911058019955;0.3833547697002573;-2.7209598564737787;287;1.2566370614359177
501;2.986055070764283;-0.3155607396504124;-1.5539613157556214;0.5650514207043638;-2.031666255468756;-2.738740047361373;407;1.2566370614359172
502;2.3477450545737724;-0.147890576582643;2.3500664807415608;1.2158040790425109;-0.4413112704156577;-2.834081997416775;389;1.2566370614359172
503;-1.9180273750602732;1.1825333311389503;1.5836349499946856;-2.078311883425373;-0.2045414906075877;-3.131844444714828;92;1.2566370614359177
504;1.2046710381163668;-1.658431290747537;-0.2241580382753802;-3.144824224400693;0.1812867142707181;-0.5503850863693558;154;1.2566370614359172
505;-0.9624147591837332;0.5868291989292536;-1.81258480936468;-3.034333882929151;1.437928386352859;-2.0632344280280352;246;1.2566370614359172
506;-1.6651483845336814;-0.6495398716107246;0.7108703230127539;1.0474724262553723;-2.3222866319680437;-1.791987326548916;462;1.2566370614359172
507;-0.4603973579742185;-0.9775912987477376;1.000778648366775;-1.4993018768299764;2.7627319945854607;-2.8864427922860387;330;1.245586385777499
508;-2.343340730034005;1.6074901501760903;-1.7729180684886026;1.1065235865826095;3.1519589593273496;-2.4728349010065203;237;1.2566370614359177
509;2.3310290933269657;0.7161580158500527;-1.8857110259113676;2.9607649273314625;0.6964583482463281;2.041643426139549;82;1.2566370614359172
510;-2.6534647535641307;-0.6474601223787521;0.508997394681804;0.0705639753388815;-0.6680890439237528;-0.9172368143513052;397;1.2323771313893437
511;-0.1477047646581679;-0.3656099840204165;-0.5016002912039372;-1.373582320058023;1.837907040727413;-2.3391156772675;201;1.1976559949737189
512;0.6657927871861739;1.3511061801697202;-0.430441683063352;1.4984964758295498;2.557061366696321;-0.0386128188894536;305;1.2566370614359172
513;0.7432639093629589;0.0649140265191319;0.6300285195628437;0.4920125895024488;-1.660351060703084;2.3303200849196;71;1.256637061435917
514;2.231658195768671;-1.3283790633632897;1.2066834222778011;-2.8006279813464783;-1.3047511856664014;2.721884189178235;308;1.2566370614359172
515;0.2994458595126784;-0.950342144884482;0.1432309846953413;-0.6368786074673336;-2.590815415630165;0.8513207011780564;348;1.2566370614359177
516;-2.9224286775925146;0.2067257754796607;1.5391306812846246;-0.9362517617273952;2.226504905223384;-1.2083592697946297;73;1.256637061435917
517;2.9179307263966363;0.7437276838453606;-2.1311037069043093;0.4218862624290879;-1.943937580744359;-1.2777632708836613;204;1.2566370614359172
518;-2.4093401328575803;0.9516330068613096;1.717624834179195;-1.384948570342403;2.777990226844768;-0.7354269094842785;516;1.256637061435917
519;0.9364704950002792;0.7426950250379526;2.317888101415877;-0.1572085356652654;0.7546029986433047;-0.070604532015623;438;1.2566370614359172
520;-3.204701098552286;0.8829484710035898;-2.1172867448587542;-2.4857204270983826;-1.587057190891168;-2.202041686625392;473;1.256637061435917
521;-2.336798939006131;-1.1878439252720825;0.637011165453224;0.0413469176522117;-3.040932125738167;2.5298894157118994;239;1.2566370614359177
522;2.9518062347208422;-1.1381311515978616;-1.7001748390924611;0.1929414844703403;-1.214116319497801;2.2548314943715853;487;1.2566370614359177
523;-2.0367805201581346;-0.3377347459085094;0.5272922929896253;-2.457025387863535;-1.3047119878400288;-1.2234174119319154;148;1.256637061435917
524;2.8710356393458487;0.1578884019376968;1.2774545989144233;-2.5369530074471625;1.3220770171462577;2.798917126887165;171;1.2566370614359172
525;-2.189977446972132;-0.7011662816859747;-1.552696792636593;1.8659393679781453;0.1744804195424132;-1.9312693475586544;248;1.204400486699847
526;-2.46444516536512;1.0563268321267352;-1.031015474481576;0.4206757471147828;0.0559518086396874;-1.9302704183894777;210;1.2566370614359172
527;-0.3145518119105813;0.9724401154484636;-1.296658692686467;-0.5092913965828988;-2.848023064841635;2.023038147765722;299;1.2566370614359177
528;-1.124104861725166;-1.2370586910109562;-1.6437362599530805;2.927934621059468;-0.1751583603090219;-0.5079960823452836;248;1.2566370614359177
529;-0.9162023989302792;0.933324997721892;2.030407801452369;0.3054271720830572;0.8981055230581972;-1.382387167851933;354;1.2566370614359172
530;-2.5496712237915484;0.6753494987289446;-1.9725861165493743;-1.7767828238948593;-2.1871714072142123;-2.674595772792928;520;1.256637061435917
531;-2.247611133187499;-1.372013429670535;1.865027577410916;0.1149355998497257;-1.7366129944160034;-2.867831067971322;483;1.2566370614359177
532;-2.636142483585859;1.0782888125150565;-0.0563627352947752;1.8502983762501772;1.6336605629818832;2.38134726840611;289;1.256637061435917
533;-1.9960419934809897;1.421556620588636;-0.0210266485154623;1.8824278219912955;1.1388823494625608;3.2782802970076266;532;1.2566370614359172
534;0.3744935880246396;-0.3092068613355624;2.6990905306353348;1.8202534544370208;-0.6466744621645077;-0.4536722834186337;78;0.9547213991535852
535;0.6359869403111301;-1.14912974195042;0.644111488515389;-1.934875072751835;0.091044104141728;-3.1026703301073573;256;1.2566370614359172
536;0.7730339896501233;-0.2072662730962574;-2.0213101467697903;-1.7070478402976288;-1.0323636437075014;-0.9397066314573392;77;1.256637061435917
537;2.697482616375373;-0.2289138732004109;-1.4429896043332735;3.2299150295209635;-2.0757785295458;-2.135065300159504;44;1.256637061435917
538;2.5320521016941915;0.4217351679827326;0.1632808364502816;-1.130363269159398;1.8934973423067811;0.2592904901735655;118;1.2566370614359172
539;2.196980822203793;-0.7142908073069483;-1.23378022293421;2.4477849950535235;0.9584692582039682;-3.0400972761064025;45;0.8713276827943496
540;-0.0873094634134363;0.2021188878377909;-1.7326944038526038;2.831354105708698;-1.5019333340662553;-2.81310364691878;351;1.256637061435917
541;-0.5859098056603436;-1.4392922911909194;-0.3949940532493657;-0.5862209713276387;-2.435433417158383;0.3616127762592134;515;1.256637061435917
542;2.8824953105269544;-1.0412387959497804;2.0812704998027;2.0460340991711545;-0.2278650654759321;2.1377947137853;270;1.1931250615976
543;-2.270625975740184;0.8874204166263597;-0.8096961072337343;1.0895193339890032;2.892845472271694;-0.7041159153760592;237;1.2566370614359172
544;-0.5340081582781371;-1.353360637752429;0.6759164561304603;0.7318299488256147;-2.0818717108935703;0.8097132022563629;139;1.2566370614359172
545;0.1857428144404878;0.2513261294858143;0.4146493702309604;-2.069731902675373;0.3353212378048677;-0.6216994463123591;380;1.256637061435917
546;-0.3616303320571016;1.1036554913008596;-0.4436225850773145;-2.637605173079373;-0.3128078103090915;2.45112553553391;233;1.2566370614359172
547;2.547812269593264;-1.4373963705146684;1.6460330000590715;0.6024217738075982;-2.781668251460088;-0.6881194904211971;333;1.0156148555083433
548;-2.827522424979973;0.484701715233337;-2.035617171978591;-1.516274937101893;-1.289720343399355;2.03966414495639;181;1.256637061435917
549;-2.4284246506344997;-0.4596075669075074;2.247975193896025;3.014109523976435;0.478542352950641;-2.566287320864548;206;1.2566370614359172
550;-2.544909235414233;0.4443167031611958;1.741889683668606;2.418898956574484;0.8617448735689657;2.080321602326188;362;1.2566370614359172
551;-1.409107155992097;1.808531410658144;-0.4296260253016167;-0.2239133849547746;-2.225333673918773;-0.5971347133145657;195;1.2566370614359172
552;-2.195814284541473;1.437100488096192;-0.7099797062580926;0.9850565883312428;-3.226982667489797;3.2261909426444006;382;1.256637061435917
553;-0.7670323813823869;0.255870424902073;1.992392024342457;-3.1860969206160497;1.1628853694863797;-0.5173634879544284;157;1.2566370614359172
554;-3.170219215265816;-0.6033441051539901;0.3739800042790696;-1.198283791723581;1.4539171139431015;-0.9891332216838252;73;1.0851357688146477
555;2.731831521097661;0.0094651849297405;-1.3550223486612702;-1.0256833203220086;-3.01924374810347;3.207421637361888;408;1.2566370614359177
556;2.407145569455883;-0.6678361622401242;0.1034744552733653;-2.933478593134671;-1.8914678339503568;1.74797523376464;445;1.256637061435917
557;1.2844790934859214;0.3821977136219339;-0.6180307961102196;2.702193046614711;0.8975865359386955;-2.953014046137574;45;1.2566370614359177
558;2.179154971260022;-1.0330473734393364;1.593067311538111;-0.6571426305080788;2.0428131237650216;1.1859537116333054;30;1.256637061435917
559;1.9546153869659748;0.6989427513136518;-1.579849651112595;-1.5494826195117886;-3.225181104564776;2.843595780766318;555;1.256637061435917
560;1.5042650564642068;-0.1981784591342307;-0.6922257973561724;1.9269694785346223;-1.2656819711866265;-3.1706794292180924;365;1.129571385681412
561;-3.271618994417027;-1.4432579144674325;-0.1346486127106239;-1.320035425977051;-1.0945244681374742;-0.0135533260470025;91;0.954248461649263
562;-1.70459365533639;0.3772973343647652;-1.895255422636616;0.4895283482515873;-3.3409119987653133;-0.7048404236007848;471;1.2566370614359172
563;2.3928667783735458;-1.185129600389816;1.0879186413525646;-1.158983534563539;-0.6317901281742615;-2.485679081121652;228;1.2454774038998715
564;-0.0521039732239482;0.6834705073011815;0.3081626314992365;2.284879916120006;2.580746351678377;-1.633763045307957;295;1.2566370614359172
565;-1.4818244892038284;1.2574912790153372;-2.15837410917668;2.281063051522439;0.0627982333842649;-2.6731296547070835;375;1.256637061435917
566;3.0016680546471397;1.011791351611318;1.1300378446176091;-2.669084619916542;0.5451122012392866;3.2348722176557168;524;1.2566370614359172
567;1.234747561648675;0.3214321137028608;-2.4476496401738954;-2.856193478969401;1.3163992040028714;-2.710583606581268;294;1.256637061435917
568;-1.212036038860214;0.5362643898929715;-2.632553952423209;-1.471550055587815;-0.4035797197871993;3.3107901853079778;159;1.2566370614359172
569;-0.5600619428318687;-0.4778780114197424;-0.9769569113684256;1.0717494797423994;2.364981937050749;2.799190564127682;283;1.2566370614359172
570;0.2431398836646919;-0.9038664594734832;0.6527190964334086;2.5254617689939787;0.2812580340869003;2.4959429275995384;490;1.2566370614359172
571;-2.3504796485535056;0.5692501999280418;2.415915408774003;-0.9428697121425104;1.8042512330661928;3.201706451429216;249;1.256637061435917
572;-0.2666938682163311;-0.6989532611570389;1.1694468617888258;-1.4881056419109748;-1.1930121073299211;-1.344859487995713;380;1.2566370614359172
573;1.274996030611406;0.5792633636427066;1.9165643848951603;0.136345639569495;-1.2335043258992848;-1.655083449277745;198;1.2566370614359172
574;1.0729087030944326;0.8338477073417199;-1.6763296720124037;1.094488752696144;-0.637071747761514;2.640348271609928;394;1.2566370614359172
575;-0.8581593150059896;-1.4942029071704732;1.472910295955835;0.2143266978401701;-2.4197107485520557;2.049229681528041;209;1.2566370614359177
576;-1.6292998744388325;-1.3779605702371656;2.166819697956137;3.301227676857604;-1.6669969755846907;-2.010491659522413;197;0.9861705479683444
577;-2.6405392561493697;-1.1093614867510346;1.499200374427633;-0.6821892905266493;2.624200518574827;2.404651163556075;191;1.2566370614359172
578;-1.6412251238750026;1.531225986920841;-0.8246190568850611;1.4247251403774457;-1.019142479350046;-2.3478370894583187;210;1.2566370614359177
579;-0.8364726051986513;-0.4159117196038953;2.0640585754718552;0.8324332558340242;-1.2606116245726655;2.3454060913807013;97;1.212782487054061
580;1.4530024937040382;-0.913139948638892;0.4861218560360124;-0.7313142846922651;-2.7522713040994806;-0.8890795783007036;230;1.2566370614359172
581;-2.4772457431052204;-1.0050659087920624;1.46804945674487;2.1638977433128783;-0.4397385254129453;-3.039652706016548;206;1.2566370614359172
582;1.6727335357399484;0.4285616784964068;0.4275530524176429;2.061446111614491;-0.5918339043323139;-2.2007576335741104;126;1.256637061435917
583;0.1507143132030184;1.2528296028157402;1.4036386159225729;-1.7466921711712853;1.4573925107424743;-2.203430564352041;383;1.256637061435917
584;-2.8202155723683697;0.438717055713734;0.1172490018570176;-1.987431246250836;0.4713543927077567;0.4228388798010024;393;1.2566370614359172
585;0.0672271570140316;-1.289756800776227;2.550958655249044;-2.0668959824130413;-1.6708915844103094;-0.2936276428849813;324;1.256637061435917
586;1.251136786054012;-1.0680986309036795;1.0270336018269095;0.0259827154873087;-2.683959291760252;-1.6913413515359972;580;1.2566370614359177
587;-2.066461285925681;1.158734746582135;1.4447507966553848;-1.6287043824372534;-1.4573808034587097;1.6193373702168206;398;1.2566370614359172
588;-3.14378810161305;1.2572016562850197;-2.2762757536030365;1.4195428376316124;3.182397381358288;-1.7920690291186507;508;1.256637061435917
589;2.6774384437709173;-0.7160402903274272;-1.6928463700490393;-1.758792874694858;0.2549247532987903;2.5811253177618863;479;1.2566370614359172
590;1.2199171256212138;1.112937003408456;1.881939640694656;-0.5323699999103987;2.1228847790707115;-2.5612540499979484;383;1.2566370614359172
591;2.107017238689618;-0.972537722040442;-1.1936537731246366;0.2623506114952114;-3.2928051749347302;-1.708000567304228;405;1.2566370614359177
592;0.8920859366641236;-0.8341801553156551;0.5702678969462801;2.341292775209613;-0.1507400202935773;-2.340231373075012;105;0.9252592016746934
593;-2.259097424684417;-1.2847151593612516;2.287764229201245;-1.338186457526486;2.688316870852716;-2.435773639665632;330;1.256637061435917
594;-2.305624810214373;-0.998692256220368;1.4239694286853462;1.162366540885814;-2.720698951345711;-1.1865322115128565;506;1.2566370614359172
595;-0.3633482779630624;-0.3641844389314168;2.355147359220712;0.6068533655111743;0.8069523832828893;-0.6534003262867283;475;1.2566370614359172
596;1.4290343009680262;-0.978785725694767;1.9750212261364652;1.9349516211014663;0.7795655594467241;-2.7815661260600018;127;1.2566370614359172
597;-0.4543422964918555;-1.6094001114324283;1.1777408792943147;-0.3897886714935461;1.118644166647953;0.1251702619598535;119;1.256637061435917
598;0.27070910767038;-1.190740650771018;-0.0888583301975711;0.0084523482900543;-0.1858421952817303;-1.1402074278585252;319;1.256637061435917
599;-1.95628776507604;0.80884266433148;2.153044347215304;2.9612174957626105;-0.9365055977591948;-2.508006018082947;214;1.256637061435917
600;1.710942772173438;0.8207625994289932;-1.8385719573469417;-3.073811988614863;0.8267206470881877;2.407685627712471;346;1.2566370614359172
601;0.4203280675860493;-0.5118953676840352;-0.5157473480363839;2.4148928226238984;2.7523476217058294;-0.7407241950973157;298;0.9434981299426524
602;0.8006564434759583;-1.6807533573017135;0.5997619082917469;-0.0613216007554122;-3.334564318507758;-1.0689360922498432;586;1.2566370614359172
603;-1.1593401660590703;0.9330185310273322;-0.4077394127459934;1.3642663956559933;-0.3801436593335472;-2.9829024733560403;578;1.2566370614359172
604;1.955418767270736;-0.504761253558996;-2.069973266502789;-2.4316820266944648;-0.7777499981496147;-0.015100662029203;205;1.2566370614359172
605;0.6714902234409954;0.2230224246881856;-2.142583879240624;0.0170560329097823;-2.0705676653195635;-1.349308836911007;37;1.2118764083782876
606;-0.2342720486413499;0.3593651370712749;-2.4868030013930764;-0.4953206522436018;0.8898684356939914;-2.402375980789534;443;1.2566370614359172
607;2.008184922907339;-1.303992512197918;0.7109370707092073;-1.7608705197293684;-1.5044537557442168;-2.096958965812996;563;1.2566370614359172
608;0.6514427213509327;1.5914799567507705;-1.4873089366589332;-1.884595689905792;-3.1955409041666387;-2.748698647828957;254;1.256637061435917
609;-0.9019447189005068;0.335697063830465;1.327134259771607;0.023422258227215;2.81867963096048;1.4242256143879175;142;1.2566370614359172
610;3.213086871942463;0.3679582364305592;-1.819534047109581;0.8526324552325488;0.0497365384931651;2.4256282214933247;412;1.256637061435917
611;1.7912072085029114;-1.202434314446435;1.5468392957760813;-2.222069127760335;0.1814488691815246;-2.656620989103676;228;1.074747375660425
612;2.152236257945151;0.4703861637683195;-1.046376404166956;1.4269516515130225;-2.4281652512574814;0.4533949547225638;232;1.2566370614359177
613;0.0632919149925651;0.560725016444223;-1.5158325322265798;-1.6842499573727;-2.810372177503327;-0.2335440039637129;48;1.2566370614359172
614;-3.199211892743112;-0.5974314223154352;-1.8927520875473849;2.1834747676589195;-1.2413948306370075;-1.366067289927146;470;1.0495977368829188
615;2.4478144492066005;0.4975791027840969;1.5591414782777986;1.035845926847988;-3.119351079351717;2.9375107481252263;469;1.2566370614359172
616;0.4110292328259393;-0.6868601327465554;0.9145524536565832;-0.344259685592875;-2.82997478803819;-2.437639710975243;586;1.2566370614359172
617;0.6086106707048945;-0.7294093590297543;2.392648162938803;0.1499489645222961;-2.986581147938049;2.389104972564363;410;1.1994553119696365
618;-0.7110355388560616;0.6168644967035777;-2.6923217434039004;-3.167549034582792;1.3552776894410972;2.41609749278148;326;1.2566370614359177
619;0.6390117853676773;1.010374034459765;2.035216963242456;0.6499070412736234;1.4206982106762331;-1.5279041729141034;354;1.2566370614359172
620;-2.1885925344968165;0.448140098535799;2.503543670432985;2.3227846642704644;-1.3613308054950697;-1.6808771621746854;599;1.256637061435917
621;1.214833364770766;-0.2567835764159198;1.0326937793843571;-1.1631656176897651;-2.8594611958127314;-0.1177934000569611;580;1.2566370614359172
622;-2.9831249975043184;0.5254723040578665;-0.3062789512998957;-0.9849982271564034;1.6413784748105051;-2.364286586225872;72;1.256637061435917
623;2.995097296157556;-0.6378858608245106;-0.5814980235832985;-0.2985968127988919;3.1734878874489563;-2.251961638077415;437;1.2566370614359177
624;-1.3125878472039996;0.334464176030373;-1.575495330355039;-1.4998544121321722;-1.408355122837457;-2.024539014697243;360;1.2566370614359172
625;-2.740579263325884;0.9830635640456228;-0.3342704587243744;3.217286565035305;-1.5313176022296184;1.6197926119872732;435;1.2566370614359172
626;-3.0434438337410445;-0.5796916937089183;-0.7480303681254619;2.927427880702787;-1.0328922669689786;-2.384960747477404;470;1.256637061435917
627;0.8332682522794608;-1.167819641480314;2.419107163287358;-0.6696374790858979;0.8037589958975868;-2.917916603770697;258;1.2566370614359177
628;-3.415331372374859;1.0451638709628197;-0.7963859977427914;-2.044624795990387;1.105504968391152;-2.672373345385978;760;1.2097835886475483
629;1.3714645246271706;1.4529888409677512;-2.065734027187152;-2.932222787810006;0.363192757937229;1.5258279343471532;600;1.2566370614359177
630;-0.3514595870336237;-0.7193045645036014;-1.2430640104225987;2.6617773021106315;-0.0590020774784232;2.427525736827695;240;1.256637061435917
631;-1.5469652171607964;0.6485248701062858;-0.4010202846624137;-1.477343881460938;0.823977788046665;3.15418845786341;318;1.2566370614359177
632;0.379554025720457;-0.9914702928337046;-0.694041004095176;1.072905214016756;1.7353652286181445;0.8927780653215152;94;0.8504556960955151
633;0.0364181126444173;-0.2150096774753454;1.508776997198722;-3.2889918500793693;1.8416822694126505;-0.4358782459200703;553;1.2566370614359172
634;-3.1778170824413903;-1.3705705568280104;-0.0400905355376162;2.5648400904977717;-0.554375655742085;-2.112996965533694;626;1.2566370614359172
635;2.769884204249735;-0.8802938716454562;2.214492124149831;0.0302449064389675;-2.651196226782025;-2.124860959846172;338;1.256637061435917
636;-0.213567327047891;0.6308955235425058;-0.6269601026170113;-0.3422756055079464;-3.342191639159531;-2.739754053624894;254;1.2566370614359172
637;1.901174582860264;0.3159923844946679;-2.6001627333712127;1.5033825438450812;2.21069602890233;0.2002776679881764;387;1.2566370614359172
638;-1.628276444354841;-0.4521591928982279;0.9676669446051888;3.2780647102938367;-1.9092619468793732;-1.4155870498477587;197;1.256637061435917
639;2.368111498797977;1.3633653434982025;-1.3235693379680669;-0.2070628973295487;3.31358912383486;1.335451998881133;476;1.2566370614359177
640;1.7272867963606051;1.2580555578004364;-2.596282868388136;0.9019815052153616;1.948111410995502;-1.8612323980648249;493;1.2566370614359172
641;-2.8646315444063557;-0.6554978665335203;0.2994133991352259;-0.580968504068351;2.8681684436431683;-3.0107117973257176;417;1.256637061435917
642;1.2428818100232997;0.8121274258679396;-2.430774879526434;-2.0132051314514543;0.6565832401861565;1.8224313474530116;629;1.2566370614359172
643;-1.0398886803572631;0.3634393065918965;2.3758163191601605;-2.4170669993063685;0.119110121455594;2.4392812214886046;463;1.2566370614359172
644;-2.727274190105961;-0.1614518076097417;1.778033154885811;2.527605246580448;0.7162622162727912;-1.6245409989933175;549;1.2566370614359172
645;-2.854219732196725;-0.6907719399999798;-1.5153800188555144;1.5559993790272648;1.518464841869421;2.4908409893882477;413;1.2566370614359172
646;1.8309790635856944;-0.4115962369392036;-2.325896592902211;0.2326539590933724;2.1198661678292345;-1.610743368584688;456;1.2566370614359172
647;0.2330878338138666;0.2824996340553378;-2.8548776116977925;0.8123196687387877;0.1445695766024215;1.8289142035520936;26;1.2163869695613276
648;-2.791461951178831;0.7960765831662263;0.5992131370030498;-0.9999003780254924;0.6740172335695215;-0.0266332898052958;584;1.2566370614359172
649;2.798492049148055;0.7219085214898657;1.0848404552346291;-0.9692314190888416;-1.397946931936224;0.8278441965162031;423;1.256637061435917
650;-2.793504257053628;0.0952036175051871;-2.075968991844883;-2.0462076618183827;-1.5577824818386312;-2.28778899672946;520;0.9963498552266038
651;3.0030257612744475;1.1203955412393545;-0.6368890132690266;0.1733080737680908;-3.222157409544535;2.5527027006788447;408;1.2566370614359172
652;-2.3613951309579195;-0.2716848168606059;2.629697515675041;-0.9890784491663024;2.79739987722978;-2.975910226519604;593;1.256637061435917
653;2.693243097677704;-1.0865470533716506;-0.8687485402181561;0.004960551456625;2.074104259543629;2.979545457245777;321;1.2566370614359177
654;-1.7527730719770989;0.3237074491085148;0.1701602674255777;-0.4778619575804812;2.8675412461582925;3.278585497756803;150;1.2566370614359172
655;3.223440140551395;0.870285790097693;-2.223469990180044;-0.5580329965500062;0.3224794502258278;-1.494476705732852;472;1.2566370614359172
656;-1.422692585943827;-0.1004218881673488;-0.980045557176979;-2.6574315907636312;1.2485617989321072;-1.9085401458209028;505;1.2566370614359172
657;2.434612557186622;-0.3488387800751727;-1.589389057121039;-3.028425245781664;-2.0118724172901703;-0.5807468123688351;205;0.933378601286878
658;-2.579380975039171;-1.210007017692579;1.794048061229781;-0.2019843662738675;-0.8985583824276016;1.615003078671677;419;1.256637061435917
659;2.0098160335482933;-0.6025890076945823;1.6650339618015133;2.7901500310070517;-1.8634283901017843;1.3252720530179385;474;0.918138147387773
660;-0.803169058725226;-0.981009855013592;2.2503583088314545;1.071087942351583;-1.3814698907803682;-1.667849136214162;166;0.9066219718794966
661;2.948969600783196;1.1205349437985317;0.7457775122064357;1.8873761045773851;2.9329487279539084;-0.2130722647593994;498;1.2566370614359172
662;2.669541364793995;1.2001275060873435;-0.1700328828574184;-1.0232700211169763;-2.573018935173696;2.8526741172129064;296;1.256637061435917
663;-1.90266632974636;-0.4425088274886106;1.950187402595144;1.530878472622763;-0.647647783689568;-0.4719597245478584;166;1.2566370614359172
664;2.7877926063086607;-1.2146169392035415;-1.45553177772628;0.9398531651917924;0.9953339632556902;1.689945199750639;321;1.2566370614359177
665;-2.2755562257997046;-0.9726318974451662;-0.2131307034059901;1.3843787682534323;-2.591900141125195;-2.0413370606895564;506;1.256637061435917
666;2.896838424330189;1.2492449848478169;-1.8439927232335875;-0.2817412913588857;-2.7188571489182056;-1.6587085278724665;517;1.2566370614359172
667;0.2707438113789139;0.363569167566709;1.904918568774364;0.3613708763838468;1.5100549517818078;2.1907373094432963;59;1.2566370614359177
668;-1.5013263355033757;0.918530333221348;-0.4061106300276518;2.2498248482074943;-0.8352543660282923;-0.529398555933317;145;1.2566370614359172
669;3.203847050357258;-0.4934458145499194;1.8043902562521723;-0.095144148593095;-1.6231263769638424;-2.1067512990597;635;1.2566370614359172
670;-1.9970750978919205;-0.870735949789073;1.8391327426891144;0.5326256281127326;-1.777768868136477;2.1741790644544468;419;1.0029154028991691
671;2.095507770792755;-1.4245018978893706;0.0338516441243607;-0.4036755976601285;2.2827849251240955;-3.085712159139837;437;1.2566370614359177
672;2.7347591388577577;-1.769571793645268;1.4499293359080103;1.8144442028209635;0.9736084812392544;-0.941579589111076;188;1.1755491814284795
673;1.3377087960646703;0.4101287433642598;-2.380202819268773;0.7166499398903781;0.1165965871220201;-2.199780455948812;278;1.2566370614359172
674;0.4753257321589821;-0.6367175418220903;2.2446596069988933;3.1397329821045297;-0.7947908030571645;-3.240768885079827;190;1.2566370614359172
675;-0.6905497258395944;-0.3785233238924746;-1.0434049618011665;-0.7178297348831487;-3.3029335237859963;-2.610565581206163;636;1.256637061435917
676;1.90092649061355;-0.0487217255123209;-1.8465918448088487;-2.7207396543639897;-1.7159378594677288;2.3469707606308585;61;1.2566370614359172
677;1.8661060305718271;0.2701129610332705;-2.2234397792222627;1.419333286488078;-0.7878272773019268;-1.4239852263162085;816;1.0076867210390896
678;2.635516463349376;-1.2247817900190314;-1.450524313955806;-0.6284494356047403;-0.5275553882574229;-0.8488968884229693;448;1.2566370614359172
679;-3.067643410222831;-1.505666721018719;1.2411344233578836;-1.6027276292292578;-2.2341419407371435;-3.207904809839621;336;1.2566370614359177
680;0.1705470564952815;-0.6419080590393915;0.6508751652032256;1.7554903070823324;2.116126293965494;-2.51700618216634;343;1.2566370614359177
681;2.9286270014841524;0.670834649580938;-0.1877250722071857;-1.9535666195632504;-2.0897563650831965;3.2167522994640194;662;1.2566370614359172
682;-2.4973764730002213;0.2131234534836187;-1.985851530722889;1.1058820502868356;-0.3215356546766317;2.2411805530436446;432;1.2566370614359177
683;-2.82646273346368;-0.992562735366848;0.691018240468062;-0.3699853816576514;2.505126700367079;0.8461550452543709;371;1.2566370614359172
684;0.2763728149176657;-0.4608120484487292;-2.5110924549325007;-2.0745901383316423;0.3250801671038448;-0.3224240320837687;189;1.2566370614359172
685;2.9678743506593723;0.6407164906007219;1.5538941705827003;-0.3564414118523187;1.614568395467867;0.6898823046309455;118;1.2566370614359168
686;3.107632704701127;0.122418024112753;1.336271939298412;2.140229461515999;2.7666456743598538;0.1296377352258472;661;1.2566370614359177
687;-2.798874499802442;1.3143277071697166;1.1774142044059932;-0.1520738508881138;1.7440243057277325;3.31664674934941;249;1.2566370614359177
688;-1.979938296167505;0.0379996111846033;-1.7846613860510785;-1.0620883571943478;2.7394534786542275;-1.7917738687335512;339;1.2566370614359172
689;-1.1679392977044;-1.0791806983779126;2.1936701743067246;-3.1780367991955822;-0.1846783963850279;-1.160496013968838;324;1.2566370614359172
690;-0.9303608781261868;0.3339393081795796;-1.695684495837893;-0.7637315894591055;0.4449826803629159;-1.2647301665055872;443;1.22008110829869
691;-0.7796259969553965;-1.3939230133495877;-0.5591017388508956;-0.3505320586253122;1.9109576921625315;-0.4210591531387895;119;1.256637061435917
692;1.1104245638639736;0.8037370939063015;-2.242809144906768;0.1931835114832991;-1.715018430770491;-1.110050925944876;37;1.2492423833534407
693;1.5551812987358966;-0.8313100661747432;-1.7193375547505485;2.6583218833360096;-0.25386731744108;2.8942953890050163;175;1.2566370614359177
694;-1.1702761955508998;0.7616122752637454;-2.164538663825549;0.0219566944913186;-0.6702501593485255;2.3669858525978063;340;1.2566370614359177
695;-1.4405607470902717;0.0678642825292074;0.4284273562602936;1.461214156940484;-0.7617826974557329;0.8983722787981268;103;1.2566370614359172
696;2.610359438276274;0.951097451454438;-1.4800665302626306;2.7693738398502408;0.0942708664948869;1.5134140859940697;509;0.98795545658579
697;-0.9772125687934696;0.8043234678613767;0.3156508737713548;2.3156932609987444;-0.0891748355695653;-0.0717029434518924;668;1.2566370614359172
698;-1.5093692829692784;-0.41860589056212;2.276807909230873;-0.7934639861965473;1.2331634263310325;1.1576038318928603;162;1.256637061435917
699;-1.8346741643271431;-1.5664260378082355;2.131908026135437;2.2559190132326807;-0.9174128046575274;1.6017010246502066;208;1.2566370614359172
700;2.3283463403634785;-0.0267558753971786;0.0460199900267746;-2.842680762742427;-1.4960648320617278;-2.624587951546437;131;1.256637061435917
701;2.7916780373723085;1.5540640657280032;0.1319722348800543;2.616571387376472;-0.8904541532346787;-2.993557639568895;409;1.256637061435917
702;-2.138432549435615;1.142470077409547;-2.207775810589159;-2.483468250952724;-1.8508599729961108;-0.8146527494662825;104;1.2566370614359172
703;-1.943680906257524;1.2298878783637617;1.4658131816743754;-1.441798756044414;2.3985169504301185;-0.3722128191900029;518;0.7980161550277909
704;-1.1842826014139298;0.8312867691737558;1.1752340519783744;1.2084587731368044;-2.233923877905846;2.0209619830689567;186;1.2566370614359172
705;3.0222751352598776;0.1726516869414921;1.5761682093332143;-2.120707918369174;-0.4056675062936071;-2.609991501112946;146;1.256637061435917
706;-3.2068467809117718;-0.8050119939448163;-1.495032396634544;-2.421362746765188;-2.3274461922061835;2.137054832243326;234;1.2566370614359177
707;2.289211039054671;0.6963569181303564;0.9275646919820868;2.120571935892161;-0.4235611200099573;-1.9454026687744317;582;0.8937495137070783
