Komment314/test_diploma/benchmarking/path_finding_for_benckmarking/pre_rrt_star_results/12_2_tree.csv
id;joint_1;joint_2;joint_3;joint_4;joint_5;joint_6;parent_id;cost
0;0.0;0.0;0.0;0.0;0.0;0.0;-1;0.0
1;-0.4907368163802952;0.4076174172735955;-0.5666827779308937;-0.8100037416036022;0.3364759408154971;0.2858507152264079;0;1.2566370614359172
2;-0.4791781578127155;-0.9238730375950482;-0.5098185936027024;-0.2273412601527656;-0.4294002337022228;0.0;0;1.256637061435917
3;0.2534309537654372;-0.1776116869887361;0.1396250558672202;0.9740859321700568;0.4808499497604768;0.5327366242625597;0;1.256637061435917
4;0.9802437245665852;-0.2324522960668545;0.2825461483246911;0.4162468278364505;1.0770312070236232;1.133427402838172;3;1.2566370614359177
5;1.5136270455956782;-0.655627734752512;0.197116401732001;-0.2863483422214743;1.763639115643835;1.5118357145122685;4;1.2566370614359172
6;0.30763874545366;0.6582929195912699;-0.8819356228225029;-1.191210129813628;-0.2254967478505636;-0.2784001062594337;1;1.2566370614359177
7;1.5043049023901924;-0.539379477634271;-0.068336028093158;0.0665648131804817;2.9327481406796005;1.4509461065203988;5;1.256637061435917
8;0.3781454885207836;0.8078027015533593;-0.7299285333793137;-0.9712868760319308;0.4093153791283239;-1.3163565114613256;6;1.2566370614359172
9;1.0472108012685153;0.6160814013074865;-1.6915099410538414;-0.5707208166746206;0.4043905963190759;-1.218300254628713;8;1.256637061435917
10;1.621298028084919;-0.9700317949389804;0.5319076567647036;-0.7120597123624253;0.7740834985118511;1.9547330797462916;5;1.2566370614359172
11;1.0198624468177244;0.6833425666945978;-0.2255687904677716;-1.8231708072898505;0.8156818329273336;-1.3977631884659418;8;1.2566370614359177
12;1.3782677611408465;0.0513739279407031;-1.770925187543051;-0.681456121370582;-0.4204159952096388;-1.8904374880177184;9;1.256637061435917
13;1.466373917027788;-0.0615749145014375;1.1976408437968014;1.0379478435402414;0.8594375474974062;1.3392370365945805;4;1.256637061435917
14;1.9569480710755152;-1.1968379238987137;0.9886067907967984;-0.7162828455629613;-0.2947436806796272;2.2078165834025;10;1.2566370614359172
15;1.7873234082570253;-0.3487915292622227;-0.7870027098785509;-0.3652959772764684;-0.7261084199151137;-2.190719441036653;12;1.2566370614359172
16;-0.7797355554225429;0.6710602357912806;-0.9941256850671422;-0.1271111891311889;1.1712522420691531;0.0024549422169364;1;1.256637061435917
17;0.2952477504207378;-0.1191139429630166;0.1048913495984703;1.4015684932526296;1.2789059991684903;-0.3350910344681824;3;1.2566370614359172
18;1.347774443916361;-0.9497175951623594;0.1588551237684526;-1.7478875219547032;1.2142753013061207;2.2678346920359664;10;1.256637061435917
19;-0.587483440216338;-1.0548977251111298;0.0215084902168291;-0.9083255141068252;-0.9180593299240202;-0.7519331518062254;2;1.256637061435917
20;1.2331774031630711;-0.1303372857221097;-1.0885342070019688;-0.2641880966910935;-1.6450651803258478;-2.7186503815141743;15;1.2566370614359172
21;0.8920173027690306;0.0414943313327627;0.7538075072892464;-0.3541505758896959;1.9787205556817933;2.100050557089822;5;1.2566370614359172
22;0.3445214351553542;0.4161856996243714;0.4483574290875037;1.4649957192557683;0.365007338357316;-0.9121182243148196;17;1.2566370614359172
23;-0.1899805312944729;-0.7103166303082674;-0.4176851937470944;-1.6426657877992874;-0.5298756690782357;-0.1734521803059469;19;1.222382187383695
24;1.6118306077274538;-0.5033829049825026;1.7589824267072858;-0.4452677851488489;-0.8129696839766116;2.416777832292092;14;1.256637061435917
25;0.8646116263568959;0.0625804655249329;-0.2673536618877729;-0.3863618284439278;0.116989549883017;0.5703653786540164;0;1.1450878752520006
26;0.412417410065532;0.2774696591487744;-1.5039943172016892;-0.9799265677767088;-1.1626901848142002;0.0580556542722234;6;1.2566370614359172
27;0.3595562335195099;0.9345639386633462;-1.8737638989934813;0.0503481663337822;1.0237970077892984;-1.6679993580494594;9;1.2566370614359172
28;0.9202310377875936;0.6558668773030966;-0.2878752084827113;2.1234663783216203;0.5803526917351098;-1.322303991964362;22;1.256637061435917
29;1.9044775675609056;1.0600556195570787;-1.705119768229879;-0.4960324659864636;0.674633475174683;-0.4644285822479936;9;1.256637061435917
30;1.0813565660961724;-0.6631301417476193;-0.0538243617591219;1.5671292103188628;1.9885191876735109;-0.6653395835704036;17;1.2566370614359172
31;0.9630758438973784;0.57152265212538;0.8550457651743664;-1.897156765034932;0.1913263913525843;-1.417431319431646;11;1.2566370614359172
32;1.2641673080988358;-0.691274397467404;1.046635846452708;0.0727490923140457;1.5530211022858575;0.5337472875527398;4;1.256637061435917
33;0.1603861557472305;-0.5000294239057024;1.5418155991675109;0.219805559610203;1.7653103748351218;0.6448054014536457;32;1.256637061435917
34;1.026862768446254;-0.3428275792521588;-1.5187797588670615;-0.5916819598248424;-1.8783727817237816;0.4500644263203447;26;1.256637061435917
35;2.529209416967727;0.4405107452955967;-1.6318107300908946;0.2307344044595959;1.110140575063775;-0.7504010217989436;29;1.2566370614359172
36;0.0550233116872468;0.2105118129582354;-0.3406911712761578;-0.6579426187577023;1.3341702054675268;-1.4300471442646616;8;1.256637061435917
37;1.222708348190522;0.024714521274826;-0.9502344465346304;2.4574460983605357;1.053544481236327;-0.7609500919473423;28;1.2566370614359172
38;-0.8241913458419833;0.153630909323024;0.0918143569010053;-1.311806326169505;1.3194035050132351;-1.863712934643929;36;1.2566370614359177
39;-0.2513337445547066;0.6260608882689376;-1.912675208863981;0.7223331734253038;0.2899125145682875;-2.0131248679414897;27;1.2566370614359172
40;1.8356450886539664;0.2508730936953213;-0.2695657003410867;0.0090923847587512;-2.2136660598994653;-2.672288306040234;20;1.2566370614359172
41;-1.2436615404150408;0.2663043148118035;0.0277612526537481;-1.266154257411102;0.4380821947407076;0.9343187882864836;1;1.2566370614359172
42;-1.459096839005022;-0.4569559475634859;0.2692632362850654;-1.179863261307315;2.0828354974164287;-2.277826355023598;38;1.256637061435917
43;0.5244682976822492;-0.8580975617185461;-0.5282419660014717;0.1687163918831539;2.9759764702837552;1.9928488744513384;7;1.2566370614359172
44;1.4352654979441184;-1.2934206208896146;-0.2903173056810123;-2.002370952807837;0.2481525487249289;2.7712623320538348;18;1.256637061435917
45;1.208938997158888;-0.2291291114496703;-0.6929944370688104;2.8751571578346597;-0.006805478580668;-1.1476198868768464;37;1.2566370614359172
46;0.8666313730967021;-0.6256461395838956;-1.0539546683638372;3.085228639600978;-0.3384310087576743;-2.1577380150131376;45;1.2566370614359172
47;0.6893104235813461;0.5224516004115899;-1.5378642723708214;2.035327709793814;1.6654042139509797;-0.3749240830396018;37;1.2566370614359172
48;0.4073795502000594;-0.9560364545760284;-0.3297358528703391;2.468663959113184;-0.931429370034816;-2.1050620937339204;46;1.2566370614359177
49;-1.4181951525540215;0.2654317685869742;-0.794267400614155;-1.4182182927075284;-0.1830055155284427;1.6155452114378834;41;1.2566370614359172
50;1.8521986480337385;-0.9274841733497668;0.3700699861399412;2.072786728296518;2.041023614298775;-1.3559360477814564;30;1.2566370614359177
51;1.237345348627894;0.0730518228751844;1.5725385667397032;1.7298592252369718;0.0179163304981048;1.7648079932693506;13;1.2566370614359172
52;2.590757632578492;0.1262131616519569;-1.1180514619539823;0.4258740972973154;-1.951922047574476;-2.4954928310678985;40;1.2566370614359172
53;1.872062568593381;-0.4665309116535494;-1.3530003217128148;0.527770116363552;-2.1123962236896223;-1.7081346875680223;52;1.2566370614359172
54;1.3100088719064835;0.2537137557471449;-1.530342311156454;2.407295452077595;1.68301562902185;0.6165008350077361;47;1.2566370614359172
55;-0.5934790757064694;0.7856029736865517;0.8529446380799922;2.0325796721247813;0.1265778735655476;-0.7702321414663249;22;1.256637061435917
56;-2.098656978123049;0.2841362702567171;-0.2908337571123567;-0.9934151126716286;-0.9893670840189484;1.437678982439028;49;1.2566370614359172
57;-2.382919288325537;0.9398850343434826;0.1897893604829817;-0.1398683949601089;-1.3028201402781892;1.3350544112589626;56;1.2566370614359172
58;1.2996022831739094;0.1404640736421799;-1.4193406702057554;2.6509033871442136;1.7488044686981052;1.8372418209835704;54;1.2566370614359172
59;2.2200049271264044;-1.0635631753634165;0.3464333634369647;0.1950045667982326;-0.757131366757874;2.39634192676498;14;1.2566370614359172
60;0.8234478860569769;0.5510726315477371;-1.6312820891112767;2.85984591551833;0.7237723892001047;2.0483043644255075;58;1.256637061435917
61;-0.8116508821627215;-0.1547981215284008;0.1107684771231631;-0.8966343383077141;-1.7609255094041976;-0.7385562908093312;19;1.2566370614359172
62;-2.6100117812063792;0.2561395678300129;0.936854340592808;-0.1397988412133501;-0.8474143714708826;1.8777857787572352;57;1.2566370614359172
63;1.5345104250317514;-0.590691596563301;-0.9829512241570676;-0.4479217266797777;-0.5146510731817104;-3.27761646379078;15;1.1805558984305926
64;-1.4512735753079924;0.6208704624503023;-1.82247285100696;0.9206424230349444;0.4215144481018325;-1.7402291488977075;39;1.2566370614359172
65;2.374401043390729;-0.7315790339337608;-2.137872870042836;-0.0658202170400865;-2.556015554167598;-1.405860404205593;53;1.2566370614359177
66;1.7937804943212534;-0.1703034365335572;0.5140991363439713;-2.375979071961408;0.9517724983745706;1.8399049649802504;18;1.2566370614359177
67;0.6820389478840198;-0.221023096422173;-1.2294697798769307;-1.4319451692966911;-2.434527502773931;1.0385763684490603;34;1.256637061435917
68;-1.5506832936409516;1.0981118399216636;0.7299934448485003;-0.4348997092860134;-1.9893025222439296;1.441648226158159;57;1.2566370614359172
69;0.1598787288442368;-0.0577550591037646;0.1228530526764888;-0.9878903158102028;2.432004017882022;2.267573368638668;21;1.2566370614359172
70;0.1946455176430639;-0.1016058718944679;1.5823842053470696;2.1401184199808982;0.5159503853701434;1.5527679191973751;51;1.2566370614359172
71;-1.552869963274023;-0.1789226531628432;-0.4125545479646899;-0.6130960074538125;2.3107023277262395;-1.4684952180786963;42;1.2566370614359172
72;-0.0923053205023829;-1.2863059679712323;0.8279026327675374;-1.3414574081227244;-0.2573928793135592;-0.6742758961817085;19;1.2566370614359172
73;0.8799654330220854;-0.7391325900045179;2.0642947324279866;0.2320599710095357;-1.3902926771194974;2.737155460320788;24;1.2566370614359177
74;1.5733929253708914;0.2998735883580298;-0.3247764634100317;-2.524520915291053;0.2970990433023472;2.233764464081049;66;1.2566370614359172
75;-1.003370320041813;0.8102044269197454;0.950602904664246;-1.6286075123675707;1.1488175387894444;-2.362674338112535;38;1.256637061435917
76;-1.4453931286945634;0.9891038113232729;-1.124512006078624;0.4583029207142246;1.7109246073707356;0.6220745422938849;16;1.256637061435917
77;0.0525013382271272;-0.7518655220265267;-0.8402853913018463;-1.0561705026584178;-2.391538240583677;1.8173614840739944;67;1.2566370614359172
78;0.655112953109756;-0.6907819058289117;-0.893324646964331;2.6573889957633736;-0.5883154989050307;-0.3516418435850126;45;1.2566370614359177
79;2.0794192769731765;0.3033616115965495;-0.7362774785376774;-1.326478576568049;-0.9850675265552624;-1.916843316969719;15;1.2566370614359177
80;2.673161278548961;-0.5577361315546165;-0.0613233964562801;-0.2622774653138203;-0.17005588878945;3.0271310976678434;59;1.2566370614359172
81;0.1680734640451999;0.6642637506089857;-0.2218811799456364;0.8127865263714641;1.078534702979738;0.907439396467396;3;1.170629592165265
82;0.3744648873592793;0.1076688756408066;-2.2454047283499663;-1.6518304092606273;-0.5211244579767815;0.4269909498218385;26;1.256637061435917
83;-1.5426690316279437;0.2583774404830767;-1.5007351677693048;0.9161991140128772;0.8976719763792123;0.4700204703426693;76;1.2566370614359172
84;-2.079588975239394;-0.7376459383849339;0.2680744634802211;-1.6730627803083125;1.1519465593228804;-2.352243747545286;42;1.2566370614359172
85;1.3668181790539835;-0.364875747266614;1.3213999673861572;-2.7575344130931283;1.4901241694519924;2.3612876166982626;66;1.2566370614359172
86;1.637116761826527;-1.0565236643555431;-0.0834380332028864;0.8782517660342036;1.297870014507848;1.4024964165194789;4;1.2566370614359172
87;-0.0359982396072402;-1.207538252907396;0.787104646574742;-0.2948055925864847;-1.440355844349105;-0.6240119680851896;19;1.2566370614359172
88;-1.0351120171193224;0.4929501947172016;0.4559968184826289;0.3704052607254978;-1.5802314787489655;1.6786566259299909;68;1.2566370614359172
89;-1.6302681048626304;0.3083170019733867;0.5098476354796664;-0.5913435507042891;-2.356161758432385;-1.034789471716044;61;1.2566370614359177
90;-0.9081878302592136;0.3444360909167085;-1.4058731852756043;-2.050278438557986;0.293504084377972;2.174262035800973;49;1.2566370614359177
91;-2.831722888541333;-0.3453816142210496;1.5796573048158715;-0.631988693154798;-0.3568917450860365;2.399412281572144;62;1.2566370614359177
92;1.144755929520432;0.9295219747371116;-0.7545191201490076;-0.2868364051501501;-2.7780077754224632;-2.6692337574645224;40;1.2566370614359177
93;0.8110224575487737;-0.1561589087036351;0.4418899326331708;-0.2558835037475173;1.817395404141463;3.2834925457647754;21;1.2566370614359177
94;-0.1735570112638689;-0.2467185778133907;-0.6408005089203075;2.610120961861059;-0.2199073161318206;0.3508702620565668;78;1.256637061435917
95;-0.3605644353454947;-1.1640664235079987;0.0093217143602294;-0.7567584235992797;-2.6982545686270987;1.240257459890686;77;1.2566370614359177
96;2.5955786276426105;-0.5303243759789187;-0.8642703067286382;1.4241732188516203;-1.6616768089476976;-2.5486305245947376;52;1.2566370614359172
97;-1.6299522765967471;1.0389984463209845;-2.151924844191844;1.6190177042405784;1.0555403886929886;-2.351885974600865;64;1.2566370614359172
98;-2.50898256879892;-0.346698645165;-0.3850716835450165;-2.316055188150444;0.6948555095880657;-2.791500740937683;84;1.2566370614359172
99;-2.7808124734693904;-0.1151276239275277;1.6588188571935405;0.1622888663321568;-1.602236116290567;1.3983289117837976;62;1.256637061435917
100;1.934946416129516;-1.1631267141174049;-0.7211990341462601;-0.1817597499013153;-2.4776133776302136;-1.475868576699427;53;1.2566370614359172
101;2.000682014990512;-1.0842635328139023;-0.393357273936059;1.3618474790491002;-2.4315178455716957;-2.864996342893991;96;1.256637061435917
102;0.1687064011587013;-1.1906616804323162;0.9162916140639652;-2.456287120436738;0.2267345362853697;-0.8039851926246521;72;1.256637061435917
103;0.1816758161559052;-1.1938662532504285;-0.560323028088239;2.6673703119609877;0.3700237589222431;0.7959374896632323;94;1.2566370614359172
104;1.1828165521223748;-1.051633274073633;-0.0737751982027326;2.0733414143453346;-0.966909798290428;-0.2318696183133798;78;1.256637061435917
105;2.595965148870265;1.362232389143223;-1.882471473613856;-0.7646176340365276;1.3067498949001657;0.2472652009242832;29;1.2566370614359172
106;-1.4447154597972671;0.2953492081513456;0.0195569010965037;-1.7026447579096642;-1.4175627857175732;-1.1856167097408363;61;1.256637061435917
107;-1.436800317700589;1.2265439645048877;0.3630942418254034;0.9505279152167442;-1.808163097333375;0.9840363062408166;88;1.256637061435917
108;-0.7922396946418615;-0.826959996089397;1.6866220498090454;0.7125072151241787;2.313893641737962;0.6353362886655471;33;1.256637061435917
109;1.5550617906259676;1.359479983956846;-1.6780677310101022;-1.0490643627096854;1.1535188582234197;-1.292255674168346;29;1.1970594516954107
110;-1.983936912850626;0.3244312667842149;-0.3971040523476362;0.7157975103479579;1.7040764215976127;1.1239161634922563;76;1.2566370614359177
111;2.132290471940502;0.940222378004899;0.0928462753444511;-2.0053707014050404;-1.1341706117860393;-1.9301571700626836;79;1.2566370614359172
112;-2.088354025556157;0.6908805883894202;0.7413792553013087;1.2634907233281698;-1.3515145802582065;0.3374250794482927;107;1.256637061435917
113;-0.8304834334391051;1.1603343768409071;0.4480344479519016;-1.8177799987577847;0.2803717879318547;-1.7429191111789968;75;1.2566370614359172
114;1.8984219396967823;0.4444410168834476;-0.3770471216849105;0.3842580596446356;-0.9850904106773952;-1.8157401907755613;15;1.256637061435917
115;-1.220987980360687;0.4599549265075207;1.006703825410569;-0.9800129303979638;-2.318698883628565;2.2038650174988965;68;1.2566370614359172
116;2.414856125459333;0.1632933101167887;0.2354863344935391;0.3301360195179005;2.723334220553673;1.2258858280719176;7;1.256637061435917
117;1.7931410331820488;-0.5550292233739823;-0.261614984213304;1.386810938702736;2.3069231143301807;-2.0606593855140143;50;1.2566370614359172
118;-1.9372434313647309;1.1202864894579894;0.1958453504841161;1.97468122020899;-0.8369800986479733;0.8885765719622013;112;1.2566370614359172
119;-1.0407584997594737;1.1858556514717218;1.4646725548036017;1.7288136591470489;0.973844152151664;-0.5844079413460213;55;1.256637061435917
120;2.077019398157196;0.790186134792756;1.5924657819014068;1.704681578277656;-0.4437734201796869;1.3832137851104198;51;1.2566370614359177
121;-2.761913539768276;1.2264611636232052;-0.6217723606090465;-0.1313382615193139;-2.033804447021763;0.9346409541287712;57;1.2566370614359172
122;-0.4176255947971629;0.8220568276540589;1.7214904958032682;-0.8840711107179864;1.240518509419604;-2.0818040085096103;75;1.2566370614359172
123;0.4232154019796522;0.0489779936038164;-1.0465433942077644;0.03633394020108;2.884912028817749;1.9913589805797312;43;1.0618355090261564
124;0.936264792479332;-0.7506625559928247;-1.1515457498986204;-0.567154420757788;0.0183931623104559;0.8677463772613403;25;1.2566370614359172
125;0.7719794546950756;-0.6788028484453595;0.1054644434165241;0.8089412159607241;2.89600270457474;-0.4215598024365931;30;1.256637061435917
126;1.7715455576718817;-0.9837659192085304;-1.12659086555192;-1.2669149925636285;-1.0421132573089331;-1.806532941716075;15;1.2566370614359172
127;-2.4519177372896186;0.865186678834083;0.4057062131990516;-0.9144074404189656;-2.700152032853463;-0.4344731158406917;89;1.2566370614359172
128;-2.7476131116265594;0.0072594479649206;1.2570131009913277;1.3286650972834178;-1.0371947474078191;-0.217780629103039;112;1.2566370614359172
129;-2.317265713907014;-0.743220644518303;1.7905515028148768;-1.579091137736136;0.0326022011644532;2.650429588079759;91;1.256637061435917
130;1.7606932756204687;-0.7190353845782386;2.3752174938047648;0.1598123478256917;-0.4963926099546651;1.6016815500720916;24;1.2566370614359172
131;2.6963296277634994;-1.360606942142539;0.4053931477316528;1.3180375095211387;-1.9082270274705944;-3.1891731361486317;101;1.2566370614359172
132;-2.5299276573898517;0.2085409159425122;-1.4476174315172818;-2.560608313067903;0.8700999290053855;-2.565919861336588;98;1.2566370614359177
133;0.2988490488887301;-0.8252320687647373;-0.9684947963973932;-0.6716282643358765;-1.4406132272797891;-2.7513752903816995;20;1.256637061435917
134;-0.2309878377078544;0.9934772377721964;1.2692023026125756;-1.091953993524881;-2.736301682780053;1.961869118570935;115;1.2566370614359172
135;-0.8676410845189524;0.0051128179123077;-1.39591788579315;2.543273755044512;-0.8201245186648028;0.6655660825304983;94;1.2566370614359177
136;2.565025209345018;-1.390733883255152;0.3233020653700518;-1.3712580684421465;0.7828712137730026;1.7720052081646689;10;1.2566370614359172
137;-0.1403371551924447;-0.0830645917124348;-0.175563359737467;0.1167476012816254;-1.8788133363003836;-0.7161404740814569;61;1.2566370614359172
138;-3.0594161236714834;-0.0349105033705017;1.5588857808313874;-0.1946055002029152;-2.163284291692772;2.15925977334376;99;1.0560330582650324
139;1.2617779650352177;1.2220957632630105;-2.106714505949767;1.44394258800738;1.92414069630246;-0.5220435777750023;47;1.256637061435917
140;2.341821235353548;-1.173845040458355;-0.1847413172791386;-1.044476027272199;-0.9497321723492168;-1.284327662573848;126;1.2566370614359177
141;1.2917099175507876;-1.0842697425983154;1.666964203503852;-1.200382865850259;-1.5097239957033357;2.690816552851465;24;1.2566370614359177
142;-2.7821162131624635;-0.8031104243388083;-0.37571646602849;-2.04686361603145;0.9707286471478652;-1.649198352260462;84;1.2566370614359172
143;2.4354065086646823;0.1395364361373984;0.8857019893804872;-1.6363995497898087;-1.1427705891081517;-2.21533350382282;111;1.256637061435917
144;2.00365181252896;0.3059440862880433;-2.0969155774924912;0.7379279806483221;-1.6715311850815395;-2.1242658383372404;53;1.2566370614359172
145;-1.4159888917442205;0.6468521921364114;-2.797413266774495;1.6889111464633058;1.8771941225300528;-2.02000091614952;97;1.1859013289621367
146;2.144195951621236;0.8570985461285237;-0.4140277561396066;-0.9317068295962964;-2.8035701024026025;-2.700172103091768;92;1.2399711117076089
147;-0.2773518081170855;0.5476834440792342;-1.4937053541824132;-1.9752505757913308;-0.2518486274424901;-0.763180730500047;6;1.2566370614359172
148;1.111153055125212;0.3427620931507096;-2.161877048776621;-2.2651823022582382;0.1278722418813982;0.0065337077586967;82;1.2566370614359177
149;1.9358715201757888;-1.1308725180919266;-1.2240874108439428;1.26824880183325;1.1315470917907622;1.343229720813266;86;1.2566370614359177
150;-2.276759785896176;0.1101929485923827;-1.5289263865656637;-1.3435099341668235;-0.3565933499767802;2.107954068559105;49;1.2566370614359172
151;-1.3010395447850749;0.1688520617871745;2.1784376749153127;-1.168295274557937;-2.309888618342064;2.485821569802816;115;1.256637061435917
152;2.626855880730918;-0.2126702172509644;-1.232630866202257;0.8998638962131407;1.0502764028728218;1.0023536462971894;149;1.2566370614359172
153;4.85302151779915e-05;0.0159860569265943;-0.1635141078945956;0.6065685706698394;2.80391262315138;0.1938611894493923;125;1.2566370614359172
154;-0.1093239880535271;-1.3292979881421718;0.0248521899576408;-0.3585965681441042;-1.5948562066652108;-2.9748278585002934;133;1.256637061435917
155;1.658713474702447;-0.954294640903644;0.3035678436861274;0.8520964124674208;1.4277973173735394;-2.213759488930937;117;1.2566370614359177
156;0.8534574240924846;-1.0365356653187998;-0.5568557282281122;0.1852793391617248;0.0467764913062802;-3.1404132974979238;63;1.256637061435917
157;2.7504236206560977;0.6634216068506746;0.5177121166681703;-0.0707323298521799;2.3155710956622952;0.3260051384936968;116;1.2566370614359177
158;2.113307465212206;-1.2282315283973948;0.0938725694385907;2.337522978861785;-1.0254218797181975;-0.0553667694575193;104;1.0146304130695425
159;-2.294483159270038;1.216366607006108;1.0568444846088192;2.674555102472054;-1.1829044100566564;1.1910307052309324;118;1.2566370614359177
160;3.1307676136765226;0.567494036981264;-1.423203468998897;-0.7254704085490664;0.7317045834137803;-1.0667572295807486;35;1.2566370614359172
161;-2.976983950148527;1.233299266188196;0.8131860397952487;-0.6313297286938999;-0.4207012821643263;2.10283362421597;62;1.2566370614359172
162;1.139183647630221;-0.034891837268163;-0.8725741533355502;-2.346845676664915;1.1401619903322808;-1.898662195483348;11;1.2566370614359172
163;-1.9880132509723427;0.5772301869996699;0.2794176797978427;1.3068348026673289;1.658798418695992;1.964247027530713;110;1.2566370614359172
164;1.7674768106772067;0.8530256833158388;-1.2237593505260511;-2.1658278668499458;-0.0358255195726088;2.6671479092996875;74;1.2566370614359172
165;-1.0630289891354765;0.3185494621234327;-0.6877382039606514;-2.536252394137299;-0.5544156635576829;2.4634581047800896;90;1.2566370614359172
166;2.8574337390655957;-0.4790238568271837;-0.4257751348331752;1.8980669224287248;-1.0556656330230192;-0.0498340584462967;158;1.2566370614359172
167;0.0080838032230907;-1.4497043679719352;-0.7425915550202802;-9.812129620756851e-05;-1.3323766728690574;0.3795059315491733;2;1.2566370614359172
168;-1.0357657663238444;1.5300185414559404;0.8225313871018325;1.230750958363405;1.2521825491462504;-1.4345724463296383;119;1.2566370614359177
169;-0.285182735879683;0.7158672574094773;-0.1192874682982484;-0.7727926526282941;-2.2810545480774422;-1.1914504009893476;61;1.2566370614359177
170;0.8599785188485207;1.3657880048070037;-2.446297058014062;1.6572349858962423;2.193151708590728;0.5567842896544518;139;1.256637061435917
171;-0.099582509975567;-1.3689336467190143;0.7277266203366204;0.7857853018919565;-1.0823483840731027;-0.1243385760084342;87;1.256637061435917
172;-0.9153578838411316;0.6298622722389285;1.3613384252179317;-0.6030451978530721;-2.0121564257655287;-1.3828348089421345;89;1.2566370614359172
173;2.143439672746683;-1.103853487088907;-0.4575760770590028;0.9026922413307344;-1.2650102452470593;2.8043335645099665;59;1.256637061435917
174;0.8560426751002983;-0.4442441582266587;1.915304902550212;0.8940062686186104;1.6511754015942837;-0.0516277019407635;33;1.2566370614359172
175;-2.122433702921636;0.3777710250113874;1.777240185767886;2.5988993157342675;-0.7609126593496005;1.5698741248956662;159;1.2566370614359172
176;-2.3842881459759906;0.4661704174289858;-2.3512642848588405;1.2107235233815647;-0.1419902711306691;-1.6820619994473889;64;1.2566370614359177
177;-1.004094277506034;0.0820442533830509;0.9964302953691674;2.425288003762127;-0.5183139163820182;-1.3401826647430637;55;1.2566370614359177
178;1.0657233986072463;-1.37072651414119;-0.6526775755378307;-0.810968124963926;-2.2254766943925133;-1.2632211642996858;100;1.1436942466120936
179;-1.0814122598417182;0.7733111890329523;-1.909554260394726;-2.023963294505565;-1.0326266716293573;-0.4520569306920005;147;1.256637061435917
180;-1.3372755927715525;1.4089798816433914;1.82121379387074;2.585890717772015;0.6073335907847445;-1.2517887655131643;119;1.2566370614359177
181;-2.4035721189725434;1.5341014586316786;0.0271503592374698;2.0289301129520645;-0.2071795086176766;0.0154318503163636;118;1.2566370614359172
182;1.9757611009869216;-1.0109762405523428;0.3030522040556191;0.2386560805296098;2.70309746076472;2.407072767649783;7;1.2566370614359172
183;-0.3892897694281882;0.4738717212844693;-0.2960239774766435;0.7804764910677758;-2.570065859737963;-1.2396902736069837;137;1.256637061435917
184;-2.467761786787695;-0.1928820891506709;-0.3203467017049407;-0.2306289289427464;2.105967770273052;1.0043095779748654;110;1.256637061435917
185;-1.5875478777771277;0.1098519017708929;-1.6999002592043686;-2.534390715877996;1.1142029710149464;2.4354393863337265;90;1.2566370614359177
186;1.945439379735516;-1.2009686773617003;1.8462980503811304;-0.4220252825767947;0.1061460102423335;2.733502745532257;14;1.1222432038487309
187;2.63902458130155;-1.5465194552588306;1.6621023867145133;-0.584704596488266;0.9965177173289126;3.087785900323774;186;1.2566370614359172
188;-2.995105665244169;0.6283043280098506;0.86881547732227;1.5727188464843476;-1.291962213753408;-1.1435350823024977;128;1.2566370614359172
189;0.9986876205107472;-0.1410209769607353;-1.8851742605022783;2.5166506772221244;-0.2463610489078722;-2.709238256428552;46;1.256637061435917
190;-0.7447615612770044;-0.082693096988951;0.8006703301638872;-1.5514230755794505;2.4201555776209704;-2.905961772216002;42;1.2566370614359172
191;-1.0612704306083651;0.5678891735712849;1.4852484724147268;2.64069808551593;-1.298548937823378;1.7720256460438812;175;1.256637061435917
192;1.2274250175471524;-0.8842673879789305;0.9021239334844516;1.7001472243858065;-0.2388402607701847;1.3822956547779786;51;1.256637061435917
193;1.2631758780651934;-0.7533003992149385;-1.664567693120834;0.6144139775187143;-2.975988582229597;-2.233285919067188;53;1.256637061435917
194;2.4577244174584223;-1.0548106104746184;-0.0831423922513757;2.879235561483779;1.524136801867108;-1.626731298485844;50;1.256637061435917
195;0.5587801999642441;-1.0590854439955222;-0.041660167582576;-2.339651407179744;1.4495886681811103;2.974163370679315;18;1.2566370614359172
196;2.2325981372552866;-0.455289152600498;0.9719234179407452;1.2192919708264225;1.929472310507624;-2.623121273239588;155;1.2566370614359172
197;-0.4830657264291981;0.0238739602340202;2.2151424126800485;-0.1795345151628122;1.3605431391297822;-2.5099260264598047;122;1.256637061435917
198;1.932929337744356;-0.5035185624201504;1.0326779260169434;-1.374160768482077;-2.107462654784656;2.893036928310866;141;1.2566370614359177
199;-2.737885090435362;-0.6615754474609326;0.9528800324966014;0.9791050724391148;-1.6007114490785996;1.7347037870824482;99;1.2566370614359172
200;0.6952312948664586;-0.7796636015145839;0.6424467514688895;-0.1333427269101919;0.0521436617895747;-0.2338327319438242;0;1.2566370614359172
201;2.1408580040514837;1.2616332715153211;-1.206665658269752;-1.652006889585517;0.3874117620904707;-1.0604673359577248;109;1.2566370614359172
202;2.582356553418781;-1.5765804389632674;1.4425676337697364;-0.4573957804403066;-0.5130645576331578;1.357505115829846;14;1.2566370614359172
203;1.953364937534428;-0.5839319414665644;1.3818898749101802;-2.629302829785323;0.2389649222023075;2.079180197082598;66;1.2566370614359172
204;-2.5286712498681267;-0.7115170073174916;1.914870566673144;2.7053556658651443;-1.2050788250149844;1.5690475070475751;175;1.2566370614359172
205;-0.022187608132128;-0.1857499620902634;-2.145056171009624;2.1423543965253136;1.4226086693474216;-0.0112327138989099;47;1.2566370614359177
206;2.83625524592573;0.8350155485791199;0.4607203937055397;0.095243402776446;2.122673417771113;1.921335608409396;116;1.2566370614359172
207;-1.3108270898590682;0.2618922517195841;2.191299564489824;-1.2308945445742978;1.29400757584407;-1.730129008342343;122;1.2566370614359172
208;-1.8097777208510173;-0.2524864709345496;0.8505376234944844;-1.3096250356385113;-0.9975953014297158;-1.538286764464628;106;1.2566370614359172
209;2.2931242308219653;-0.5152797796452002;0.6357511203202895;1.7328951410453797;-0.6997848425715866;-0.5781054927230903;158;1.256637061435917
210;-1.7039216557554784;0.4620893621035677;-1.932987613034598;0.4422048725335341;2.2023527181559146;1.2044506517933344;76;1.2566370614359172
211;-2.363412173324598;-0.8631395915139233;0.8659555584104998;-0.9624168154600464;2.3758336330802066;-2.605229372844769;42;1.256637061435917
212;0.7779410200027077;-0.1647115339171859;0.0469242286352669;-1.1854296667332855;1.9985974756279283;-1.644015015157783;36;1.2566370614359172
213;-0.9397498791787012;-0.0431344147000514;-1.055749362791372;1.8591715456013584;-0.7680565843747419;1.6581323038300222;135;1.2566370614359172
214;2.3988970258912925;-0.3499929818403258;1.3117707878605007;-0.9087160615350472;-0.9442856748372984;-2.301666719630412;143;0.9994396224182815
215;-0.2305289784258717;0.169919494999225;-2.1565845057172783;2.069560552463449;-0.6985286322214653;0.0926261528125923;135;1.256637061435917
216;2.9077673854796897;1.0289357394403318;0.2610315031014215;-0.0414507819541544;2.7876953730361995;-0.7375433479461664;157;1.256637061435917
217;0.5124381285222388;-1.4805997059035754;1.412326679200465;-3.022984845704677;0.0556087771916638;0.0794399723268445;102;1.256637061435917
218;-2.876258445269874;0.3089846566444919;-0.3359064304372074;-2.7355963747128613;-0.2078926625541858;-2.6468001852253247;98;1.2566370614359172
219;-2.5904492581914456;0.6383477453843803;-0.709833889212594;1.3556200771160745;2.4556542766774947;1.3256431659707166;110;1.2566370614359172
220;-0.9024557028572648;0.8391547943721303;-1.2938756093784225;-0.8769884486078241;-0.6561511964444612;2.082006862708808;49;1.2566370614359177
221;-0.5665911343174086;0.0247134097374826;-1.7796069486215162;2.8707056822650725;1.559008128881524;-0.7567614737909726;205;1.2566370614359172
222;0.6404227723770011;-0.9717955619944252;-0.4881693090652432;3.2559543972509046;0.43488055327902;-0.0508391462741615;103;1.1543996800615206
223;-1.4339936510812292;-0.2984712695689738;1.492782652586642;-2.0690935168338536;-0.4526609799401458;2.4582937349327283;129;1.256637061435917
224;2.771621187104309;0.4109236892902138;1.114799738033099;1.3830964291443182;-0.3988446803144848;-0.8015172267374663;209;1.2566370614359177
225;-3.243166457519071;0.5484621153813658;0.8218448092722375;1.8031119514490443;-0.707067147354664;-2.198920463773599;188;1.256637061435917
226;-1.5307977985736936;1.564685142988804;-2.171491245638595;0.6301080464286137;0.0650818532828763;-1.1496716220998175;64;1.256637061435917
227;-1.3302735894901203;-0.9077132948743027;2.311178410693513;0.1601197236585674;2.169558058793132;1.3883965702839056;108;1.2566370614359177
228;-0.6764733033114103;1.1721210267784088;-1.2498491274465342;-2.2601639456636544;-1.729356611235657;0.0767886424069789;179;1.256637061435917
229;0.7590020142609563;-1.0296730208857312;-0.1227587298145614;2.6012506099072943;-0.9277916474353738;-1.7186672233165368;48;0.5820598590162046
230;2.3504064524768737;0.4023226729913692;-0.9024225728798356;2.364574431543315;-0.8314198637940979;0.1741751554975725;166;1.256637061435917
231;1.9820413617210295;-0.4461017399662537;1.8409778162419512;2.3163164600695034;0.4273821126120183;2.1788009699774262;51;1.256637061435917
232;-2.6442192126150905;0.1661282640605291;-1.976904878825141;-1.7734836016960922;-1.294782448478654;2.5265477206010147;150;1.2566370614359172
233;1.9286967350242643;-0.3691024981593924;-0.1589792796258003;2.6936145478816145;-0.8032241304563492;-0.9575233734940444;45;1.2353918452326358
234;2.523098311352461;-0.9874072506086612;-0.2557908065898419;-1.384434858103394;0.1818341948612284;-1.6166735613213317;140;1.2566370614359172
235;2.382395269425017;-0.6221539514534067;-0.8262108421996968;0.2883305180332937;-2.039672723620604;2.3841328840776788;173;1.2566370614359177
236;2.0211570166752995;-1.574469285301732;1.1104425383271506;-0.7909087633433678;-2.3202219047721537;2.7115971445729903;198;1.2566370614359172
237;2.2783220420995542;0.1618502612364762;0.0693765389230483;0.1558988965251543;-1.7015909078284903;2.5245916190926687;235;1.2566370614359172
238;-2.6135698293210767;0.2174223803823622;0.1416851385249705;0.0253824043745333;2.9663587586909284;1.6127823251577451;184;1.2566370614359172
239;-1.2735357875303828;-0.5687992997207124;1.6519922382225198;-0.5962942972512488;-1.7459464452041962;2.820321234793376;151;1.2566370614359172
240;-1.6148470355731888;0.5297982099375939;2.284729106409105;-1.4463967839281937;-1.1912923548685384;2.383432495898466;151;1.256637061435917
241;0.5534807881673319;1.0884469124385396;1.6917454637618847;-0.2632871315739924;-2.461430591731577;1.8437978169697469;134;1.256637061435917
242;2.172680165115115;-1.0792105484022632;2.363325996903125;1.4054282545293235;0.3170999046466796;2.3438454405589786;231;1.256637061435917
243;0.2570238144568632;0.364531967910265;0.9324980300201174;2.4219723918626874;1.230817724015349;2.1402474102051627;70;1.256637061435917
244;-2.0428172429523217;0.4981730884235843;2.131025209099493;-2.423882707676591;-1.6136514590617357;1.8961058853074912;240;1.2566370614359172
245;-2.223179940338855;0.1171520507701243;-2.5973487263605177;-1.4574908658647314;-2.2233004241008567;2.7557121982385504;232;1.2566370614359172
246;-0.1433327781484999;1.1856483146875236;0.9834388987483792;-1.4637062525373694;-2.099280579873301;2.204004391312286;134;0.8537558041923684
247;0.9983015316059298;-1.4023275955865249;2.632938701332877;-0.3247894266767887;-0.9474198539643236;1.4394391027639863;130;1.256637061435917
248;-2.7996562367657343;-0.9451417936378932;-0.7682721729039763;-0.9684433470309192;0.6591029783212778;-1.2691255634186254;142;1.2566370614359172
249;-0.2801841829507008;0.7452990109985234;-1.9255784881463376;1.844528654416544;0.0121471905646888;-1.5362141225452923;39;1.2566370614359172
250;-2.500120744191246;-0.6002142690181314;2.141330450574273;0.7926932583595825;-1.2674536463170472;-0.3807461714445501;128;1.2566370614359172
251;2.106524550282435;-0.7216881081990523;1.8743538944443408;-1.768763075646614;-0.4404575769256243;-2.514913999052161;214;1.2566370614359177
252;-2.057687016821722;0.5642251266921692;-0.1011503788914267;-0.3001762812289934;-0.0111679129121295;1.4528337028302432;56;1.246511712951711
253;-0.2178907699227465;0.670523992974377;1.0971278523869312;2.752626115138048;-0.8399901102263317;-1.9678342672216156;177;1.2566370614359172
254;-1.9638178410517677;-0.284653605506726;0.8591029616819863;1.85471673674824;1.843880535543691;2.370747439370238;163;1.2566370614359172
255;-1.2708553222400758;0.1147289576050327;-1.1723889903659437;-0.4668420201381332;-1.5056058168246755;2.2006381746225228;220;1.2566370614359172
256;-2.1832483753131706;-0.085693962276529;2.5750196148278226;-1.6361818312637375;0.7177395334401264;-1.4985735933307347;207;1.256637061435917
257;1.9146273683700037;-1.240332903812007;1.3084037477114094;1.68782836044753;2.699297033300786;-1.2319282107177032;50;1.2566370614359177
258;0.7245632412579115;1.0667457876678454;-0.6990983758123703;2.7400103062400185;1.738895141161435;-0.0990054838236446;47;1.2566370614359172
259;1.998674962343797;0.828813706985106;-1.9742873964567509;3.0034591085248032;1.227025143836317;0.4994107007877946;54;1.2566370614359177
260;-3.039795639166328;0.432614066831645;-0.9589936827287452;-0.4512136013232881;-2.3377923143280888;0.1841224977616266;121;1.256637061435917
261;1.530229969643094;0.898095560483043;-2.5334539389702404;-0.2196347062408602;0.5795573559864071;-1.8535031001215725;9;1.2566370614359172
262;-0.4053869829424653;0.6515025656502083;-1.6242708151310117;0.1108311393676415;-1.495562426807302;2.137622152021406;255;1.256637061435917
263;2.553342590993669;-0.1266926144814485;1.107173867277613;-1.9134836158771296;-2.0488592905638634;-1.475382309498953;143;1.2566370614359172
264;-3.02948159362598;-0.0607989803025625;0.5434600066360373;2.21106083230974;0.248875135879692;-2.266228440965778;225;1.256637061435917
265;1.479284222597855;-0.6860080444950343;1.4745735691101547;1.626466475582001;1.6556153045188828;-2.08522533501226;196;1.1846902603540308
266;-1.652387296293623;0.6475273995350193;-1.516299164644861;0.1317025287276564;-0.2751161848270904;-2.3203297102883784;64;1.2566370614359177
267;0.3721477798083599;0.0188716609833359;-0.5621974625860299;-0.1238755336926877;-0.1712602368315257;-2.839667854093459;156;1.256637061435917
268;1.2628460396493373;0.6246698664222812;0.0048019054069193;0.8063378526346419;-2.531695971405528;-2.4372601524876703;40;1.1554574654867753
269;3.1879084617163223;-0.948064907216744;0.0729931367152281;2.3102936895116217;0.720186203690935;-1.4263227180189353;194;1.256637061435917
270;-0.9554315498316428;1.3473659033725347;-1.653795357627248;-0.4265857709987926;-0.4710243183136357;-2.804730819630741;266;1.256637061435917
271;-0.9714358813879564;1.0601831333410967;0.1109487807958416;-1.765778151226312;-2.247654351011654;2.260033214118022;246;1.2566370614359177
272;-2.320747941140134;1.6285036816005616;-1.5671510470123429;0.56787737712127;0.1306862266055785;-0.3896459614238818;226;1.2566370614359172
273;2.0016326850753563;-0.6323027424962637;1.263900024163743;0.8017550115266846;2.6999248674359686;2.848383023972943;182;1.2566370614359172
274;3.3677662481362773;-0.6497382901926632;0.093471683180797;-1.3869648250952598;1.3481109959477924;1.8864794050029496;136;1.2566370614359172
275;1.8977389685161457;0.9139605986756412;-1.0977387204272815;2.5973795655494194;2.2483584210601046;2.354180473710694;58;1.2566370614359177
276;1.1235534941588423;-1.169544096404498;1.610830771739172;0.9073201122558696;2.988007511298984;-1.637290769419424;257;1.2566370614359172
277;-1.4630113234592723;1.2286307444525555;-0.9875967863526672;-3.020353178179681;-1.300547205816762;0.4328221141850425;228;1.2566370614359172
278;-2.8100080788509123;0.5286391373207903;-1.0323416221969657;2.146904467569416;1.6648315132608271;0.921475153612162;219;1.256637061435917
279;2.291090029358274;-1.3481110165336654;-0.260078014371791;1.2435702573654788;2.8812024456930194;2.492833962617949;182;1.256637061435917
280;1.3126489605204803;0.6188252251223709;-2.5399882821398934;2.665136019892357;0.4334114061942555;0.4890619065150448;259;1.256637061435917
281;-1.4266503040940992;0.1120270900993863;-0.3327831609402584;-2.269300892270834;-2.1184547182665088;2.1839351245790857;271;1.256637061435917
282;-1.3616019718700068;1.0275764820366056;-0.4496954046757537;0.6615868440982603;-2.7270406383932686;-1.754244436207606;183;1.256637061435917
283;1.6616090160546069;-0.197123591416078;-0.3199793304598365;0.3542934257553107;-0.982626721867612;-2.501674499428849;15;0.9681021150854494
284;-0.336563883565538;-0.0433071548084291;-2.244472973600619;2.2543967799891957;2.459656740072741;-0.8676981076982985;221;1.2152988418810142
285;1.1314324973715748;-0.1372746787704852;-0.0563451980059691;-1.3137667968475089;2.91322687887886;2.7765072280308187;69;1.2566370614359177
286;1.3664613518422244;1.213973172766537;-2.700815803836931;0.5746102383429545;1.943008818710104;0.5684675889142111;170;1.256637061435917
287;-2.354293083041836;-0.6954384652456818;-0.7215574418895534;-1.3653567459493812;-0.1252217547244448;2.5751035156777093;150;1.2566370614359172
288;-2.072472227964792;0.1731931848482952;-0.1954554969619135;0.853127031722058;-2.7035231551213377;-2.2461292992506943;282;1.2566370614359177
289;2.694178750303648;-0.9874962535489418;1.4218981593225537;1.0057069389425557;-0.90252215491021;-0.6639618397667416;209;1.256637061435917
290;-1.9356463349565725;-0.0282241736379279;-0.3136388142892921;-0.3112923961125565;-2.85000868788834;-2.604665929393284;288;1.2566370614359177
291;2.0203115246669827;-1.0600285583643556;-1.344158353876902;1.3359355854820003;3.0503513970831984;2.9515836751743567;279;1.2566370614359177
292;-1.4452422411784718;0.3574681493468516;-0.8925863052276984;-1.11061845759373;-3.083560822492811;-3.006204235866518;290;1.256637061435917
293;-0.3512511238697503;0.1575478992128839;1.5105689984949442;-1.4483791337831025;-2.373948096414088;-1.7952508129668194;172;1.2566370614359172
294;0.9934794189280431;1.2451445029034949;-1.9405617989985695;-2.7070230908577484;-0.0773792025219357;-0.675128766199623;148;1.2566370614359172
295;-2.315875636413328;-1.258158365503533;0.9781242510225576;0.1794928383979173;2.6220785016586112;-2.8141818591927974;211;1.2566370614359177
296;2.236204654337439;1.0880133051466832;-0.1501642718952619;-0.0506116751768802;-2.2012051084527893;1.9088597678680812;237;1.2566370614359172
297;-2.1607663490442377;0.1989365400273006;-0.3741615727988906;-2.1321151531018105;0.3305573971757903;1.3445865287097505;49;1.2566370614359172
298;2.355818981527982;1.276023892201752;-0.7521325317153736;-2.32538695332322;1.2241965008352709;-0.6451703097198651;201;1.2566370614359172
299;2.4948556070489545;1.30524394604221;-1.3550265266422712;2.369614552579972;2.439078782440874;1.3976044999218429;275;1.256637061435917
300;2.698282499187852;-1.101948976887407;-1.5937674404190223;0.8761672646761024;-2.496983370974294;2.059601690724606;235;1.2566370614359172
301;2.9044102154760347;0.107723246821167;0.4886004933452709;0.2704536424649564;1.7145632937752984;-0.5504413420189762;157;1.2566370614359172
302;0.1157065889131679;1.1184294818261191;-2.630543096234081;0.240156311915028;-1.2931381491942728;2.2765212389786265;262;1.256637061435917
303;-1.7161179502251502;-0.0412885952331362;-1.8975376903451815;-0.5899346574161837;-3.179290729840095;-2.7683955066383303;292;1.2566370614359177
304;-2.283834608270364;-0.8308299504586991;0.618544999562145;0.8183142876940729;-2.3878197886928527;0.9684436171411288;199;1.256637061435917
305;-2.500487271365438;1.3774223219646822;1.0814509603296414;-0.430641970110635;0.2790815161938297;2.9568702482340274;161;1.256637061435917
306;0.9026372566813402;-0.9600422705335518;-0.1922829807389365;0.699377280976837;0.3750977261230271;-0.3291602825484056;200;1.256637061435917
307;-1.0389960492795198;1.6520469174519152;1.0697008837312083;1.6598015709588865;-1.3208687956318843;0.9798050360213176;107;1.2566370614359172
308;0.2219511254408603;-0.1372888016683167;-1.196762146414544;-0.0529667127033249;-1.1008349393316583;2.582581243678695;262;1.256637061435917
309;-1.098713729447463;-0.5705109524673396;1.8786553475101444;2.070944073408223;-0.2531861084143182;-1.752714055845117;177;1.2566370614359177
310;1.5390060428656058;-0.9208384441457532;-1.888374728669844;0.0700259695417618;-0.3157063140419326;-2.02688955843576;12;1.2566370614359177
311;1.0969886440278953;0.920199087231914;-0.9735194736142928;-1.210827979981571;-1.4081542740923647;-0.4918772244675683;26;1.256637061435917
312;1.0594095465153155;0.5011945264503596;1.505291218144703;-3.2212346851611637;0.8816309560035684;2.701083132508156;85;1.2566370614359172
313;2.457689211170174;1.0122717145935043;-0.5146898370646658;-1.138439016779126;-0.1420681474096216;-0.4330583524198889;201;1.2566370614359172
314;-3.000708701117994;-0.0184757050257177;-1.96211721877156;1.0471544091555594;0.4995916485844852;-1.0701282730652455;176;1.2566370614359172
315;0.1061135633068472;-0.2718149704954851;0.5163214465092212;-2.550339749557127;0.8326114205670561;-0.3623623517557719;102;1.2566370614359177
316;2.226297599025753;-0.7047593164835944;1.7539180990846768;1.2266230000063267;2.7152168023901493;-3.159682372159816;196;1.2566370614359177
317;-3.0630131345356526;-0.6623132391544931;1.7857206028110095;-0.8170875194858008;-2.884765026181832;2.6346724591084625;138;1.2566370614359177
318;-1.1870156344226874;-0.6011677587492099;-1.9007348281646557;3.1780917884767192;1.2544877922524136;-1.5317402411529306;221;1.2566370614359172
319;-0.4314165922396802;-0.0184555892284604;2.578968489017281;2.2405817192487487;-0.2447983474278824;-1.1961169581348408;309;1.2566370614359172
320;-1.1661999598607424;0.6749344948136173;0.164548007343489;-3.0807343938952743;-0.2143015737774869;3.0138689834350263;165;1.256637061435917
321;1.99593411663022;-1.0803885619510096;0.6108786827650456;-0.4588306323264298;1.9945432913402927;0.0595732094728322;32;1.2566370614359172
322;2.5524330936182107;-0.722010587891635;2.3047964595924624;-2.2480388219394314;-0.8731214773425051;-1.632803984619987;251;1.256637061435917
323;-1.8864310029388809;-0.1985296175786256;-1.1822858131030551;1.599387346129966;-0.6559949551643769;1.6373403241623548;213;1.008385956801147
324;3.3602622016676884;0.7438232543354915;-2.2465250990427665;-1.5407230201979236;1.0092770829778408;-0.7913754481359807;160;1.2566370614359172
325;-1.3522617221433917;-0.4082892994239189;-1.5169636456778073;2.7983889396295205;-1.3939706887081402;-0.2087010224662545;135;1.2566370614359177
326;0.6567042247885344;0.4376513140342325;-0.7345900480394874;2.2536237282767293;0.1461593089087541;2.230705112739341;60;1.2566370614359172
327;0.004021769443363;0.1040602286574799;-1.3631268096036189;-3.1023799458098;-0.1285263429828097;-0.7411739620616286;147;1.256637061435917
328;1.4386297269017636;-0.8139586005387628;-1.2025527292379432;0.927398807600659;2.5137419143014537;-1.5634505226631583;117;1.256637061435917
329;0.1375737401487251;0.7101912449448136;1.7928743144223789;0.2747372085256191;1.8978949624731376;0.8190339671905393;33;1.2566370614359172
330;-0.2276466627388466;0.3115641849914815;1.686659898192873;2.5390397686846877;1.3653553144544324;3.0009798827649536;243;1.256637061435917
331;1.9296756894105376;-1.5413091719324283;1.192952884133088;-1.4202315180721594;1.3908406480589326;3.0404927662387538;187;1.2566370614359172
332;2.533895663016984;0.7846278320923175;-1.788837603293694;0.8667859833152449;-2.148973879033245;-1.2702330019362562;144;1.256637061435917
333;0.8105243801370956;-0.4363031627432282;-1.1061643560786452;0.3442697979033404;-2.3732363486271946;0.9321947074145778;34;1.256637061435917
334;2.073544978531237;0.3331531564662215;-1.423861378244497;1.488084832599835;-1.8029037369665175;-0.8270657394181118;332;1.1185409273735194
335;-2.4765426286120182;1.408596575222567;-2.314622777403525;-0.2703802632332661;0.3228101935143422;0.0666479198486952;272;1.2566370614359172
336;1.6816642338561112;0.2767894454850937;-1.791410949391972;2.800648795683387;2.285215342613272;2.061043406319021;58;0.8143952949597422
337;1.6855217307057262;-1.4668755363609014;0.9752497574484276;0.2428143960924572;-2.356212163643304;2.105995553519961;236;1.2566370614359172
338;3.029527671408312;-0.969427637622116;1.0372902054880273;2.7731159273025314;0.3348136020098773;-1.9372146443803808;269;1.2566370614359172
339;1.5898857589709554;-0.0791775546282624;-2.0079369641873286;-2.2346645373521588;1.0201838396662697;0.5990451126408188;148;1.2566370614359177
340;0.8742835238864726;0.2870997495481715;-1.2326216567189263;1.0350892861163796;1.848027264960316;-0.6808575204972878;47;1.1446405318119273
341;-0.1814491498433363;-1.2052163870735144;2.261565122371998;1.5560966596642354;2.193238687698474;0.7142882466962668;108;1.2566370614359172
342;-1.176595959401302;-0.114048200502361;-0.5627599330057722;-0.7225707352446924;0.0373287809912951;2.504754440538044;49;1.2566370614359172
343;1.29218623653726;0.791966137202608;2.1223944801964585;1.6315696363531578;-0.5263651592795162;1.180657683056821;51;1.2121557689562068
344;-1.6421827385014134;0.3510306022548625;1.7268933621644975;-0.3163452124423954;-2.770779242089564;-1.80919072086122;172;1.2566370614359172
345;0.7298488164371189;0.1790992720033724;-1.1651553902806746;1.252902777081735;-2.971466347448144;1.0154715736368438;333;1.256637061435917
346;-1.198057730809461;-0.8840192520596941;1.8233698298316117;-1.4368782243849951;1.091247230467232;-1.5446747614543417;207;1.256637061435917
347;-0.2653599381551166;1.3875906623710637;0.9980911055672824;2.321040993758131;-1.755309375354439;1.4101758095018504;307;1.2185126580612735
348;1.6583902167072715;1.064453279847558;-1.8162828471452053;1.889711637310573;0.4300676396787055;0.5875763541298974;280;1.2053506486887284
349;0.1426913542395341;0.977559872337224;-1.878223860614868;-0.5415280177463228;-1.6402315623976096;1.441071157196789;262;1.1844324789943712
350;2.345027994784734;0.0221974554012809;1.6595325976083426;-0.933674736420738;-1.143804666452732;1.7784674247496168;24;1.256637061435917
351;-1.927673952637912;0.9198504974878284;-1.2699094561985969;0.543248446074768;-0.7809473678252516;-0.43868931301488;272;1.2566370614359172
352;-0.5988775685181265;0.923918854203693;-1.2928354118444805;-1.8052454770028945;1.275003722985861;2.508183227328402;90;1.2566370614359172
353;0.2703099214963113;-0.5199141575415094;0.1710606050042736;2.643452364109972;-0.7719336898239664;-1.4276813467887788;48;0.9872296430732864
354;2.646713067112389;0.5456385519167996;-0.2866139092042242;-0.9443443016454172;-2.722476054993711;2.0742358950157085;296;1.2566370614359177
355;2.497392860818848;0.8575652718038933;-0.4970939878821471;2.7468535069435958;0.160455145830521;0.4109055678667607;230;1.2566370614359172
356;-1.228898316922722;-0.6459745090100654;0.6697610529323906;-2.553335962829524;0.1164482370629273;2.033354320687022;223;1.256637061435917
357;0.1830304589295437;1.4323735329202436;-1.7256396275054595;-0.1004354710309857;0.7534455776221523;-0.5806196810041024;27;1.256637061435917
358;-1.54868488705712;1.2150887562638415;0.944339312669904;-0.9907045699158484;1.8602657090030288;-2.815133741322688;75;1.2566370614359172
359;3.295097876493972;0.1349578162668387;-1.158741217900103;1.606536359387544;-1.2212200529621031;-1.9713632183182053;96;1.256637061435917
360;0.311130875917343;-1.2422353805637265;1.870908988367876;-0.5050659386925197;1.603292468640426;0.0569686029953078;33;1.256637061435917
361;2.7258293957818545;-1.7606761922575864;-0.0589098860239126;1.4128511884710115;-1.3892460257579118;2.817213993588184;173;1.097903080128738
362;-0.5562650345729335;-1.127949852083957;0.094050989970468;0.2881069962794061;-2.9905896170958304;1.4596908497185312;95;1.1278903848369568
363;1.8254576207611413;0.5543689292344988;-2.420323537655669;2.6967366609726957;-0.3562321186911905;-2.994077837360525;189;1.2566370614359172
364;-0.9443973800544792;0.030180874069053;2.4508523699445237;-1.0559768192834251;-2.0054900385252483;1.3663441580834816;151;1.256637061435917
365;3.0364188794133904;-0.2327799431200102;-1.413192017301865;1.6023626322665268;-2.579707415392848;-2.895642313019569;96;1.2566370614359168
366;-0.0173484179008412;-1.284629850017652;0.6297981860512252;-1.443328695983797;-1.5886567913602223;-3.1361972360118378;154;1.2566370614359172
367;2.585895987873648;0.3902797984086072;-1.1139596317503395;-2.092282409644917;-0.8226346838239971;2.9093449924863517;164;1.2566370614359172
368;-1.8170223452245;0.418657453248221;-1.7810598222327094;2.183482242911569;0.3721470396680321;-2.8378190939599506;97;1.256637061435917
369;2.5062742856851337;-1.20255936796043;-1.088224994055989;-1.7895128929716078;-1.8297967781713365;-1.4960269151321806;126;1.256637061435917
370;-0.5845785885881474;-0.119030022005051;2.5772388554152315;1.7873430559407044;-0.8024112196726922;-0.1816207789021403;319;1.2566370614359172
371;-1.65695567803721;1.0137416001491677;0.5186216304073465;-2.527982213796529;-1.3826804148428284;-1.4797915984136412;106;1.2566370614359172
372;1.627238628903534;-0.4312721539075861;-1.1420943218128827;-1.8415740970766248;0.972211085804215;-0.1407291094954689;339;1.2566370614359172
373;2.3975891725863394;-0.7470968596209595;1.553736313901498;0.3664475929203117;-0.6983571262540608;-0.3298865721917384;289;0.8515167056626182
374;-0.4286766254310844;0.0215412350604875;-0.7797726824001283;1.268072956886932;1.3553704998920202;0.0277165414979763;17;1.2172830590492074
375;0.786516879988258;-0.7769834499140833;1.7990115801342743;-2.512734595081412;0.701533155341308;-0.9400096517032972;102;1.256637061435917
376;3.234411366798967;-0.9955074489216422;-1.701323039832174;1.6274628631165682;-2.826559455384382;-1.9936461968274195;365;1.2566370614359172
377;1.704249465559529;0.2097826196227474;-1.9862633857573957;-1.5686370824401523;0.080508466598246;3.1251812431826376;164;1.2566370614359172
378;1.3031956663472948;-1.1435034132921968;0.4049344421505101;1.3246229047109117;-1.7125082368473683;0.2269834001334977;104;1.2566370614359172
379;-2.842406117566102;-0.860684860617928;1.8715723338138133;-1.743467582379524;0.5358216784145469;-1.430791095923785;256;1.256637061435917
380;1.0128374382181018;-0.4743745683904385;-0.7121133745462175;-3.014022664037277;1.7400184494218078;3.180193387613133;195;1.256637061435917
381;1.527234998641487;-0.5857902110233381;2.187025220203569;-2.301517508509357;0.4252780599082378;2.858377091212137;203;1.2566370614359177
382;-1.9096070550354145;0.9493997974221036;-2.157999758390823;-2.6093523958090707;0.9339043643255416;-2.199344998179467;132;1.2566370614359177
383;2.492488196970924;-0.8689723576095745;2.078733687935129;0.1731569649139575;2.2044913943376057;-3.2316340961148686;316;1.256637061435917
384;2.9653606943542457;0.0808921174138268;2.411988657153901;-2.3003517874322714;-1.7366197967643695;-1.568627779397497;322;1.2566370614359172
385;-1.965215104774415;-0.3434637582053358;0.1174850370778933;0.2421810136452074;2.8818539810316746;-1.2602178606894414;71;1.2566370614359172
386;1.6751223236046986;-1.1703507910682005;-0.1396856620373424;-1.0555415947291655;2.731328683610222;0.1361223594336013;321;1.2566370614359172
387;-1.4045963168561175;-1.3653460891059588;1.647664906386102;0.1445422185357133;-1.3035044328845258;3.2479433237428843;239;1.2566370614359172
388;-0.2528130599488213;0.5382435065791698;0.4047459144895269;-0.6058314232946362;3.0959038546558624;2.889997922445203;69;1.256637061435917
389;2.5133249628039094;0.0191010064850677;-0.8673483327071079;0.6602813956944127;2.615608218929593;0.7656641338815229;116;1.2566370614359177
390;-2.126324443573615;-0.1952487795811305;-0.2374269237052047;-2.497510245747843;-2.061913718623271;1.2191526947041949;281;1.2566370614359172
391;2.479322619290625;-1.101583850048608;2.0789817890554767;1.222718191392491;2.6878202544149152;2.310787014780161;273;1.256637061435917
392;0.5309692866523041;-1.35376450881985;-0.0955727882750811;2.3344993551298256;-0.0196782831691819;1.7721033477992485;103;1.256637061435917
393;-2.8897015207820718;-0.7747268194833811;-0.4435512230821766;-1.0505929475221556;1.6132850589318508;0.6405738567047345;184;1.2566370614359172
394;-0.8297626265580023;-1.166294737869937;2.395817304060901;-1.138308454500442;-1.8946001815972304;2.425291769317562;239;1.256637061435917
395;0.0996153594644145;-0.8165968810930764;-0.1016875918460989;-0.4186215933270845;-1.11043025972094;1.1107744126707155;167;1.2566370614359172
396;0.0494752910595646;-0.7463891871592676;2.1466428740037613;-1.543266232666576;1.3198043013090657;0.2317686157549322;360;1.2566370614359172
397;-2.553364252693425;1.193060299876974;0.0261286240574447;-0.2483874175803421;-1.6166016651666415;2.496504988312867;57;1.2566370614359177
398;-1.3731438310166382;0.1258627444138291;0.9255749815077452;-3.1458799987720214;-0.9792364204226413;-1.4888975261532045;371;1.2566370614359172
399;-2.457219605712209;-0.8497813272959988;2.2393386384996155;3.057826840722618;-0.1720752640476527;1.0608127888009613;204;1.256637061435917
400;3.107987510740159;-0.7371645757825989;2.581113596395073;-1.502201996060915;-2.1554980206663674;-1.7887919025867296;384;1.2566370614359177
401;-1.417156797751776;0.042795180686218;-2.587789971790388;2.224569977697174;2.648500061382128;-0.368074202722766;284;1.256637061435917
402;-3.128435392250542;-0.997932651623966;-0.3326520168505827;-0.026792102238611;1.0481439004206043;0.3364839596399497;393;1.2566370614359172
403;0.6342957243451;-0.1492353006445072;0.2714682476682043;-0.3938235143691861;0.5930493664928582;3.3111007411867552;93;1.2566370614359172
404;0.4490421774016955;0.3401993533080489;-0.2756841547720745;-0.9222914852368987;-2.897509798852248;-2.9861739894953425;92;1.2566370614359172
405;-0.5029836044341627;1.605394913429922;-0.1007181922415145;-2.338637797559531;0.9962307768342376;-1.3082637462484097;113;1.2566370614359172
406;-1.5241751658223424;-0.4352895861960049;1.947469122077402;-1.567496301557591;-2.583149057240381;0.9449241098621868;364;1.2566370614359177
407;1.0519337824067163;0.7448173114160179;-1.7999752967156837;2.6555950550979515;-0.4552610826585087;0.0917695038474963;280;1.2566370614359172
408;1.578187845429908;-1.600208596980888;1.758899737387279;0.548565189591211;-0.4723039828149803;2.7093826903613705;186;1.2566370614359172
409;1.0743385355006283;-1.0192595685594448;1.2743183048616202;1.6092324286289603;0.7297927213648616;-2.722840013068517;265;1.2566370614359172
410;1.252630311267708;0.8970473748732275;-0.5998058718357577;-1.0733334159054582;0.0367479779978607;-1.0898260255151158;8;0.9950659524504698
411;-2.2403336862591283;1.026783254684274;-0.5728710712706159;-1.5911897288200354;-1.4277089899584416;-1.4038745986144374;106;1.256637061435917
412;-2.427901537208196;0.9758432959012256;1.7029979285884769;-0.8088288372516077;2.169649364814364;-3.0261230108234662;358;1.2566370614359172
413;2.953879084097406;-0.4482557174000927;2.6198124289418705;1.816514886606317;0.7482575222691615;1.9882802324782591;242;1.247187542877103
414;0.9492851074923272;0.4729753023142813;-1.2323759620866672;-2.417337307842133;-2.2698384958940965;1.205770373457871;67;1.2566370614359168
415;-1.572314449623015;1.1545726981292035;-1.6332408489580443;-1.094637154963667;-2.982617564125967;-2.5506100776088743;292;1.1908413586531432
416;-1.9321980254506657;1.3333734557492012;1.4023309534101434;-0.5365187826880128;-2.7976723726522543;-1.196418367522682;344;1.256637061435917
417;-1.279425156535501;0.993911044723774;-0.3749478391522244;-0.5004361782416301;-0.348448110237558;0.1779068875030111;1;1.2566370614359172
418;0.6027261798649117;-0.1322815856058384;-2.008238714545339;-2.96880598617192;-0.2690806550451062;-1.5844208966641933;327;1.2566370614359172
419;1.2722699783078315;-0.6097300219161136;1.328808275117357;2.0552824905167992;0.9999951125765776;0.928073765759545;13;1.256637061435917
420;-1.75426797951434;0.3341454259757456;1.061202087809547;-1.6450958319908096;0.7542850500378305;0.8870490331553561;41;1.256637061435917
421;3.0778861888690967;-0.2987850829067799;2.7723956431702583;0.9823564229591292;1.261345748063151;1.2405797815103072;413;1.256637061435917
422;2.426851851378161;1.0688578504927078;-0.4795071747899995;-0.0882264781319651;-1.7976975526030317;-1.9419625441495807;114;1.2566370614359172
423;3.2075354015021933;-0.693909341549799;0.2305085816327113;-2.380926922585935;0.9350871645537112;2.47868699574597;274;1.2472623158780825
424;-1.8181644149170784;0.4305038229439871;2.142862207016712;-0.1677325859352545;1.520406783352997;-1.3993729777553514;207;1.2566370614359172
425;-2.321662190504317;0.9070915928188652;-1.2044379231353748;2.5588780150290527;1.2728472875785004;0.0025422057591561;278;1.2566370614359177
426;0.3196949916508912;1.244451815251233;0.2152419001033455;1.9956058550675304;1.4334443907755483;2.392532455926526;243;1.2566370614359172
427;-2.6611041252419687;1.0125967493080952;1.9034577157301729;-2.9265272815292773;-1.4385448823601998;1.1233669335139678;244;1.2566370614359172
428;2.18367950363479;0.1988695997511237;0.1952897687092371;1.2316913280648465;1.7222959609649249;-3.1013393074982947;196;1.1424731083365591
429;-0.5701916513067158;0.2201036995217868;-1.1215055664961864;0.0451345325916926;2.613717488705695;2.686881710001316;123;1.2566370614359172
430;-2.0882257052555;-0.0222605850107737;0.173626306577078;0.8501622137899278;2.8836833968687148;-2.303308120082474;385;1.2566370614359177
431;-3.31968723479451;0.9663536594204732;-1.412744449769119;-1.6771271619350272;-1.6840211634042577;2.4678055601427364;232;1.2566370614359172
432;-2.72774267357151;-0.2504412908686878;-1.660755717059888;-1.2125256964733002;-3.069464058834842;-2.5312034520794;303;1.256637061435917
433;1.5851640582835669;-0.2469089239864139;1.8265596515451972;-0.3704005856380482;-0.895342378079815;-0.2170452427711983;373;1.2566370614359172
434;-0.3997668656546365;1.6332375566495838;-1.0135238444160355;-2.3518214382775966;-2.0407507456733693;-0.2073828766972952;228;0.7288109503465896
435;-1.6925029985824314;0.0260426085741589;-0.2248309057303461;0.0136663610368139;2.525535390221572;2.1442182897433866;238;1.2231970514827497
436;-2.6426220133394565;0.1723748516020686;-0.797160558451015;-2.4838086118970857;0.8553084271196745;-1.173542311437508;142;1.256637061435917
437;1.564645553358313;-0.1564802768458763;0.6371456857900075;0.7061587056296692;-1.9245992641143137;-0.0078854096538792;378;1.2566370614359172
438;0.5823196441883065;-1.5975365501776997;2.213218625484865;1.6520661550729896;1.5454820041155215;0.0733962322952468;341;1.2566370614359172
439;2.5877145267959705;-1.6356661405200748;0.2921965145447574;-0.909189479090448;1.9128897680321053;1.9369695039124712;136;1.2566370614359177
440;-3.335257361810764;-0.4088239005444968;2.1024562602253525;0.5501378202802822;-2.8120439530149124;1.855555131795188;138;1.2566370614359177
441;-2.269606750294913;0.4295591304101714;-0.1297799858859646;1.7673457633798233;1.1497704677474456;2.8804416220219773;163;1.256637061435917
442;-0.7306393768487855;1.4978139740570182;-1.7577556622510109;-1.968415563453857;-0.2472050762211004;-1.3965275668062016;147;1.2566370614359172
443;-0.6535016386709434;1.5356542648988998;-0.2250234769937057;-0.5002707342014383;-2.011086659119737;-0.4084458085722295;169;1.2566370614359172
444;-2.156938407044925;-0.0657710845300739;-0.9020170970515972;0.4959242746601565;0.1274317584964742;-2.699440997371159;266;1.2566370614359172
445;2.774258215572663;-1.489490268363503;1.811268319047828;-0.2344404554299103;-2.7180042630224697;2.497799815534792;236;1.2566370614359172
446;-1.912084439929466;0.3935690991906235;1.4935880519581377;-3.287874616906506;-0.5943339950727433;-2.340990147309624;398;1.2566370614359177
447;-2.449839694853592;-0.1383597346813592;-1.0341543621088891;-1.5211338688061642;1.2921314394640824;-3.1411962642795137;98;1.2566370614359172
448;0.367728622676129;0.9199871534358028;0.2401436597714625;-0.8888856120056646;2.100299621405431;-1.4116410351135735;36;1.2566370614359172
449;0.2694507866051863;0.3797093773235502;-1.4424567537004207;2.4180715359442098;1.264142363207027;2.8968556207003617;60;1.2566370614359172
450;-2.091575787091128;-1.3339859403242302;1.686945449406462;1.0172653451007598;2.852515209755919;-2.298735334361297;295;1.2566370614359172
451;2.2374974410699844;1.5157103930255111;-1.647089723944537;-0.9763314937723117;0.6101077947550708;-2.1796479523712646;109;1.2566370614359172
452;-2.8879596919497663;0.5984481423918759;1.2696717230981902;1.9641497952374207;0.7183854159007653;-2.8281119398682137;264;1.2566370614359172
453;-1.8700907412044343;-0.413507786869089;0.8045525177537627;-0.3036746933470021;-2.6496751981783904;-2.973247418519676;290;1.2566370614359172
454;0.9512946257971792;0.4668300674983482;-0.2439603352427979;1.2165384389121914;-0.0190864038234791;1.002800977913085;3;1.2566370614359172
455;0.4817114123946256;0.3790084609288357;-0.8829813751161996;0.0666580939194573;0.4178616273348491;-3.006367537857185;267;0.809790986277003
456;0.9780002039797032;-0.4097751644996674;0.7544251133009747;1.259765786752065;2.7185173040861352;2.9584307005929205;273;1.256637061435917
457;3.344739505636208;0.8116681914866717;-2.242795495627188;-1.8056843668189413;1.8423696426353875;-1.691392768237954;324;1.2566370614359172
458;2.658598539502888;0.2431177084629513;2.2412004199070883;-1.899269115581968;-0.7878873424749417;1.964524828186267;350;1.2566370614359172
459;-2.1568509400588662;-0.4136338143562725;-1.651085497160026;0.6988353491885014;-0.9407914766900712;1.047540489751852;323;1.256637061435917
460;-2.940140429143006;0.0038054538807274;-1.8933894839559344;0.2324559064969117;-1.596318993769877;1.339775678541712;459;1.2566370614359177
461;2.2985625323934;-0.8675752938777435;-0.3967505459242999;-0.7332311298037612;-1.9096285097028125;1.8674692632597312;235;1.2566370614359172
462;2.4523325465765256;1.134247193173637;-1.205231674406152;0.0461883247936295;-1.5629652359008115;1.9288664472018895;296;1.2566370614359177
463;-2.648516179788257;0.0065599520875768;0.2767378428143712;-0.6825565823996483;3.206374807877628;-1.197728641127454;385;1.2566370614359172
464;2.3881596870851385;0.9842871249594196;2.405238424154979;-1.837334091594452;-0.3576964979295473;1.9262170149660285;458;0.9163762012214772
465;-0.5724584748689758;-0.0546801439012208;1.6219450587151516;0.1521665335167739;-2.962523865476548;-1.8634317692230136;344;1.2566370614359172
466;1.8911729835217763;-1.0568770776433556;1.7459355464149042;1.7338803102987022;-1.1127476485907868;-0.1638885463803782;289;1.2566370614359172
467;1.148359143309062;-1.1120529354543658;1.8247283210338583;0.6737987942856325;0.1822405596091289;-3.018215037143686;409;1.2566370614359172
468;-1.4566368499662727;-1.0131251747699277;2.6290603646424326;0.2479674093191954;2.7024562534611465;2.465109497553871;227;1.2566370614359177
469;-1.6077194329313915;-0.1357020951597906;-2.460716401288221;-2.1920548837451883;-2.3682314386311374;2.009285938458;245;1.2566370614359172
470;-2.8830399660380106;-0.9376677984721714;-0.5836504962311234;-1.3303247458807643;2.047902286648025;0.4505251936111585;393;0.5911704096676237
471;1.853991065768993;0.6830212497530372;-2.712118960801833;0.1628240638605019;2.635910832010355;-0.0716360923540977;286;1.256637061435917
472;2.742670045054677;-0.60012446109404;0.7629158143038726;-2.3803078637258035;-1.4970694177661668;-2.708916218435788;143;1.256637061435917
473;-1.1338690446953388;-0.3994157819176269;-1.930149992096404;-2.4517635964881688;-1.1604578343180336;-0.4157478022650304;179;1.2566370614359177
474;-1.174623649465534;1.2690299520545232;-0.6846094818165716;-0.3746990676668068;2.421138042042165;0.8108926630900064;76;1.2566370614359172
475;1.3192921659047396;-0.0184147672426505;1.4506722979012607;-1.2014191364441142;0.6528619995452669;-1.64630583829297;31;1.2566370614359172
476;-0.5369851902452507;0.3437703160602702;-1.997873869924096;-0.5300935780831755;1.279835384188573;-1.576121605550214;27;1.256637061435917
477;0.0047098445663476;0.9935822968472932;1.768507411134678;1.874447410335478;-0.8343832265095362;-2.4186548704376603;253;1.256637061435917
478;-0.791303928866123;-1.5464312473021526;0.2415355405966859;0.2820227656012458;-0.8582175508916122;-0.2993151167669708;171;1.0397085162447803
479;2.1109371797718883;-0.1722136573717662;-0.7968829824263249;2.930047901928849;1.1999300512522082;2.0748689804750287;58;1.2566370614359172
480;-1.966654317175701;0.1295505870275232;-0.771149982391202;3.044630984031459;-1.5078592524367038;-0.7402486968674078;325;1.256637061435917
481;1.4766209451125365;0.8844401929814153;-1.9549656216980504;1.6518426507210306;1.7926517350764035;-1.6776509536044062;139;1.2566370614359172
482;3.2453559027552408;-0.5356881906050008;2.308421418313765;-0.0680949758464707;-2.30419171526972;2.535114992124164;445;1.256637061435917
483;2.847962183090643;-1.6051282425668154;1.6207165065480165;1.200159807620999;-1.901559812378588;-3.115667115095582;131;1.2566370614359172
484;-1.9465058161909203;0.1291260990283619;-0.8277476058384954;0.8610589344935213;1.1928850527527717;2.925459314106674;441;1.227621397141617
485;1.551584564274605;0.2779370687009675;-1.6633144795320507;-0.1062559409520155;-2.722095139449522;-1.4797024364036302;53;1.2566370614359172
486;0.8630058707132247;-0.1867399121987783;-0.6000055252812135;3.2391792197344373;0.5601312347040415;-2.748754235150539;46;1.2566370614359172
487;-2.772462329214445;0.8451593824526138;-0.8008797750894625;0.2951980464418695;0.4371095358439879;-0.4673736963366299;272;1.2566370614359172
488;-1.1350919450740808;1.0431573954261772;-1.8665869501258368;-2.3783315045040423;-0.4964786072638966;-2.379802502168564;442;1.2566370614359177
489;-2.062743771902889;0.0390019326020488;-2.149804461538363;2.720912592194905;-0.7937844451668306;-0.5366780114905424;325;1.256637061435917
490;-0.1621284677182108;-0.5419407178629618;2.2790626871865456;-0.4541973585305843;2.358676305535872;-2.793112243101216;197;1.2566370614359172
491;-1.6356971840979024;-0.0364931168208419;1.530463075426826;-1.9290480220705928;-2.108642914366585;3.106996801478546;151;1.2566370614359172
492;0.1574934520493483;-1.7018366425605245;0.9838814011725;-1.5215645802175208;-1.5040711280418564;-2.024507078777707;366;1.2566370614359172
493;-2.2949304210107613;1.611422397425453;-2.1369348734372227;-0.4652712246261092;1.1751070070769087;0.6295425923347716;335;1.0894664092447992
494;1.4415879225250103;1.3839398345448586;-1.6253112587077454;0.1701909383067351;-3.207717766216481;-1.653192688149386;485;1.2566370614359172
495;0.4789502379807751;-1.26050524904759;0.740800027570919;0.8168194132940079;3.432742172217124;-1.349878248626506;276;1.2121575958622677
496;-2.5911560871316714;0.7685297732378095;-2.1914159583104467;-0.2914020679593161;-1.4340693486787954;0.9458595119823784;460;1.1186309516600117
497;-2.883104240286332;-1.434490478648163;1.917255486607619;0.2932539382415649;-1.9267438032708808;-0.4269069440291892;250;1.2566370614359172
498;3.161034928573563;-0.0845480246755675;-0.8278169226283446;-0.4071233406781347;0.4924919142846649;2.763034947256462;80;1.2566370614359177
499;1.696110462925323;1.1502726609707103;-2.225520314006617;-0.0503438123202872;0.240139270846174;0.4679556849252003;29;1.2566370614359172
500;-2.122361787821857;0.8608414394253949;-1.6279901948025846;-0.901529195123716;-2.557993129800549;-1.5643634482984596;415;1.2566370614359172
501;2.2668942144381337;-0.8056856188749466;-1.0504986988357774;-1.1901366489916183;0.2073130434387127;-0.0313560269331915;372;1.256637061435917
502;0.936897484547646;-0.8595162819831792;1.202440996514205;0.1027516781187833;2.5076151138864256;-1.3612612788515186;276;1.1189456736195462
503;2.0499514972583963;-1.1725856574812263;0.9444854590970796;-2.7327393873851302;-2.088685069692854;-3.2230964416654;472;1.2566370614359177
504;1.3396182032467836;1.1449042175107207;2.024622729353293;1.119345006024121;0.060134116090213;0.2661048759489357;343;1.2566370614359172
505;1.8057426903581992;1.1776054076475126;1.9372932187778704;-2.3584042573488166;-0.645051453050587;1.132809500148405;464;1.256637061435917
506;2.054457975094369;-0.9275116000960388;-1.161207270101213;0.4887417733949938;2.24121849501104;-2.521886506171076;328;1.2566370614359172
507;-1.5408276021723235;0.4121937751707557;0.1109995449325085;-2.407531481288263;-1.8117553069480288;-0.3839636706381998;106;1.1515869856669676
508;-2.7380645103853034;-0.1437837926640143;1.6605844200152122;2.3685788038728264;2.038431693571375;2.24601737138956;254;1.2566370614359172
509;1.5874037401649437;0.1138419354858317;2.331831973786578;1.6260698107905898;2.7889276649109065;-3.116463868181876;316;1.2566370614359172
510;-2.0293275025433863;0.0604112898657679;-1.7329555330136075;1.5466930496359637;-0.7261632433933303;0.2948619031593793;459;1.2566370614359172
511;-1.9318902228082864;-0.5337489229598481;1.1576126930588342;2.94812946958559;-1.3248925440494472;0.8310409461642195;204;1.2566370614359177
512;1.5641945559257104;1.554256936002474;1.331739951551187;0.5939816479608917;0.8150107453008697;0.0784866711913409;504;1.2566370614359177
513;1.760711350192818;1.7240088292923283;1.0476697384310838;0.3699142967488705;1.5641566436031482;0.0;512;0.8750522007649645
