Komment314/test_diploma/benchmarking/path_finding_for_benckmarking/pre_rrt_star_results/12_3_tree.csv
id;joint_1;joint_2;joint_3;joint_4;joint_5;joint_6;parent_id;cost
0;0.0;0.0;0.0;0.0;0.0;0.0;-1;0.0
1;-0.6063116461194173;-0.2470629222716173;0.4375725238001505;-0.7544038343697943;0.1452966503326632;0.6072699802380279;0;1.2566370614359172
2;-0.1140365054858058;0.1830081197264666;-0.1081843919510805;1.0531055516736785;-0.6216195272216787;0.1596696760628519;0;1.2566370614359172
3;-0.4829701118234586;-0.7657716565959148;-0.4591277049872935;-0.1673785566591496;-0.7215653224051735;0.0;0;1.2566370614359177
4;-1.3613542714424698;-0.1530666567858217;0.0030725821531175;-1.0652530757288756;-0.2495768302935435;1.3548457451927578;1;1.2566370614359177
5;0.894788238765538;0.0527570216932112;-0.4255741593337683;0.3789327497848967;-0.1472123108042292;-0.6552347290847135;0;1.2566370614359172
6;0.2404023892298502;-0.4896326620556495;-0.0107901441961058;-0.8765411751271255;0.6770698483125823;1.1592143811591522;1;1.2566370614359172
7;0.690790962545933;0.6527217382771052;0.3652057620427702;0.1582770206975206;0.7193552798927322;0.0;0;1.2566370614359172
8;-0.378489889516318;-0.527089583735043;-0.0848626783006158;-0.9623814543888228;-1.571072916350532;0.1322285356706093;3;1.256637061435917
9;-0.0641079254312381;0.3507083194725354;0.8059790757942782;0.8360438463836154;1.2125918764646264;-0.1453304636103095;7;1.2566370614359172
10;-1.6702838972704992;-0.1809854337165149;0.9280842393219728;-1.7518258257813233;-0.2927515006495878;1.7473084481105483;4;1.2566370614359172
11;-0.2042173858961704;-0.0121018580718072;1.2681127671142811;-1.2764059644494938;0.4506003715300729;0.0534139279727434;1;1.2566370614359172
12;0.674071045172988;0.0436696031991108;-0.9455447594733029;-0.5818451319426745;0.2732256789159066;-1.0553676785224502;5;1.2566370614359172
13;-0.8077081817926012;0.0840071396530884;-0.1064959980342108;0.7627958326034504;1.3279745013662096;-0.4674743159283426;9;1.2566370614359177
14;0.7382584806332647;-0.0537650062315378;1.3455094663179166;1.0662732760564366;1.708069330479694;0.281459465235255;9;1.256637061435917
15;1.083420937108383;-0.4675674969179492;0.7831667547466612;1.4650977871241913;1.5286759705320478;1.1653682772950922;14;1.2566370614359172
16;0.3897235387064323;-0.1890194488423545;-0.4532050009537607;-0.5100986192662629;0.9400952352725662;-1.92247666804162;12;1.2566370614359177
17;0.407417637638816;-1.0010792092488985;-0.135754707129769;-1.726959646147765;-1.2665119825144209;0.3707504958956284;8;1.2566370614359172
18;0.3881282661521311;-0.8066480341281245;-0.5622150918676092;-1.565201027831942;0.7093440825281911;-2.0613964396462103;16;1.2566370614359172
19;-0.1868751470991616;-0.4229769848170738;0.786300890428684;0.7491233257206599;-0.5724018312226034;0.7179543649490473;590;0.8490699482932402
20;0.9039035171286168;0.3163127166159143;-2.1003714928505284;-0.8288474606577747;0.2508423269834587;-0.8169488815320944;12;1.2566370614359172
21;1.2304345786694042;-0.206621224564358;-2.460562159917619;-0.6150829836409235;-0.7007117762754549;-1.160702402938951;20;1.2566370614359177
22;-2.136082611285796;-0.2043200187260856;1.331277495244742;-1.3152113940347874;-1.131918949810222;1.1957426877730328;10;1.2566370614359177
23;1.2531098652488248;-0.3733891509005368;0.1859177562918753;-0.3612223080354417;0.5539047885041732;-2.391436636724212;16;1.256637061435917
24;-1.9156308898539944;-0.7896542130059917;1.393046924810772;-1.1437251696952309;-0.7930456912794537;2.3060506878915623;10;1.2566370614359177
25;0.5866298815526519;-0.2760121658497515;0.2745239916845422;-2.0853908774602266;0.8739904738948363;-2.57161323706089;18;1.2566370614359172
26;0.7247960108148144;-0.5479403330654642;0.780936694076604;-2.2452157886516217;-1.4300362421158916;0.7414526587417282;17;1.2566370614359172
27;-1.064746240562244;0.7017770957502847;-0.8107897683495455;0.2638664992353293;1.223199062347287;-1.0802469773943593;13;1.2566370614359177
28;-1.6421284840307402;0.787012341372131;-1.1390373717663236;-0.3258709589996418;1.6731366861252543;-0.318327836067603;27;1.2566370614359177
29;0.089988146554438;0.4239815347448828;-0.507937941503479;0.52712183314898;-1.609945891187592;0.4169471226951201;2;1.2566370614359172
30;0.3912467337660312;-0.2964891844894095;-2.588453931109112;0.2290773763703164;-0.7647743652128585;-0.7949741143619378;21;1.256637061435917
31;-2.0358941560404715;-0.4779014088256195;-0.7479743222944099;-1.1210663091122794;-0.2624830708387209;0.6830854520954934;4;1.2566370614359177
32;0.8961369708270005;-0.3234124642858448;0.1282032295535508;-1.924843877963836;0.4806626366755923;-1.4062387469448057;18;1.2566370614359172
33;-0.2140358729532798;0.2003041876863261;1.0803487753027987;-2.0293732949357297;0.9746505743006167;-2.351227716141664;25;1.2566370614359172
34;-1.0200002775751524;0.1751362982035489;-1.4301304917571276;-0.2792803979448029;1.8663689508658317;0.514412407754475;28;1.2566370614359172
35;-2.797859618782822;-1.1566774116276084;-0.7448374708524804;-0.5625456096251777;-0.7279867643710336;0.5873797809075445;31;1.256637061435917
36;-0.9185542377846916;0.7543076475398011;1.0279122872487774;0.8973981770288312;1.7598532190324438;0.4322958035893186;9;1.2566370614359172
37;0.9415455262963812;-0.8945083603673314;0.3360305794994399;-1.627260054284551;1.005460635095515;1.5224040226461215;6;1.2566370614359172
38;1.023322718883115;-0.0104069821422356;1.4938809340053592;1.7106111283600949;1.6663295714331745;-0.7466784623659621;14;1.2566370614359172
39;-0.2711190349495864;0.3778131259874404;0.7820862608363123;1.106164958854828;-0.7661912067741774;1.5930109671191308;19;1.2566370614359172
40;0.2291134748811338;0.1141756419282572;-0.4850818929373146;0.1937547661481805;-1.9775101664888828;-0.6862489882361338;29;1.256637061435917
41;-1.5254903970355782;-1.607465448018585;1.919308013331344;-0.5753074091374158;-1.0328029660599816;1.9889090014070008;24;1.2566370614359172
42;1.3285309521979776;-0.7108707964690868;1.0491279543726708;-1.1476852633350223;0.2102713331547892;1.679980535341445;37;1.2566370614359172
43;-2.2534544878528258;-0.0631670291485261;-1.3317160800321746;-1.3121918282958231;-0.557009046695695;-0.2633661558831687;31;1.256637061435917
44;0.9556944732115428;0.7270326405080463;-1.008096368289514;0.8042555285862483;-1.5815044400459088;1.0573211027107383;29;1.2566370614359177
45;1.6321073783275215;-0.565402399729491;1.0833455132355705;-2.0111324224490708;-1.4913822931140328;-0.0367558021307004;26;1.256637061435917
46;-1.5202468159515357;0.7946724057168794;-1.964965848808232;-0.6093004851966796;1.340484680349943;1.037431272984238;34;1.2566370614359177
47;-2.522310105638885;0.1756356004124084;-0.7347393353833175;-1.1884248782586224;-1.3290055675239023;-0.957735326663413;43;1.2566370614359177
48;0.3989983311019573;-0.0092035475669364;1.1628425508977704;-1.7981170611496795;2.0170541585076536;-2.4632204688411496;33;1.2566370614359177
49;-0.590781421139311;0.3284722141325786;1.301920719424613;-1.5728165604412736;1.2430144657953883;0.6193278980494705;11;1.1413165158602063
50;-1.5403029055982873;-0.1147013468673942;-0.7586618072336204;-0.1526002372263642;2.1046966440278703;1.3514893888039656;34;1.2566370614359172
51;1.077396085627394;1.16376550223418;-1.470541228406762;1.3687863471383612;-2.426175170612981;0.7001504258943265;44;1.256637061435917
52;-1.6098655946152405;0.9467281788636148;-2.254235076548877;0.1366226379907148;0.6072633929403719;1.6459481358598835;46;1.2566370614359172
53;-0.4758577789664255;0.3371415069935913;-0.7778596028847506;1.2755522801252537;-2.34771858948704;0.1447348696169242;29;1.2566370614359172
54;-0.4929580406158709;-0.8486581348703558;-0.0970039633381777;-1.903641491614543;0.5113448761076507;-1.4049729877040429;18;1.2566370614359172
55;-0.8367606021511941;0.288535329321437;-0.2277246431654619;1.7007372197822392;1.115618609844478;-1.2400902786351555;13;1.2566370614359172
56;-1.0087216892019546;0.3191250887677643;0.9156223409387836;-1.1310647598315835;-0.4164131303473988;2.4477153411094545;10;1.256637061435917
57;-0.8680324131470232;0.3305812180348608;0.1298555242541877;1.751036240418134;-1.0741832452813762;2.1263750741445246;39;1.2566370614359172
58;-1.3023428671863966;0.5308611072798949;-1.7438424504742898;0.3275791190363381;-0.0950362250107665;2.368050130928759;52;1.2566370614359172
59;1.094585475775301;-0.862840574917898;1.4626349363366873;-1.5819904988963125;-1.9646345888568888;-0.8428243153097639;45;1.2566370614359172
60;-0.2107126651217501;-0.3178902159255129;-0.0035516479463252;2.196860960606864;-0.8783760932053802;2.813146256444464;57;1.2566370614359172
61;0.6777741036062632;-0.1743901332310687;0.6691982226881885;2.579965604952185;1.29178671338325;1.294204554736623;15;1.2566370614359177
62;1.5528549756865615;-0.6728925313335563;1.0499431882205377;1.3006764461839562;2.3685112888446795;-0.7874075704005183;38;1.2566370614359172
63;1.8529608367724;-0.7094400968040114;-0.0825760107547103;-2.29484923358816;1.0495309466439458;-1.307930785709921;32;1.2566370614359177
64;0.1589944145749076;-0.4957624767953404;1.1272047129320255;1.1046908606894703;-1.554051718827148;0.2200256223723952;19;1.256637061435917
65;-1.0598488186131494;-0.8196168875192267;1.4649554087242194;-2.255304775774811;-0.5861863836501271;2.160624125225882;10;1.256637061435917
66;0.8129604397028574;0.5242583516647883;-1.729278092745382;1.167047736481909;-2.1198963793600023;-0.2478955475376741;51;1.2566370614359172
67;-1.4117357257331828;1.2313540535121903;-0.5882961548358154;0.8544660357677262;1.8430018885867576;-1.7093864556832596;27;1.256637061435917
68;0.2240686535602314;0.0510344428728484;-0.6992694439931679;0.7093737617086506;1.3593003778655004;-0.8653065431792719;13;1.2566370614359172
69;0.0554166412683592;-0.6379890875505656;-0.5482838778439281;0.0417470374241667;2.1370743456415213;-0.915159811204145;68;1.2566370614359177
70;1.3685225042679643;-1.382761151206619;1.3300874869975252;-1.050132538555388;-2.2418092892390526;0.0826540864426736;72;1.2229016955527523
71;1.5424598928196758;0.2734818372194925;-1.7060431388957398;1.312436267301693;-1.0507719390933534;1.0117100295562638;44;1.2566370614359172
72;2.149313332579181;-0.9438839966208424;1.299387341160346;-1.4029148194408363;-2.09733558210138;-0.6569205168789308;45;1.256637061435917
73;-0.9247055082479284;0.936091752388618;0.8187304027417813;2.4841405856148118;-0.726149324737805;1.8503974151825524;57;1.2566370614359172
74;0.3390303189629617;-0.5777508853496467;2.05006771433988;-1.7225170063497683;0.8408000098334453;0.0168700591135319;11;1.256637061435917
75;-1.1338015272699875;0.5219212257110433;-0.1636478336786548;2.464419498498988;1.247326255169479;-0.3280754475231725;55;1.2566370614359177
76;-1.694435966434499;0.1265894545898169;1.3002263575425406;2.5024985483184614;-1.0368723558328796;1.901715876145598;73;1.2566370614359172
77;-2.4879163330359737;-0.4311425602821418;0.7770705244491367;-0.7264366293894751;-1.5472938004841164;2.33151848413934;24;1.256637061435917
78;-2.4581955052145417;-0.2947077981455851;-0.067850039996563;-1.4384816054279834;-1.7215164166768429;-1.7898823351978317;47;1.2566370614359172
79;-1.7625914127719566;-0.6598445674201084;2.1192493039298963;-1.1107955951807822;0.1861127585300856;2.5333380751180004;24;1.2566370614359172
80;1.9289122545716857;0.7882974183548381;-1.487611470926257;1.381841460748687;-0.5757188712311434;1.9532785623547129;71;1.2566370614359172
81;-1.8291616807727795;-1.6352335524667898;2.3104486648310303;-0.540251166819388;-0.1460589356152287;1.2502517987259534;41;1.2566370614359172
82;1.0223887127415594;-0.2849280896721076;-0.9591948108401964;0.4052695670912026;0.8184262509227764;-2.169347217712117;16;1.2566370614359177
83;1.5998930998660297;-0.484057463750938;1.396931885650777;2.8510078271948283;1.2549247311122973;1.463084479937219;61;1.2566370614359172
84;2.145986671105846;-0.7765946557120071;0.7154830277381252;1.3219809829159217;1.5192982846366787;-0.1684591422488067;62;1.2566370614359172
85;-0.8931048552238516;-0.1581990501001167;-1.3527752621256148;0.1421208962171377;-0.960595686883558;2.3497314792598742;58;1.2566370614359177
86;1.8608605235310944;-0.5360397629434226;1.8213522611459945;-1.7283441586177644;-0.0515721371974502;2.1929512028910865;42;1.2566370614359172
87;-1.6683651649999447;0.3298022672583086;1.5412213258247105;1.2802309558575171;2.354544542923592;0.1620910971645058;36;1.2566370614359172
88;0.4877250435690028;0.3927232387633631;2.232292398816901;1.5280784170370525;2.2837870153324062;-1.1589095653535688;38;1.2566370614359172
89;-2.9960766322838057;0.0014843118338044;-1.8161921186489716;-1.008143559958685;-0.4895498818720707;0.5683526298207952;43;1.256637061435917
90;1.1253369385881389;-0.4483973379995844;0.627110573205037;-1.274708935498034;2.518425385558553;-2.678487328017094;48;1.256637061435917
91;-0.1502303163174811;-0.4497667172688308;1.2439489023729997;-0.3746273128460033;0.3811560318406596;-0.2584779357207812;11;1.0537327993650991
92;-1.9267786793866328;-0.5182024908469898;2.0394539499927697;2.916518034893396;-0.6358269649275361;2.382017802794036;76;1.2566370614359172
93;1.348850576459162;-1.2286369099949483;0.9237650935967376;-2.2258247286824413;1.2153224254988002;2.266610924683738;37;1.2566370614359177
94;2.272837454744136;-1.6025333164255384;0.720655247930678;-0.9622419835577076;-2.368037214028277;-1.3833204145877145;72;1.2566370614359172
95;-1.708094031810965;-0.5315037292228831;1.384174005591393;-0.5152231497596047;-2.222235755857694;2.0278589633938706;77;1.256637061435917
96;-1.0539452561406557;0.1488663333573389;-2.0676411958661234;-0.4716128351188666;0.418197435417444;2.9718324811151784;58;1.256637061435917
97;2.113948464083536;-1.5108442418504502;1.4611858649313525;-0.5690638811846791;-2.4264544786164053;0.9337497806727172;70;1.256637061435917
98;1.0801939755006962;-0.2226494560552923;-0.1216530177114198;-2.59469923136679;-0.0664996000185195;-2.749969087204493;25;1.2566370614359172
99;-0.6300991907353468;0.8752021826619008;-1.5920948381103417;-0.2668646902446945;1.2140658632847638;-1.7643125902085457;27;1.2566370614359172
100;0.2337077372169851;-0.3176537317141558;1.9105994209762545;0.4101377462716936;2.4054714635797514;0.1446465765830659;14;1.256637061435917
101;-0.2051692227590767;-1.0290147198281945;-0.061679744982766;-2.06974297318622;-0.8605204875121978;1.140502819491836;17;1.120882820499987
102;2.072869275127653;-0.7683765462219958;-1.0062898503415951;0.6823367180200607;0.9387316998847092;-2.5546358525865718;82;1.256637061435917
103;-0.03846884500424;0.4614952028960585;0.1842593308786511;-0.2431068701220548;-2.340037854965913;-1.4714963637628091;40;1.256637061435917
104;2.103319070837942;-0.5692522221291954;0.6938757331317842;-1.709505761223233;3.097342429577492;-2.3966523762100644;90;1.2566370614359172
105;-0.962658353469494;0.9613582004015055;-2.1060124144594816;0.1128365233214781;0.4260592822125973;-2.421488053373347;99;1.2566370614359172
106;-1.758988857445147;0.9349920141525166;-1.6959273030967743;-0.2695471660330513;-0.8953310455134181;2.824078520914369;58;1.256637061435917
107;0.919746126021585;0.2658460707551586;-1.151933105398582;1.3879755384371075;1.949017657810153;-0.6759542497964335;68;1.2566370614359172
108;1.9434631034636536;-0.2382444215309357;0.6868873168565024;3.151683947372658;0.7667738766865433;2.216617245967164;83;1.2566370614359177
109;-2.6052141076387865;0.458004095698671;-0.6305794273703823;-0.2293092779520076;-0.6798544641542705;-0.5830588164553723;47;1.256637061435917
110;-2.765586742564713;0.0756372113968688;1.1434781305010562;-0.6481607511121777;-1.0365021813324211;0.4114240785008758;22;1.2566370614359172
111;-1.5956711328003534;0.967725578604093;-1.9208481343789607;1.147670242785997;0.2374827353816975;-2.6155582218685844;105;1.2566370614359172
112;-2.342970155114081;0.6476361447904291;-1.288566988904889;0.4713074889010371;0.2030785741945371;-2.8600862605722357;111;1.2566370614359177
113;-2.139372400769989;1.107463757448495;-1.554158085223749;1.8409143549860791;-0.566503179315942;-2.5649960376393985;111;1.2566370614359172
114;-0.1857003656168541;0.1887133125595742;-1.665269571136455;-0.7037211099325531;-1.28455874782356;2.550514813993908;85;1.2566370614359172
115;-1.878566391462218;-0.5434419915567024;-0.9985081266173308;-1.912473868269746;0.4330980289385979;1.2972213755805642;31;1.256637061435917
116;-0.9746717965257832;0.6776139001481732;0.4750359355226171;0.609317364362175;-0.7778600578686368;0.9679545942632686;39;1.1475347743187738
117;-0.8512499043964203;1.0364770007384767;-1.675465550116698;-1.3523827090418616;1.5947906165004215;-2.1814074434625312;99;1.256637061435917
118;-1.0608190470385634;1.1062689981868636;-1.4083446872510972;1.4627737446543465;2.4515475948034653;-1.543548652512943;67;1.2566370614359177
119;-1.342662520733095;0.5951587565698219;-0.0154147690077395;1.2569063668239029;1.4157460297709572;-2.4143135934020448;67;1.2566370614359172
120;0.4446860807237047;0.0731801430718616;-2.157456807988228;-0.0819412181025097;-0.9118034287364498;3.18344188821403;114;1.2566370614359172
121;-1.8201095939903087;0.1752803586801833;-1.5429562004030348;0.2152334420486306;2.483656773254728;-0.5640028356548703;28;1.2566370614359172
122;1.8072488677840728;0.024607095858714;0.5281395518204174;1.015489791816654;2.215935193673856;1.436408011841239;15;1.2566370614359177
123;1.5606306188672074;-0.230487921113753;-2.387130405753795;-1.179297999350796;-1.247637898293326;-0.2405509639952123;21;1.2566370614359172
124;-0.688171762821262;0.957614988005727;1.0798757555476113;-2.2865576691629466;0.469678014327396;0.7499096432249748;49;1.2566370614359177
125;1.6786243593219443;0.5338965302281717;-0.2291636489316462;0.4975437785770762;-1.656515136197778;1.6165819036180955;44;1.2566370614359177
126;-1.4248162143136944;-0.3212446066542636;-0.1120350245077197;2.4800208750007493;1.3645022492802288;0.547641993559145;75;1.256637061435917
127;0.2149724969310921;0.0043866231079959;1.6657958794667664;1.1724670265551953;-2.438978073118821;-0.2780560280497473;64;1.256637061435917
128;1.5248793289875509;-0.2249610229782693;-1.1748724548189653;2.1758438196473;1.3721408454165078;-0.8101533877109859;107;1.256637061435917
129;-2.0507358745190745;0.3603493681562686;1.3836235950989335;-0.4541201423842398;-2.8192086264303797;1.4744867235468675;95;1.256637061435917
130;-2.6060906075682024;-0.9359337004643852;-1.1624878516714483;-2.444207285884446;0.9331869647674288;0.7175001009865203;115;1.2566370614359172
131;0.1328840597505309;0.4439459561215421;-1.6914592355506484;-1.772728172210729;-1.5810669880052188;2.9760942208378376;114;1.256637061435917
132;1.3446917558443092;0.1182171988147002;-2.271404067416276;1.6474932651544898;2.099146123182694;-0.4924865669692904;107;1.2566370614359172
133;1.2203955115824228;-1.114944640740015;1.1618449908078632;-1.8825846680629723;1.0374211086396334;2.2736827925572443;37;1.1995627663080746
134;1.106899380877691;0.5683901036710098;-2.1730958040396;-1.8307496017622995;-1.742343438844192;-0.0986883667555037;123;1.2566370614359172
135;-2.4419352351450265;-1.0002566295623516;-0.2559338758929028;-3.0172326406997567;0.3996533228073906;1.0539461788458362;130;1.2566370614359172
136;-1.835425856108621;1.029044696422117;-0.9811184657486436;0.7011591773650011;2.941362739858882;-0.2661633491865405;121;1.2566370614359172
137;-2.0134432675359117;-1.4154151500462768;1.2133788416703748;-0.3869163061009364;-0.6932493032918314;2.229830958974829;24;1.010916937141264
138;-2.831060675204799;0.0504513260449986;1.0563497747175232;-1.276916502170322;-1.667710545659782;-1.957661566393682;78;1.2566370614359172
139;-2.598245567558017;1.142152525435949;-0.4872686301761986;2.251849609432852;-0.7965078512927443;-2.479288578327566;113;1.2566370614359172
140;-1.6475843785496112;0.3649619920234386;-2.728391561997885;-0.9485971926423578;0.2947641174948774;2.2777280553762256;96;1.2490903101129018
141;0.0931000034299067;-0.0817148758533721;0.8152634642189;0.3512379615414012;-1.858008528817464;-2.003459601361405;103;1.2566370614359177
142;-0.0126284509861694;-0.2235226208729954;-0.935189763121338;0.6905654834609113;0.7939573589594104;-2.4231576618302557;82;1.105449967768786
143;1.3495795259009395;0.5907955314450247;-1.2025764665989744;-1.5430688762236269;-2.441395127862285;-0.1786871172479898;134;1.256637061435917
144;2.329654943210701;-0.1970745824097303;-1.923447643688042;1.0906324910756136;-0.4104316315666129;2.334734086216002;80;1.2566370614359177
145;2.19231705740963;-0.0455132911748992;0.3437162199222668;-2.81086631518822;0.5976211398019975;-1.9169907897306349;63;1.2566370614359177
146;-1.9798643563895928;1.2661194353951124;-0.1755519753348609;0.4083033428465691;2.6312946354923654;-2.223520261549734;67;1.2566370614359172
147;-2.75876109301411;0.2373404680524746;0.3071204362436268;2.306312021805581;-0.9390750043531576;-2.1958435664914675;139;1.2566370614359177
148;-1.4522339454458946;-0.5445083837181066;2.298298656188438;2.2341804878887195;0.158914526862524;2.816819885255801;92;1.256637061435917
149;2.420381581024776;-0.0034683971429654;1.1959631801331592;-2.792160439563768;-0.1762694500615242;-2.363951714283825;145;1.2566370614359177
150;-0.1221975188832624;0.0369869070166143;-0.860456051437112;-2.570710459786444;-1.5734072455192196;3.121193255366824;131;1.256637061435917
151;0.0350709844174409;0.9815438102072688;-1.276484562476342;-0.6867745543848853;-2.105224319237688;2.2732359500864905;114;1.2566370614359172
152;-1.417493854934082;-0.4642103541478848;-1.9770821819618052;-0.3448496893847721;1.427345636002496;3.1405220624990924;96;1.2566370614359172
153;-2.3540223895124863;-0.7009399005882968;1.3204308787398231;-0.7737807489390024;-2.170983343436787;-1.4985161885088845;138;1.256637061435917
154;2.4003114693916805;-1.5019444056532447;1.528249530244312;1.477881012924215;1.3180430173463709;-0.5888165606342886;84;1.221847622054189
155;-0.6127365973499357;-1.016272099087462;0.1305182340850012;-1.3709037220238531;1.4791276572688723;-1.9192841459920416;54;1.2566370614359177
156;-2.074828944742528;0.2706231987814886;0.8541915339582311;1.5821500562708877;-0.4166207412658649;-2.079181724956579;147;1.2566370614359172
157;-0.2711707852275965;0.9296388677945188;0.8950847552613533;2.039535269100561;-0.6030496852741104;2.3137342157239766;173;1.0144441950876433
158;2.6102855389178865;-0.4915667975427812;-1.7056335073245965;0.6169643174299753;0.1643093160730459;1.4338868102945628;144;1.2566370614359177
159;-2.0655899201558823;-0.0784531954690718;1.453396828755868;1.3354762980012478;2.6525551894724413;1.2368474135676324;87;1.2566370614359172
160;-0.4350699131286826;0.4619351825671305;-1.679996115104144;-1.0354787900061009;2.5444450964924363;0.7607525703266868;34;1.2566370614359172
161;1.9912497488188443;-0.9015437624166204;0.4387106564855321;-3.120880120748905;1.1903833162399966;2.3522525834987325;93;1.2506098666509988
162;2.392584651799362;0.039230730870271;1.2898645337714305;-1.7390324445215972;3.0336775114303234;-1.5219621873790556;104;1.256637061435917
163;-2.051548172803339;0.4829078038307161;0.0868982739424776;1.9782281437504183;2.0501893815183347;-2.0527529084959037;119;1.2566370614359172
164;2.304709338855666;0.9116010205250472;-1.9124356342203364;1.8931682557474592;-1.0704145134298937;0.552707786824796;71;1.2566370614359172
165;-2.726832599763424;-0.6504146617637282;-0.9907118035476336;-1.520376038296218;-2.428078798544298;-1.9409866387499104;957;1.0712841128614798
166;0.5968305491624104;-0.4995959874794051;1.476539306367911;0.5095044348646165;-1.325027630337233;-2.6393565772023626;141;1.256637061435917
167;-1.985508786312171;0.6972085839132255;-1.1990344496457936;0.9604574252453112;-0.5989690030312852;2.0027412272090426;58;1.2566370614359172
168;-0.5177336132376835;-0.4435186260765846;1.3874594328545895;-2.397944642572541;-0.379277909620247;1.6510319630843653;65;0.8741772385374497
169;-2.397975958895935;0.435572484079909;-0.8804255525527793;0.2753149508077095;2.6562486125411167;1.1550588489158289;50;1.256637061435917
170;2.704337369516589;0.374473078950936;0.8189621070975323;1.724859950886001;2.3882450448320798;1.250697882698084;122;1.256637061435917
171;0.4181306676911368;-1.5827250072110004;1.036178062968769;-1.1059930960661906;0.8621996551724918;1.4498750522887025;37;1.2390783540397106
172;-0.5749126186388451;0.049224542719797;-2.1633721657267824;0.0363207231495837;-0.2203423372753146;-2.83358303926997;105;1.2566370614359177
173;-0.3632198852133216;1.000128601154369;1.4829176215709623;1.3032381495237753;-0.9602035703104445;2.293353807918856;39;1.2057704788994985
174;-2.964247999250881;-0.517639580987629;-0.0894995438872708;2.2969555942562425;-0.0436108146166341;-2.1082884717514614;147;1.2566370614359177
175;-0.3516887510837372;-1.1394121121750949;1.0323666606142654;-0.441308506547186;1.412212440241687;1.6635436032613966;171;1.2566370614359172
176;-2.643118427597989;-0.9348006289469416;-1.964882521287924;-1.3502458611991288;-2.772879050467917;-1.5863083236118103;165;1.1447795536126564
177;1.3694028502657054;-0.2832883381364813;-0.268997353332255;2.438283188301544;0.5923033824546047;-0.577922677655365;128;1.256637061435917
178;1.5643079647455684;-0.3616574843008051;0.7606912353799439;-1.35035671240256;1.338070356838129;0.7877393148301821;37;1.256637061435917
179;1.4189652265937451;0.3070448726298231;2.014310758697866;-2.508843031953005;-0.2050259839945178;2.1371480504048663;86;1.2566370614359172
180;0.3600592288903786;1.2033595022957997;0.3813740005952959;0.1305775055790734;-1.5556612450176257;-1.747555357229175;103;1.2566370614359172
181;0.3129842130816817;-0.839631598727452;1.954807009155922;1.2466600911950256;1.0945439434823938;0.3037283012434152;14;1.256637061435917
182;0.6269644845311229;0.4602256211227121;2.386336462347339;0.799696228268459;1.932179782463628;-2.095549665926212;88;1.256637061435917
183;0.842412784265579;0.6423495314313303;-1.6046362378460426;2.5662907660156398;1.2197472251158907;-0.8380635844288189;128;1.256637061435917
184;0.3323500633040991;-0.1645831509326468;1.6257711294329875;-2.0464889398509625;-1.81784742508439;-1.3394647882909825;59;1.2566370614359177
185;-0.819417107560584;0.2220531323272839;0.2907834066964264;0.7877707835778021;2.240650390452639;-2.828837914018989;119;1.2566370614359177
186;1.9630593954763864;-0.5597703278785076;1.3725796559627257;0.2319220271678904;-2.422904171352903;0.8849080671236823;97;1.256637061435917
187;0.6319146502017674;-0.9846809863094188;-0.0682042708088707;-1.3550144070802013;3.12569917593112;-2.243311684732947;90;1.256637061435917
188;-3.0263655361795823;0.2356991881424525;-2.281634309574261;-0.6960780263443487;-1.3058723641984602;-0.1685048548232572;89;1.256637061435917
189;-0.1857961123852664;0.1102530514019697;-2.0703029948750373;0.105967373807947;-1.3377612128646563;-3.235905173671031;172;1.2566370614359172
190;-3.1385378423571537;-1.530167737487013;-0.7768183259239122;0.3202131975900658;-1.025739778117214;1.2616477429551722;35;1.2566370614359172
191;2.2716990767433343;-1.0761776239543628;0.3149518581319785;1.491519268515972;2.669730604533134;-1.2694808867489633;62;1.2566370614359177
192;-2.4093477258129976;0.835565866411395;1.481983847526434;2.139040722321623;-0.3931750673344212;-2.7449696559381995;156;1.2566370614359177
193;-2.6617862130216814;0.3117488499324885;1.787615768304374;1.3793791985155353;-1.0785057089162822;-3.0625427302949846;192;1.2566370614359172
194;1.114950571677581;-0.2228299332900014;2.299681121232854;-1.8543350584056604;0.2855188529145395;-0.6636411960563791;74;1.256637061435917
195;-1.9322334588017196;0.789486834824298;1.2507599560147966;-1.3047195808978138;-2.681816450107201;2.0030946354963453;129;1.1125092691343277
196;2.7189343682207667;0.5706553993887236;-2.180768004071832;2.63492747146994;-0.8410446916380687;-0.2324615596741523;164;1.2566370614359172
197;-0.3277834204960985;-0.2481324911911402;-1.0611310960062836;1.6693580621135415;-1.536388479204578;-0.421906776393227;53;1.2566370614359172
198;1.121353742937307;-0.098249903249511;-1.0671220433844724;0.8076824956385136;2.175102005610912;0.3294701037023984;107;1.2566370614359172
199;2.312855178350139;-0.2705665828876633;-1.508915563218798;1.152548452047733;1.78319141829758;-2.849398151310954;102;1.256637061435917
200;0.3687430581976803;0.9472744505790344;2.1736910761715187;1.4990984555640905;1.1148542317493075;-2.365437133629736;182;1.256637061435917
201;-2.571996373268195;1.11138378808576;-1.124137988239022;0.1398729931775061;2.2957345987894207;0.82088824406908;169;0.8979892235935815
202;-1.7154870495024044;0.8574862791694079;0.2402693408925579;-1.417826057918803;-0.2594700709133984;2.923973482946837;56;1.2566370614359172
203;-2.2770342985330982;0.7085463522662327;-2.210621427397923;0.6928996133576787;1.9025948643242887;-0.2912224659865219;121;1.2566370614359177
204;-2.7496605308714472;1.6748722803877392;-0.3391574017907111;2.4936980746696893;-1.3259888035091068;-3.324778746486441;139;1.1757330257144438
205;2.7334315865591075;-1.0428407092116392;0.3475627591140856;1.962458344553696;1.968097681610792;0.4766460746880013;84;1.2566370614359172
206;-2.122187879372896;-1.00170156566889;1.932282441365941;2.6964079706268484;0.912823628015854;2.744212882463281;148;1.256637061435917
207;0.0228958356331599;-0.4376029455128742;-1.173385524191263;-3.326302346424678;-0.7885234947357036;3.3401969955398885;150;1.256637061435917
208;-2.0047233084378124;0.2640368620814656;-0.3278661784045455;-0.6277034226057225;2.49159562003743;2.163283103037932;50;1.2566370614359172
209;2.3793993970457583;-1.142971325777252;1.7764592210211647;2.508021832389359;0.7882065205565203;-0.3736123657996002;154;1.2566370614359172
210;2.422677005374996;0.3498094206125904;-2.5561908615924995;2.0008950706373745;2.125827352328891;-0.888392245795431;132;1.2566370614359168
211;-2.073023384451828;-0.8670129459343459;2.191301031027085;2.888502456670048;-1.202374820322685;1.3373831414210893;92;1.2566370614359172
212;-2.5378867052740386;-1.162860129479471;2.3238429256224267;2.2800664801597192;-0.715631523204723;0.5306412294736533;211;1.256637061435917
213;1.916581157346773;-1.2272997752469337;-0.3599119275234367;-3.029686547801846;0.4213122452716442;2.8316894553498124;161;1.2566370614359172
214;3.301444556272501;-0.4170059833687439;-1.4903052853837473;1.241736085018059;-0.5405345247704713;2.8058695460314147;144;1.2008683758671528
215;1.8480383323842988;-0.1718694270996403;1.0670261610450842;1.6099589750165113;2.388542512592734;2.3666145618922423;122;1.2566370614359172
216;2.357004959910825;-1.0758237111177515;1.0529594957340898;1.3930254019852677;3.0560265636953567;2.467427874437933;215;1.256637061435917
217;1.0454749632502407;-0.0250646017074149;-1.7499758088005797;0.8946594027808268;2.468008306972314;1.333648712272346;198;1.256637061435917
218;1.733810076846618;-0.2099982465823077;1.3741297719093548;0.2294487543200644;-1.368819673345921;-2.9735881829556616;166;1.2566370614359172
219;-2.5181692161694658;0.879689936743166;0.7270257505533209;1.4660296472333674;2.602927674469493;-2.5285000455578137;970;0.9363730131843456
220;0.7436263956106959;0.3736959450509928;-1.605439346091321;-3.3668015718034163;-0.3527176879332004;3.187747394880856;207;1.2566370614359172
221;2.51951140522094;-0.5707416339471414;1.7158113239971582;2.867081970583924;0.4438924552083789;-1.364018334722007;209;1.2566370614359172
222;2.524029750839421;-0.991782429034148;-0.5964544083246802;-1.47566112593864;1.016826720055075;-0.9719601105940748;63;1.256637061435917
223;-2.554940198541424;0.1713825679932486;-1.735066959395298;1.7617528363512067;-0.6034092546974453;2.224025362926095;167;1.2566370614359172
224;-0.1476370026225224;-0.5874561861687231;2.078048607044533;-1.7896898536934094;-2.0572603178698654;-2.2571293763348663;184;1.256637061435917
225;-1.8495202999532443;0.7637419360120544;-0.4668076303473941;2.6958873813167714;1.7342492141510824;-1.994679932446076;163;1.0220072117257768
226;2.531656856977294;-0.6239656946133375;0.7757603819223389;-2.288997984786981;-1.790043599483739;-0.5974878725968105;45;1.1781578156413277
227;-0.2056452126559452;0.5090982172776407;-2.6766259646878074;0.3719751366007512;-0.4929481163128271;2.622046392573537;120;1.2566370614359172
228;-1.4794880428650845;-1.0503680271745166;1.5332351827031596;2.8546691482896747;1.70968886243264;2.157334970945024;206;1.256637061435917
229;-0.4125972729938516;-0.4419152844062404;0.1336830021855732;-1.1807062596971036;3.2183647745154738;-1.9059569383430697;187;1.2566370614359177
230;2.802033931684043;-0.4349643975637961;0.3394936109426825;-1.3875086953771256;1.2774627732020112;-0.4819566805527377;222;1.2566370614359172
231;-0.9158890085913032;0.2676973859646993;0.4877140309854354;0.0962760559089218;-2.989126543067848;-1.8498233603380605;103;1.2566370614359172
232;-0.4788256682621021;0.6077504529936654;-1.350126267698908;0.9081566001493392;-1.6127161270018606;-3.146437632440068;189;1.2566370614359177
233;-2.785984117093036;-0.5277636561986889;1.159542169404545;2.2061816575935977;0.8217118616510855;3.0052557851797586;206;1.2566370614359172
234;1.5567030407580615;-1.2494653940400575;0.7246997184402659;2.1183780957799017;1.5305490609210182;-0.7276940141972492;84;1.2320979924091084
235;2.3079252236767798;-1.2364789153884932;0.4431732134951474;-2.933161335966578;0.5110328273915747;-2.256147149665618;145;1.2566370614359172
236;-2.2028438469933365;-0.2360238534690757;-0.4007556242889701;2.9530060831046843;1.1189609159979337;-0.2264264737062161;126;1.2566370614359172
237;0.4633022913224913;0.272396310801308;-2.246163623036317;0.9405587392911376;-0.8954147546926431;-2.7794214029014688;189;1.2566370614359177
238;-0.4198936369346036;-0.7100029792711379;-0.1790509901435945;1.2941450709493434;1.2773264118169845;-2.506277031943829;142;1.256637061435917
239;-0.3616159485130357;-0.6567124366914352;-0.7683762725384835;0.7549104607260524;-1.6127995748760648;0.712864440467241;29;1.2566370614359177
240;2.709616546258933;-0.4691573942929617;-1.4295868601145676;-2.1521230065708576;0.7629851345278822;-1.2073563932434042;222;1.2566370614359172
241;-2.329358634725098;-0.1207081845683333;1.7272073739339673;0.6581673377862194;2.4740644098548263;-0.5474338962919924;87;1.256637061435917
242;-0.3677031560482093;-0.6857745871080029;0.6354393796972777;-0.8065836608567236;1.2256085101954;-0.7125400895658996;514;1.1433950325466613
243;2.613491722208775;-0.0861552549834363;1.772223052390064;0.5845495583401579;-1.4390092660512752;-2.2661573379147333;218;1.2566370614359177
244;2.566877405510667;-0.19985954710566;1.5416839763747685;-1.3609042601337855;-0.903269785794759;2.363375426176479;86;1.256637061435917
245;-0.6254829296031783;1.211932795638022;1.2275414426129736;-1.76402134425063;-0.1291283429379393;2.6815936065447112;256;1.005277669748894
246;0.5450995664541571;-0.3633420789232997;1.604045586113378;-2.1704643505493646;-2.3905793341561563;-3.0109569222934383;224;1.2566370614359177
247;-1.9297865703948416;-0.5315644650608022;1.2787666100017523;1.4972779573578283;1.3125912479371948;3.3024535707199183;233;1.2566370614359172
248;-2.766147114728272;-0.6665463403105885;-1.4241114369108008;2.5201110109963345;-0.9588107043793432;2.4092086205580485;223;1.2566370614359172
249;-2.5439267911219816;-0.5347402196853355;-1.0255973312000908;3.194859252977732;-1.9055045195208893;2.3638862598330888;248;1.2566370614359172
250;-0.0290842814641916;0.90821704481751;-0.9525155449398156;1.8340624280825453;-1.1053672156391212;-3.2638702065348104;232;1.2566370614359177
251;2.771350432690247;-0.4066918175913618;0.356262895858835;-2.4438959666721067;1.3804000700809214;1.8784492117751257;161;1.2566370614359177
252;2.04288558678578;0.407126662852451;1.940160086395608;-1.712728951111666;-0.0603259220851638;-0.43492362703498;194;1.256637061435917
253;2.744468446361445;0.1681741940108325;-1.6628459339419213;0.0972576244406263;1.542798693454765;-2.921725668324873;199;1.2566370614359172
254;0.3719445081029282;1.0253158551224832;-2.1346798319703835;-2.316013472566029;-1.0549457377899678;-0.4461426604221071;134;1.2566370614359172
255;-0.8611216154195382;0.2334883964364639;2.143736622645156;-2.0368449335919108;-0.9267117102980214;1.6218613982638987;168;1.2566370614359172
256;-1.3014941779946154;0.7170648466517685;1.1876728213675174;-1.6001571275278137;0.0014593029263119;2.168559907188038;10;1.138816305550268
257;1.3907038313850444;-0.196722906950487;-2.3325824983446264;-0.0369324239988467;2.6646416764108958;1.7632166238076503;217;1.2566370614359172
258;-1.4715189048955737;0.4691579324729978;1.074043999537029;0.9886970507226096;-2.767856091211826;-2.051484198968786;231;1.2566370614359172
259;2.8940295663466737;-1.7192948116243256;0.166260537942596;-0.2934382077356499;-2.407499122854246;-2.034023565518474;94;1.2566370614359177
260;2.1675306662120266;-1.7052316064982358;0.6761259691464203;-1.2318336936448917;-2.6075630888771326;1.6046417326781652;97;1.2566370614359172
261;2.968159172921721;-0.1740185118510824;1.57813143153394;-2.854786161809756;-1.81661972668522;-0.1268201426395112;226;1.2566370614359172
262;-2.3426012881386407;0.9853233719924024;1.5612209201317313;1.7138575580835067;1.90702164315474;-0.3911951541822674;87;1.2566370614359172
263;-2.101143458709311;-0.5630963042782433;0.65683431234471;0.8779595428526794;-0.042199421351464;-2.535614155694333;156;1.256637061435917
264;1.228762426630598;0.2904998638636137;-1.8835627056342217;-1.6738755416751918;-2.134585987821;2.9363105934222693;131;1.256637061435917
265;2.3142423107610197;1.0754720564647344;-0.8927917614760459;-1.0825488705985489;-2.589572042845874;-0.467909254250034;143;1.2566370614359172
266;1.0251807931476014;0.1522855001476879;-2.239924977238024;0.5009153632098378;1.4042369040316864;1.4770977908390437;217;1.2566370614359172
267;0.2213732596082376;-0.1096676422593397;1.659620599204427;0.7636920840993937;-1.5872525572546787;-3.162656790509696;166;0.8565905889279772
268;1.0526641467037563;-1.2434738294087988;-0.6435070641299063;-1.7090550443420889;-2.118202513938029;0.0235780564513389;17;1.2566370614359172
269;-0.7640661479349992;-0.3670003322883884;1.4099360694257383;0.564967807964636;-2.04727045742541;0.529886066061668;64;1.256637061435917
270;1.8268632659695567;-1.106603105337311;-1.515754262296434;1.5072752888044392;0.3027769102909201;-2.7989807222234813;102;1.256637061435917
271;-2.914061465651847;0.5484797792271017;-0.1675890136942495;2.5771789397094533;0.6074728019557774;-0.2514754767854134;236;1.2566370614359177
272;-1.6411706630049023;1.29650610591888;0.5477546102693811;-1.882166859765567;-2.311742314640929;1.480855351205661;195;1.2566370614359172
273;1.6307520050845397;0.6451549288438224;-1.9582940625810727;-2.5852851152619163;-1.1077609236664836;0.4310886581021904;134;1.256637061435917
274;-1.3643820301179828;1.27150049701157;1.0522337520247544;0.997387043898986;-0.5506435421667388;0.2336667709164044;116;1.256637061435917
275;-0.1195922023247732;-0.1337037474596919;2.0892345962276;0.4021929874936711;-1.01021808167564;-2.2243036513728227;166;1.142551503555259
276;0.3689715986298572;-1.4866192110806762;1.4487016567835638;-2.272187148525969;-2.2188468835639505;-2.6885418524993163;246;1.208592302020075
277;-2.8433691496949853;-0.3831440955934097;-1.0812538694354368;-0.2226968594506334;2.2742989985804507;0.6294815583973506;169;1.256637061435917
278;-1.8634667966246703;-0.0981614785974157;-1.020797027166037;-1.467934669176194;-1.660759693826628;-2.313463454924622;957;0.9842244546993216
279;-0.1713022343985968;0.1795514038827098;-1.4339700202369752;-1.2607820472502256;2.075555764278848;1.8089296137804327;160;1.256637061435917
280;0.8632068672718389;0.6182153421683535;-1.5026958331448197;0.3773428070361433;1.3725907159457322;2.358024612467955;266;1.2566370614359172
281;-1.804200815220893;-0.0520684643732623;0.6836352246949855;1.2375635441808603;1.5399280967781874;-3.07970806821839;119;1.2566370614359172
282;0.0189266779025715;1.0498510350009829;1.0828432325213455;-2.8278630323295024;1.041991616518127;-1.9499691844145104;33;1.256637061435917
283;0.2755767076009219;0.2673253054529306;-1.6485882477311802;-1.2725604442038991;1.2663892382457322;2.409437008693588;279;1.126483181856217
284;2.005003211431432;1.293486557747192;-1.3060733010741308;-0.8511791116486691;-1.8731465597995207;0.3677811739369784;265;1.2566370614359172
285;-2.609761440561566;0.0585927040971467;1.3190444004859063;-0.3442150775222563;2.8602227202466506;-0.16288688761969;241;1.2566370614359172
286;-0.8502248890785302;1.5778514039880644;0.2929791806814897;-1.474737479820268;-2.705245952378709;2.179877509695296;272;1.256637061435917
287;-1.970291981637184;-1.1047895553083658;-1.50915436218192;-1.0449197114006026;1.8196035478400816;3.157506546007601;152;1.2566370614359172
288;2.237683978377674;-0.6727933055835896;1.556116085626745;3.129111706477018;1.0157337969496885;2.913531048308172;108;1.256637061435917
289;2.4090825825165623;0.6490527297016396;-1.8971831255008131;-2.642527023536884;-1.7513273596017536;-0.311968596354619;273;1.256637061435917
290;-2.6516642336610867;-0.5752143727985083;0.3484569193760007;-0.9988965473363808;-2.6518622110443397;2.5629298907390377;77;1.2566370614359177
291;-3.2666755395489653;-0.2282969960437247;0.933286779180495;-0.5676355685133163;2.678189584348996;-0.1712503222001577;285;0.8635817861024867
292;1.7363538008175157;-0.7629769982508766;-1.0652986019214838;0.5965950576654608;0.7368306172913516;1.4929815316923905;158;1.2566370614359172
293;2.648506685316652;0.4604028462417021;1.8488523616224128;2.4466794602211963;-0.0889666301212355;-1.5084516744791576;221;1.256637061435917
294;-2.7948078587773;-0.7746299909472233;-0.2403640926414141;0.0350837039917673;-2.954235105719706;2.455109177343794;290;1.2566370614359172
295;0.4583982490281379;1.2000040464792232;-1.1061707929257407;-2.358075679062853;-1.4200070653518608;0.1440070198808433;254;1.2566370614359172
296;-2.287534042002196;0.1727587123941962;-0.3797580487794489;-1.0867925338194937;-2.195131634903398;2.9377053008936365;290;1.2566370614359177
297;2.7196764601678995;-0.6264645454288174;-1.0192403749759962;1.942668604977593;0.3575354975475238;-2.46372502163063;270;1.2566370614359177
298;-2.055804176618944;0.2894879357330927;0.770582867074934;0.5830289366959581;-3.1091446788494315;-1.1391613723398897;258;1.2566370614359172
299;-2.232968276028409;-0.0826316034688374;0.7917613449863269;-0.3221677315046197;-2.577189359352747;-1.4363214255797947;298;1.1666062595434066
300;2.299568131819547;1.1530315982209738;0.7573103121481545;1.127351478450517;2.4213474470498544;0.5819437328229247;170;1.256637061435917
301;-0.1202784220238955;1.0454091343145857;0.1913836474415031;-1.2916754285136736;-2.186804117313481;-1.800830634813703;103;1.256637061435917
302;2.378320975425054;-0.6922688219975631;-1.939778504796018;-0.2778177646317419;0.6889475841210404;2.029154545282475;158;1.2566370614359172
303;-2.899285278274921;1.5432260471165662;0.5785812902265689;0.1518241873052787;2.738396754780599;-2.1184279454436816;146;1.2566370614359177
304;1.002773036267903;-0.1626147224506137;-2.012001700309165;0.6966861385399327;-1.8876679447465985;-2.780594367842645;237;1.2566370614359172
305;-2.267981930076992;-0.196048716949147;1.4331065008284378;0.4416083207447194;1.3253132034709751;-0.2058626110678907;241;1.256637061435917
306;0.3696050801825463;-0.2844660707910646;2.2491363293856037;0.6561628123098182;-0.8856897520093777;-1.1236143656286894;275;1.2566370614359172
307;1.7100661257318233;0.5879482127369939;-1.0660909640816578;0.9656479059664468;-2.2394982695415795;2.178532432073012;125;1.256637061435917
308;2.19283163388146;0.9386224065080684;1.8598726584124667;2.65718539492435;-0.4995251359746511;-0.5441848433388885;293;1.256637061435917
309;-0.1045801748569893;-0.5257264641394673;-0.5237505055655732;1.4086568866058722;1.3784089828503308;-1.8493615796578384;142;1.20645988450579
310;1.8973723161853653;0.5497901671682636;-0.634315726479076;2.334577233292276;2.0805724920310107;-0.6656784731291567;128;1.2566370614359172
311;-0.7538504955265782;0.0655063455829983;1.7761475332605134;-2.607699518934349;-1.883609313451492;-1.272615174241347;184;1.2566370614359177
312;-2.096823805145122;-1.1179350915699788;1.2799090362868846;1.552966246738204;2.391803207976829;3.103446512191838;247;1.2566370614359172
313;2.777635511455373;0.2708174214118012;1.7733233267183468;-0.171185521301463;-2.3513711355099463;-2.4118389321078366;243;1.256637061435917
314;2.806523984665328;0.8507546474080432;-2.105509598618096;-0.3063710098525301;2.4055206569323246;-3.0005505265086523;253;1.2566370614359172
315;-2.353393175302105;0.7417166883890489;1.7856759073018995;-1.1695014649509907;-0.9825578482467544;-0.1162568687631741;110;1.2566370614359172
316;-2.6351336065158466;-0.5391953431583413;0.3946193041240496;-2.344452954793842;-2.391480528042263;-1.72249122172565;78;1.2566370614359172
317;1.6766588372537146;1.2494617745895564;-1.262657487507422;-0.5416392260668694;-3.070599568277636;0.0829353496144422;265;1.1836326560096757
318;1.360575943374132;0.6380766221189121;-0.6695629120335431;-1.9108630995967728;-2.706970676139042;-1.221219548159426;143;1.2566370614359172
319;-2.231297421694975;-1.1924059972458614;2.178183433807701;-1.1758735100576956;-1.5258502408779655;-1.404061924454984;153;1.2566370614359172
320;0.067202960849037;0.6410559720428392;-2.4178793629173168;-0.8211544198012223;-1.79914784216739;-3.035568808898893;189;1.2566370614359177
321;2.0050774017489386;-0.3569470628724674;2.2899133939483125;-3.182558511023594;0.3096292891545172;2.1392746487811416;179;1.2566370614359172
322;-0.4805555859365127;-0.5732947536458066;1.493100465286716;-0.8123898741311004;1.3352712402186606;2.6048959342322493;175;1.256637061435917
323;0.5851756195195734;0.3477701037373496;1.1328122819956168;-1.9099466091858812;-1.086358740141352;0.1066222983501245;26;1.2566370614359172
324;-0.321557054683846;-1.6714114108964326;-0.1868006471471864;1.4795601454436305;1.1294547470939893;-2.5872901151435643;238;0.9984208590167986
325;-2.1341308922516062;0.3095799197870943;-1.7945268867547337;-1.4507437483061556;-0.9475504821197902;-2.7951311832531878;278;1.2566370614359172
326;-0.9153656103803578;-0.3211373568007494;0.518940348749537;1.508900745253848;-3.025603798208798;-2.0426668557099354;258;1.2566370614359177
327;2.264514995098415;-1.0139805973705194;0.3981406760512198;-2.647520921212072;-0.3989983724277112;2.969420539816876;213;1.256637061435917
328;-0.8015815109298916;-1.234896671923646;-0.489197578396298;0.6339579952815206;-1.6686208605887165;1.0429335779067683;239;0.8558613202923536
329;2.045013997921884;-0.7360672289295809;-1.5568816614664185;-0.326576792011275;2.752769202420007;1.3548656676505908;257;1.2566370614359172
330;0.0600701197491866;-0.3631623954404977;0.754686773283729;3.1102345085391105;0.4290618313948247;1.6535872214382628;61;1.2566370614359172
331;0.3895508485251324;0.570754177675017;-1.2178288297740427;1.2605279899126796;2.005247504008483;2.659875949387751;280;1.2566370614359172
332;2.7617265200243764;-1.4575024015370674;-0.8231465439759197;-0.925690904638376;-2.4631659884854025;-2.3676831161211287;259;1.2566370614359172
333;-2.780004938032099;-0.4030866521044118;-0.8854871631577543;0.4484196696030189;3.016221451168441;1.910221154945808;169;1.2566370614359177
334;-1.3340875116716164;0.5533425444463544;1.204608588089859;1.446815123338869;2.340704443761741;1.9248388839065924;159;1.2566370614359172
335;1.4912197815617172;-0.9491707191830404;2.3325934279452194;-1.1441313253444767;-0.4621512686205924;1.4854359375465531;86;1.256637061435917
336;2.7967786971113022;-1.0737812277271006;-0.6390860536187202;-2.319046104506661;-0.600054979388923;3.2303749173401948;327;1.256637061435917
337;2.613759584947411;-0.3219383953637735;-1.8882359802309792;2.4954017366552006;0.470870177028871;-3.09749952195755;297;1.2566370614359172
338;1.8831275678741008;0.6750361827098246;-2.1919023853501685;0.8872447401573537;-1.726268640031725;-2.868497674080669;304;1.256637061435917
339;0.419834152409525;0.9252242411632218;-0.3692644681408008;1.5726084062167665;-1.3604053663344562;0.205875841762136;29;1.2566370614359172
340;-2.722310095585678;0.5926365803172206;-1.3965891146070617;-1.4242495409419529;0.0407776889629211;-2.6639371720037515;325;1.2566370614359172
341;2.9763384938464705;-0.5918207944224101;-1.5918250659209856;1.3084376987118052;0.8438609247435226;2.128302310747521;158;1.2566370614359172
342;0.7750429919189032;-1.5720683098390906;1.2235491634414106;2.33001990712055;2.134779414256558;-1.1808322778249545;234;1.256637061435917
343;-2.630544885879309;1.259307390802699;-0.8003174975797859;2.8550959729296608;0.9581163439120988;-0.8783287727011525;271;1.2566370614359172
344;-1.231731355275997;-0.6119696237734598;1.615280065453057;2.704971366082851;-1.4081591781957694;0.7061254177436274;211;1.2566370614359172
345;2.745744916268858;-1.0479078401087791;0.0619596711950313;-2.570725787905094;-1.4120413906384783;-1.3860361493302844;226;1.2566370614359172
346;2.4484276116146524;-0.1355424088126468;-0.8626450138594208;-2.827539537650209;0.4783889509047242;-0.471820839491361;240;1.256637061435917
347;-3.216329116391464;-0.4021320569636581;1.028466945665884;-1.030341805640005;2.7305046405687605;-1.3203761300946213;291;1.2566370614359172
348;-0.5274947597585341;0.112656814546235;-0.7806915957037602;2.764948459667314;-0.4558286522193729;2.379327379064991;60;1.2566370614359172
349;1.245374526745873;-0.3869084062627761;0.4948358085910527;0.7562220744948263;2.3557136215680043;2.7017936903421296;215;1.2566370614359172
350;-2.587110327865884;0.5211021707815918;-2.0357746073408376;-0.6363519355814692;1.436048785068476;1.630069542347624;46;1.2566370614359172
351;-2.3147799449006574;1.4025185441942292;1.1661859373889207;-2.449009488577266;-1.7929510587323811;1.8566696178866016;272;1.2566370614359172
352;-1.7302386799953526;-0.1858278123899747;1.800422306737663;0.2634744182690227;0.9852022302812816;-1.209623723937841;305;1.2566370614359172
353;-1.31991649894086;0.9558460053287204;-0.847202062556311;0.2987997660973465;1.6486722219287828;-1.962065463089533;27;1.044433009396212
354;-0.175550848949474;-0.6787305933079113;-1.7492294670899458;1.0402590245415866;-0.8628370076927053;-2.6876828080037187;237;1.2566370614359177
355;-3.1635812617924897;0.5568539334783903;-0.6200382884832001;0.1101939555873506;2.523286730852947;2.1977548103599056;333;1.256637061435917
356;-2.8981102999874144;0.775896485007095;1.42295128855566;1.5098966469956197;2.8996826834069145;-2.656457898714237;219;0.8635981261106839
357;-2.472297941014076;0.2891190055107426;0.8843964456801745;-2.1014987799572085;-0.9698113408950128;-1.5139312842512591;138;1.256637061435917
358;-0.466411674990951;-1.1916102035436424;2.32858976216955;3.049408393742119;-1.374634542266267;0.5362201536708269;344;1.2566370614359172
359;-2.103015259849512;-1.1418698510696246;1.8515544181380656;-0.1955765075147139;1.4818118883879143;-1.4669067357358203;352;1.2566370614359172
360;0.7488911865894806;0.9658230323991414;-2.264363922265284;1.738042657038657;2.435068119495663;0.1276992060877156;132;1.256637061435917
361;-2.1630233592679446;-1.316252640363833;2.846523190081364;-0.6030367824390043;-1.858053476431197;-1.915407503456405;319;1.0801169269171926
362;2.8814978911580957;-0.070580526175912;-1.0271911920865506;0.6140948924733703;-0.9593898061825272;2.099524709222833;214;1.256637061435917
363;2.218889513801781;-0.7848700746771062;2.117044747793119;0.7687749547305454;-1.183013557454487;-3.342421072942796;218;1.256637061435917
364;-1.8322012163347623;-0.6174511182818974;1.4770891480100663;-0.9246164046726826;-1.3408320418421422;2.9742579392054926;24;0.915563749291865
365;2.7802136079822097;-0.7373532583214468;0.1317891608154027;1.7239044087051012;0.143755809152339;-2.844181497796521;297;1.2566370614359172
366;0.7460591582493458;1.221513460355217;-0.9902810358587426;-0.1639998235244689;0.2170484597415288;-1.0590661754238777;12;1.2538995315774322
367;0.0031996820607376;0.4633203440639249;2.255526804302612;0.744573508953926;-0.434538006858316;-3.079485516802753;275;1.2566370614359177
368;-0.5290650613718254;0.7282526677879397;-0.8068896402700154;-0.3323400682048373;-1.1534165749695546;0.1583682896739909;29;1.2566370614359172
369;2.8771357192437814;-1.6596193906213008;0.6352109787808167;-0.8528577713212113;-2.747812125550281;-0.359989148872048;94;1.2566370614359177
370;-1.8724134971248985;0.8677733605674217;-2.199761559918171;-0.9382362301895226;-1.701468890053063;2.364838974893149;106;1.256637061435917
371;1.8833293362128192;-0.5003883441175336;1.9597269609844932;2.1885184153638595;0.9706828320092864;-1.9739429663996588;221;1.2566370614359172
372;2.7809626240498004;-1.3533043964890146;0.5353813620283219;0.0563170216866561;-3.0572040892496006;-2.9010346035809964;259;1.2566370614359177
373;-0.1333615754165117;-0.8252336123751209;1.7318640285847728;-2.5680941079379145;0.1782430644520118;-0.1818734335884567;74;1.256637061435917
374;1.7408503884404118;-0.640335491797259;0.5698442517396103;2.0463119892001225;0.0822078050741799;-3.279866346701546;365;1.2566370614359172
375;-2.432576542481985;0.5048463044497483;0.9720166941606012;-2.7661285226978896;-0.3126109064460448;-2.319969889558852;357;1.256637061435917
376;1.689772189597384;0.0467357367873056;-1.7530718741542932;2.1588478460271827;0.9891585913216132;0.1882699097117441;128;1.2566370614359172
377;-2.266235454843528;-1.0020978623458483;2.179199212832991;0.4273088175839625;3.0718752603799886;-0.1192583336354173;241;1.2566370614359172
378;-1.5733035679012717;-1.4655703954180084;1.527485236264834;0.1798814984285083;2.789330231706915;0.4450042263258265;377;1.256637061435917
379;-2.6583282574672884;1.0538372193762684;0.1466290462017791;0.2544110280752039;2.564638427461523;2.8808187828035305;355;1.2566370614359177
380;-0.4003024826242052;0.9301530881924892;-1.5283338271791815;1.8171645425525196;1.6166513669397813;2.141381706726944;331;1.2566370614359172
381;-0.4463513596608272;1.0667829682850885;0.0438482318416974;3.125222065539758;1.198574512126172;0.2442734586902953;75;1.2566370614359177
382;1.1736956545028685;0.219687179254178;-2.3106519750783683;0.6717374842317182;-2.8378290675528133;-2.139387039875301;304;1.2566370614359172
383;-1.914825296867692;1.3459464562926795;-1.1641673005222897;2.2954861778041877;0.2836753740975357;-3.189743488789796;113;1.2566370614359172
384;2.149575984135794;0.4856963382184122;0.3572154726931039;1.5016157308567704;1.407426516021625;2.010973768646025;122;1.2566370614359177
385;2.4454481489869626;0.6414319908308578;1.852332462640528;-0.7725156444869536;-3.1312994175247275;-3.0079132694424766;313;1.2566370614359172
386;1.3783016573989575;-1.2213086150207677;1.2323104948249526;2.3857589850313343;-0.6449232002517161;-3.114457559831674;374;1.256637061435917
387;0.1442799208617393;0.2307163658591743;-0.2499757563373085;0.2665531535746008;2.1287581151899952;-3.1003918100958154;185;1.256637061435917
388;-2.6557523453077594;-0.2646532340924141;-0.4595600306118106;-2.586961117221911;1.2167684899915885;-0.0112991114285161;130;1.2566370614359172
389;-2.00503110123845;0.6420795764355886;-1.1907249782350346;2.366893187581482;-0.925571392359413;1.6865409119531836;223;1.2566370614359172
390;0.2743549715626062;-0.1785651376249614;0.5708391931546419;1.9386711102543597;-0.5928300518651421;-0.0221404283862889;2;1.2493063257347337
391;-1.0550571855604822;-0.7894087113917316;1.85321569213209;0.9735006432318262;-2.824110757287604;-0.0610076033672033;269;1.2566370614359172
392;2.439770638196701;0.3785009071186673;-1.732519267429776;-2.662419558527264;1.4193173057978954;-1.2770181527670224;240;1.256637061435917
393;-0.7335005670101116;0.7920188634148841;1.6142350514270056;-2.8503560352990105;0.8272741113454062;-1.1641411439549243;282;1.2566370614359172
394;0.2496095674658514;-0.8560246901196146;-1.765108183612765;0.6213926819510008;-2.5691456072488648;-2.785770514309921;304;1.256637061435917
395;2.314357875089279;1.1091201439410463;0.1686919966241644;2.241728822361952;0.79994420324562;1.5516447564290292;384;1.256637061435917
396;-1.9757919010569929;1.354692331308376;-0.5851650373110617;3.3696173604919504;0.2138800110871004;-3.153266846139287;383;1.2243352374815146
397;-1.45741951120955;1.1702612781866966;-0.7021063819488926;0.5051441545929185;2.426553162882341;1.2867534182512097;169;1.256637061435917
398;2.2340321545701407;-0.9556722031863616;0.742146525841922;2.5473253242201044;1.058810959910231;-3.3247556618818823;374;1.2566370614359172
399;-2.256967810765928;-0.1846048685714319;-2.6538257916157937;-0.1631109090902268;-1.9062524770723572;-0.3342504939801795;188;1.256637061435917
400;2.1011409481693915;-1.4122293543750186;1.10049818454572;0.5152166080633038;2.364329955320225;2.081100097548643;216;1.2566370614359177
401;2.953748150480637;-0.7498818753482657;-1.9871736968312397;-0.2435786797545969;1.13620522356302;-2.36870159169335;253;1.2566370614359177
402;-1.2178806101686634;0.6820174126630856;-2.14762673366606;-2.365318637684106;1.386965215559504;-2.0173639915378776;117;1.256637061435917
403;0.0645095649018575;1.3704733320662876;0.6889748554846877;1.6051347788661152;-1.5167056246817312;0.5364453306632087;339;1.2566370614359177
404;-1.0993873022413638;0.8051107327992439;1.7336781614786174;1.7512441293371437;-1.8018554443243888;2.128447210269521;173;1.256637061435917
405;-2.470669324381905;-0.023740950109302;-1.060404631710666;-2.557564386400512;0.125705251633778;1.9635534062203444;115;1.2566370614359168
406;-0.1755108999318836;-1.2713463909118206;1.3606541525192335;-1.0316160640937158;-2.0421686613255816;-2.4023722967151127;224;1.2566370614359172
407;-2.607948843511154;0.1279116815536255;0.6215016925245923;-1.0530559873425502;-0.2329441553039598;1.6107263802034235;10;1.256637061435917
408;-2.4331814980292914;-1.4628058193646925;0.3271364466147819;0.5849224004864649;-2.376183075542745;2.582598411232836;294;1.2566370614359177
409;0.3825338223813431;-0.7845073638285796;-0.0548871973031091;0.8304290984549862;1.7642161023214933;2.564002866556605;349;1.256637061435917
410;-2.4658022187518487;0.1242731099004777;1.9925328169701035;2.594793396917727;-0.8829537702952426;-2.1435062069565167;192;1.2566370614359177
411;2.615618524235819;-0.9490183522823628;1.7812811005112057;-0.0232386228895028;1.8299635236966056;1.8342434634827112;400;1.2566370614359172
412;-2.517516967528786;-0.1316789691076759;1.3015789663055766;0.6831013925962307;0.4696966956027454;-1.0549541221369814;352;1.1564338792738111
413;-1.3146130059231542;0.9942661865179095;-1.7284635026877908;-2.7704573916818265;1.7073395328439127;-1.0025707497188212;402;1.2566370614359172
414;1.5346194110306466;1.4217618587370042;-1.867565963633144;2.1181433205783176;1.7722146208992844;0.239894362529947;360;1.2566370614359172
415;-1.548671882735402;-0.0060997325157837;2.195259655719289;3.2475006277312213;-0.8919009698807534;2.8447005517183617;92;0.9048138491578384
416;0.1306130915651125;-1.361731254605154;2.109794387432102;2.696974020760503;-1.3803579825482242;1.546983627112857;358;1.2566370614359172
417;1.3149887720385454;-0.8105123027113453;-0.6658498432424252;0.8395733197714694;-0.6070893316378605;-1.0746692010434866;5;1.2566370614359172
418;-3.1616590095799317;1.188241220669246;-0.3978548649196175;0.2092370487717093;2.589952140661252;0.0420011500710491;201;1.2566370614359172
419;-1.9497441118494248;1.3430853543492407;-1.1392327902159298;2.6732472428561382;-0.8456970986700768;-1.7629396752821072;139;1.2566370614359172
420;-2.1328641021409256;-0.6454269078182542;-0.1107739703645747;-0.4514736947529614;1.523805144837816;1.035547329445565;50;1.2566370614359172
421;0.9828437098865332;0.4444967569252488;-2.72562636380548;0.7086394018440235;2.466737273742812;2.265309431824365;257;1.2566370614359172
422;2.6818280820595644;0.6342783955900506;-1.6737378116663049;0.3802497003979811;-2.3696277117580693;-2.858319036199956;338;1.2566370614359172
423;0.1870405320087798;-0.4945765774861425;-0.0838418354941858;2.5605959432766823;-1.5721347883910408;3.106556843771715;60;0.9463436098610314
424;1.7842191557987417;-0.3585917383942466;2.306324668731638;2.4366868647234705;1.0839333757920655;-2.17614339725213;371;0.5151284843934623
425;-2.4447747950112086;-0.8367877271038863;2.4468294188642723;-2.04444196180432;0.476813471263474;2.6709697626706044;79;1.256637061435917
426;-0.3202432525237768;-0.0646915612141191;0.8427148022492499;2.250407233865752;-1.0632332684160977;3.096734922958584;60;0.9538004631121608
427;1.5731741763393703;0.6253299153871287;-1.4669375909958329;-2.948315815343309;0.2668185277151765;2.688218274998067;220;1.2566370614359172
428;2.843126750805315;0.4845588632996015;1.0083151559686356;-1.5971361038656566;-0.2623473400239949;1.8310925325665677;244;1.256637061435917
429;-2.1038294882546165;0.7738733566257319;0.959240937530224;1.9144801807659175;-0.3629066669743572;2.045729089892017;76;1.2343361447658303
430;-0.1448861042759491;0.4838213552116912;1.709887848590904;0.4795454876003929;-1.8975140603232163;0.5370160930565371;269;1.1077126562357416
431;2.521508237065584;-1.1887757374632324;-0.3093413188964792;-1.8898955545879588;-2.698006793203693;-2.8153227489267008;332;1.2566370614359177
432;-1.333201912378518;-0.0357046118122651;0.719361160610938;1.147729771381064;-0.9400016442330495;2.8328369903678823;57;1.2566370614359177
433;3.207025454615261;-0.1575201685337849;2.015036925286074;-2.063526244413496;-1.2654546002454536;2.9278539904897323;244;1.2566370614359177
434;1.3068806533975554;0.0841063447154116;0.4230715250280065;-2.268657499570042;1.0757348308214318;0.2510092527447511;178;1.2566370614359177
435;-1.3704004431348094;-0.0370830204842286;0.4068018899769806;-0.9560966640336364;-2.087969473244936;1.797653045798112;95;1.2566370614359177
436;-0.1660247946571269;0.5335563539315938;0.9555162079007796;-0.9982923144260744;-0.7903952889886204;0.2803355554496811;323;1.2566370614359172
437;-2.682873403807158;0.1556061777197526;1.808921146618082;-0.9110178802992116;-2.880478286454787;0.6117981628656538;129;1.256637061435917
438;-1.756792449241249;1.0135141077893124;0.6152659534208815;-2.290736566020647;0.2039758328082141;-1.826432488060556;375;1.2566370614359172
439;2.500712268943316;0.5075103749692174;-0.9270181999972892;0.0767428619259381;-3.2594386233700416;-2.560336490591543;422;1.256637061435917
440;2.0565250641540773;-0.8733428752359556;-0.9286111088567512;1.6117593635306748;1.0490473973596814;2.410909817739602;341;1.256637061435917
441;-1.1101904919631267;1.201623367459283;-2.2422113373534067;-2.0482064694868884;0.3249994008775971;-2.262866391381682;402;1.2566370614359172
442;0.3522688698584256;1.35559320932659;-1.984082594376778;-1.1320168820363343;2.320649075294035;0.8542235657935467;160;1.2566370614359177
443;0.0562350117138282;1.3248988450663717;-2.1512024062938737;-0.2998003700422026;-2.834545642460719;2.391583700430656;151;1.2566370614359177
444;-1.5652858029428374;1.1751196418259076;0.3927029858616582;-2.841630399396137;0.520714935902391;-0.7954118236906478;438;1.256637061435917
445;-2.9211661642322446;-1.432846178807498;-1.121344005247306;-1.6056129284392051;-0.9400889425829416;0.1259373944324316;35;1.2566370614359177
446;-0.1519019981535787;1.4377250177930618;-0.960682614996219;0.0228261850698401;-1.332311983912939;2.641229097093708;151;1.256637061435917
447;-2.581168882194495;-1.255622291330806;0.1798119609482345;2.2036138064691246;-0.1358205047395028;-3.0016107039541127;174;1.2566370614359172
448;-2.3314457271401623;1.2101577165957185;1.109369590160781;-3.1538784250469645;0.9607271301508002;-1.226906233523379;444;1.2566370614359177
449;-2.56905675059778;-1.4636692086226448;-0.9816628217131016;-1.501480885730451;2.5845030449273816;3.015886708954832;287;1.256637061435917
450;0.052250943959082;1.0097911657205665;-1.137059437192156;1.2052077860029753;-2.465710461772872;-2.622776114849427;232;1.256637061435917
451;-0.451759799049265;-0.4789602016828863;1.7358770450131429;-2.370433756298493;-1.4754596754956353;2.6252285463192373;65;1.2566370614359172
452;-1.3614170467837807;0.496846228510266;1.349951090766904;1.913817309307356;1.408914928503161;3.1994306572928783;247;1.256637061435917
453;-2.486649572087415;1.1676995395038818;-1.6651196467496991;-2.4349091994564165;1.5049263186518895;-0.8691101894403812;413;1.2566370614359177
454;0.945792096232396;0.3489400481492471;0.7679581305840678;-2.1724415068907037;0.0557137347244615;-1.4283915245948016;32;1.051754137869998
455;1.632652625214474;-0.7295485020144001;-0.6841109430191699;0.1880593528188128;2.7644156834900984;0.1263659843507403;198;1.2566370614359177
456;2.7567327000428543;1.2346738144602;1.3481576514140643;1.4402423995445814;2.4130338096384265;-0.3753448270561402;300;1.2566370614359172
457;-2.3810117377940583;0.5571530610887961;-1.7503014838791229;2.593478675378401;-0.900852266399997;3.0111685609026426;223;1.2566370614359172
458;-0.3576301201622572;0.4490001909948535;-0.916593999411318;-1.579957136318908;1.594311766713799;-2.783629023184471;117;1.2566370614359172
459;-0.4090705076743827;-1.067551533437969;1.4903961952264164;-2.438929223551777;-1.739294664804495;-1.1508539294578732;184;1.256637061435917
460;2.390499510574483;1.012627194321595;-2.0388646054219945;-2.6771260264322074;0.8506005034108529;2.547964885254726;427;1.2566370614359177
461;2.0731036360097;1.2300912206756227;-0.9189189590125946;2.2168983479833426;-0.1210092295846054;1.708324883156754;80;1.22615955708615
462;-1.4514309895726365;0.4928819418716979;1.171599247655247;0.7932243995670991;0.9663247092601748;2.9034669310723578;452;1.2566370614359172
463;2.576286576712893;0.6294583029911602;1.995237090013997;-1.705380817228219;1.0457516293880595;-0.2981986891481504;252;1.2566370614359177
464;-1.6354221657346009;-0.2214907479539113;-2.450261150270232;-1.213647312505712;-1.699473349954069;-0.2739658217990727;399;1.2566370614359177
465;1.6853756810139409;-1.0348401749953515;1.8917108994572291;1.5782081869009104;2.7251579920766904;-0.067841553714626;62;1.2566370614359177
466;3.2473245787722997;-0.1703321569336111;1.5122886921223342;2.169555539016429;0.9164766806622838;-0.992808818776182;221;1.2566370614359172
467;-1.5691476428840514;0.577504539291295;1.882214267088384;-2.939558688717596;0.4343458818617395;-0.3891239140981593;393;1.2566370614359172
468;0.4059314009456271;0.2346170797416526;-1.441486063976661;-1.5891114833879718;0.4919425225335034;-1.4583522422733424;12;1.2566370614359172
469;0.9326946692597676;0.0198880876216298;-0.5294299750350664;2.427731623097586;0.5107594945950038;-0.7520155217029802;177;0.622514409844525
470;-0.0394012587815562;0.5313315696370016;1.6658622432074828;1.99888156723652;0.4414099067414968;-1.837852164835446;200;1.2566370614359177
471;-2.619723758369052;0.43246159316265;1.2810542184548923;-3.156024510197023;-1.7139654836236111;2.0173923688917617;351;1.2566370614359172
472;2.228362835865136;0.0303411130469449;0.7316846499262782;0.5888183950889241;-2.5287918443522703;0.1031244330597734;186;1.2566370614359172
473;-1.6883779492156712;-0.417332184744734;-0.6905945539232059;0.8487237677177899;2.764398103656465;-0.5011714134780847;121;1.2566370614359172
474;-1.4494761140130437;-1.6124127569546582;2.056297465137647;-0.6546343703425526;3.0314651887721937;-0.2674228510842341;378;1.2566370614359172
475;2.1725458619859257;0.4747921503725608;-0.8717371997436942;1.7273839429374442;2.3003535580941765;-2.848144611445276;199;1.2566370614359172
476;-1.5735814786949511;0.3030062062683908;-0.356801062418779;1.4249662101545169;2.5444882034700327;-3.122297165698991;185;1.2566370614359172
477;-0.310661489993554;-0.8749757660700588;0.9302026511970756;-0.5064081166881175;2.6893080800912945;-2.016328568292516;229;1.256637061435917
478;-0.609236197787778;-0.3092965377429819;-0.5021526613804517;2.19433874183531;0.5551814939168369;0.7058097766127138;126;1.2566370614359172
479;3.090638572241602;-0.2788399863218347;2.374985827619244;0.9845039191558445;-0.5122423625691489;-3.3315928542083717;363;1.2566370614359172
480;2.0207161592211564;-1.5550470723702357;1.5593684799284222;2.926627278484692;0.1300527755928371;0.4170527698736528;209;1.2566370614359172
481;0.6664751678047325;-0.3341773117193158;2.486360806795489;-2.118041657422229;0.2631595048793106;2.2206639869702056;179;1.2566370614359172
482;3.3117805188097864;-1.5766426375972742;0.4776148889222734;-2.736490468404084;-1.6124972101607256;-2.245541931655263;345;1.2566370614359172
483;-2.4633384261280926;0.1247408704003508;-1.4999315921953744;-2.6229836571205203;-0.5722489303034688;2.8975943266435715;405;1.2566370614359172
484;-2.5183207988365397;-0.3908110846437906;-1.6793676232480514;0.6931481496082859;0.7072993968721051;-2.977726198659257;112;1.2566370614359172
485;3.0406057733152103;1.2263281329279303;-2.634942520258453;2.606357271329586;-0.5211197013574731;0.6256262743595384;196;1.2566370614359172
486;2.9699341805255126;-1.0464813182889765;0.4591253657906643;-1.1743935163138408;-2.1550132097126125;-2.37388405483687;259;1.2245594550306784
487;3.033468468474456;-0.04743066994337;-0.2563624650757912;-0.1993367849801941;-1.5035756773558977;2.040199762478863;362;1.2566370614359172
488;-1.1554558717927654;-1.1648188460932205;1.6280029482862322;-0.3379757174326412;-2.6966334883744967;2.7739938820448087;95;1.2566370614359177
489;-0.7604649155144682;-0.1706775380097103;-1.434624112714317;1.0137732726619484;-0.7944135310203704;0.7692064872843137;239;1.2566370614359172
490;-2.123773815772156;-1.4748318178826676;2.394296492288852;-1.061526939187076;3.134813272281099;0.6353756134025683;474;1.256637061435917
491;-1.741639887956223;-1.3734754538046017;1.5194285956983675;-0.78888733752963;-3.0110878657060853;-1.4196720580288886;153;1.2566370614359172
492;-3.037234321466399;-0.7354775155955888;2.110230122920778;0.4681125599587352;0.8476136298236844;-0.1109506689727595;305;1.2566370614359172
493;2.1204408488147366;0.2046677540028062;-0.9076714902853832;2.6755846304631814;0.4119120560869352;1.8840459645473968;461;1.2566370614359172
494;3.1139432248825782;-1.15197407974711;0.0583733531977979;-0.8134428683940889;0.7200891098318757;-1.472051907319072;222;1.2566370614359172
495;0.764615219538791;-0.0348304154574798;1.169077289892704;0.6568922665994024;1.9804962591885265;-0.8635322062844489;38;1.1813985044572977
496;1.3788441683041368;-1.2805262537121889;-0.808271875693573;-1.2282995279682236;2.7157052142345908;-2.6925964584581186;187;1.256637061435917
497;0.8587515905851186;-0.6569561866020366;1.1895158461668394;-2.175139254482353;-2.734817872505405;-1.98913730741412;246;1.232501153400397
498;0.5191935618939625;-1.2704905944414846;-1.1052860224965446;-1.5694411301350848;-0.5727432468255809;0.5897076594616089;17;1.256637061435917
499;1.0149758418272947;-1.631509089743785;0.1468084870712244;-1.0341778035109157;0.8253901458100596;2.3038115221473494;37;1.256637061435917
500;1.3986801602612702;1.1443930735259735;-1.951266264026453;1.0990007377156206;-0.7288050384123151;2.1827971115488456;80;0.8826318429819007
501;1.9047685735532789;-0.6862249600781468;1.9431567705341848;-1.5520775648938052;2.7267893929609106;-1.0130780870569511;162;1.2566370614359172
502;-1.4055516736053155;1.151888764406682;1.246916793831948;-2.7549806178013982;1.1032086931778495;1.3647889641113626;124;1.2566370614359177
503;-0.6723090323999108;0.7878156530393173;0.9916350025277704;1.8101862082220128;2.5537389410796334;0.6616964261257539;36;1.2566370614359172
504;-2.81032423303088;-1.2091482485726723;0.4613810628821614;-3.092483140209624;1.3190831293700809;0.8689164146025204;135;1.2566370614359172
505;-1.1736957117274964;1.1393254160470023;-0.4904958421977368;-0.6378056849607062;-1.9769879674408573;-0.192235628529014;368;1.2566370614359172
506;2.88374249772946;-0.8723645978020165;1.226219537283528;3.159880929978073;0.8489033448306316;0.3271861868859851;209;1.2450207520458243
507;1.870788972763412;0.4837557376452933;0.9184257465854092;1.154807090242462;-2.270524744873209;-0.8044963467292096;472;1.2566370614359172
508;-1.3547851140876148;1.045679646884644;1.907551838295295;-1.8389898999861032;1.442245648275503;1.7829460756680988;502;1.2566370614359177
509;3.085758996737878;0.2268056748595613;-2.292620480397676;-2.589573986500161;-0.8660808484551934;-0.3011497234153035;289;1.2566370614359172
510;-2.019287555009936;1.5462247211639883;0.8056101130200817;1.398199106732963;-1.3491518835186322;-0.2307392562478212;274;1.2566370614359172
511;-3.0006435140887158;-0.2633625607000449;-2.2295992124037447;-0.5963016486057918;-3.2124441372026715;-1.9971114023229364;176;1.256637061435917
512;-1.2044530463907854;-0.1586901401249092;1.961311370245881;-0.6273159636145713;0.0168677505123086;3.387224303122273;855;1.215771401956907
513;-2.768524881750656;-0.4580193272280373;-1.555526459071238;-2.0251255411015863;0.2839941383046004;-2.830237422727364;340;1.2566370614359172
514;-0.9720030730830576;-0.6428672836581545;0.9328139524963306;-0.6416689190451286;0.9547170381434906;0.1542482789474672;1;1.186909673109806
515;-2.5802505383033854;-0.1273329965866464;-2.597212408894576;1.2410722061201895;0.9908791612751532;-2.4459335664841206;484;1.256637061435917
516;1.6681963418018664;-0.1908558777072351;-1.172757944790776;-2.35777914287677;-0.3337410507964041;-2.7528674832882998;98;1.256637061435917
517;-2.593985730859236;0.282406768802415;-2.154416596204447;-1.8557250066641888;-1.611616439192739;-2.288862702511487;325;1.096825713251684
518;-2.0747530291135328;-1.379765610585844;-1.7042479043727656;-0.9753801029190456;-2.6350785622655617;-0.6749028549642022;176;1.256637061435917
519;-2.527725818972117;-0.6147217546823405;-1.275045938010409;3.192706861551944;-0.2700089741478985;2.395434979271579;248;1.0043772895962717
520;2.408250755181072;-1.720932045976585;0.3568396608017901;-2.540128517549253;1.4086900407994;-1.6506226623744382;235;1.2566370614359172
521;-2.0861227951743224;0.0695182549102211;1.0210967054567015;2.9762333596303825;-0.0788453386661613;1.4519301373882314;76;1.2566370614359172
522;1.4064239344645737;0.0758230713756842;0.6441539086905584;-1.2947140693017716;2.203398227829597;1.560623991870513;178;1.2566370614359177
523;3.152989977882976;0.4887053988329605;-2.468957384586404;2.758914752201852;-1.1567216419604298;1.379021602027438;485;1.2566370614359172
524;0.5975286955872996;-1.0818550986499926;1.0946313555030769;1.6873553245696662;-1.6410336234891658;-0.6137579672581268;64;1.256637061435917
525;0.8765498052037973;-0.419033713571312;1.440664280024378;1.6404198262545768;1.821825812021164;2.6893911050535584;215;1.2533020250062694
526;1.288008628960057;-0.0842286380350159;1.5812753840726776;-3.118953636245949;-0.7847761371922296;1.9938837589221343;179;1.0424174178831052
527;-2.3679948052675344;0.0969389899530904;-0.9083973728724428;-0.4200955982100634;-2.0721073126782854;2.2983019449782827;296;1.0770972746597955
528;-0.4825297758134572;-1.1143446246861135;1.97678511285164;-2.8259284452492657;0.1861398345901862;-1.2986123702126406;373;1.2566370614359172
529;2.685691771440853;0.7709978589330644;0.9888501804431788;-3.16043169754202;-0.5125986179639069;-1.5782594068505087;149;1.256637061435917
530;2.3240068468963675;-1.4910547053442489;1.950991963338505;-3.175010855111435;0.3917793817483218;1.875556565347697;321;1.256637061435917
531;3.126709681550074;-1.010365715657806;0.6161257168783805;-1.7227705983911077;-3.3258160283714084;-0.2958165576795984;369;1.2566370614359172
532;-0.4949476990080589;1.475125693280125;-2.1588556799402374;-3.0377071597446683;-0.7444531970620857;-0.5325940764598055;254;1.2566370614359172
533;-2.754172811820243;0.0836410819311825;-1.937759298393466;-1.168359261663627;0.4665757888440831;1.986913962466076;350;1.2566370614359172
534;2.0043102200515563;0.450543661258124;0.5611653635670424;-1.659988816201871;0.0251576820791761;2.5977827959136706;428;1.2566370614359177
535;-3.341224307707557;0.2897842453138849;-1.115629292465414;-1.9272152639084523;-1.4497718171417786;-1.3936406378380908;47;1.2566370614359177
536;-0.0493905827451913;-1.3657309532800732;-1.3660500800899458;-2.3324998578757;-0.9821974629168015;-0.0651730761681526;498;1.2566370614359172
537;2.1504636561236223;-0.0937791244931994;1.3332806989449473;3.026890743791774;-0.2539093503990509;2.0160548985462543;108;1.2566370614359172
538;0.8222598173570813;1.13042558297128;-2.017177850948049;2.9142594601689398;0.1957197327121697;-0.8627056249702172;183;1.256637061435917
539;0.5318030396474844;-0.0310427342540309;-1.802743242910393;-1.5679800779939292;-3.0663478440676286;3.2589076844301816;264;1.2566370614359172
540;1.8037476080385384;0.8024917910924673;-1.9673052507428883;1.448773070656975;0.3222127101168671;0.1805136329647156;376;1.256637061435917
541;1.5578545994299275;0.5079900950045987;0.90013735508835;-3.088981539170534;0.7659627007549521;-2.2589965790883344;145;1.1140772000477897
542;-0.6351230631910413;0.087335206643472;-1.3499074144484955;-0.3357354091760957;-2.0165785094867728;0.5006910260076666;368;1.2566370614359172
543;3.0143509537565274;0.4249631640846656;1.9244728007171763;-1.4719170116334943;-0.1861063193845897;0.3140866630829129;252;1.2566370614359172
544;-2.7176466805370554;1.7060497035935211;0.7558105320318826;0.9239391141809016;-1.130813833832648;-1.1200160231859528;510;1.2566370614359172
545;-1.7727214245073597;1.5032012834499096;1.534183478784255;2.2579254113367537;-0.8447871372646951;-2.0327233684198807;192;1.2566370614359177
546;-1.1336248307351713;-0.8813832942135269;-2.1484882448597884;0.6544468449680375;1.904501228823797;2.8780896757339067;152;1.256637061435917
547;-0.2017108011819518;1.3761778077188949;-1.3471332571670045;-0.8832050708648451;0.4164933101609346;-1.7567360790874755;99;1.2290460573729038
548;-2.81012360143686;0.9796996569219028;-0.7082741007963307;-2.075841361335806;-2.080606050165713;-1.8785176018482037;957;0.9903010009223132
549;-2.133698697628989;0.7747254462664237;0.3117338832340249;1.125351007959726;-0.1646612892186762;0.0699414312370241;274;1.2566370614359177
550;-2.8751572189615584;0.2985169079644597;2.1818116505034064;-1.2326865056184697;-0.981982801274181;1.3611539888141135;22;1.2566370614359172
551;2.0915827516866883;-0.6565909184824891;0.8134738115864335;-0.117777647597622;-1.9530727843039892;1.3321676755486735;186;0.9389165975676838
552;2.7487616878340333;0.946280144556383;0.4833800873520151;0.8231522014167338;1.2450030743706333;2.72186342873904;384;1.2566370614359172
553;3.393687842368811;0.8282434751652628;-0.9024560511059464;0.6446210672122656;-2.0748578984075405;-3.072390404576452;422;1.1583826387803755
554;-1.11494055770878;-0.5228270094205063;-0.8371153467657446;2.3676209458517907;2.2399197985500767;0.1764988767634313;126;1.2566370614359172
555;-0.1087258509558783;-0.3821760021509816;-1.364040904223068;-0.500003670500601;2.75123841323095;2.277397712831991;279;1.2566370614359172
556;2.1112312501551216;-0.8424013179635172;1.8752814832480589;-2.552719211796207;0.2805554626375148;-2.1353475321332205;149;1.256637061435917
557;-2.9198447632510667;-1.3060861294508468;-0.4764041032757568;-0.5962670752873065;0.2596627957156266;-0.1149649351168723;35;1.2566370614359177
558;-0.0288122782980808;0.4697787607864214;-0.2931666729065241;-2.0605793270660806;0.674532747626448;-2.041055174701305;25;1.2566370614359172
559;2.944487335066276;-0.671836050900279;1.760615660869356;-3.077193789672691;-1.5789110009602825;3.162763815433824;433;1.2566370614359172
560;-2.801018704670701;0.3336453859959979;-2.104072167803212;-1.1744623122264028;-0.072464499512111;-0.7844834897946897;43;1.256637061435917
561;1.6628327666241922;-0.4671311605922109;-2.349843494694164;0.9984289159783776;0.4451077601754045;-2.3885921480967003;270;1.2566370614359172
562;-2.3875526594087413;0.3678793404444107;-1.565122566173495;0.4680314350859447;2.5041592826543293;-0.4458965418996474;121;0.6617050875121969
563;-0.1011786623006525;-1.6687645426798157;1.258260945084868;2.9621380873286776;2.1404013600058303;-0.5474191049299216;342;1.2566370614359172
564;-1.4622291789584865;0.212563010510665;-2.23466178755286;-2.947304259845456;1.054593868952281;-0.5201830486484686;413;1.2566370614359177
565;0.7843795800240057;0.6909123095437787;-2.006678932676922;-1.135533890384998;-0.0307783976027237;-1.6905997931017844;20;1.0488192582024891
566;2.8538151850037035;-1.1849406523134884;-0.8285579725317713;-2.403204142846717;-0.6204183825457017;-1.7037268279399744;345;1.256637061435917
567;1.7743693292933442;-0.6798711870052923;1.9195030809613711;0.850819724854848;-2.1021062974643727;1.1411637436741382;186;0.9490869286368614
568;3.1291700408323786;-1.1787819462682134;1.5713432994349972;0.9412755820435872;0.7303947237572739;-0.0335374114632502;154;1.2566370614359172
569;2.1080165816454244;0.8629072914920182;-0.9107056311370804;2.3950807526303373;-1.574964254540414;0.7204217973579425;164;1.2566370614359172
570;1.7994451838430132;-0.6823614661876415;-1.3824272177693075;0.8983421644972209;-1.1635634489224915;2.741704294472078;144;1.2566370614359172
571;-1.7502136449152266;-1.199112548886469;1.4954877612469797;-0.1940753617162545;1.802933237906576;0.6685040351589273;378;1.1252091916221347
572;3.224443652166446;-0.3030218718113948;-1.9886601831970327;-0.3522347923157032;0.3356659669253262;-1.560304829624282;401;1.256637061435917
573;-2.4876312111564007;-0.2999225780700531;-1.713904916948486;-2.5442126071294604;0.9763499364257876;2.556626280636112;405;1.2566370614359177
574;0.0801380178161292;-1.3292037488195476;-0.4163080949833688;-2.4258152958741186;0.6932964980979524;-2.7314792263852583;18;1.2566370614359172
575;3.119511715170478;0.5841801151894578;1.5698677258928526;-2.216023011597012;-2.2974287425179973;0.4580730044192137;261;1.2566370614359172
576;-2.028521756411101;0.7917772520485719;-0.0589763949175527;0.5983774524407812;-0.2615768381207405;2.1566100277658093;167;1.2566370614359172
577;-0.8856397446027046;1.220630366252378;-1.5184275921336794;0.0133975573273047;-0.4114197274879714;-0.0237726370404794;368;1.2566370614359172
578;0.7209375290823172;-0.3253359736872999;0.2937171586435744;3.035363486599294;-1.6516576741537536;2.1625391452569964;423;1.2566370614359172
579;-1.244257513685283;1.432399775266133;-0.6269773122322078;-1.3584588950478824;-0.6621051102117319;3.253818459412289;202;1.2566370614359172
580;-1.963986340639376;0.2890077113576417;1.4010681646864862;0.2759916908377636;1.8851532888318148;2.5711607516250963;462;1.2566370614359177
581;0.3432224584057487;-0.245377601406222;-0.5550984802451199;-2.8570328197947568;0.1472176278411559;-3.354803709692767;98;1.1008348832833303
582;0.5970571832705572;0.4814934417192879;1.0248759212583345;1.739342874831422;-1.0290358136124014;-0.7987781148796173;390;1.2566370614359172
583;-0.8755999698611945;1.389679057746974;1.227811508696871;-1.5938835229382384;0.3952402162868518;-0.1721015092746204;124;1.2566370614359177
584;-0.8612346863727909;0.8781701454550647;0.5981789668639466;2.757353762491019;2.3780582317737413;1.3343643439448392;503;1.2566370614359172
585;-2.2106655451888098;-0.1198028425012507;-0.7139332887781934;0.5610658590333262;-1.3407159109879354;-0.4373580857649555;109;1.2566370614359172
586;-1.3270276233122995;1.2132728484168134;0.0896870072207161;0.9497936829749428;-1.609457573544094;1.4284751893363925;116;1.2566370614359172
587;-2.367349205369153;0.605307200912539;1.51729403419509;-0.806662034388574;2.033608229625857;2.900862625297253;580;1.2566370614359172
588;1.7947774715993416;0.4855170145737632;-1.1792455001972295;-2.128861133535046;-0.5428252376087485;-2.873521419063704;516;0.7643442840779097
589;-2.522447529072088;0.7828035436278447;0.8692918955047925;-0.4175334176468173;-2.7246075203051765;2.27949860729002;129;1.1505861998549811
590;0.1848354079316979;-0.4606366801573045;0.6741974898326938;0.4789815256905195;-0.2964207448273071;0.0701708647550552;0;1.011486551865912
591;2.949038883507566;-1.2218714449362265;0.4898700053440388;-1.0535173979098902;1.9533529083327368;-0.5648737870110871;230;1.1129686092394917
592;-1.9631841153593443;-0.0914081113023226;-0.4387854952822097;-0.4444419543081131;0.8408829829080029;0.2173878741681883;420;1.2566370614359172
593;2.474143113844665;1.0205900196572184;-0.4886426288416995;-1.657312607522626;-0.1800793557508029;-2.853003270317548;588;1.2566370614359172
594;-1.439311208674735;0.2213654451983643;-1.581121404975659;2.325839752923328;1.7871716689517196;0.0667239831526042;554;1.196394921243567
595;2.4366350587233225;-1.6375444039152638;1.8717675977205208;-2.7505478769289256;-0.2951670214129768;0.9339347317456153;530;1.2566370614359172
596;0.6550699392910067;-1.0170577939398646;2.229090640448796;-1.4351370406100197;-2.8129170545035795;-3.1839952489518684;246;1.256637061435917
597;-2.7524612443340217;1.0969972793736684;0.8559087515591138;1.3434673348452024;-0.9871777597809336;2.6180549337516794;429;1.256637061435917
598;0.9206105752353684;1.5300954877007225;-1.9363868865723577;0.5159702482755169;-2.061077314716757;1.2856019008793105;51;1.256637061435917
599;2.5100284363758765;1.1855627393382977;-1.2981690534100163;0.5058317684995363;-1.7541909312372348;-2.015631680515398;422;1.2566370614359172
600;1.4933904136794325;-0.9640905412388904;0.4876587132571588;2.6974349771131085;0.0266461849097403;-2.516367066871288;374;1.0875603997979468
601;-0.1486798039593417;1.480545149899126;-0.5326210438295402;1.3924638943907757;-0.9465203750571248;-2.685738490834216;250;1.035689048580877
602;-1.3318914539697957;0.049571351285146;-1.1924386999064185;-0.5001957686715979;3.2100770092839523;-0.96722630269274;121;1.2566370614359172
603;-2.998287108177102;-1.183180583711483;-1.7059002351851835;-2.2686843082380865;1.077011884955955;-2.292021031782798;513;1.2566370614359172
604;-1.0011520364049014;1.2388501180037643;1.3741485637015378;0.3749714761935921;2.731313827398322;0.4008637869502428;36;1.2566370614359172
605;0.6510678791006839;0.2885931163928428;0.6941581180409767;0.6546304585778444;-2.853378928145126;-2.185681446329892;141;1.256637061435917
606;-2.0100860353746923;0.9164628145835992;-0.9026128623921136;-1.417575978430026;2.632505156370541;2.303885623051005;208;1.1914467481181343
607;-3.0311080045982;-0.6657840338449769;-1.564500465642249;-1.1275517701778552;2.8114256497142898;0.2784676409123167;277;1.2566370614359172
608;-1.6916229140086565;-0.4897907326238321;-1.7526154101939726;3.021286525054977;-1.4209540700486465;2.603098365920025;249;1.256637061435917
609;-1.117788067257781;1.5284047139573411;-0.5938529786335671;3.0493971150021597;-1.4874908599979542;-1.7203312052356523;419;1.2566370614359177
610;-1.4650289085850507;0.3744004545789874;-2.160373192103606;0.1622822137240959;2.589608356590954;0.8145337803905014;34;1.2566370614359172
611;-0.1045834153600794;-0.2370952017577147;-1.0548672132724777;-0.7277141564381766;2.029710039743438;3.2208103878737258;555;1.256637061435917
612;1.516991155340673;0.7144105994247865;-0.6598819310401385;1.8946310742500865;1.5160219564678652;-2.212583905828652;475;1.2566370614359177
613;3.165455988475863;-0.4538365329917811;-1.2455349736889174;-2.932815211157846;-1.1476625314112203;3.35085518340215;336;1.2566370614359177
614;1.2060264092788455;0.357923368072177;0.0019950499053927;1.549957026404488;-1.277552297566804;1.4744534171129071;125;1.2566370614359172
615;1.2811968849455084;-1.415352641119358;1.1977841651896637;-2.585179255909648;0.07633165239511;-2.3805878284331072;556;1.2566370614359177
616;-1.292489945321909;-0.5177676504071005;-1.92729741610672;-1.7898229653727202;0.4859789253122317;1.892622714349164;115;1.256637061435917
617;-3.164172043257172;0.4462012640750029;-0.1989837545259408;1.543009218387746;2.8148537088841774;-2.7845713643391194;219;1.2566370614359172
618;-1.1182271167731546;1.7396632540924075;-1.7645360827122238;1.2899004502260834;1.7903246343360384;1.9305431837353604;380;1.2566370614359172
619;1.4991256766269163;0.8646602209130997;-1.5494090629341208;2.5330764267117645;0.9539757380224602;1.7064358042351786;493;1.2566370614359172
620;3.175714248321589;0.5369333122094222;1.6230237977985176;2.0100511338917206;0.6184082399713665;-1.3279491005793245;466;0.862681984265164
621;2.0057496433660367;-0.5921671086870122;1.1640103098638124;2.197847922923307;1.4314092769781408;2.0431727208094785;83;1.0123866417396048
622;1.4738707667624122;0.3436260148416124;1.0103824560335322;1.3667156370473452;-1.2170310486378575;2.147585128478388;614;1.2566370614359172
623;-1.9208407701817751;1.234227798757321;-1.1116817037095168;0.2846841789583324;0.5651760285591434;-1.2771516849248068;27;1.256637061435917
624;0.0348117382499095;1.2879424301389597;1.5526308593588318;0.3254496918933727;0.042622120905411;-3.05253136569882;367;1.2566370614359172
625;2.737205287278681;0.3385185311057576;0.6539437745152427;0.6743568961654974;3.13406893589162;0.5641046045964468;300;1.2566370614359177
626;-0.5006011840597813;0.478999928394738;1.0856060783530623;-1.9660757372723532;0.8559404316071559;2.087441704070462;256;1.2566370614359172
627;1.5521447019542218;-0.9583800790328312;1.369370044974157;1.832815949552813;-1.2775628615138832;-1.1091118923884151;524;1.1834967033950887
628;3.045088925238299;-0.8864019183393461;1.5026681510749598;2.619753309041114;1.4842109619507684;2.260385871022026;621;1.2286021019289013
629;-1.7143896394057456;0.4146707186666967;-0.0456227252532271;1.8073032366441724;2.1111910100768947;-0.1317149260950238;75;1.2566370614359172
630;-2.362665067013232;0.9636866451279152;1.7032226665444856;-0.998786751753462;3.094257490776045;-0.4237618646270349;285;1.2566370614359172
631;2.950707447502672;-1.2881216250313063;-0.9544182852433772;2.7897198244771126;0.0040751535392345;-2.9549880973018343;297;1.2566370614359172
632;2.843257741438047;-0.1193690430095003;0.672994257642891;-3.259589662227972;-1.638618282385541;2.953202492180548;559;1.256637061435917
633;-0.8361947708300295;-0.2936599700287615;0.5096403074753539;-2.546838711301964;0.6336542796837794;-1.1447293888652987;54;1.1358876139873364
634;-1.4399104195126784;0.1497501557736087;-0.5771433027210022;-2.847848854492846;-0.2663654889307844;2.086221944433144;405;1.2566370614359172
635;-0.0970809734878025;0.7801184863593293;2.02464286557712;-2.25575433618591;0.9991251672073728;-0.6875267737499655;393;1.0880493167975294
636;-0.5122318286892611;0.8664067692794222;2.061077633643177;2.4752974183854053;0.6414379978574037;-2.743453656453598;470;1.256637061435917
637;2.9937261382429936;-0.3089074844051533;0.6999316093253769;2.597002557327392;0.0605586557917492;0.512275327864005;506;1.2566370614359172
638;-3.198701258363035;-0.094010071821801;-1.0501240768423807;-1.6436042289267634;-2.003808702703445;-2.417468037037656;957;1.0911938726207564
639;0.3495034633283;0.1186213975782252;0.262551498313745;-0.5212268571651953;-1.7003238126326568;-2.6212860338003336;141;1.2566370614359172
640;3.05302361456937;-1.389673100877698;-0.4750677323468515;1.5295758479505852;2.317445213643912;-0.1320846148731162;205;1.2566370614359172
641;2.5263777520928965;1.433207887161804;-2.0484515459234407;2.6319955295707733;-0.0062153949357224;-0.5216079993606574;196;1.2566370614359172
642;-2.2142083701493216;1.4901996070435883;-1.2979382848925374;-1.9878325641761163;-2.463581562308266;-1.4872765172267617;548;1.1273483887133904
643;-1.0722378140612387;0.9288603384450588;0.4436819136039515;2.363370899084435;0.657557489742842;-1.3583312291088137;55;1.2566370614359177
644;-2.0166217032269924;-1.2677852684509612;1.223318177610651;-0.5491922770376976;3.145557397781991;-0.9160559664359472;474;1.2566370614359172
645;0.6986701979295256;-1.0413708810220046;2.393563372226686;-3.100430626097865;0.5640075647306204;2.3380029617060445;481;1.2566370614359172
646;-1.88497608616015;-0.9368606178046648;0.571995174989955;2.852940225408742;0.1218980491208919;1.97028038656941;521;1.2566370614359177
647;2.732733448918695;-1.146913924815533;1.18504253755159;-2.048590574267192;-2.7476313089908357;1.5571348596132657;260;1.2566370614359172
648;-1.087888099194831;-0.0640094418789312;-0.7369557967862234;-0.3860794144957002;1.9975808942263715;0.5358762298473293;34;0.7558927825739504
649;-3.160130860869996;0.6625256964337927;0.5160671734218936;-1.0427917769533133;-1.2429001791112306;-2.7120029734806224;138;1.2566370614359177
650;-2.024459767825048;-1.338281038506725;-1.0901130673453323;-1.519386231500773;-0.781323430906844;-0.1856989814876772;445;0.971472624606186
651;1.9254991468464853;1.012241802586013;-2.053578555296919;1.867748593337988;-1.5115693200483316;-0.5473025406845506;164;1.2566370614359172
652;0.9929002465227068;-0.4894064242582894;1.8213327862789968;0.680486837794134;2.2668093577473583;-0.8917200744744339;495;0.8760805236950373
653;-2.141147233656909;0.3953028343131438;0.3296094397399728;1.1834443529197831;-3.15053428602726;-2.673358867732418;258;1.256637061435917
654;-2.45010753354601;-1.000111850129966;2.22810787852442;2.329389866500289;0.2137342575522123;1.348947876537521;212;1.256637061435917
655;-0.7255540927571366;1.5127906811689948;0.4714910132217081;1.7722975654403357;-1.296799552072759;2.861885609350769;157;1.256637061435917
656;0.8745754761832416;-0.5364113049446028;0.6952193096807713;-0.9469866221430588;2.36850906256464;-2.896325833290613;90;0.5025902927233229
657;0.1851333761589136;1.2411388500514946;0.744731268238356;-2.453085338832773;0.9377696192747952;2.4972942105343434;626;1.2566370614359172
658;2.938783533054066;1.337329690426223;-0.549985330537522;-0.8751945500617477;-1.6504784141062665;0.656644344422077;284;1.2566370614359177
659;2.5508571692912594;-0.3067856542428644;1.95011469595756;0.98644938443686;-1.752899952463621;-2.358393626138604;243;0.5939736216752278
660;-2.859924590652891;0.651381724003559;-1.993928347442678;-1.026124115590083;0.9704029523738452;-3.0849203299173285;340;1.2566370614359172
661;2.6831388610871034;-1.3222816057597886;-1.4785985161624506;-0.5830951803030757;1.466761126379626;-2.2052994826250494;401;0.954336660488899
662;-1.4428282792527076;1.7439960910722692;0.4462694007977337;-1.1671432325406226;-2.611873918360983;1.194816839814265;272;0.965941008958146
663;-0.3774738423206301;1.4574715862324057;-0.5171424483646181;0.9198691284958542;2.1683811987594503;1.046955437421886;397;1.2566370614359172
664;-0.0767757174413609;0.490341429545547;1.8846827982096328;-0.1169012771752957;-0.691324031007845;-1.017210753046474;306;1.2566370614359172
665;-0.6931065102134377;0.9093494411065492;0.9810045157337924;-0.6693149013100772;0.5859644932087374;-0.2970707371254985;583;1.1098442634117816
666;-0.4189269903569785;-0.4250880501361038;-0.3733787366015895;2.836479302769979;0.2657982736564284;1.5269760436680644;478;1.1120293066253133
667;-0.0014660185397274;0.9236386370939688;-2.4134857942750507;0.7924004052017297;-1.8996135657267053;1.109493962071096;909;1.0278675014970662
668;0.2750216158180451;-0.772017663416269;0.3051854417658454;-1.898492466447492;-0.3759134374286817;-0.3307630919586593;17;1.2566370614359172
669;1.964860475255252;-0.5084254484381772;1.5043894634107384;1.2439569355997224;-1.4656215628315294;2.687181503915826;622;1.2566370614359177
670;-1.6029988389220864;1.2561654625043464;1.9173685026107847;-2.6647637350142848;-1.6093683523476772;2.4942881445886176;351;1.256637061435917
671;1.501229817029759;1.0950614716363278;-1.803245681023947;-3.025830452930608;1.2115579212768774;-1.2093046168363932;392;1.2566370614359177
672;-2.954212100815123;0.3174538973879151;-0.8889663155446624;-0.6040255969077607;-0.4505831505832657;-1.6603709266691962;109;1.249758688386833
673;-2.9133830140960466;-0.6050800743534501;0.9956927547243072;0.1609886466834132;0.2651078143766853;-2.9764439696057363;263;1.2566370614359172
674;0.7566119267695905;0.3318926087484843;1.1358616899834746;-1.8983007103414755;-3.2608775799894727;-2.99199089163659;246;1.2566370614359172
675;-2.663163627601865;-0.402224146980658;2.1473715918025014;1.3135639461886968;1.1186325680934497;0.5040298093073159;492;1.191136633832076
676;-2.705502154629298;1.261713173668064;-1.2134852805294614;0.4095371308373872;-0.052279238656498;1.6292587963994118;167;1.256637061435917
677;-0.5132102133310137;0.8003691070389942;-0.7415013593500568;2.0386926646986367;0.3030170438806334;-1.1114192471169897;55;1.192357583243895
678;1.8188823282615727;-0.9098422601316586;-0.8895935251305852;1.9221594222159013;-0.8726700396954716;-0.9237568726968426;417;1.2566370614359172
679;-2.3818427017519594;0.0126100599042473;-1.3911471219879818;0.0074498909324619;0.3903596020302375;0.0077076418193517;592;1.2426708398741046
680;1.0664954767468309;0.0751219889400976;1.6231268769740137;1.101190523061834;-3.237210956180568;-2.574604087765146;605;1.2566370614359172
681;-0.6766898347080517;-0.9816666373731742;1.9368626379984943;2.3957403132109785;0.3144451056028714;2.3785660326606166;148;1.079615570043285
682;-0.3520618710349432;-0.6492848595365927;0.1734833262834353;-1.264787404545804;-2.173000379757092;1.8995077683423156;435;1.256637061435917
683;-2.760888077248301;-0.2230740622447143;1.671877110953382;0.2117316804153535;2.2009379827643145;-0.4418757151064673;241;0.696278135259844
684;-1.7789301697242588;1.251325402916264;-0.9371217359331164;-3.368426489244676;1.474448103205633;-0.4932186285009359;413;1.256637061435917
685;-1.1637762262748512;-0.2957100017829335;2.114429185946421;1.3114174664975506;-1.8848246852550543;1.9947245493942811;404;1.2566370614359172
686;0.0774204834180695;-0.990846623288236;2.123680584246612;0.8516579913090863;-2.5958356181998914;-0.760286059885905;127;1.2566370614359172
687;2.555000751701081;0.1371305359570506;-1.1577877822480742;-0.0551487574366978;2.2405386735813253;1.1073850391478277;329;1.2566370614359177
688;1.379232419216018;-0.7153843379976679;0.9535129966605732;1.720960848235911;2.506662519649326;0.2965390480068421;62;1.1882399338227108
689;-1.067290717317656;-0.353810161147134;-2.1704375289960844;-2.937516746425925;0.4127065208864862;-1.3485198326344945;881;1.0232891022155737
690;0.0097340511877596;-0.4093942327015942;-0.0002082178790188;0.6700438729121628;-2.379137708422662;-0.2711033150028044;40;1.0572876390039978
691;-3.401607399973851;-0.4343337636859543;-0.4486824722086738;-2.704024121790578;-1.4811725479044304;-1.349964251109942;535;1.256637061435917
692;2.0224065990484594;-0.0320016026699661;1.9502745067152096;1.0892220816565683;-2.545472501527356;-1.593124441065232;659;1.2566370614359172
693;-0.0996967687890153;0.4814305181297766;-0.0892602863203553;-2.444051986968191;-1.950431993740444;2.328623157950685;150;1.2566370614359177
694;3.189778388508972;-0.0981353861644101;-1.7004862570390566;-0.2240313561436069;-1.3619578297745167;2.506338797092807;362;1.2566370614359177
695;2.9236982967482623;0.3608419736500147;-0.8433856285670748;0.6953608182628926;-1.4366698516032204;-1.6250279899221736;599;1.1607873181901347
696;1.888895702416608;-1.3164057001438216;-0.8293391001304934;0.056236192801804;-0.0233872670763135;2.0621814291952623;292;1.2566370614359177
697;-1.5560310281227394;-0.9872999627992504;0.8355638568764738;1.233262919371992;1.7336853759613118;-2.316656420286807;281;1.256637061435917
698;0.1707750984314678;1.5029629794975834;-0.4973338899057635;0.6986328238104206;2.911772244455011;0.3452704969451897;663;1.181937499154763
699;-2.420794285110648;-1.1724112634992805;-1.1280193754640369;3.141053731382467;1.0957110709571665;0.0735700128486109;236;1.2566370614359177
700;0.8841919301296546;-0.9327822093608892;1.4518276119045237;-3.156325293926173;0.873593208049626;-2.7834248807669315;615;1.2566370614359177
701;-1.1099849561827837;0.0307884718962281;-1.306770608854172;1.0127094561057868;-0.0960344154616304;-0.1859389744096152;489;1.2566370614359172
702;-1.7434102351589489;1.2796059926672296;-1.1844207002041522;3.1552275573048973;-1.6841795565196391;-1.2395905680005004;419;1.1215602475876227
703;-0.1694050427151621;1.5365343110348917;-0.4552057474689741;-1.203032057495205;-2.1881551272484456;-2.754550731089937;301;1.2566370614359177
704;-2.4680337363233025;-0.0150519036304156;1.2614387590443927;-1.7199557650270372;0.1250317557343969;-1.527392124446895;357;1.2566370614359172
705;-0.6805927291143654;0.5029800438300853;-1.6707277938822394;-1.5643325816395783;0.0620820217688354;-2.7888198538113245;441;1.2566370614359172
706;-1.9554286531845877;-0.9196929338870072;-1.9608966118531423;-1.5124221868547876;2.6411853550449416;0.125680182974507;607;1.2566370614359172
707;-1.3228988177418968;0.800040621508803;-0.2608616523616319;-0.0507711874835652;-1.5442578895216652;0.7918164053400891;368;1.2517054723950471
