Komment314/test_diploma/benchmarking/path_finding_for_benckmarking/pre_rrt_star_results/12_4_tree.csv
id;joint_1;joint_2;joint_3;joint_4;joint_5;joint_6;parent_id;cost
0;0.0;0.0;0.0;0.0;0.0;0.0;-1;0.0
1;0.565932813174148;-0.2150248560435657;-0.8915941847030863;-0.3280330617876855;0.0022068913139105;0.5568395785494239;0;1.2566370614359172
2;-0.5717126673725759;-0.3538851781562176;0.5469651629480444;0.7673668907857871;-0.2449928771538978;0.4230865944605219;0;1.2566370614359172
3;0.4204366640777069;0.0879961835487746;0.4979841964057874;-0.6319360886303339;-0.2454376993293716;-0.8288879557086947;0;1.2566370614359172
4;-0.2250657999020557;-1.0879097728538476;-0.8563708396019144;-0.4371304950333095;-0.2858851237464187;0.2479870616930667;1;1.256637061435917
5;0.9686518471168784;0.2142299647960277;-0.2479548744664158;-0.6866609816152015;-0.317538459800345;-1.6643778830598626;3;1.2566370614359172
6;1.5843051150210865;0.0279467906164994;-0.7539286282323278;0.1560279156258632;0.0872531968458145;-1.8525693668924053;5;1.2566370614359177
7;1.2627646978655933;-0.3371945675157465;-0.336974396929195;-0.175825115282016;-0.757017284607783;0.970898599676444;23;1.14886333071401
8;1.6131354907905189;0.1996237003001264;0.0896705009872672;-0.2070344925318078;0.1244842595523083;1.4271422763181338;23;1.1853579594495032
9;1.420442842895698;0.4917667258682933;-0.3371238766040759;-1.7859692145986774;-0.0924709409583513;-1.8401898749029293;5;1.2566370614359172
10;0.2667481758834621;0.1375939166931313;-0.983121826828608;-0.1318432655401162;1.031266480940661;1.0662057274734615;1;1.2566370614359172
11;0.5998967716959838;0.0823338700564905;-1.4704446041293988;0.0701581334079788;0.1089633178562143;-2.1456203365001607;190;0.8917132919034746
12;0.4058433491380712;-0.3084949499366884;0.6876821100419948;0.4078702301468216;0.6604997366064856;-0.4936942726315371;0;1.2566370614359172
13;0.7181617257508373;0.3197355077625026;-0.4188057894610454;0.3766299185338006;-1.4188161934960446;1.288870998062148;7;1.2566370614359172
14;-1.172835238768234;-0.6598878596829445;-0.025969525954941;1.542509342432538;0.1123496491921144;0.6826189778017407;2;1.2566370614359172
15;1.321302958204616;0.0143666386750964;-1.0858431690443735;0.1363956705265414;-2.205417827514105;1.262155433987575;13;1.256637061435917
16;1.4459674075298297;-0.0743204116786233;-0.4772177799580877;0.896475438812654;-2.857974099868799;1.6884819278400507;15;1.256637061435917
17;2.190368042120794;0.4481221458154869;1.0579742445798497;-0.7025545899031637;0.1526024435118523;1.411493972512938;8;1.2566370614359177
18;-1.064091401997388;-0.307478177818707;-0.0444281474952919;0.6115993176197991;-0.9712705771506872;-0.234984369937288;2;1.2566370614359172
19;-0.3112374695240661;-0.3780410425962693;-1.2870580302987733;0.367268797570511;1.817752798594282;1.2045498327219284;10;1.2566370614359177
20;-1.501455314163015;-0.1300135089491061;-0.0553516430689967;-0.2028356306682128;-0.7530493248366658;-1.038297310890271;18;1.2566370614359177
21;-1.6800517835150963;-0.0925375877656889;0.318635079974113;1.231954093532284;-1.7675137679211788;-0.2885743068304536;18;1.2566370614359172
22;0.7353329664767863;0.6022608672508547;-2.0076007682839188;1.0030546510624694;-0.0631364105401341;-1.826216696804437;11;1.256637061435917
23;0.6219555842812969;0.231866296442604;0.0915939678597584;-0.3340547729356438;-0.1543508196782204;0.8546831535954023;0;1.1466822764345832
24;-0.7454050760068827;-1.457738044851664;-0.7963256681038479;-0.5119404684909463;-1.3567102136229328;0.1225180882769265;4;1.256637061435917
25;-0.9003128716263077;0.1204111363457056;-0.8638630915759923;-0.2984184985318784;2.187190729104901;1.67884339505197;19;1.256637061435917
26;2.1696377814828325;0.9730452775519416;-0.8731485689828874;-1.7473125371304123;-0.7934430068205225;-1.76249845203502;9;1.2566370614359172
27;-0.7534817665814812;-0.2299983868541214;0.8391397881949677;1.188643414069535;-2.199820245822917;-0.7805289587410713;21;1.2566370614359177
28;-1.4463086517929644;0.0618723046504827;-0.3027508372628053;-1.141124947059515;2.058496377512488;1.1930088955194829;25;1.256637061435917
29;1.33480974976211;-0.1754833747780212;0.4781039726965278;-0.2723294830644757;-0.2332066573885658;2.4653519750239523;8;1.256637061435917
30;-2.0321582317235363;-0.1450681050949159;-0.4578138062445598;0.6067494255939717;-0.2829215067188831;-1.5470610626678012;20;1.2566370614359172
31;2.5804328578449085;0.18627009561606;-0.7516032324420848;-1.9137291413700328;-1.5310664038511026;-1.309935868901662;26;1.2566370614359177
32;1.1291644148933715;0.1071405816721823;-1.2503104358111994;0.4199003397078502;1.640301038898576;1.3623706777348563;10;1.2566370614359177
33;0.4176649361235377;-0.8339053064592794;1.295645660264185;0.9838962758008496;1.1998631072517174;0.0636228563443025;12;1.2566370614359172
34;2.0536955350864754;0.7405710176290995;-0.2670817050798363;-0.6702016789255747;0.9384070653303244;1.1302361656238455;8;1.256637061435917
35;1.9829348257414807;-0.1204308840472171;-0.9485333746999548;-2.040364366056147;0.4682957960436614;-2.2075531270763697;9;1.2566370614359172
36;-2.4434356386024456;-0.464327467378793;-0.3712619283277114;0.3288756850720439;0.781027301448577;-1.8493340332023973;30;1.256637061435917
37;-2.2574886937312693;-0.1170060362279469;0.1947735055914995;-0.4218451170202608;2.3164307218431093;1.4332215331567943;28;1.2566370614359177
38;1.1522471811613535;-0.6542846779142114;-1.251107101757186;0.1607714691225392;0.5179453063804997;-0.0821106974609384;1;1.256637061435917
39;2.459277624092755;0.987284384197434;0.9563627160067804;-0.8319295104982237;1.088208506832137;1.9715894492500017;17;1.2566370614359172
40;-0.8443539612217714;0.2048014276548897;1.2889471884042598;0.8223128512686788;-2.4215510139753698;0.2175385528271464;27;1.2566370614359172
41;-2.3061310652637976;0.4181819434977273;-0.5858588097681046;1.0339629987273742;-0.0666761016172467;-2.517192980600756;30;1.256637061435917
42;2.543113400581254;0.7214307846548715;0.768332216707222;-1.9504700140189168;0.8123231692434443;2.344187200431536;39;1.2566370614359177
43;0.4092218544157762;0.8256423435924883;0.0547867823516545;-0.1444681023968194;-1.138196561411216;2.0970607555627367;13;1.2566370614359172
44;-1.464703730882827;0.3172630806287908;2.176759465799572;0.4921608330479014;-2.2962343154230878;0.7359399167344973;40;1.2566370614359172
45;-2.2756168170766697;0.1138298717694122;0.7037931551856165;0.250777814066497;0.7299381437880993;-2.077927179274536;36;1.2566370614359172
46;-2.1658879174105303;-0.2741081500278275;-0.0276212690101428;-0.9523376513274934;-1.007328883348873;-0.3384956190993241;20;1.256637061435917
47;-2.6524140280534345;-0.5549007435034695;-0.9046277447444532;-0.4862694440040863;1.519887485098706;-1.6693168895552577;36;1.256637061435917
48;-2.3317931000283405;-0.1198632725769519;1.5282355418662237;0.3121645712149927;-2.287332574492798;1.163902656050506;44;1.2566370614359177
49;-1.871254909354097;-0.1092045621033193;0.6793148222212657;-1.9103820784121144;-1.0136947170835513;-0.5564098596504221;46;1.256637061435917
50;-1.7816067652782612;-0.5031518242638446;-0.1421421927553889;-1.0223940953868735;1.6686223708651595;1.989762279124021;28;1.1217784711502228
51;0.5694210421222299;-0.0991876155966373;-0.1468997559008115;-2.059956978298661;-0.5989094109800334;-2.2115887580646625;9;1.2566370614359172
52;-2.067193530973098;-0.8298125872843516;-0.0585713631084411;1.1804361997744257;-0.0108322226345972;1.459183155652772;14;1.2566370614359172
53;1.7258955736597488;0.7472697634051275;-1.507521823739459;1.5431424693293485;-0.2313755986645618;-1.9087795142440416;22;1.2566370614359172
54;1.0488719173848498;-0.534696760864739;1.9132236606643591;0.4949803686501984;1.2862797626177702;-0.617023533535644;33;1.256637061435917
55;-2.062053572028507;-0.5264609593555865;-0.7647608636224487;1.844691622021905;-0.3188132128760559;2.131713383863969;52;1.2566370614359177
56;2.2014061332428674;0.6863840945453157;-0.2237651917866802;0.0423314554206634;-0.3290336242816447;2.22088965019544;8;1.256637061435917
57;1.085500923836274;0.6088762429113206;-1.854160423817421;2.273440164109844;-0.0199419115843789;-2.580851968700447;53;1.2566370614359172
58;0.4521362290161546;-0.4224866205427931;-2.0123815909250227;1.483181524789754;-0.2647497367415917;-2.2476859055069025;22;1.2566370614359172
59;0.1158764141963148;-0.1806471501825262;0.5065943066820867;-0.5227878609056886;-1.468368406930443;2.252615521807291;43;1.2566370614359172
60;2.4457807165510013;-0.1500800282025553;-1.2161385090375714;-2.617462121747445;0.9946951083602514;-1.3815502516390448;35;1.2566370614359172
61;1.269185657028847;-0.122582705796519;-0.2482345302418416;0.5375852311444468;1.8550775443700571;2.0276699830269007;32;1.256637061435917
62;1.8886116484706796;-0.2539369980964249;1.3925315398461295;-1.4918176814878672;0.5017313423678794;1.0394228207891152;17;1.256637061435917
63;-2.332127692908924;-0.60751533305563;0.9683011595905716;-2.5742278286231883;-0.3241412448641205;-0.2118360899053464;49;1.256637061435917
64;-2.032445372920245;-0.3920547080738062;0.692208118683136;1.534119941700747;-1.4819349638804096;-1.3146487137794676;21;1.2566370614359172
65;2.711927604066461;-0.0396071893969574;0.2229759390114153;-1.4163343858703703;-1.9089412288771197;-1.7232514872704456;31;1.256637061435917
66;1.7189028892719953;-0.7445794535670847;2.0618292875955726;1.2884109441010425;0.7295893161670819;-0.9700454770532304;54;1.256637061435917
67;2.7070304643745424;-0.6144206175780645;1.1657411059396754;-2.317672071918807;0.705571745152478;1.1054426747825083;62;1.2566370614359172
68;0.4951292201999245;0.2063446062843005;-1.04813573342525;2.298017882424486;0.5581624989653032;-2.2908835877037657;57;1.256637061435917
69;2.207382216628723;0.0659132261197813;-0.482941075418686;0.8937933199986449;-0.3860003693232386;-1.262849776035269;6;1.2566370614359172
70;-2.772830245557928;-0.0720086838139744;-0.425247885851162;-0.3432687035881074;-1.4382146739666584;0.3361739638494566;46;1.2566370614359172
71;1.7481484979418356;-0.5138309410547633;-0.3384060538838991;-1.0264012394371362;0.0013317704982365;2.5244078502709373;29;1.256637061435917
72;2.0892157071453235;0.6975571481930675;-1.4602745899728429;0.0711339928257889;-2.818397800463724;1.2122052678110793;15;1.2566370614359177
73;2.1761534811545564;-0.2387685747094976;-0.5390295857809418;1.1738495399578168;2.2349172817024163;1.6969515937779065;61;1.256637061435917
74;-2.254703843200182;-0.6052759907888546;1.2004199606355084;-1.3811301747889608;-0.4530752915663254;-1.1221522691538737;49;1.2566370614359177
75;1.9262165956429056;-0.4710106630184757;-1.3530819828509923;1.2951053573385654;-0.7377171942482484;-0.8506677046320625;69;1.256637061435917
76;2.360420347676952;-0.4064808710290415;0.1950810403965029;1.053530260605575;-0.9742477548149544;-1.9708716579935208;69;1.2566370614359172
77;-1.3739600584467568;0.2464363397147812;-0.7531654765839136;-1.064844036559036;2.8470476656261114;0.3507896582844831;28;1.256637061435917
78;-1.910215534438909;-0.1261976344947901;1.1707306703062108;0.7204734799468673;1.621950532508184;-2.469940750281531;45;1.2566370614359172
79;-0.6258672311576591;-0.0246786459264785;1.0017598313279952;-0.2613923436213546;-2.2360323155346844;2.5716805694130844;59;1.2566370614359172
80;2.350878972924399;-0.887899885498753;2.1065105848168555;1.5256185842205925;1.446302358516568;-1.736374857757293;66;1.2566370614359177
81;2.667233126423806;0.6250172437604324;0.2843093784233761;0.9425142789883656;-0.8908372598485517;-0.8054995102738776;69;1.2566370614359172
82;1.2082678787788224;-0.2993628197981162;-1.5724388783228125;2.7187241441354653;0.9727487277632516;-1.8537787152549663;68;1.2566370614359177
83;-3.0934616233200494;-0.4971104501147378;-0.6730486033476697;1.8485402494807184;0.19044321566156;1.6350196926541063;55;1.256637061435917
84;-1.9183237935601791;-0.0219086192273004;0.0564859661012838;-0.3972804620977372;2.717327682531411;0.0461719429851652;77;1.2566370614359172
85;2.5134529326652784;-0.9844416385387018;-0.8240630517503217;1.736907062504061;1.5291720605775656;1.5830073157055202;73;1.2566370614359172
86;2.271298175227684;0.7067138890426474;-1.8012800718703563;0.7715987844460186;-0.9298781840096688;-2.2412678594079565;53;1.2566370614359172
87;1.768481596130549;0.3982094524816758;-0.9702578056619678;-2.491477073820092;-1.642054512001441;-0.6163706551004862;31;1.256637061435917
88;-1.0444529412599712;-0.696128276959856;-0.2998107105822058;2.4108812521646152;0.8152106378498574;1.17074701902623;14;1.256637061435917
89;-1.4679390590443036;-0.7161881130431649;1.2988007905049002;0.5532593438193488;-2.353795162623467;-1.2205262346340162;27;1.2566370614359172
90;2.055698644122331;0.0202436564185165;-1.6960152009777691;1.101990645366952;-1.8846536987193736;-2.413245787603429;86;1.2566370614359172
91;1.3970958489638838;0.4426276920680926;-0.8307184733828732;-1.8928492410530369;1.3431981890640503;-2.550771974075825;35;1.256637061435917
92;-0.7182203849805385;0.5039212475624232;0.9110527320761896;-1.2560014374696344;-1.8499629298325504;2.952029295925989;79;1.2566370614359172
93;-1.540439968336553;-0.2358838742572493;0.5949135397970124;-1.0944915366355523;3.0280264140681536;-0.6735598631002271;84;1.256637061435917
94;-1.512657402932329;1.1773170158558146;-0.4018593461567914;-0.4657479599313838;2.7147127619974567;0.7906945168271355;77;1.256637061435917
95;-1.0337168302563002;0.5790991171578158;0.9466213267554584;-2.3716518261584865;-0.9109991536572796;-0.2260527966847296;49;1.2566370614359177
96;-0.8655010752546043;0.5534387558854483;-0.7551929256568474;-0.352743963681993;2.953712264966951;-0.2645258050107012;77;1.117972317004034
97;-1.3875686099542648;0.0036644186588615;-1.3881599702797718;2.445800499251461;-0.4094796001367098;2.4232525775426588;55;1.2566370614359172
98;-3.0199958940632508;0.4247787369225662;-0.5498847213890624;0.1480110798354293;-0.5078660559804308;-1.4518241992540333;30;1.2566370614359177
99;0.2990469427779206;0.847657714985833;-1.6321262477975964;-0.6139999533236754;1.1248623302396257;0.4247535444014594;10;1.2566370614359172
100;1.709827711789803;-0.9754504310767644;0.6287846593648463;1.80552644469216;-0.7536505333907686;-2.143728078052808;76;1.2566370614359172
101;-0.6097892841394512;0.1729452668406242;-0.9849243584282809;0.6773201384750187;-1.4647149252194418;-0.1370051374869293;18;1.2566370614359172
102;1.3175317778343465;0.208732011679533;1.3168937493570514;-2.1999528770519143;-0.2210723978374638;1.1359634625923862;62;1.2566370614359172
103;-1.586959441180764;1.4036806626685407;-0.6040831089164793;0.7007902326155984;2.4516549234929466;0.5638241146281335;94;1.2566370614359172
104;1.041512780006694;0.4430617524224778;0.4292811908826193;-0.9879933121778484;-1.2298748665242822;-1.884974912109392;5;1.2198948038585435
105;-1.053484024281378;-0.3549925292477136;0.7720669371353197;2.0531360976512456;-0.3059778635014314;1.3145454306508315;14;1.256637061435917
106;-1.9660917425598043;0.5828645294183216;0.9360439428783188;-1.7391947847539972;-1.335123850779039;-1.5012121844309314;49;1.2566370614359172
107;-2.491831713632719;-0.1547914674719221;-0.3280605952685306;0.4108919157406082;3.014843559180348;-0.5395183944887793;84;1.2566370614359177
108;-2.622553464034852;-0.2822015469054047;1.5359867901659867;-0.1278107721241914;2.062565696602804;-2.485245302184321;78;1.256637061435917
109;-2.337224681817701;0.1090126204976181;-1.4092453525507596;1.1128623925337915;-0.8832625077451906;-2.8799330377325902;41;1.2566370614359177
110;2.237764644824672;0.6217613703134476;-0.2924284592817411;-1.6446016523415083;0.751970482337565;0.3911264517791049;34;1.2566370614359172
111;1.5600339865335109;-0.3234341453957401;2.3001627925356924;1.1559142100235569;1.3073324462721692;0.211360133980935;54;1.2566370614359172
112;1.1066612964729403;-1.2976122671798298;1.326658914722684;2.493174650215876;-1.0864408655382438;-1.9414886285264057;100;1.256637061435917
113;2.4243161659718018;-0.0005319410447206;-0.4748871030911436;-1.3912395518680267;-2.619575315526321;-2.4319447273141552;65;1.256637061435917
114;-0.0622679771578718;-0.5642957067036992;0.2503692875821285;-0.6053440205884804;-0.3161541302438559;2.2648852311692185;59;1.2566370614359172
115;2.586260387504776;-0.2029911339968456;-0.6578434410589891;-1.5104807636627358;1.4788968926230146;0.703427909483516;110;1.2566370614359172
116;1.0836158135367542;-0.3859351930229423;-1.20876954636981;-1.6268001376702483;0.0561829784144775;2.511934193815068;71;1.256637061435917
117;2.3713227194574187;1.1469082735727645;-0.9409818025772698;-0.1467834340361993;1.0613825821130762;0.375313168135396;34;1.2566370614359172
118;-2.4157377247519305;-0.1837995670011155;0.6304091256612891;1.6021240225593738;1.3721783607469618;-2.904250372514611;78;1.256637061435917
119;-1.1235089306340127;-0.3905083737027701;1.4850833134891557;0.4899907663273586;0.8995360959921495;-2.0045948862157883;78;1.2566370614359172
120;-1.786498136948812;0.8827943904812177;1.4551839032279972;0.5976102305440638;-2.635138670266946;1.44946102525941;44;1.256637061435917
121;0.1255841457959161;0.3453870463508999;1.3329088387073256;-2.4369856497256164;-0.3749137533167134;1.3801248172070557;102;1.2566370614359172
122;3.058258348924092;0.4859758609730013;0.905879508284502;-1.5652987304565078;-0.2138286429899951;2.539276022340402;42;1.2566370614359172
123;-0.0143732286772035;-0.2338570835771343;-0.6621266979237385;2.640423359340475;0.6460977753233714;1.473758932564808;88;1.2566370614359177
124;-2.302404649626941;-0.8273650925814571;1.9844550585167195;0.6899879984851386;-2.925059189199733;-0.9853997299201848;89;1.256637061435917
125;-2.7417715830854625;-1.2183522672670095;0.3027594403169095;1.4796313498693994;-1.2634115641041714;-1.751493788660226;64;1.256637061435917
126;-0.2158492338824999;-0.0212166978319623;-1.1173505753740716;2.190343978059757;-0.0496564334419171;-3.088400970745649;68;1.2566370614359177
127;-2.536536499538516;-0.0707798289986231;-1.0646652235005996;-0.2677639784138567;1.910391473871081;-2.7207378539420235;47;1.256637061435917
128;0.8975146006383568;-0.9527030872342276;-0.6263196898505007;0.6825733655909595;-2.756271991380202;2.3430438444971453;16;1.256637061435917
129;1.1894704677925156;0.0588122275790126;-1.0703173045014358;-0.892620970415288;-1.1774207083260482;1.4051981754928209;7;1.2566370614359172
130;-0.1700307374890652;0.675662962963253;1.6139983383500116;-1.9586427460952232;-1.4110279226695308;1.34392327492;121;1.2566370614359177
131;3.0697496375249225;-0.8361746881869239;1.094944560656128;-1.5852323785561986;-2.0665393659681657;-1.776985410788024;65;1.2566370614359172
132;2.1552492394588305;-0.6599830503425447;2.3650066497649345;0.5432374259764615;2.0701049491075363;0.5989048189219941;111;1.2566370614359172
133;-1.394051342965109;0.4704310077793507;1.3422538393330024;-1.7546092206825552;-1.0218075431338396;-2.4890654099500664;106;1.256637061435917
134;3.347154457206682;-0.2676076794930196;-0.4217938855239339;1.6400988853775127;1.3547031820901396;1.9936115685997469;85;1.2566370614359172
135;-1.2083368295265735;-0.769729110935713;1.2349973903721143;-0.9459262721103584;-2.190615225594062;2.971326044152452;79;1.256637061435917
136;-2.1749506145808315;0.7954703402487434;-0.1415884707945404;-1.9451764729841765;-1.5837765233086514;-1.9753062874451668;106;1.256637061435917
137;1.649173224254306;0.6248599624401628;-1.5264730620807043;0.6794310116286174;2.2901271240407253;0.6733145999069001;32;1.256637061435917
138;2.9388434504219187;-0.9699366934403288;1.0407414746934651;1.06656964695363;-1.261106207333096;-2.3307071579976784;76;1.2566370614359172
139;1.153845020692701;-0.0909854097847954;1.97043512930595;-1.318360035946661;1.2967418716233652;1.1682623784197752;62;1.2566370614359172
140;1.5751701078732565;0.6394913373520229;-2.5116420615849973;1.0970257942020238;-1.800144223070021;-1.8725539504933533;90;1.2566370614359172
141;0.0064628381884131;-1.2596469561483317;-0.463064737255585;1.0356959761776774;-2.266017058371637;2.890082476726725;128;1.2566370614359172
142;2.2347180765668395;-0.2124290991866532;2.006655036152252;-1.5390746124853285;-0.3277094934357348;1.6641396787269769;62;1.256637061435917
143;2.9634389729036856;0.1177114779116689;-2.086581800025215;0.6184543999932679;-2.4134884578414524;-2.695430925614484;90;1.2566370614359172
144;1.9110730703095744;-0.9775822807400012;-1.0099702954356145;1.1737179052632856;2.834735750191389;1.0793303317865208;73;1.2566370614359172
145;-2.3557493462328702;-0.2883946419274484;1.281244955244469;-2.58355147000678;0.6342351847507093;0.4665698179361352;63;1.2566370614359172
146;-1.139479358975951;-0.6049687223253164;1.445479662023669;2.524859220947736;-0.7281170248747758;2.123893646699003;105;1.2566370614359172
147;-0.4370671270896166;0.1600916640776513;-1.6107187270139582;-1.070079156140467;2.6377384343426504;1.7608116491537396;25;1.256637061435917
148;2.2999181982381454;-0.2943520237664229;-1.2239613634573254;-1.1133438848323212;-0.606304909770337;2.7803889858363258;71;1.2566370614359177
149;2.6325977316515723;-0.6400752743344037;-0.45800679108769;-2.706294678432486;0.9459304187304016;-0.5335479839723445;60;1.2566370614359177
150;-2.2399224584461583;-0.5083955001895121;1.4886552009553935;-1.2175703859678038;0.5625354117406732;-0.4677548926103392;74;1.2566370614359172
151;0.945283738382078;-0.4669044793270979;1.6583085171700995;2.9187912263635285;-1.5920985103266254;-2.062236754246774;112;1.1302782123652773
152;-1.7460034193058511;-0.1887930393774633;-2.1026189553419306;2.6556641510303907;-0.3491577424053319;1.498326527378982;97;1.2566370614359172
153;0.3041611559532014;-1.1096693387268348;1.206661211410076;-0.8747340945176236;-0.3563128639561004;2.663327217752183;114;1.256637061435917
154;-0.6848306781350265;-0.0446131757036759;0.1379301726819932;-0.1890366600847125;0.2270448910590078;2.928559025126914;114;1.2566370614359172
155;-2.865634347218565;0.0122306809659586;0.3646756053218042;-2.3682540095417424;-1.3699791238179686;-1.8880075071790283;136;1.2566370614359177
156;2.2925612996925158;-1.0474075817590331;-0.228134003219253;-1.3731476939710912;0.8869514225210187;2.809595818145476;71;1.2566370614359177
157;2.2726664881517484;-0.197068192466796;2.360706376228597;1.686618956972901;0.5845530408934709;0.7089544918181784;111;1.256637061435917
158;0.0972849093061445;-0.5260938201309691;-1.8914809213559456;1.1746543029388112;-1.4187502845067033;-2.2786618720029765;58;1.256637061435917
159;-2.177424613512489;-0.6466286400036461;-0.0660765912251514;0.5568350120926722;-2.2277295565048965;-0.7459064201157402;21;1.256637061435917
160;-1.7962013013104847;-0.1598086482709572;-1.4265879460875617;0.1223205955266608;1.7449438124295282;1.5853847647465424;25;1.256637061435917
161;-2.167944483479461;-1.0823758136551749;0.7314421772523624;2.0120582014101784;-0.8298928045191727;-2.5105615141597357;125;1.2566370614359177
162;0.6693899057287469;-0.3146257087314271;-2.396482100324224;-0.2034305268337517;0.7777803984081121;-1.9532196746106671;11;1.2566370614359177
163;2.023631592692233;-0.6544111013520281;-0.378180374702652;-0.2282209133567923;-2.2424447415666053;1.3213555327605573;15;1.2566370614359177
164;0.077014795239899;0.1908680853953652;-0.1088920210417033;3.091881990265789;1.3780333152752715;2.060938910351601;123;1.2566370614359177
165;1.337520762624659;0.3091774779644481;-0.1226167764792873;-1.3688487330219523;-2.798943672473941;-2.8131583051952607;113;1.256637061435917
166;0.3655752045071917;-0.699932559583291;0.0708646640187583;-1.2120604725284063;-2.1706096619703423;2.5509945541911687;59;1.2566370614359172
167;0.5621801146096254;-0.6358348826245738;-1.6248653024230864;-2.3193292613543486;0.77874224382489;2.247420481866082;116;1.256637061435917
168;1.8274139705741876;-0.6093629255739174;-1.2283786810191062;-2.0078197250435714;-1.1687936609156482;-1.2019638882578647;31;1.2566370614359172
169;2.3479498553391838;-1.2410501267125988;0.6066511769442526;-1.4274023507364622;-2.5442346873230663;-1.142411465855815;131;1.2566370614359172
170;2.343873322942535;-0.0105146601590567;-0.7329376716079938;0.6615971236696444;0.638570015209593;-2.516438691308556;6;1.2566370614359177
171;2.639009151023169;1.247521282887104;-0.2279964474563914;-1.625259539439319;-0.4353927955785353;-2.6134814108534834;26;1.2566370614359172
172;-0.680372187916305;0.2577037254619191;-1.0547820778938406;1.4839232843555077;-0.6274720114877944;-2.418518390574654;126;1.256637061435917
173;-1.94063629304954;0.3572859005209572;1.5239716935658436;-2.8897561248506047;1.355930222325214;1.0290582239951602;145;1.2566370614359172
174;-3.004318715877475;-1.134000336624638;-1.0406599812090145;-1.3049997863696106;1.094708356440684;-1.1689749846594686;47;1.256637061435917
175;-1.6413734513629;-0.3149126476667191;-0.9844486622174736;-0.5138401965598273;2.8874502740292733;1.6037473135379083;25;1.1382564822178969
176;-2.324449754907275;-0.9506742998896978;1.155090800401544;-0.5953978281632091;1.265136860929082;-2.694536733777829;108;1.2566370614359177
177;-1.7780218814835833;-0.3810876594813325;1.51971233600142;-0.3576424524083046;-0.7699141283779247;-1.3497242716299778;74;1.256637061435917
178;2.1884281222234208;-0.325399276619531;-1.9141531643287604;-3.244241124064826;1.2664159246687898;-1.8042330954340835;60;1.108844696913829
179;1.7713392983045315;-1.212447450293445;1.0856207232272654;-2.2134580931102965;-2.0474388496995326;-1.5319461830847765;169;1.2566370614359172
180;-1.7532525133763897;-0.7421364568360341;2.4543524273682453;-0.0665767228787994;-0.2592727377878261;-0.8710375688419529;177;1.2566370614359172
181;2.476657624499619;0.6665628367163643;0.1516773031926735;0.7920576034566551;-1.0775328527722556;1.7313153664171153;56;1.256637061435917
182;-2.588044089971749;0.576129443192;-0.6563631824458427;-1.443479042710572;-2.499072383178125;-2.052249313438886;136;1.2566370614359177
183;-2.875808290031606;-0.8097832870754655;-0.938687514805846;-0.1228739037811822;-2.1688369113181287;0.7583325682121934;70;1.2566370614359172
184;-2.490028872022465;-0.9148892582275738;-0.9219268525876384;0.964897940719379;-2.7807568320116376;-0.2935599473785334;159;1.2566370614359172
185;1.916070846411321;0.2277194475247374;-1.4458138421587077;1.952280065296267;-0.191928739598303;-0.2569950938203745;75;1.2566370614359177
186;-0.4623981883991962;-0.917985887650806;1.9184246077348148;0.4208228128006577;1.431890167834305;-2.62738459555172;119;1.2566370614359172
187;-2.0049314379494696;-0.0728657636440042;0.96399218044079;0.8620545760273559;-1.9663607790196385;-2.1609886590579634;64;1.2566370614359172
188;-1.2103346446264016;0.8849450976309607;-0.4385860076340344;-2.5693566855674344;-1.5131913040212246;-2.372617569217417;136;1.2566370614359172
189;-2.766753681902366;-0.5793966150800929;0.502575678653046;2.115068897106654;1.483278762580306;-1.900442450765937;118;1.256637061435917
190;0.7288603536003987;0.3794884627285815;-0.6680173155912688;-0.0072136315609836;0.2756087396752552;-2.257751944601019;5;1.1944990015051729
191;-0.7893845646014895;0.4823837179496806;-1.3447882328409184;0.6405957104543379;3.2536004256403626;-0.6440187814745723;96;1.2566370614359172
192;1.2723225260528233;-0.0439340558952504;-0.4525652582751484;1.4435945241016737;-1.4340040397797909;1.290636814582162;13;1.2566370614359172
193;-2.78486276768094;-0.8626045738940612;1.5590260537204277;0.8193131120643131;-1.5531939207100132;1.3223093436031097;48;1.2566370614359172
194;-2.9227890297738943;-0.0339190125244053;-0.1257168559944806;2.611705165104177;1.1788904917062473;-1.177121949004102;189;1.2566370614359172
195;2.739156813606392;1.1518207269595802;0.3491398412198466;-2.1946638982845013;0.6628832246487781;-0.1786671754120826;110;1.256637061435917
196;1.0259241931894767;-1.4372167288010578;1.926119564831659;-2.0939857956513164;-2.35911639803778;-1.9257951007463416;179;1.2566370614359172
197;0.5615604996062422;0.514448329369453;-1.1298740337779951;2.855997432187704;0.0634020475106858;1.761303696837799;123;1.2566370614359172
198;-2.766119374723327;0.3491637408465044;-1.6976028817914388;1.9133580957915048;-1.4133261400889263;-2.303215952820431;109;1.2566370614359172
199;1.389491712182577;0.0984260515113889;-2.054603493870815;-2.7274404142259483;0.7137884074857955;2.237199026233305;167;1.256637061435917
200;0.1444935027023574;-0.3849764320421053;1.453002098816157;0.5265534992870218;-2.051884004560556;0.2669163586896036;40;1.2566370614359172
201;1.7510671621964504;-0.4619379436372429;-1.2277545759398;0.4423499404104586;1.4137089002142456;-2.877244999268525;170;1.2566370614359172
202;-1.5910205784820113;-1.2624058964431797;1.7366093865806322;-1.911403391195508;-0.4997725097323418;-1.4908962191843993;74;1.256637061435917
203;-2.2669026189642807;-0.9772945396354028;1.9857328134024237;-2.515717032274114;-0.6368441827560472;-2.262249305401354;202;1.2566370614359177
204;-1.763160749872191;1.0527793118139372;-1.228638286440069;-2.4414221322977325;-0.7775698014442775;-2.6249325110305337;188;1.2566370614359177
205;2.319172048061904;0.656623391147134;-1.9647395879275733;-3.0165698700242087;0.7824594040645568;2.791148335921913;199;1.2566370614359172
206;-1.15553378897139;-0.0945228636016091;-1.3202817929748818;0.6680211489178843;2.2860187536199703;-1.0619700149107454;191;1.2566370614359172
207;2.5517722818087445;0.7431872885948049;0.4569223930150802;-1.2776028841514666;0.3873403712357537;-0.84836905556941;195;1.256637061435917
208;-2.0043258971645592;0.7651899703242824;-1.0061308526874988;1.857769912452743;-0.7529453562419355;2.3276960827771718;97;1.2566370614359172
209;1.2425903758220316;0.5824084045831028;-0.1254154654439488;-2.990223884890096;-1.5844649254555252;-0.3299959444526094;87;1.1654719328699363
210;1.1681959943177505;-1.3461958495056758;2.449429641875768;1.815396814572102;1.3975129954564445;-1.1696604777227562;66;1.2566370614359172
211;2.0303962455497198;0.7378682579532656;0.2776498953456729;-1.4062841076550512;-0.3796850296595013;2.647534893236141;122;1.2566370614359177
212;-1.5942023592828731;-0.0077450769709986;1.130785614537586;1.954760421479337;0.6662442938811597;-2.892035759420001;118;1.2566370614359177
213;-2.827518190311032;-1.0314614409813103;0.7658753938778179;1.084276906970684;0.0592395239422198;1.9754309082034744;52;1.256637061435917
214;-0.0344257328304513;-1.217649926050728;0.7944254302861351;1.1853523547912923;1.6393884893714803;-0.7980626813808386;33;1.256637061435917
215;1.1616173158350849;0.390505290641759;-1.3488556901229205;2.7309227599173296;1.692899594509326;-1.1241987674756269;82;1.2566370614359172
216;-0.7902432925867656;-0.5094038393332364;2.461868549668736;-0.4168368067069272;-0.6089508870191422;-0.2772597929601073;180;1.2566370614359172
217;-2.028805972605122;0.328605792647248;-0.9532808725365106;-2.3187993167959924;-1.5572613934366646;-1.2400007010301486;136;1.256637061435917
218;0.5912221876976671;0.9021231078236012;0.9272313127122782;-0.3276920668368649;-1.802010221666113;2.649133414114038;43;1.2566370614359172
219;-1.5017096698744812;0.7527187667162092;-1.956774172463058;2.2798641911367783;0.2842248338931284;2.0073880621015743;97;1.2566370614359172
220;2.38216037498919;0.6811858014604965;-1.526355570042338;-1.9848488721873057;-2.286576122628423;-0.2406919603788289;87;1.2566370614359172
221;0.2431918210669835;-0.1521007179664599;2.140018235539452;0.8559973874326777;1.0169643721975536;-2.917307494610807;186;1.2566370614359177
222;1.6658660536120298;-0.1436143930826;-2.172655248977846;2.203410753849964;-0.1128081778782361;0.6267584509912929;185;1.2566370614359172
223;-2.8163963375469745;-0.1779746004557758;0.9591265221909234;0.3102034458562999;0.5201199558622798;1.9350982007265407;213;1.2566370614359172
224;-0.2957811161413283;-0.2732415863840221;-1.6526771927197808;-1.2372688092693234;2.332516734997884;2.8781853926345424;147;1.2566370614359177
225;2.667093953117808;1.0807557816339528;-1.3141743282146254;0.1632998021696152;-0.3793501011719999;2.1966954887113874;56;1.2566370614359172
226;0.5361652562500125;0.2151662155903085;-1.7412905318709804;-0.962829488428381;-0.2549138533749104;2.823213531807009;116;1.2566370614359172
227;-2.4197257351239383;-0.0845004435745403;-0.1473331255749432;1.0963084958480929;1.6259850730860144;-2.4432391843553734;118;1.0712412143847811
228;0.4895372219126606;1.0265823413981827;-0.971546635994648;-3.1859716982427053;-1.5089039375820832;-0.5640740047602895;209;1.2566370614359172
229;2.3573047731419154;0.7078465937464616;-2.0911168171106755;0.2151640293737534;2.764661704727;1.2312125865453902;137;1.256637061435917
230;0.7002158990028786;0.8069863264751539;-0.4757439352643008;-0.917816503219968;-2.958722833085929;-2.057177271990616;165;1.2566370614359172
231;-2.8571836242895063;-1.1145870521300811;-1.1662752943216397;1.2768043109038154;0.6427799803262366;1.0289925014364558;83;1.2566370614359172
232;-0.4561523648578075;-0.4741132177035625;1.48996784134119;2.5560731116898747;-1.230848140373726;1.2077137076974584;146;1.2566370614359172
233;1.170529255586029;0.8923661736216888;-2.216626794645325;2.736077160306743;1.0740599253735992;-0.6869606837553786;215;1.2566370614359177
234;1.8742089990308173;1.0401850652681297;-1.257840460367455;-3.199503080076929;0.0163065234642552;2.453711143278354;205;1.2566370614359172
235;-1.7553851956402935;0.2487876511165018;-0.7364622971544902;-1.153060089083002;1.375711234660392;2.7360525957638804;50;1.256637061435917
236;-1.0479204702648206;-0.6114520372590404;0.8819260448151429;-0.7347675064026465;0.7430359859741925;2.8369217638723736;154;1.2566370614359172
237;2.5279012429367973;-0.7406899966479846;1.7140075868722688;1.539669904208366;2.2004721404441163;0.5899321294303033;132;1.256637061435917
238;3.0873169872495647;0.4869851595997529;0.3772974806301833;0.582068737063639;-1.839884061177956;1.0257627097656503;181;1.256637061435917
239;0.3237618821122425;1.1120602592136304;-0.070724254361969;2.9131033139091747;-0.094751672274957;1.8853059829212369;197;1.2566370614359172
240;-2.498485677387153;0.2485455861840378;0.7366886431442328;1.2813324732472908;0.9982754214725968;2.208863062516004;223;1.2566370614359172
241;2.665584186636434;-1.1095426360322045;1.1005190296445004;-2.584809258432351;-0.3107310304036052;1.5785024699672443;67;1.2566370614359172
242;2.7043252717609034;1.1451502323469156;0.2205512368794197;1.84500156017461;-0.669710286988782;1.867346287224899;181;1.2566370614359172
243;-2.548539996417361;1.028664501358058;-0.4495251327829225;-1.1748294331670592;0.8682028519638441;2.697807785799846;235;1.2566370614359177
244;0.7167839829979619;1.1235451185320178;-1.1024092454974086;0.1151649183134981;-2.920582120042436;-2.1892302600832885;230;1.2566370614359172
245;-2.5056612589945457;-0.2641705329635378;-1.9401397556432047;2.212366864186791;-1.2577442154982663;-1.322051731764223;198;1.256637061435917
246;-1.026506492742568;1.0044268432989785;0.3180431878640559;-2.742267389506593;-0.0039579682818562;-0.4333954023584289;95;1.2566370614359172
247;2.525575986014478;-1.3733828379931194;1.792257746263835;-1.3740051835847211;-2.830551600122642;-0.9434588429223538;169;1.2566370614359172
248;3.0933672095226097;0.208976559656294;-0.6485038925834455;1.3798825685659415;0.301468487241999;-1.0694772175085523;69;1.2566370614359177
249;2.9878131894480964;0.9721260599461276;0.9207728884263244;0.8977185150057254;-2.479782346951237;0.2981612475084381;238;1.2566370614359177
250;-3.15822202137282;0.3566349241547544;0.739565787847983;2.4626483585135466;1.831663195203598;-0.759831348309278;194;1.256637061435917
251;2.622550907109709;1.0227907473886555;-2.1536820963337084;0.2619935551767109;-0.5133302468329255;-1.3477037701411925;86;1.2566370614359172
252;-0.7155975365557213;-0.2684840089160575;2.733905305423155;-1.098997869591024;0.3759647197415043;-0.3554639230004552;216;1.2566370614359172
253;-0.1523925316793389;1.3155325945902616;1.0341123878127405;0.1751557038053302;-2.531557665174786;2.891512317005727;218;1.256637061435917
254;-1.7840502095357644;-0.0038128133442526;-1.221549880776626;-1.1509527564552469;1.508643690725758;-2.514873792635792;127;1.2566370614359172
255;0.3174216331437439;0.7344921065210287;1.8803888681940988;1.0601814804042138;1.8289271807990544;-2.7787519173941324;221;1.2566370614359172
256;-0.6313075723567727;1.4858742661588582;0.138599523168886;3.238048099027252;-0.674065477572205;2.090810453195986;239;1.256637061435917
257;0.0148367735788016;1.0138359323782946;-0.2805461663578325;2.9304236619513526;1.6380480408474578;2.941196216897938;164;1.256637061435917
258;2.674707623456159;0.3403385645379041;1.3863377768799146;-1.3977455561846632;0.2345417668516624;-1.555576154349139;207;1.256637061435917
259;2.7287205428824666;-0.9001175798990863;-1.270841337292952;1.0473468595347537;-1.4622709249407115;-0.4533448295691338;75;1.2566370614359172
260;3.1858604773681645;-0.3763831541370912;-1.3250833482162296;1.5281371485625734;1.1600057630506455;-0.9640719481051248;248;1.2566370614359172
261;-2.783799352394968;-0.8302747112574533;-0.5167552613158403;2.5188030501306207;2.021395714868798;-2.056325882579865;189;1.2566370614359172
262;-0.4023564425665966;1.1554215754269674;1.204885466922249;-3.200123779325094;-1.040335222421892;0.0302260298974382;95;1.2514936332106112
263;3.264127084735448;0.3389580795977474;-1.1002867844560824;2.139721705206824;0.7108734678194425;1.7110715492749915;134;1.2566370614359172
264;3.183003230856264;-0.9766656043311835;0.328959242718016;-2.876257011737056;0.2492013704762737;-0.7046132948476802;149;1.2566370614359172
265;-2.002251586165537;-0.0244838775060665;1.5883793618046156;0.3188744599018953;-1.491132652598089;0.5642575934414346;44;1.2081521020234005
266;2.881825118347056;0.6561561030593595;0.8730359539348118;-0.0095036488043041;-1.0495731307358394;-0.3015320903349954;81;1.2566370614359172
267;1.0743795201811552;-0.7891656018934425;1.1182548567595232;0.0944044007892367;0.5347827226408014;2.440606469443922;29;1.2566370614359172
268;-2.5148859472642333;1.4090642862427474;-0.1004118195846333;-0.6167549310061022;2.421592237650544;0.2237955016702746;94;1.2566370614359177
269;1.0127172355383338;-0.01520364361253;-0.3804062766426744;0.6326481166788959;-3.4338760860762507;1.3216305275463331;16;0.8581496807031112
270;-0.0192336227306977;-0.299600145040739;0.1388006553100703;2.221543276665078;2.0705462347512293;1.885158993427686;164;1.2566370614359172
271;-2.2141689988257984;1.0146029199555495;-2.170351515161072;2.807235078469924;1.095381361676774;2.15314420214426;219;1.2566370614359172
272;-0.4881575521287641;-0.4664547402016057;0.0430975375973095;2.765914897111789;1.123343374944751;0.2335482827194624;88;1.2566370614359172
273;2.4024647343778724;-0.6439805878382642;0.1981084755174545;-0.1448195405909067;-2.4485373604475784;2.3479881661296003;163;1.256637061435917
274;1.085595910187552;-0.303737841390855;1.6846886807830537;0.0890772926283519;-2.635165683271988;0.5856350964702404;200;1.2566370614359172
275;-2.579513110478989;0.8418264410004347;1.1494187480434823;2.713897611638017;1.0334321418667691;-1.1347225884303538;250;1.2566370614359172
276;-1.079106679389407;1.0777356309465114;1.397884780799145;-3.1571395441953936;1.712851935959449;0.7080119614168208;173;1.256637061435917
277;-0.3489884525659666;-0.607707484481496;-0.7289157426902534;-1.851817748068844;-2.0911633006886703;2.6201337240122307;166;1.2566370614359172
278;-0.8987383779843661;0.0832973894398671;1.5926581420554102;-2.408874982548784;-1.888192487292716;1.8600380041328728;130;1.256637061435917
279;2.4117484418960347;-0.4146444569933607;2.0895667125325352;-1.5571010533302234;-2.9827293084653066;-0.2349915272936269;247;1.2566370614359172
280;-0.919459107954988;-0.1642322689717181;0.0705995219662261;-1.6939884238081724;1.202550793389358;1.9034433257838248;50;1.2566370614359177
281;1.0595847008874208;-0.2170332508995949;0.5155698229819761;3.1758953491147848;1.40657869472447;2.2833886951221385;164;1.2566370614359172
282;-0.2793302935729101;0.8470739905496507;-0.6884008156567651;0.3199770998007992;3.342389601934853;-1.4468002567769225;191;1.2566370614359177
283;2.3029022198228013;-0.1240716281249966;1.6514893105817152;1.0369774477612002;-1.5290258195394404;-2.2142674277616186;138;1.256637061435917
284;-0.4938612997044895;-0.6786955072524936;1.2484706177052205;1.3951648191580377;1.5665117185625732;0.7104366164251417;33;1.256637061435917
285;-1.2670567997675493;-0.5803918411094267;1.6363076262661922;2.1212648620567984;1.954342235344808;1.0893699678534423;284;1.256637061435917
286;0.3912761858490838;1.252237484832499;0.0056868711499586;0.8783073895172266;-1.6859629308206951;0.9734650252749442;13;1.2566370614359177
287;-3.0902856471587112;0.2824431900150483;-0.9891170192642972;2.5900600860193057;-1.810376417978159;-2.8965746773163112;198;1.2566370614359177
288;-0.8577048385833463;-0.4444247958155763;1.9674221850657672;2.7655384710836497;-1.198316174719952;1.7731471330729662;146;0.8829677733774491
289;-0.3360240257981474;-1.2121217226549847;-1.326004607347646;1.318421403057366;-1.0219651112785653;-1.6283735717722352;158;1.256637061435917
290;0.3285194457961767;1.032118012209482;-1.3171701311550887;-1.1975389903100673;-2.552577667221813;-2.719821645886878;230;1.2566370614359177
291;-3.013847596151208;0.4529527926655229;0.3790487500482166;-0.8474210894491775;-1.8192294477140307;0.7825234061001786;70;1.2566370614359172
292;2.7397741595122898;0.5344976529946642;1.74140825560258;-2.297397390915137;-0.0174900836217799;-0.8219299343068919;258;1.256637061435917
293;1.2965287664094158;-0.9576793947462816;-0.989080191195636;-2.5787758460594605;0.1423052567902624;-2.303457034237171;35;1.256637061435917
294;0.3995879707008194;1.5574345440352138;-0.2516655149106918;3.0747353092740406;0.6581986756181436;3.333419428565542;257;1.2566370614359172
295;-0.4883481657188596;-0.9098590745064546;2.4001302680083163;-1.8787933350246495;-0.2110876716922546;-0.1273955142559549;252;1.2566370614359172
296;2.826138046182672;-0.127999033444685;-2.297067688596397;1.76935792207104;-0.2622284669916299;0.7071016477658434;222;1.256637061435917
297;-1.1446648758194975;0.1487356710954597;-1.8788059589732904;2.487728476539613;-1.1509693985322682;3.2639607606888426;97;1.2566370614359172
298;-2.6736621040284145;0.2649787207677688;1.5174128548777568;1.0699492114141484;1.4841127273449954;3.019991171919038;240;1.256637061435917
299;2.231190751144142;-0.4972971542857001;1.1063828633202797;2.3448587177573845;1.8453943230520875;1.126814263591304;237;1.2566370614359172
300;3.316632084441314;-0.1895068329594185;-1.9991058701448865;1.3266382701440356;1.8783199963705224;-1.6825628914579147;260;1.2566370614359177
301;3.005390078012148;0.3510982176321301;-2.218554890677878;0.8064203891657056;2.137362670810522;-2.5792923230032674;300;1.256637061435917
302;2.706215505570405;-1.465328962970465;2.162309606926055;0.2747977941076093;1.5194286563876471;0.1399924827425919;132;1.2566370614359172
303;-2.1751096477777407;0.4379838212940993;-1.918925743669977;2.397093948065141;-0.8164961362670407;-1.6049624073224078;198;1.2181665548120308
304;-0.5040615997006225;-0.09192722008915;-1.106559638275087;0.2840364620033134;3.387767490041892;-2.131418097277306;282;1.2566370614359177
305;-0.7123901229450437;-1.4858167417845254;-0.9998286156279292;0.2233386538440248;-0.8891611999648217;-1.8267228030214928;289;1.2566370614359172
306;-0.3047849864852136;1.2291278760998052;-0.4323821563621807;2.618777472835146;-1.0593839357352013;2.568710073492187;256;1.122011700472613
307;-1.908275174403244;-0.5017583058406906;-1.9426649225625836;0.6862164840150875;1.8229945761217872;2.5123371057099457;160;1.256637061435917
308;-1.8639139336497088;1.081738946295475;0.6034791515116795;1.7237597473612432;1.4946772216178887;2.358338218184548;240;1.2566370614359177
309;-2.587627561229274;-1.2871663175215942;0.9046261304659448;1.5542979443100096;0.825780160775335;2.7681781037234394;213;1.2566370614359172
310;-1.0884390765103005;-0.0110258723805976;1.2216701637860865;0.7195829034742478;-3.065035652637214;1.6462303702059602;120;1.256637061435917
311;0.1604397261436529;-0.588481577086237;0.6287126262615799;1.460774042332166;2.5661090869129177;2.516851642162974;270;1.2566370614359177
312;2.736026932494001;-0.3318467818740011;1.0697529590752064;-0.8671313633014902;-2.5387678421442432;2.063725195334696;273;1.2566370614359172
313;2.836018289636875;0.3387217558554077;1.851674188149658;-1.754817952572333;1.249711874975621;-1.978073419117175;258;1.2566370614359172
314;-1.1203361208901146;-0.4788365796956221;1.84601752703656;-2.7399999947359603;1.0895987673750325;0.9287055033178256;173;1.256637061435917
315;0.8222488898722669;-0.7291746837768422;1.1185449525546;1.1804763781859793;-0.8181235738790706;-2.453533326515677;100;1.2566370614359172
316;-0.785700811340208;-1.2312339459543655;-1.2835704922867364;0.544310226086009;-2.22653876374942;3.075980223385581;141;1.2566370614359177
317;0.2321079087115391;1.1187463606061578;1.5632702294446847;-1.5744449422028088;-2.263282824500514;0.7569150936348843;130;1.2566370614359172
318;-1.9133526554854288;0.3703420451232408;-1.012537487906651;1.2545519109572911;2.02919646895373;-2.8670815159907224;227;1.2566370614359172
319;-2.955449204974117;-1.0113082143324763;0.6708586558674442;2.932637281289085;-1.1248820679774068;-2.384992635870929;161;1.2566370614359177
320;-2.409311904852883;-0.3090216288366715;2.0126323087676625;0.2863225353765981;2.047675455732152;3.0735005289351776;298;1.256637061435917
321;0.3188511592065172;0.1755851178541277;-1.1022499555504617;0.6019723487406797;0.8097875902620539;1.1138022594519592;10;0.779841809551461
322;-2.1626114730673347;-1.1089820170100098;1.2775099704749753;0.4914026261745489;-2.617795782189081;0.5573032276397744;48;1.2566370614359172
323;-2.240678599816692;-0.7145094762980202;0.1395313464986911;1.6055426775106223;-0.8339741009942979;-0.9886651012024484;64;0.991972565919996
324;-0.4468784167084855;0.636723205554703;-1.1366398704341123;-0.430574266090915;3.1266987171188205;-2.1495653728874564;282;1.1734422847325836
325;3.1037537731864564;-1.1852905589500995;1.593022346238382;0.7551641349018736;-2.0111303072649527;-1.5951527427837051;138;1.2566370614359172
326;0.5214752931719209;-0.1203866226356119;-2.5689594526589765;-1.1667393308714185;-1.093372619770857;2.6316488359785035;226;1.256637061435917
327;3.086831830225134;1.30037324826304;1.034825578036901;1.1710880138451474;-2.975881253233209;1.3601088792670477;249;1.256637061435917
328;-0.1169672941347538;-0.6804571139580536;1.9598601358811465;-2.241806482918728;0.0937888094700402;-1.1122923054676666;295;1.256637061435917
329;-0.9332654360961516;0.0584252036610235;-1.9440871139863785;-0.6336707461667767;3.2267371141838126;-2.7017509217064783;324;1.256637061435917
330;-0.0895719480398601;0.1547067436841558;-2.379223457119012;1.1510840040646508;-1.510310874764088;-1.3654805485648596;158;1.2566370614359172
331;0.6436073606741524;1.5362268473674745;-0.7653894991325453;1.4854636798259102;-1.848262389852942;0.306174173935685;286;1.2566370614359172
332;2.326990431321548;-1.0699642717652518;-1.5290442544703835;-1.9202054138394649;1.213303616476514;-1.0866401828280063;60;1.2566370614359172
333;-1.9904399813555396;-0.5095818436522667;0.6478708095117686;2.058936821184154;0.6135223510726056;3.2328237913676823;309;1.242096334136511
334;1.720577405611558;-1.2834388797635676;2.6153351883734635;2.6688909366394187;0.7209398546266208;-0.9322895407366528;210;1.2566370614359172
335;1.9393859780221556;0.1191978376646027;-0.7245846816412743;-0.3420738126774703;0.2640155829362856;-1.3591234577579552;6;0.8112394086674941
336;-1.922984377149626;-0.9587781510578332;1.2435777219695157;-2.758984189068483;0.1056541857785795;-2.80927505788863;203;1.2566370614359172
337;0.6658163385141949;0.2204917044412199;-2.69758603604659;-0.3937016603891458;-0.2693879692250864;-2.216554088175516;162;1.2566370614359172
338;0.885785019184866;-1.0866873156520795;2.4609994492840634;1.7599761759712544;1.5244409775529544;0.5339655106933231;111;1.2566370614359177
339;3.064837714668992;-0.1873133658900579;0.3840526064800525;-3.2011160601590083;-0.418659720958056;-1.3270998739017092;264;1.256637061435917
340;0.8850333301414524;-0.2911186004858388;0.2481145264748366;-2.811310078171743;-0.2426729818996434;-1.4400863747297592;51;1.256637061435917
341;-2.462799279143818;0.9030832952133192;1.9393270359101151;0.3341862007830694;2.319974836977996;2.9145479840112483;320;1.2566370614359172
342;0.8746328526517031;-0.5945476599726405;0.8948846662426793;-2.874068679722082;-0.3143069093444798;-2.4694442642784824;340;1.2566370614359177
343;-1.8148234418532856;-1.0619923563330824;-2.0235765385925184;1.732904465353191;1.697693270568065;2.884813211610609;307;1.256637061435917
344;0.1102757288810871;1.1729709601803615;1.454854626742497;0.0939971849892425;2.1442694600104137;-3.1392118139187954;255;1.2566370614359172
345;-2.9997355338167884;0.8606626365665023;1.2133777614929977;2.87489173151043;0.5521658715619463;-0.0667488378788926;275;1.2566370614359177
346;1.2203535150131923;1.0955358450844248;-2.027901214517085;0.2195221487310925;-2.828478676223363;0.6451889555962081;72;1.2566370614359172
347;0.240200133137263;-0.0596472820525886;-1.3671656681683408;-3.0658425375810503;-1.891165345435556;-0.7055084690179887;228;1.256637061435917
348;1.866576555434054;-0.3022417053541962;-1.0399870266743618;-3.227233895161974;0.4429861023403601;-0.4103201709534496;149;1.2566370614359172
349;-1.0364432881853696;-1.4200707237663526;1.5457921925005889;-0.1810557040290449;-2.8275388750077384;-1.49041681810562;89;1.2566370614359172
350;1.0885122185923914;-1.0910307621960504;-0.9969918321039428;-0.2611417661096591;1.848460880389562;-2.9623247686984726;201;1.256637061435917
351;-0.9902404388068746;1.512664184449287;1.1468336290607954;-0.7185246818837695;-2.6812453384958728;2.8243586466834163;253;1.256637061435917
352;-2.8184495894584654;-1.024465120553298;-1.4040664962749054;0.3909643421041928;-2.4199998903035373;-1.169496979535441;184;1.2566370614359172
353;-1.8653919838638695;-0.5665212849862996;2.1703373080005486;-0.184616649827311;-1.5154095295088603;-2.076431478324255;177;1.2566370614359172
354;1.913673436121332;0.7501788683049218;2.176767757845269;0.8148343458396461;1.484406986455764;-0.160814206299132;111;1.256637061435917
355;-2.852778269492788;-0.8704871150488283;1.5483675842621407;-0.4066488381654081;-2.7546720319057543;0.1734656425356943;322;1.256637061435917
356;1.703737958151203;1.4878035900695217;1.3093385002889288;0.492706037211386;1.1378374433125948;-0.0397235097674312;354;1.256637061435917
357;-0.2972782666317657;0.1034400121478537;-1.9609343750210968;0.0133315958745091;-1.6620505894740805;0.0732920001531767;101;1.256637061435917
358;1.803348854034348;-0.1650160640996739;-0.8784762126055708;-1.809912814089638;-1.7781891572533828;0.2606764664206298;87;1.2566370614359172
359;-1.3484348410742109;0.5948147418006478;-0.400583204928932;-2.443312870086724;1.0401083452345066;1.998713064573752;280;1.2566370614359177
360;-0.3402233131556854;0.9911587173165478;-0.2179187778515468;-0.5264632070356287;-1.5670923076561645;1.331663583287746;43;1.2566370614359172
361;-0.1113562573851731;0.921163009634214;-1.3697164856561403;-0.1263513620576057;-2.14614892900687;-2.0462722174192454;244;1.2152126642728789
362;-1.1566276174784038;-0.0540368997732146;1.0522725830898756;1.000012754517008;-1.5512913327950977;-2.973425901274627;187;1.256637061435917
363;-2.993088700224985;0.6252415849275885;1.1489505100817938;0.8821883776648266;0.2761398336933869;-2.0707449773847637;45;1.2566370614359172
364;0.5005978509987015;-0.243379752644178;1.9219504076404128;0.3055172566570056;0.0882330396677149;2.689859977467399;267;1.2566370614359177
365;1.9075769519976469;1.773401963391717;0.8105125527013621;0.5799587666794451;2.2325704082065787;-0.0059698624704414;356;1.2566370614359177
366;-2.8098258670194007;-1.2280562655698533;1.784356554190106;-0.0630278633567605;-1.3164543515450693;-1.8614787490084344;353;1.2566370614359172
367;-3.14856933432187;-0.6774685099552908;-0.6961961290484693;2.3093801177754703;1.1586214275537496;2.262150119658123;83;1.2566370614359172
368;1.5476181349130256;1.7845424297414476;0.8378705366005267;0.5203311171918934;0.5247496340936277;4.3368086899420185e-18;356;0.8443501306018343
