Komment314/test_diploma/benchmarking/path_finding_for_benckmarking/pre_rrt_star_results/12_5_tree.csv
id;joint_1;joint_2;joint_3;joint_4;joint_5;joint_6;parent_id;cost
0;0.0;0.0;0.0;0.0;0.0;0.0;-1;0.0
1;0.7159413214092681;-0.2890752503365997;0.1846399489916419;0.2712582463485747;0.6736555325175141;-0.6492422542076915;0;1.2566370614359172
2;-0.4667959655294462;-0.6778430853042492;-0.2922678311117865;-0.2095498494580161;-0.8788830172066592;0.0;0;1.2566370614359172
3;0.6568212944837899;0.6159550457043941;0.2470083754087403;0.1996203734537277;0.8169825224191538;0.0;0;1.256637061435917
4;0.3866387281333046;0.2323700422656104;0.7709363535866612;0.666344875858757;1.3321654587866345;0.7754062707796379;3;1.2566370614359172
5;-0.8382295581935091;0.4298617833569593;0.3280622329883088;-0.6235943670602626;0.4174043325872142;0.1449331533812864;0;1.2566370614359172
6;1.3860915547926966;-0.2187230015775617;0.3246736985943332;-0.6936024761607102;0.4320155345330033;-0.9900213270248128;1;1.256637061435917
7;-0.5861981738650879;-0.4968651163632174;-1.1832948349691492;0.4149493148753859;-1.4684353313719063;-0.0250306328945689;1050;0.984852401652121
8;1.4844652097730338;-0.5222424031618862;0.3082478814026656;-0.5823642119835477;1.330103622283801;-1.8012730319811454;6;1.2566370614359172
9;0.5827398232551464;0.1281037327213051;1.5256233157123669;1.437170052982521;1.446858519092505;0.181326108859053;4;1.256637061435917
10;-0.3898639242849833;-0.4485037359714672;0.6348960643563814;0.1475115229692359;-1.4955790890005558;0.3913845555799423;2;1.2566370614359172
11;1.2255919135716908;0.0450238026697982;1.0919257134435627;-1.572501285640702;0.4710951678239959;-0.6419578223912193;6;1.256637061435917
12;-0.7181890559444271;-0.5340180828715143;0.7883441522534625;-0.8989210151004254;-1.5481372499791777;0.9767877293616756;10;1.2566370614359172
13;1.4006436990130269;-0.542829179914482;0.0871470883823619;1.0123593319372344;0.1295785375276272;-0.2120090806101879;1;1.2566370614359177
14;0.1565503130182273;-0.9859314821835848;-0.0761503437748443;0.5486667778175746;0.4446071254058802;-1.4129041906089892;1;1.256637061435917
15;-1.2277090037500826;0.3075272717834171;-1.5166181148664688;0.0255658715185392;-1.3541508960904398;-0.5197716137893933;7;1.256637061435917
16;0.1426641505801014;-0.4583539759139813;0.1481408218988724;-1.3150638016747085;-1.6740631402418924;1.459955351471932;12;1.2566370614359172
17;0.039127309212808;-0.0745040537029879;-0.7327979086809753;-1.214157899371254;-1.0447035749027809;1.9485733548584767;16;1.2566370614359177
18;-0.347295900307244;0.4345232564383528;-0.5240476693975771;-0.6838768907871655;-1.028409234984746;0.1625774737455826;1050;1.198499713709685
19;-0.4038335487674616;0.0152496291940862;1.237346472428622;0.9493819759978906;-1.9279682157161;-0.0221021981802212;10;1.2566370614359172
20;-0.2621284669243477;0.5482449513777147;0.0232757004428894;-1.2500352268284862;-0.5184721549182989;2.449284195335641;17;1.2566370614359172
21;0.6833672392284651;-0.7287556856516307;0.6781898085451118;0.5190973803104626;-1.6782753422544625;0.8102426460156232;10;1.2566370614359172
22;-1.8127185844332228;0.0989436576275768;-1.777745378110181;-0.2550019824817583;-1.018696869078452;-1.4861867409696734;15;1.2566370614359172
23;-1.0307505756859257;-0.173045742263331;0.6371455025300151;-0.2733261578986092;-2.064710951973236;1.795361258887053;12;1.256637061435917
24;0.772993248663779;0.3811206821779488;1.0892909834538909;1.0803942608445392;2.0054601100074074;1.6010138560392002;4;1.256637061435917
25;0.2169372925549662;0.0966640870283007;1.8179228877471312;1.8967741107837672;1.41421810185453;-0.88946632424355;9;1.2566370614359177
26;-1.3895932872519157;-0.5389271934946268;1.0035966301286254;-1.4766098294355872;-1.5487480522668238;0.1117613745777358;12;1.256637061435917
27;1.4373692077137408;-0.0869727327505354;0.9281025551812868;0.2389249824675625;2.0067099458384594;2.030636977112149;24;1.2566370614359172
28;2.511451829887052;-0.4631202350036892;1.2242433971184288;0.4850987101492325;1.7317351663945444;1.7855160892340347;27;1.2566370614359172
29;1.7796080645569037;-0.4036508645216414;-0.2970399664129765;-1.4669583051383546;-0.1986427525243086;-1.0780335518555062;6;1.256637061435917
30;-1.632191294021563;0.200499256908678;-0.1265349581878267;0.2145251833895703;-1.8483565726998703;2.2534593983573368;23;1.2566370614359172
31;-1.600148139335613;0.1627634026836646;-1.0583945345906065;-0.376685807529747;-2.396747127756895;2.494417981779594;30;1.2566370614359172
32;0.5660108589439421;-0.1973664533364095;-1.3142497649682947;-1.5259714704238023;-1.631985703915617;2.660065446608603;17;1.2566370614359177
33;-1.1863056537048196;0.6542078342720761;1.1885898634815462;0.9100250868578388;-2.48051887252857;-0.521469919754231;19;1.2566370614359172
34;-0.5961741018764821;0.411371150542351;0.967120073397382;2.1859097397262457;1.3241531709565306;-0.9475136841088332;25;1.2566370614359177
35;0.2311775107150173;-0.2587251024600719;-0.9005933377237434;0.7576385082656233;0.920632265398784;-1.1050681977093504;14;1.2566370614359172
36;-1.141596164826314;0.3618084053370627;-1.3532680386711544;0.4723712940894433;-1.235176949005858;-2.0371105163818;22;1.256637061435917
37;0.1729458240515113;-0.487681146947313;1.3807849475897482;1.4920727722352969;-1.7839209649309204;-0.8330802414949302;19;1.2566370614359172
38;-2.245466308395762;0.010682946470457;-2.1651650033105527;-1.2179567236635345;-0.520909423617006;-1.2434770006795743;22;1.2566370614359177
39;-0.6765005264380767;-0.2264629676820166;-1.5457358372323693;0.8447845418173138;1.3023031332349115;-0.675253688283532;35;1.2566370614359172
40;0.5760164546638913;-0.1340364389833499;0.7952783431292598;-0.9053750685564506;1.4428385792433602;-2.3001816791871303;8;1.2566370614359172
41;-2.069408132750987;-0.3194383410290903;-1.378021243238986;-0.318916467257448;-1.4076328445840214;2.700737264400007;31;1.2566370614359172
42;-0.1385271670829539;0.5844573960907576;-1.1820158722133427;1.426293243859166;1.1331327503982231;-1.5051234127121784;35;1.256637061435917
43;0.683862791721382;-0.338123671679425;1.1908367629645005;1.0576117114250745;0.6522981954039638;1.3867211620742077;4;1.2566370614359172
44;1.8867408569541988;-0.4773911344650385;-0.2426134774300887;-0.2246491246873448;2.178036314968727;-1.286587497020968;8;1.256637061435917
45;1.6194352483555718;-0.569859267492705;1.4489854890570024;-1.8897080449501071;0.0960225213410902;-1.4648500633290964;11;1.2566370614359172
46;1.3110159230126488;0.5542793652896074;-1.3076544599316515;-1.6239231511963943;-2.241199781933503;2.9399813256837595;32;1.256637061435917
47;2.2916307423345166;0.0523259941480718;0.6436340483544103;1.2715585739937902;0.118512640142295;-0.4445701990447377;13;1.256637061435917
48;-0.5983241731518271;-0.2025034515732046;1.2776961196083343;-0.8480579196684315;-2.789503838118856;2.1493809406763185;23;1.2566370614359172
49;1.4010640242340855;-0.0646411239364755;0.7098265624215169;0.1891333050859922;-2.2816327686563938;0.4241305913529302;21;1.2566370614359172
50;0.5446856909717205;0.8707814523756588;-0.8288921896929662;1.8863736478802409;0.6897145627308816;-0.7998678369947763;42;1.2566370614359172
51;-0.6103210926652165;0.6040498939653569;0.800920146894173;-0.9242272208214496;1.5021076484529536;0.2242863806841461;5;1.2566370614359172
52;-0.2812661074951935;0.5022851480613076;-1.382355303996728;0.526941922266956;-1.161674453899419;-2.9371152619969707;36;1.2566370614359172
53;-0.6108883822833044;-0.4479250582505759;-0.8233092467379672;0.4948600786237025;-1.8264348693816876;-2.141368257987305;36;1.2566370614359172
54;-0.599132351191443;-0.3342842292663751;-1.4603579447988388;-1.7250229057392117;-1.6109649390041734;3.0361247238670144;32;1.2566370614359177
55;1.9637590451768483;0.0258480930886424;0.3236589377277512;-0.7674094642495131;-2.6525958752511443;0.1947627889075718;49;1.2566370614359177
56;2.4748736201645105;-0.0851102258710762;-0.9075834556149676;-2.1802795884835886;-0.4266232133990413;-0.8316422434309945;29;1.2566370614359172
57;2.353614837215745;-0.7278662636482439;1.0240432534576616;0.8636160403745551;-0.2686517366846507;0.2664643910308598;47;1.2566370614359172
58;0.5813064460139193;-0.0250348679712757;0.0249454307683864;1.2449993604788845;1.644470962058969;1.896295219595326;24;1.2566370614359177
59;-0.0282658561787417;0.1070908884385355;-1.1882099205812444;-0.0475332150503836;1.5736411132232049;-1.57470544735287;35;1.256637061435917
60;2.218403530423878;0.4362446729448683;1.3871369344727622;-0.0296314641013602;-2.422254900758489;0.7899506371617037;49;1.2566370614359172
61;-1.484553388061803;0.7666406029396609;-0.0952694647796465;-1.4143809185641618;0.2587008830662138;-0.3222310110564064;5;1.2566370614359177
62;-1.4195236065566317;-0.115336829957431;0.9845132977684397;-1.520676972972811;-2.3723875207432616;2.579278131542873;48;1.256637061435917
63;0.7003141184867782;0.6855988447962172;-1.6028484884765597;2.465997779998256;0.8797855659890803;-0.0585686900010482;50;1.2566370614359172
64;-1.9095360049480623;-0.1958414445401193;-0.8844615510690064;0.8907476272228606;-1.3515338027760888;2.511467703292248;30;1.2566370614359172
65;2.246145707556506;0.3731904726125873;-1.0530499798439266;-2.6522023713990057;-1.4601329136449983;-0.9006842069697663;56;1.256637061435917
66;1.4998281292349338;0.0590139272663566;1.0919983015509025;-1.3773101625758108;-2.5968613059152474;-0.4356134914304181;55;1.2566370614359177
67;0.4047247407532551;1.0143935300672131;-0.5266145158504985;-0.3977855069752558;1.6470020652916513;-1.6265782416533572;59;1.2566370614359172
68;-0.4980263543685722;-0.0437053072594724;1.9157701507914684;2.488298651146495;2.229375890867122;-0.7335736330265777;25;1.256637061435917
69;1.469067958486099;0.4979597999914889;-1.9498919277225464;2.677018132004102;1.0620306925774048;-0.927340122931377;63;1.256637061435917
70;-1.1150452972050136;1.3902754361274134;-1.0527760643146866;-1.6786746046828724;0.4066288413339766;-0.5346629961431892;61;1.2566370614359172
71;-0.956324017588465;0.0646029593159332;-1.9509506267264776;0.1072044403459715;1.8780280087964167;-0.0617118559167495;39;1.2566370614359172
72;-0.574120255346469;1.115561673953123;0.0814462215164396;-2.1097457661925887;-0.0641761303074349;1.9898512128182315;20;1.2566370614359177
73;0.1666814827178388;-0.6067659801361815;-1.397691039029331;0.1337698809024583;-2.150324989533392;-1.5216215463277458;53;1.2566370614359172
74;-0.5487788142871072;-0.6202098696003682;2.183046913711675;2.058226440716831;1.3405116320445516;-1.1782361306508853;25;1.1612202547026012
75;-2.317144698911375;-0.3050731696301778;-1.5129722929338725;0.3422622501212193;-0.3581398342749168;-2.032351968799409;22;1.2566370614359177
76;0.8819178643902561;-0.4516540205774747;0.8773566616719071;-1.7363638845992757;-1.3376511203421313;1.9184018733362629;16;1.2566370614359172
77;-0.1649879952290301;1.2060799610083015;0.572264991106483;1.0327699936244266;1.0215907978904222;1.0131863355429;4;1.256637061435917
78;1.4381932209043136;0.8661767150963426;-1.2045716145515986;-2.67777655602601;-0.7105186830380577;-1.2133816786198026;65;1.256637061435917
79;-1.2549892882221645;1.1161928443609517;0.2305244844072562;-1.3902744052450309;-0.4723219438229799;-1.1958058870757404;61;1.2566370614359177
80;-0.5336559887321912;-0.7518489485491916;0.7678219548783944;-1.999157676091237;-2.0910438464983976;0.5341849693572809;26;1.2566370614359177
81;1.1384818114563178;-1.0911304288961;-0.9350804912929472;-0.6011587935780348;2.1983636257383505;-1.4311070038590246;44;1.2566370614359172
82;-0.3063214719849237;-0.056052415644827;1.6233496128650915;-2.5018199677142943;-2.230213880050467;0.33579733055632;80;1.2566370614359177
83;-1.7223094279112905;-0.4717994512371053;2.018515805654435;1.9631421423291129;0.9985777676704894;-1.3422686696734236;74;1.2566370614359177
84;-0.6498018778068526;-0.2393042668060121;-0.5654137440448106;-0.6112756287482571;1.9644190074510168;-2.0377952067825897;59;1.2566370614359172
85;1.9554375011123604;-0.2343634432710769;1.0970358714433524;0.0514367270667164;1.723329665149585;-2.110999790682684;8;1.256637061435917
86;-1.490526664314303;0.1837694890062238;-0.8526243679565161;-2.027079884433784;0.791527546414094;-0.4026770387328538;61;1.256637061435917
87;0.8923529729465387;-0.2213925318330796;1.100906097883522;2.239965204730728;1.2228652088699816;0.8785283671455992;9;1.256637061435917
88;-0.0956092164937718;-0.3829351703261249;-0.3472812255249646;1.141072465266754;-0.0258881690045712;-0.0059514146695267;0;1.2566370614359172
89;-2.4491763426824744;0.0886966605334226;1.872067889508909;1.934582272053389;0.9544125045204316;-0.4982117567387649;83;1.256637061435917
90;0.8592490055163859;0.00962327908494;0.6141754317710224;-1.6373054774549771;0.703736027746282;-2.903078803176076;40;1.2566370614359177
91;-2.519227597939037;0.609110239538688;-2.32210223091312;-0.6487791002950658;-1.189107467020286;-0.6510285642110498;38;1.2566370614359172
92;0.1380941723959681;1.2139443368227034;0.977963287699724;-2.613947473642618;-0.0648389433469188;2.055008819142925;72;1.256637061435917
93;2.7116095310644006;-0.1819038324189049;-2.008988455437181;-1.8373129862894229;-0.0052255568777916;-0.7579621129983005;56;1.256637061435917
94;2.1631400515117862;0.0373184246367797;0.8182267310551857;1.0710065546609486;-2.487381125854641;0.819349102954038;49;1.2566370614359172
95;-1.6531800450702332;0.7341485258971395;-0.626485973428308;-2.798228160939406;0.6352406286228321;-1.163945492790893;86;1.256637061435917
96;-0.0920990580271389;0.2417623155000903;-1.8031572358294523;-0.5187447045608976;-2.5519244696085703;-1.319857317525884;73;1.2566370614359172
97;1.8936603984965557;0.5524998803716843;-1.570684396905769;-0.5939292384966475;-2.5689044314297065;2.986847172003201;46;1.2566370614359172
98;2.430313311071676;-0.9092309260242896;0.3141283095169668;0.8847823375496634;-2.596254658466652;1.3771585297066649;94;1.256637061435917
99;-2.811317685502128;-0.7777364767858763;-1.6277038589889854;1.3666850052791073;-0.1387459914348477;-2.060283845858456;75;1.2566370614359172
100;-2.144704981826686;-0.731113988732501;1.6068769093612152;-1.0205283636607203;-1.584808511003237;-0.5197047869925622;26;1.256637061435917
101;-1.250125954276956;-1.040215338279991;2.437759256654674;1.50253591107906;1.9264878068383504;-1.618470022893384;74;1.2566370614359172
102;-1.6651790217858091;0.0575012365478167;1.533900924527427;0.8490775087642567;-2.0846319753999576;-1.3665009643172012;33;1.256637061435917
103;-1.5398710279459245;0.0262425851515387;-1.2813452552526114;-2.2536728194044406;-1.4227474975350616;2.5700498556235187;54;1.2566370614359172
104;-2.1428374266050736;-0.649148111799399;-1.3912901170622116;-2.226166591129473;0.9084626071368744;-0.7438595842614315;86;1.2566370614359172
105;2.372056250892692;-0.0576754125383567;1.1832847062690266;1.3982626722013758;-0.8928711001777763;-0.3883532679762079;47;1.1627135272769007
106;1.9304284944260903;0.4331930899435288;0.367939236439074;1.0424364302062252;2.2500132615109334;2.2470778862153526;27;1.256637061435917
107;-2.797051229280931;-0.3949992561634341;-1.181539509115422;1.9850915318800304;-0.9207474857977817;-2.5495994862428777;99;1.2566370614359172
108;-3.1150690973494277;0.2223812145381424;-0.8818452892296886;1.1603471763799371;-1.27220941240153;-3.0004845391616524;107;1.2566370614359177
109;-0.2381625734451101;-0.7592931863849655;-2.2115743950477698;0.4186631042270216;1.5955875223148113;-0.0490330373532703;39;1.256637061435917
110;2.669897108710483;0.6495997206269983;-0.2750991248063563;-0.339981246961442;-2.5369765270306672;0.5647164542224764;55;1.2566370614359177
111;-0.8747741072680895;0.7032828757127092;-1.913690138879204;-1.3118562227921788;-2.571436059085832;-1.654418431284402;96;1.2566370614359172
112;0.1151845397773923;-1.2324268787690982;-0.670767381962533;0.4259307512468634;0.8697443820329465;-2.396413395012681;14;1.2566370614359172
113;2.9100437504842698;-0.6068277530361438;1.5239944626758075;0.2212369199179002;2.590465173552332;2.4945424381307437;28;1.256637061435917
114;1.4822472103270767;-0.2517666492217742;-0.4229009006236068;-0.0527961255061651;2.945388326255049;-2.1314242079638626;44;1.256637061435917
115;-1.307050757430715;-0.7281879214480377;0.8634444865173398;-1.3935810561253086;-1.6635289894049186;-0.9432688910497192;26;1.0933585038088944
116;-0.3172260443103444;0.5540584923822899;-1.1957935952790095;1.2664444392583842;-0.6527608813980736;-2.0800850175691807;52;1.2566370614359172
117;2.6405371435465117;0.1343100709572515;1.4475504285949448;1.311859256437253;-1.6640860088813618;-1.2817299695541269;105;1.2566370614359172
118;-0.4739663980469551;1.2353396317292582;-1.7259931755430369;-2.154937350873654;0.7486888326635341;0.0544863277263041;70;1.256637061435917
119;2.271106854783496;0.6965400146086167;-1.1443917412496722;2.3687656216374577;1.276637847205222;-1.2537291852333337;69;1.2566370614359172
120;2.5025478985116663;0.2540010482237956;1.98683159872228;0.0393778247217306;2.317840480289368;3.08652422951862;113;1.256637061435917
121;-1.6607463519143155;-0.0354809163911234;0.1159286015161254;-2.893535754056056;0.7312288776721357;-1.809912438065132;95;1.2566370614359172
122;-1.6929567483276502;1.0804638784501577;-0.256128803010095;-2.514069724146376;0.15572736288489;2.0076681828470635;72;1.2566370614359172
123;0.1376308466273482;1.1321576011228098;0.7646448747016263;0.6328246298751589;2.366235062964782;2.0199680676890583;24;1.2566370614359172
124;1.2596034295228264;0.0876132275809551;-1.195341303583128;-0.7647178574478796;2.325893866193216;-1.1775750924396733;81;1.2566370614359172
125;-0.5022811105020264;-1.1493610413914244;-1.415141387157844;0.8627786596486556;-2.1716864288470203;0.6054276500794965;7;1.2566370614359172
126;-0.8395512275340744;0.2797773787163308;0.0262826318789554;-1.2579750302771844;2.481665563098713;-2.525460478445044;84;1.256637061435917
127;2.5882451960493325;-0.288584140848956;0.1238635120121103;-0.5047960979445949;0.5628849701508652;-1.1797141300991612;6;1.2566370614359177
128;-0.2614281858237185;-0.1795432466355088;-1.7936830107390067;1.062798658883311;2.1604412802230133;-1.4230779728597716;39;1.2566370614359172
129;-2.7228027934316392;0.0461538905635351;-1.6359509726448005;-0.3029986294455997;-0.6791476987847733;-0.0424668626226905;91;1.2566370614359172
130;2.5281547939609164;0.5344713045277618;-2.180103201749332;-0.9860342534624764;-1.798973769575252;3.22829631826325;97;1.2566370614359172
131;1.7000648977587396;0.1621112938533093;-1.718033047419686;-2.493298457228545;-2.164420819624943;-1.4230860111669297;65;1.2566370614359172
132;1.9659531453913548;0.8351064892229001;-0.7998712031209139;-0.5784308747696253;1.7554350979063165;-1.1073044707243065;124;1.2566370614359172
133;-1.329891095600962;-1.0150955811321831;1.5493436194046726;-2.3395742437029203;-1.3174387632670268;-1.0489090438047857;115;1.2566370614359172
134;3.030237211509439;-0.3776290026774401;2.0891923169600504;0.2043587259744421;2.206538369331635;1.2852161521806913;28;1.2566370614359177
135;-0.9671538300891502;-0.3747676808963565;-0.4172795004217531;0.4648920705787176;-2.957369341726655;-2.095666880823569;53;1.2566370614359172
136;3.1464799738905325;-0.0729172754391827;0.7980387747819487;-0.0461825025398983;0.853604925428033;-0.4929524298493273;127;1.2566370614359172
137;-0.1964409366009466;-0.2724201857619513;0.654024490114812;2.7141456413807625;0.9081506340463562;-1.5812797185132967;34;1.2566370614359172
138;-2.231743746014267;-0.6506973860674679;0.682309612340978;-2.3124974259177606;0.8703404796348938;-1.366220709998259;121;1.256637061435917
139;-2.357705621165575;0.2239242447875011;1.2435398798201835;-1.9727962648157813;1.3026354112880747;-1.7917228993009924;138;1.2566370614359172
140;-0.9125065308418876;-0.2621656094865955;1.0103812949706985;2.077766324820876;2.7572932861349337;-0.4291800778933225;68;1.2566370614359172
141;-1.5586903507307;-0.4514607850375253;1.0536252760803624;2.356619531046529;1.7503095018705537;-0.6083588079518738;140;1.256637061435917
142;1.1381701958375487;-0.8459698702777708;0.8091911879478264;1.3626053459086107;-2.113850123021495;-1.0914855764227862;37;1.2566370614359172
143;-2.210564838497292;0.7201931652216779;-1.3730898436370351;-0.6222895352089493;-2.513528750383593;1.6442368590612666;31;1.2566370614359172
144;-2.527344652607328;-0.385409594069643;1.9715563827930491;0.9808985093965208;-2.6334529673674;-1.0066210291378863;102;1.256637061435917
145;-2.0860093343440567;-0.4096585158695572;0.8202196133083474;-0.2489707741938063;-2.012927838407676;-0.7850772352397186;100;1.2548379617106202
146;-0.1427584803821158;0.5139532290890191;1.9637461358232449;1.2216152110395613;0.9313677623767384;-1.6413818893880885;25;1.2566370614359172
147;-1.4395376161524651;0.7596424455596539;-1.2669080418820162;-0.5530061637746116;-0.3523695554879076;-1.9440037521465328;22;1.256637061435917
148;0.6932672800351106;1.096807208028334;-1.5959810565935666;2.5113516761238266;0.0952191874052455;0.8315696073053358;63;1.2566370614359172
149;0.7744094773467333;-1.117597028233875;-1.3200117697215532;0.7124725213784393;-2.913130131772085;-1.3602135879793384;73;1.2566370614359177
150;1.6743064326381465;-0.9654263164714408;0.3927833713643323;-1.642406119109464;-0.708492439634598;2.137068533280594;76;1.2566370614359172
151;1.8971912459792355;1.1496563706066478;-2.4123069795138448;2.7265547703238138;0.6990088712916572;-1.7166894330216695;69;1.2566370614359177
152;0.094705124179514;-0.5351688339755463;-1.2923807626705497;-0.3255904832866623;-1.4221670495758572;2.29306148637482;17;1.2566370614359172
153;0.5522388276808831;-1.1993157996497847;0.1967383381507096;1.4174893704509126;1.2796189208441997;1.812788018172996;58;1.2566370614359172
154;2.142276161642336;1.2446150095371102;-1.4399805244398718;-0.4441029924116672;1.3877533930917034;-0.2032160289051707;132;1.2566370614359172
155;-1.712875658420276;-0.3654678764787801;0.2517617264180635;2.510724110880545;0.811884229222858;-0.5839980075168634;141;1.2566370614359172
156;2.695130002662422;-0.0824710230390043;0.1375375045831755;1.2721043440255655;2.7698156923772275;1.6534180894946324;106;1.2566370614359172
157;-0.4669000909328502;0.81188244537455;-1.5795202923039735;0.5628463475945421;-1.937215652478132;-0.1831102747797836;15;1.256637061435917
158;2.555939712609158;-0.4744752977132895;0.2072969338670631;-0.7651642634977228;2.7740842719418186;-0.7560670608718401;44;1.256637061435917
159;2.346635429898525;1.2559280661474306;-1.5683371565800193;-0.9200641702889314;1.9108247788778592;0.8070452570566841;154;1.2566370614359177
160;2.359889551588659;0.890851717954744;-2.1519519190611187;2.0881019276201087;0.0337743400975319;-2.3332308854588413;151;1.256637061435917
161;-0.1664169760141932;-0.7646142671871267;0.193233909643098;-1.574816100149517;-2.15584832735124;-0.4300206325833279;80;1.2566370614359172
162;1.9707112584666693;1.0459640736066227;-1.1485800701865343;2.188616132761;-0.4273068411495874;-1.9159023707228693;160;1.2566370614359177
163;0.2265590051270736;0.3897697758373323;1.8503699839509615;-2.708582805373277;-0.2085425703026485;2.373359174086538;92;1.2566370614359172
164;-0.3025459802907808;-0.0946659445104131;0.9845577652630886;-1.4250801329095495;-0.7801292263139634;2.8247843397226005;460;1.1349553672481487
165;-2.763397397459897;0.0883744221138478;0.811157045510641;-0.1937939407052719;-1.6493250681931857;-1.643512859622542;145;1.2566370614359172
166;-1.2963092914192909;0.3323406827970356;-1.0258594810852133;-0.6993486991512424;2.3066741125846315;-2.7431186931580807;84;1.2566370614359172
167;2.317518059008358;-1.000090823591098;-0.5161849885645731;0.7098059327563623;-1.900515597809946;1.9721952164508572;98;1.256637061435917
168;2.4329570957917213;-0.8804199955205894;0.8205223261324628;-2.1981491080430016;-0.0961500124352855;-2.006919083687332;45;1.256637061435917
169;-0.065250267401929;1.468434780682657;1.084981291394182;1.6515467148405565;1.839148135893825;0.5816815242221913;77;1.2566370614359172
170;0.3666209343869889;-1.5762887759651336;0.3248729625317815;-1.7647723498305503;-1.571395852022988;-0.9211365752015512;161;1.2566370614359172
171;-0.2686517244261917;-0.2805926703324765;1.7356546316807546;-3.0630010121459748;0.6204237396769379;2.615351338949843;163;1.2566370614359172
172;2.727138658981154;0.5595898144603827;-0.0602505806409582;-3.100755779097086;-1.7369975496256655;-1.077163870788682;1686;1.2481774085277366
173;2.222273645002955;0.0556086557088065;0.200322757764443;0.944668319347336;-0.6677239145353742;-1.2525092205669934;47;1.2566370614359172
174;0.0828681505504986;0.728497094249313;-0.3398789792996244;-1.3682114651841504;-0.5599859796455987;-0.2244959326299587;18;1.06908363197686
175;1.006299679114344;0.9998856597912276;-0.7226387246625566;2.0332026052180616;0.3477379212768553;-1.249564290271404;50;0.7627442791361823
176;-1.0492714100479144;-0.6918647203044508;0.2999222492910114;-2.533215359393241;0.0219754756641052;-2.1380443690206694;121;1.256637061435917
177;-0.1663213389774048;-1.1749922108292217;0.8125956039838322;-2.065687914650289;0.3099945304694319;-2.179911395895048;1783;0.9601903876426232
178;-1.3539670621207465;0.3618057777867431;-0.1853606184601853;-0.124510936164673;-1.0547616862422922;3.106401011129992;30;1.2566370614359172
179;0.0551312791542104;0.3153231008322334;-1.8036482688144413;-0.607941213418061;1.661622355538332;-2.4847926869098216;59;1.2566370614359172
180;-1.4151773100095564;-0.6311999102667063;1.5145138979129866;-0.0984026374596476;-1.422641645498592;1.8892815171715005;23;1.2566370614359172
181;-1.7695772806017624;-1.3067127184151237;2.31253977768016;-2.299762845487932;-0.5154461669487074;-0.7777508609060382;133;1.2566370614359172
182;-2.8380052403040708;0.1221508310397058;0.6092994841548185;-2.6761320601894;1.0983468815457769;-0.7144985355572772;138;1.256637061435917
183;1.9257504956728964;1.6301856842371611;-1.1801496821352226;-0.9155969000124556;2.95722988252856;0.9345234859908788;159;1.2566370614359172
184;-1.157098514788908;1.2850728128612832;0.7478550610905315;1.7098575402232843;2.136986774188117;0.965895521406562;169;1.2566370614359172
185;1.4625356384354848;0.2278677925828147;-0.477849678426998;-0.7664229323373513;0.7843807128676368;-2.0588579933919804;1156;0.685532459667904
186;-1.412380915043482;0.4513596281391139;-2.1220282535901727;0.0333234628712245;2.3255150540689447;0.9315642792270094;71;1.2566370614359172
187;0.1733811855170513;-0.4625974156502893;-0.1048213713081256;-1.645382624572946;0.1787503935640129;-2.6435397813359267;90;1.246354329292422
188;1.335274538011514;1.4521551544541464;-1.780758598830862;1.8040606000773387;0.5182753402939303;1.4036808788108424;148;1.256637061435917
189;2.114082424223187;-1.0117785655035525;0.0012600266355648;1.355381223140751;0.0048473703865586;-1.0544044118079126;13;1.256637061435917
190;1.5953382649312873;0.2398967086619048;1.2543449803574898;-2.2690407614358152;-1.672285256671164;2.15095460373576;76;1.256637061435917
191;0.2913893979119443;-0.7469741000825083;1.1435989727460167;-1.1071393281965385;-2.9228957279077257;2.77243756831793;48;1.2566370614359177
192;0.2354063346368206;-1.2886376290381916;-0.3062014556765824;-0.9333433544052488;-0.6730545035632346;0.3828081744612728;2;1.2566370614359172
193;-0.5319013995995325;-0.4253404909994565;-1.9677415846529107;-0.7496854359667108;2.3721710478810816;-2.850920119459889;179;1.2566370614359177
194;-2.510417002450091;-1.1679333782891577;-1.7299291219769704;1.9901861817162447;0.8194772758461499;-2.197929440776088;99;1.2566370614359177
195;1.5948627291841488;1.1995743367240888;-1.963099148168976;-1.244414893620266;1.3935723677654936;-0.8059269726888276;154;1.256637061435917
196;2.0031940846297136;0.2694498059201774;-1.317068777156733;-1.496254058938943;1.627535354638398;0.9195703852139744;159;1.2566370614359172
197;-0.2994952127816603;-0.0304922461322587;1.4316339128930533;-1.000810914533947;2.3226328415452984;0.2786346993966935;51;1.2566370614359177
198;-1.4847905384923683;0.5100964500305561;2.200195128361542;2.8167169559856258;2.1776380848809613;-0.4060010283419613;68;1.256637061435917
199;1.9561688960429449;0.9564048983959892;-1.720471394301457;-0.6615510440018615;2.1147760487301044;1.9049471100786672;159;1.256637061435917
200;1.7412886886820722;0.2651456692467606;-0.7973837372024727;-1.8708688047515796;0.4896786850622476;-2.361003349240758;185;1.2566370614359172
201;-1.135591006852185;-0.4440190886147381;1.4298467009028897;-1.0913327323914506;-2.7275720820088014;2.0979138705498097;48;0.6601532315651876
202;-1.7718230997941296;-0.1671244524295594;1.7123734395808663;0.2238497152186906;-1.815403913796107;2.858465337611425;180;1.256637061435917
203;-0.2270818743006511;-0.1412489041901545;-2.304024205715673;0.7315089948879727;-2.3173099906790124;-1.4939606205478015;73;1.2566370614359172
204;2.409825342504353;-1.1588423070353986;0.9528193153550946;0.2154620591156696;0.415717092017646;0.9712335779395352;57;1.2566370614359177
205;2.3200425458679503;0.2278954011189592;2.3827992829028117;-1.0241036117774658;2.8180505727952028;3.0019447622612248;120;1.2566370614359172
206;1.0756526273146307;1.6237575819318548;-2.2241480717674285;2.466356016122141;0.2973254001729977;2.297122234289638;188;1.2566370614359172
207;-1.490677564796372;-0.5220152559984823;1.742260396668793;1.5161507316468923;0.5954422686073042;-2.38357801578242;83;1.2566370614359172
208;0.4295834708758513;0.441789807810429;1.748239289234479;1.2949337866286217;-1.974320185056284;0.5436276157887633;19;1.256637061435917
209;2.536439060345419;-0.8084691871140006;1.4525534331746857;0.5835353863490668;1.193947382692609;-2.582390463416868;85;1.2566370614359172
210;0.8583463283932815;0.1229085847120904;1.4485054649137206;-1.3048426173957803;-2.046301319805377;-1.2888954349721848;66;1.2566370614359172
211;-1.491065124501032;0.3964467330082859;1.576629650471287;-1.7832546146925314;-1.263856998314938;-0.3245355526266441;26;1.2566370614359177
212;-2.3548046971938565;0.0640666032162516;-2.1833490227218206;0.6157587024214101;2.2890619783856487;0.4881024881624082;186;1.2566370614359172
213;2.8555681559066306;-0.2015937261676592;0.8671303217431955;1.7732953570759384;-3.052078086370093;0.3417329095294364;94;1.2566370614359172
214;-1.7418257923909293;0.2007614182658659;0.2203883638713874;2.8779964801016398;-0.1875633949128473;-0.2334068706792487;155;1.2566370614359172
215;2.0933120007101897;0.8000388616713714;2.035884695607188;-0.954986000898129;2.687497019863427;1.9732511152415688;1176;1.2202301054024058
216;-0.0865772746479811;-0.6919888476042534;1.5452133044098495;1.5015696331467328;0.4738994001829128;2.0979389529457926;43;1.256637061435917
217;0.2406298756205963;-1.5434178903317333;-0.8148647583565802;-2.0551371421254223;-1.9760785946983344;-1.0440208904065975;170;1.2566370614359172
218;-0.0500505558423328;-0.1408044949487982;-0.0188061415467685;-2.5828778386810662;-1.981725116132916;0.5136036654672949;80;1.2566370614359172
219;2.158227256609626;-0.207486807698714;-1.3972717542969262;-2.9819689906943987;-2.019953531569996;-0.0678653978494042;65;1.2566370614359172
220;-2.605671560492239;0.2714168132613325;-1.3243152811948082;1.210508846524213;1.7038083066583938;0.6856369109979029;212;1.2566370614359172
221;-2.5162380225493743;-0.7844104213132705;-0.8923100630773546;0.497719960012097;-1.1456240393150858;1.6943356768910336;64;1.256637061435917
222;-1.5852435404741634;1.0206386924582391;-0.4079226724939021;2.459459033895795;-0.6979387159534443;-0.3284728317972814;214;1.2394295477912247
223;-1.1756141146931849;-0.6935403245071469;0.5452890568781807;-1.4786215294967209;-0.3605095697390712;2.530958067326389;164;1.2566370614359172
224;-1.0601820419513006;-1.0429725672544463;2.0916235466566877;1.9002306581428423;0.6399529158939261;1.9463726175151468;216;1.256637061435917
225;2.3829100155461083;-0.0422933433385179;-0.0902173325083244;0.3365579064576841;-2.13578967439612;2.502636691790866;167;1.256637061435917
226;1.1236709118382189;0.6952349699307921;2.1596337575912954;-2.375434513014648;0.4795928060302626;2.402612954359693;163;1.2566370614359177
227;-0.9011013049873832;-0.9463876996486696;0.9119165031031128;-0.6765006549121021;0.3749653245171137;2.878967728851486;223;1.2566370614359172
228;-2.185911097822526;-0.9773296666146124;0.0659469485884896;3.058866692252234;1.1704664535094578;-1.3033245635876076;155;1.2566370614359172
229;1.5172764789646909;0.814739828612444;-0.6324446368604834;-0.3550188088808811;2.045697231548808;2.194610775991019;534;1.188613187995006
230;1.0916206842040257;-0.3141418573878629;-0.5387403833810042;0.4911192590727572;2.9095975977909028;-2.3946731641046872;114;0.7323410885680888
231;-2.1195593427091075;-0.2571051227982326;-0.6157729982380703;-1.0368628199461682;1.792296402952517;-2.657804179882429;166;1.2566370614359172
232;-0.089286921916386;-0.850425262533693;2.2234337982343058;-2.206647828585027;-1.783589442882763;-0.1684877864685363;82;1.2566370614359172
233;-2.4448113110060667;-1.13318690417962;2.540175911716421;1.4059847528311438;1.1859447230305311;-1.29716466431552;83;1.2566370614359177
234;-0.9081764374131736;0.6054994414968171;1.068198016650941;-0.1223208832591903;1.8183765943619687;-0.5978447016626389;51;1.2566370614359172
235;2.068432157615121;0.7733775469360168;1.9467842777120443;0.7851673435434495;-2.546611059882064;0.1188172549339526;60;1.2566370614359172
236;2.063788247452598;0.5220306221653228;-0.3125406912609334;2.554358082941629;1.5896918696785378;-0.4283331474849583;666;0.999220135425106
237;0.0747299874976691;0.3413781267745641;-0.9652052656193792;-0.991424430230258;-2.459632892736707;-2.099135253366756;96;1.2566370614359177
238;-1.088931791112011;-0.8695022097205671;2.068657431367361;2.555267247673072;0.6645045859832184;-2.709034760487861;207;1.2566370614359172
239;0.3955830256915604;0.5511605293063165;0.6933577128594017;-1.498137631014164;1.4167830258339504;-3.254317952519122;90;1.0796718107177954
240;-0.1326399333038564;1.4929313181527548;-0.1385080548689047;0.6000766240910187;1.7847778454087078;0.5431541435119842;77;1.2566370614359172
241;-2.1751703086225667;0.8466902015870801;0.4583380948718694;-0.3847180591766615;-2.224805130082158;2.098975455563955;1137;1.1602574730764472
242;-0.3251297222765009;-0.1986701466590814;-1.412287704834206;-1.5828903144558923;-0.1940874043612647;2.279962029902885;17;1.2566370614359172
243;1.177813599530596;0.3039920593879825;-2.1253635517160445;2.828292307568597;0.6233567099604118;1.068570189141405;148;1.2566370614359172
244;1.0310225681381269;0.8951421672996427;-1.8842148758642487;-3.024905621167997;-0.1722689822031525;-1.9484894770521175;78;1.2566370614359172
245;0.7487273651938187;-0.4349276542570838;-2.5066246364414217;3.2744588663068743;0.5578113823258766;0.3612523245100689;243;1.2566370614359172
246;-0.5304050771510993;-0.9299534808306265;0.8753007694468427;2.1065346277921324;-0.0047529869041265;1.5672291807331489;216;1.256637061435917
247;1.237839965033904;0.1653217495956253;2.230572417737854;-0.4338591091676078;2.8560845624207616;3.1781566819474936;205;1.2566370614359172
248;3.3390962686956915;0.385515915059764;1.6356371495467024;-0.5160439680745451;0.3194116013436268;-0.1405728968178001;136;1.2566370614359172
249;0.6417308672190472;1.2140390720816654;1.5663364353870974;-2.903099973306104;-0.2815775297377755;1.1337493383150132;92;1.256637061435917
250;-2.88028560233893;0.3599115341408608;0.647660009753014;-0.2592725812086142;-2.266220891264256;-2.263550965671868;165;0.9399051538252567
251;-2.107637396454882;0.7226211376356622;-1.3663392463687862;1.1434396456536586;-0.7316717573199056;2.3848552900099405;64;1.256637061435917
252;-2.4397645140846937;0.7441517484365737;1.0214861674385372;2.0161144503029527;0.6050218258806157;-1.0433870873140854;89;1.2566370614359172
253;-1.2588519544546202;1.0343603128684988;-1.9479242466074065;1.1756734750731357;-1.1908896210437987;2.8445916118544643;251;1.2566370614359177
254;1.5864043326139297;0.1895437197647359;-0.9638249142971922;2.527662737209603;-1.098052423006489;-2.230548783772301;162;1.2566370614359172
255;-3.2267261981747786;-0.0905813974861317;1.5452305000247646;-0.921001558441894;-1.3796460264931838;-1.205316100409277;165;1.256637061435917
256;-1.2524610539430487;-0.0904946324066399;1.6671621047235918;-0.912448631931326;2.7125307968124983;0.9510115920246218;197;1.256637061435917
257;-0.478905974755514;-1.2598821220008167;1.8298419592129864;-0.0935954626809029;0.5430364219111998;3.182275418458804;227;1.2566370614359172
258;0.6921612478938052;-0.2388275505120407;0.0990722986022333;0.0952094228719708;-0.1132903084046284;-1.5017363795933651;1;1.1778944454561542
259;1.1380510192311548;-0.2029218002087043;-0.8194285249752911;1.2653512456033749;-2.779390545613573;-1.1701451400449725;149;1.256637061435917
260;-0.9968864658730022;0.9100725522558228;-1.568026355293955;1.4160795515461049;-0.1993936270350333;-1.2901719572128227;116;1.2566370614359172
261;1.8492743643916831;-0.729762217505277;2.0312372074464786;0.6432111972631157;2.649012237985559;2.4919195520323854;113;1.2566370614359172
262;-2.6131220826664854;-0.4278410317261401;2.1138766867167718;0.174323158639719;-2.560880724507097;2.568661648371536;202;1.2566370614359177
263;-3.096660463369021;0.9733935275058582;1.362685779686181;-0.808735159187835;-1.6733158269864274;-1.5999076667127008;165;1.2566370614359172
264;-2.179217625852603;-0.207779918151592;1.704048842568092;1.3926009009472573;-1.6087211329817537;2.8060522430996064;202;1.2566370614359172
265;-1.9159176184034332;0.1172258015608843;-0.7957068929016002;0.3661015007920143;-1.2361138586098397;-0.6177821858795411;15;1.081231735600718
266;0.1623355910432345;-0.7642124300554342;0.3721498389818254;2.5286739545494927;-0.5124447336439346;2.1858272692859733;246;1.2566370614359177
267;1.6569085277767943;-1.0775403903715746;0.480907064684577;1.1605841891396518;-1.6253113498850706;-2.023778017209497;142;1.2566370614359172
268;0.3110228627017335;-1.1813998990079524;2.5106924263996047;-2.1894286438800408;-0.933381919301102;0.5412147692488941;232;1.2566370614359177
269;-2.921326984843505;0.671749936445302;1.6024211505153143;1.7356014031868416;0.6662799245450519;-2.0036301241201757;252;1.2566370614359172
270;3.0070806860388504;0.9413741866282312;1.6474234740077198;0.8354080378216707;-1.4496453608543096;-0.5885559226520736;117;1.2566370614359177
271;2.4437082424154983;0.3082688029493058;-1.6581159335671094;-1.8473185644064267;-2.0841830931854046;-2.182988036068674;131;1.256637061435917
272;-0.8774659550483146;0.3012304666253971;-1.674720841306049;0.4786220640212538;3.0793443793618325;0.3803560538993853;186;1.2566370614359177
273;0.932121697973994;-0.0118058519416557;-0.7241644035746198;3.215650283006534;-0.777793220438133;-1.5424515228083924;254;1.255163430380667
274;2.6052233036917984;-0.6822494232567893;1.2613618420807544;0.7169851029995168;-2.7448452865996598;2.118465580902336;98;1.256637061435917
275;-1.5954610742023652;1.232757023413761;0.6107488593753418;-2.035759689078209;-1.311949365466227;-1.6240960050415176;79;1.2566370614359177
276;-0.7924444636534569;-1.49736888401775;2.364205269898039;2.359062512206892;0.4360938571014641;0.9591587102728452;224;1.256637061435917
277;-3.324146808907509;-0.2703544546029894;0.5789465310937315;-0.2839932441016307;-1.3814334805144357;-2.7070679341925987;250;1.2566370614359177
278;2.065256275979333;-0.168711332433207;0.6932701036412183;-2.022926510428907;-0.0358627587087073;1.8145450051032728;150;1.256637061435917
279;2.3607166287939685;-0.8396420284330952;0.5321417227825459;-0.2289367292906802;-0.3724937314031309;-0.8541686558510299;127;1.2566370614359177
280;-2.6570958815007377;-0.6832717552731125;1.1927170733237578;-1.035826767237651;-1.487251922936914;-2.8096037789015607;277;1.2566370614359172
281;0.4398600209104943;-1.1937973362591108;1.1379327191485895;-1.811657349087393;-1.592384582517836;2.751760584759294;460;1.0956387952235955
282;-0.0690879775283615;0.4516368265365623;0.1569069699071707;-1.309185745494808;-2.289298723496856;-0.4033953222942822;161;1.2566370614359177
283;2.775944672754902;0.9208663558197936;0.4368137414530079;0.2913473321447593;2.464265130804647;2.354927262405303;106;1.2566370614359172
284;-2.276682142325376;-0.8226689303819036;-1.9421486733716196;0.9272497088214564;2.7752843251826094;1.1166860052307412;212;1.2566370614359172
285;-0.9944996768001512;-0.5551619743463074;0.9457818691406072;1.383907725413025;0.1340967826983248;-3.067054122036946;207;1.256637061435917
286;2.310365514101613;-0.1065315472099084;-2.0596141914589383;-2.853871288489925;-1.9197703349658584;-0.4812330377761088;219;0.818140585724261
287;-2.9050891240608507;0.9645589205495284;0.6387849029840722;-3.067692272385129;0.2586534058689689;-0.7900706511179353;182;1.2566370614359177
288;-1.2884481444830147;-0.6632116620962867;1.946756659036915;-3.0922752856141558;1.069778397062583;2.996683236120914;171;1.2566370614359172
289;-0.2158893013666726;-1.4434355890463535;-1.334335783277348;-1.45474906450675;-2.0269427018997592;-1.89714886308512;217;1.2566370614359177
290;-1.4760366073001892;1.4072885458679163;-0.4421870785339244;-1.336250584700562;-0.8877784822480784;-0.2916629094191478;659;1.044268273718097
291;0.7128202229019323;-0.5327361922483862;1.342052489845633;-1.7025919307030477;-2.5503235174639123;-2.1282485521817844;210;1.256637061435917
292;-0.9484308891648116;0.2834577408349461;-1.6420725127650693;1.3632796668193774;2.4728109348084626;-2.248877400714804;128;1.2566370614359172
293;0.3546686676298024;-1.200873911246075;-1.7056988195592728;0.9989231663379544;-2.589761734213109;-2.39008917494999;149;1.2566370614359177
294;-3.3957193909797496;-0.8705106578055171;0.7755088258690304;-3.1058476559766963;0.8367499924538373;-0.7592291509733747;182;1.2566370614359172
295;2.851133693606383;0.4402361043995476;-2.4259816957081166;1.1005527880447676;0.1981515725232872;-2.572805445507902;160;1.2566370614359177
296;0.687327026340451;1.5563272123300151;-2.303506235983938;2.6578440152467167;-0.7796589315341658;2.767156758849725;206;1.2566370614359177
297;-2.235761888874048;-0.2352710271384086;2.230404978515046;-0.7036916490732812;2.235456286373668;1.0046200470244555;256;1.256637061435917
298;-3.023741266066358;-0.756260124663819;0.755250742641438;-0.5075434781572546;-0.3042065183689383;-2.8134309149629213;277;1.2566370614359177
299;2.0494591523343604;0.3549500076428528;2.341810232517251;0.2027901788718558;2.7235081010608315;2.063598546308075;120;1.256637061435917
300;-0.2867310768163231;-0.0827349020260613;-0.0373987948019133;1.478706018167488;1.0483841940554617;2.5354299705706587;58;1.2566370614359177
301;-2.2634340807642355;0.6206481334281946;-0.8825985398116462;-2.8065323566623377;0.2072875298258199;2.7570710281972035;122;1.2566370614359172
302;2.473270043911868;-1.3676847691362088;-0.3592599889278557;1.1435619794610992;0.8572917168127081;-1.703979884623577;189;1.2566370614359172
303;-1.5850899746369205;1.5791008937243758;0.4955346841757058;-1.7216411089480617;-2.4230084466750723;-1.2884205703135465;275;1.256637061435917
304;-2.0167793822769;-1.5116406565112697;-1.4035937334307231;0.2290298663792899;3.0916206173206136;0.7175817598894061;284;1.2566370614359177
305;0.1308034173909539;-0.0475913567004511;-1.4686083106026488;-2.737350246347684;-0.2714705155449822;2.360578310378452;242;1.2566370614359177
306;-2.1474221526783026;0.8697681432992844;-0.8088255107375103;-2.7302372607381025;1.1796566990863238;-1.063916695926918;95;0.7790590663835771
307;-2.881262791343301;0.3411865982202677;1.0076603536399298;-1.0506469072642588;1.9220881126829703;-1.752303406305081;139;1.2566370614359172
308;-2.832087065433591;-1.3844640742874978;1.414574421801099;-1.9644154293792075;-1.8681000937951573;-2.826959057579527;280;1.256637061435917
309;1.8996263287880848;0.6924843665058262;-1.7996680453792449;-1.001448671332544;-2.279391404180754;-2.784528404713885;271;1.256637061435917
310;1.2893089624061016;-0.3296936374324066;2.044623203684369;0.7400969157058186;1.7511740431662777;0.0315311054908169;9;1.256637061435917
311;-1.9025499254290643;-0.6373744105140229;1.1180977353038142;-2.2165606707434797;0.2996589353397577;-1.109019237970243;138;0.8363559317123195
312;1.978091644461444;0.7783539221363728;0.1424865121139863;1.4408287903739017;-0.6231844991510976;-1.2356056601218672;173;0.913112974242864
313;-1.2341920785094862;0.1564020445909361;1.522341421253178;1.578051693282419;-1.4705135380569825;2.4900325875063016;264;1.1009455629017308
314;-0.2865766934848848;-0.3294604172446518;1.1920320485814286;1.928959659469975;0.1806696015247228;3.1050770392725635;216;1.2566370614359177
315;-0.8340181113999519;0.7156939375342145;-1.2872458371704665;-1.9779415603945285;-2.050779956278339;2.9375792881568232;54;1.206113415523614
316;2.3756153261534863;-1.1856678046529274;2.0986881188303315;1.5549755652387949;2.4006501914802776;2.048405857257785;261;1.2566370614359172
317;-2.88649847664117;-0.633479225450305;1.4834282402510237;-0.3641034077314835;2.027371932218243;0.4749830876803804;297;1.256637061435917
318;2.6970106753304623;0.8160680944559536;-1.68271783894216;-1.807120312582419;1.149670742063459;1.5028987981089952;196;1.2566370614359172
319;-3.250864516337659;0.5116472315372889;0.7864073312180997;-0.1979241377859092;1.1433871258491082;-1.928400519089476;307;1.2566370614359172
320;-2.2468411444242498;-0.4680792386292323;-1.5147505942047894;-0.9392028648908346;2.581653961751529;-2.3791602690013067;231;1.256637061435917
321;-1.816737623415932;-0.1414085057699346;-1.483076646779106;-1.5033151761837449;1.1107452085040084;-2.857164540136065;231;1.256637061435917
322;1.6601651777957844;1.1305765154010168;1.787226748211484;-2.764332529172849;1.3617682582860835;2.2192385576005336;226;1.256637061435917
323;-2.947900273355752;0.0022007301250346;2.154594102870693;2.4246082533824453;-0.0460345755329321;-0.4525092888674679;89;1.2566370614359172
324;-2.922201186047714;-0.6981415714961682;-2.217571558231352;1.3357636433240554;2.513632484397123;2.030869640657101;284;1.2566370614359172
325;0.9268019813002644;-1.2418543178737125;-1.8322128269882256;1.8186046007058905;-3.145305291085656;-1.386480493007912;149;1.2566370614359172
326;-1.788032811941651;-1.2217181083520388;1.7607020456354294;2.59296739790865;-0.2310477460827091;-2.4481389437282384;238;1.2566370614359172
327;2.79157705961628;0.669002023513819;1.743278527761246;2.041938358449073;-0.8820664059705401;-1.4776965499485468;117;1.2566370614359172
328;-1.7165382722930325;-0.5190367015139443;1.4844639092386387;2.041772271511443;0.0967499399974758;2.0669702677488124;224;1.1847372756889605
329;0.3403059585169625;-0.4532182896345748;0.751073182425487;-1.4569576157405948;2.82343136813549;0.0158382526685838;197;1.256637061435917
330;-1.6232656719382157;1.2724712925130977;-2.167664771707304;-0.8896874945056884;2.291427792292135;0.8591343304931507;186;1.256637061435917
331;1.3939185287006168;0.0801600548391577;-0.7603287644308876;-1.476196469614809;-1.6835546488979944;2.556260538128686;32;1.0417259299043424
332;1.4076414885259323;-1.1059006238576443;-1.4465774663541038;-1.4679944996258063;2.7496037252584244;-1.8665064407671597;81;1.2566370614359172
333;-0.0731151309774154;0.9155975484356432;1.1146352253851788;1.7805481670727652;-2.564491269106128;0.202512239231749;208;1.2566370614359177
334;-2.878788674533463;-0.5318698346530304;-2.20044480123305;2.354361482877008;-0.3471352033038115;-1.6514184778538188;99;1.2566370614359172
335;-1.9777970137270684;-0.1487979480124488;1.5055107160922292;1.24916339428186;-3.420061332816347;-0.9017708534189356;144;1.129999367391184
336;0.4158687967920765;-0.7760044092872965;-1.4396157542815735;-1.7719845977685902;-2.021631869181825;2.5118543526019854;32;0.7793550381501327
337;2.333586421813838;-0.2078493656095927;-0.4082057839052526;2.0263768769051307;2.3750258593069007;-0.6909267757155813;236;1.256637061435917
338;-2.055355614296346;1.163590354377002;0.5282162236806169;1.525075653032632;2.6202036140045952;1.63044711505799;184;1.256637061435917
339;0.834025700466728;-0.2335131187200097;1.1536445548516463;-0.0624407220619801;0.6715527444489062;0.5564740710605294;4;1.2566370614359172
340;-2.786014698234132;-0.507657722117759;2.076627825748526;-2.361119845083757;-1.4072159413903629;-2.837975268088756;308;1.2566370614359172
341;-1.1977615999632316;-0.0650589830730052;-1.008063671260141;0.5377803787991166;-3.05166682397219;2.181980264112263;31;1.2566370614359172
342;-0.8123615509947364;1.1197315221273585;1.5745834559982037;0.8797081524529464;0.8620563930969933;0.6984377502023216;77;1.2566370614359172
343;-3.0718170967377096;0.4797112106849491;-1.8177101219350864;1.178404953807067;-1.9608701877806407;-2.5997046622536395;108;1.256637061435917
344;-3.4261607294089758;-0.742491047192571;0.0734806684105273;-3.026766076152438;-0.0393216113900153;-0.2158856839160974;294;1.2566370614359172
345;0.8289604059934415;1.517867361138027;1.20741069322635;-2.562958870515589;0.6328478610140119;2.1448184923393945;92;1.058179550626877
346;-1.0097378723360335;1.3875024189857523;-1.5664712830035774;-1.6406645562470548;-1.7823468332772203;2.0248067724722665;315;1.2566370614359172
347;-2.3231548790666707;0.1173846780625252;0.412114015353793;0.1537978836460502;1.6856885859949702;-1.8566103270074428;319;1.256637061435917
348;-2.327781887659764;1.187072080279953;-0.4962584330673371;-1.4827877954323871;-0.4791975598414001;-1.0751398740955826;290;1.256637061435917
349;-2.1548557990603907;1.3327329834033323;-1.6913197596193874;2.0666192030526505;-0.3181266374744608;2.1095767638884064;251;1.2566370614359172
350;1.0545947037342849;-0.8379498839518508;1.1864915107282616;-1.544201781080334;2.998266642649306;0.8483896653405668;329;1.2566370614359172
351;2.8332531209823757;1.1142105404991105;-1.3476342730981412;-0.3483550415482552;1.4017263994297755;2.103487505438655;199;1.256637061435917
352;-0.1918423868307327;-0.3154098643752335;-1.6886623766105626;0.0164707053504026;1.9695387759001688;-0.1198594258986691;109;0.8827398174768348
353;-2.0709824485174595;0.3764837504729698;1.4887081618284677;-2.12932082048352;-2.169538969829931;2.0822436564753297;62;1.2566370614359177
354;1.7470819903410255;-0.3992828501091059;-0.8991169666260224;-2.573201132808386;-1.6652551226900931;2.5953822154289017;331;1.256637061435917
355;-0.8924267714948791;0.3033292201798087;-1.586045938411634;-2.064125559011148;-0.1575507225461067;3.141468375996517;242;1.2566370614359177
356;-1.3105546119646716;-0.8707932393311297;1.3170881807123964;-2.2945475380348657;1.344270739899988;-0.915884745184163;311;1.2566370614359177
357;-1.6728806923893251;0.238517187640656;1.132970075410073;1.763218835335975;2.59200610918736;2.022690379797881;338;1.2566370614359172
358;0.5995531242990074;0.1912696334952045;-1.294133966311833;-0.1300816761762952;-0.6501264955213566;-3.0107305302499463;52;1.2566370614359172
359;0.5837938400906949;-0.6203268955195519;0.215598526777613;2.79268185269858;-0.0662450630507497;1.939358882434539;266;0.7432223073424277
360;2.720257417809125;1.0416718726356464;-1.3040412617006716;-0.2694835552912662;-2.32769620982383;-2.7803797398473704;309;1.256637061435917
361;-1.4697679311045362;0.8020634163597271;-2.0816691284281097;2.0959439060747536;1.9656934949938432;-2.022642177022452;292;1.2566370614359177
362;-1.499949373310134;0.4650834699857357;-1.5307749280426974;2.65474704057796;-0.429687381642533;1.994234648015648;349;1.256637061435917
363;-0.1953614644019612;-0.8793372924444776;-2.068545668105749;-0.0648555926999253;2.9293008259348645;0.3149298351692246;352;1.256637061435917
364;2.780968672398472;-1.3739943023863683;-0.9205757641181478;1.7073614364840035;-0.0198500136809877;-1.990503191531841;302;1.256637061435917
365;1.929557955713057;0.7434563691097039;0.0164016332100911;-0.9399586813282952;1.7612518670724038;1.4462699080903036;229;1.256637061435917
366;2.1425260168329934;0.4610201366668771;0.8163280704289195;1.307616902880142;-2.5693230974250545;-1.2013041943300224;117;1.2566370614359172
367;2.2924010773198056;-0.5400483200549133;1.6296718231358058;-2.4633185176359724;0.9696168737743198;-1.4876839489526374;45;1.2566370614359172
368;-0.9739189199444548;0.5966593718855466;0.8000953451806436;-2.884382938318608;0.6891144043283829;-1.322201557759993;121;1.256637061435917
369;-2.158512111938862;-0.2638410646287702;-2.271864800632893;-2.9213473594129846;0.8377610373269331;-1.152200987873875;104;1.2566370614359177
370;-3.1280835177135278;0.577876520725228;-1.428003203360603;-2.869697175462385;1.3111573476218246;-0.7290782743704665;306;1.256637061435917
371;-1.684367792947589;-0.0705782192058897;-2.094234144496853;-2.9334569794765684;-1.865568693565802;2.090573413317819;103;1.256637061435917
372;-0.2048056018606632;0.5653190443405374;1.7104473428980478;-0.446981438115623;0.9900709816195916;-0.0855668210359409;51;1.256637061435917
373;2.480222684690204;0.901547950945412;-2.677620494088195;0.4366682991099627;-0.4186600617619068;-1.9860927251859752;295;1.2566370614359172
374;-0.6204445939011458;-1.2479251471953967;0.3440036234355272;-0.1836995763254469;-2.4593823052280968;1.8707894224286328;23;1.2566370614359172
375;2.088044478886027;0.0796390429019048;-2.6186453509935865;0.6289155790604113;-0.194474118937772;-3.2459216607555;295;1.2566370614359172
376;3.393639776816472;0.2473457909393565;-1.262901921241509;-0.8078963539179039;1.2504722347162318;2.151101004729016;351;1.1441111637204038
377;-1.085864897809922;1.361732357368819;-2.410104185054004;0.6315055894733036;2.333509682132564;0.4811511626481621;186;1.2566370614359172
378;-0.9716764637563916;1.3685216499322594;-1.9648258199419744;-0.5752755364700742;1.3307724925311613;1.1463370674700832;330;1.2566370614359172
379;-2.303495665877401;-1.0659795851869205;1.4159496025274272;2.772081663143698;-0.5077950412319835;2.2457174417972694;328;1.2566370614359172
380;-1.683398619789251;1.3446426119313903;1.1418341194452162;-0.6050445649573556;-2.292882053148405;1.3446574489796297;1137;1.148528489910599
381;-2.9392762554613907;-0.1575952984316021;-2.1042757696980026;0.3066356029387967;3.0271765553816583;-0.2479497547911537;212;1.2566370614359172
382;3.353016284786711;-0.0220781833039282;-1.1433954079263535;-0.6518077519438435;0.907219498388796;0.9898821369933404;376;1.256637061435917
383;-1.959151539981665;-1.4641611745551508;1.8031869896577772;-1.9298985597250504;0.9812091225794908;-1.468423029086114;356;1.2566370614359172
384;3.364685636481923;-0.8854667566439041;0.6900662760221714;-2.1934029883338;0.4802921819890725;-2.3901583240085;168;1.1680508417153426
385;-2.720602576109365;-0.9651018450226684;-1.0127464902762564;-0.5195191304071278;1.38908942559313;-3.0167137283753074;231;1.256637061435917
386;-1.9709631179927645;-0.3892150756829747;1.1871724744416;-0.2130741568824121;-1.724409521037518;2.524829453221006;180;0.9913332028814156
387;-0.5463492109903112;-0.8741853103005678;1.4481003701598076;-0.9232794852655032;-0.6102675144473422;1.3209138490943264;12;1.2566370614359172
388;1.1658583224318213;0.7242295694731302;-1.1395691477776395;1.3860708269102942;-2.686637217101727;-0.7223422222731601;259;1.0893010498518598
389;-2.197170402032174;0.7455033975898914;-0.1268048403093599;-2.8653685188220157;1.375807120227449;-2.264065954233601;121;1.2566370614359172
390;-2.4300562968690427;-0.0330353578569039;2.2775984964293627;2.6847249804878826;-1.1406174882797182;-0.6223038496238346;323;1.2566370614359172
391;0.2173053668920074;0.1376531305489865;-2.140755037538125;2.10773029967401;0.9473131699392676;1.1356351348400988;243;1.256637061435917
392;-1.8713209579530892;0.6251628033574865;0.9477258828954228;-1.2198708345227824;2.8792085547959183;0.7409992231328231;256;1.256637061435917
393;0.8768646803056935;-0.2209758604886585;-0.4910215132166832;-0.0283184970344654;-0.6146454697016558;0.3764592787371911;0;1.256637061435917
394;0.0176025287500393;-1.1564676742447833;-1.3074260565918974;-0.8594239588716981;2.821791736001616;0.7994725446470512;363;1.2566370614359172
395;1.897793499385143;-1.032440959013893;-1.04151010559641;-1.3895028741098157;2.400664402726999;-2.887041709746126;332;1.2566370614359172
396;0.2054410431458215;-0.3321459814935412;-0.4132807756682619;-1.5856389339001462;3.23003393959132;-0.0773550007958368;329;1.2566370614359172
397;2.475350430393366;-0.7686215395213544;1.5650099042655017;0.7342259365761357;2.2230296570097945;-1.8135192789708232;85;1.256637061435917
398;2.260643856834967;0.2126897077987017;2.214406645351588;-2.724662023084222;-1.7440476283000204;2.187092949310788;190;1.256637061435917
399;-1.3950985061050354;1.2233790545734824;1.31712835176494;-1.4935863154249196;2.911712156898405;1.6253359037410562;392;1.2566370614359177
400;-1.828184455610053;0.2723502030744283;0.7309528757942;0.4621212415615534;2.275927550729097;-2.7312663294916315;347;1.2566370614359177
401;-2.0727948768908746;0.3255346127275325;-1.9165244767613487;2.457504258317333;1.4384960678305123;-2.2820710883561954;361;1.045925585100054
402;1.9035266463007487;0.3923274994711619;-0.8669724221082291;1.954649980026154;2.76963286617325;-0.0135472435496595;337;1.1727459129844893
403;1.8952838266298488;-0.5095778034723364;1.3192052090526545;-2.989887984042172;1.67341726103216;-0.7450492914782605;367;1.2566370614359177
404;1.0834642299026318;-0.8411197612634491;-0.9787210336207246;-0.608278856788256;1.2705308636139303;-1.7351001294030155;81;1.010333071464237
405;-2.183054168380947;-0.5450551877188902;-1.550103704437884;-1.970481973756053;0.6143557947188819;-1.1857462756683663;104;0.6203319816134425
406;-0.9515757410599088;0.3242214161746774;-1.5740186074807885;-2.2619685989841525;1.2115901056798375;-2.716362381584116;321;1.256637061435917
407;1.85094777622582;0.1064247914963352;1.4499656986002347;0.6254470579996453;-3.2586330160119834;-1.038883536774003;366;1.256637061435917
408;0.5084448569991141;1.541157321607048;-1.9512848394267608;-2.496821054650489;0.1632319906356285;-0.0459121587661017;118;1.256637061435917
409;0.6301103939134709;-1.1219606245074525;1.9619228455320528;-0.7104933734987889;2.8845759797332886;0.9432508451628632;350;1.256637061435917
410;0.3865919611689906;0.1364209362693124;0.966064174958038;2.710344202959409;-0.0416508470977435;-1.3119245407389548;137;1.2566370614359172
411;-0.6310520491782663;1.4579901853366586;-0.7374136968856547;2.941732161925281;-0.8584418456235863;-0.6608371108373907;222;1.2566370614359172
412;-2.0684520031659344;1.1765826484970925;-1.4854464826410827;-1.261922982553746;-1.2843296295132218;1.8993372119804195;346;1.2566370614359172
413;-1.0292691049588771;0.490108169276393;-2.452550970211141;1.2973606526586936;-0.5590711131810018;-0.6003371070485812;260;1.2566370614359172
414;-3.0501296070095125;1.2119726861965017;0.5622917910985397;-0.8620090693678046;-2.8120607231021157;2.409892527910263;241;1.2566370614359172
415;-2.4127000458519965;0.9161906497287;1.745417236143379;-2.4188113143485617;-1.4285836557736007;-0.3185691700843668;211;1.2566370614359177
416;2.2257223734842486;0.669309927885644;2.301454077519125;-2.4891244469744054;-0.606113496007634;2.080014127221808;398;1.256637061435917
417;2.759090095810284;-1.363935741067596;1.8530319808710016;1.1615241815752564;-0.0668901857186854;0.7063085049135234;57;1.2566370614359172
418;0.9319844124068568;-0.8313191678615686;-0.299768808763159;-2.6739542270287147;-2.0546304591331723;0.7266374512396356;218;1.256637061435917
419;-2.4237203609109903;0.9066199845069648;0.6287384015316868;-2.9341638011774105;-0.0204467752021336;2.163851463246268;122;1.256637061435917
420;-2.052093645028896;-0.381002930246677;1.3184711176938366;-0.1066032535144541;-1.5093475207940728;0.8573620305068704;180;1.2566370614359172
421;2.9529793310572;-1.383150599903026;2.163596136578036;0.6676167020082184;-0.3342313271680256;-0.3563807623400212;417;1.2566370614359177
422;0.7242537744626536;0.8214482595506367;-0.3173299577763087;-1.4733293344721918;-1.199556897895475;1.7406193202235432;17;1.2566370614359172
423;-0.3378909126102599;-1.4965965540729256;2.52321927146706;-2.421705836094699;-1.4776247132033762;1.3828731622061925;268;1.2566370614359172
424;-1.6790065049025185;1.587724273184714;0.289546676957783;2.207885473304922;1.9532258378603464;0.1586070660050966;942;1.1668715681102335
425;-2.9519483176587715;0.6309326520804567;1.831922892829612;2.004256586811665;-0.0761416133642622;-2.08249251064449;269;0.8275623179555914
426;-1.3097609884718886;1.2125862460648096;-1.522665540648424;-1.254131013342739;1.8094295525772963;-2.6954566017979995;1035;1.14870169215109
427;-0.9990133045521788;0.4300255827397051;0.9380022337456516;0.6935417733655469;0.3689641854015794;-2.790118314717208;285;1.2566370614359172
428;-1.374312022023909;-1.0497326336875812;0.8358775501187656;1.925057538000066;1.6135009055252654;-1.575227833804282;141;1.2566370614359172
429;2.854452349324129;0.1788799670265666;-0.3821242881687623;1.3286870679008338;-0.1175895454019329;-0.0769228638892146;47;1.2566370614359172
430;-2.341556304409511;1.0046883203830264;2.109053265522362;-1.3326150968779285;-1.4021690482212683;-1.2790652434379577;263;1.2566370614359177
431;-0.580023927733853;-0.8536521617958126;-1.9414158858471475;-2.26910141524608;-2.4025330549539565;2.642411282838876;54;1.2566370614359172
432;3.102422606437094;-1.3570578350036997;-1.594108665627276;2.5475806353820563;0.5361669810563218;-1.9083602765051304;364;1.2566370614359177
433;1.2783186457262383;-0.987212144150008;0.117778666708146;1.2566157681409167;1.4953374345638435;1.1715911634266196;153;1.030515740870422
434;-1.8607151800295811;0.4875696161444968;0.8299065027148308;2.169040451942626;-0.9600418710362985;-0.1243698687274809;214;1.2566370614359172
435;2.00959625451448;-0.6513425734879841;-0.5940571094338162;1.0989904108030029;2.4121558117120223;-2.446995489403329;230;1.256637061435917
436;-0.9230008691324776;-0.2535797530640984;0.7373747389021901;-1.217993144495688;2.56522652475244;1.6325065596161554;256;1.2566370614359177
437;1.4126038846390483;-1.695721548744469;0.6382095343921069;-1.3412881187372832;-1.79472926447706;-1.2998127830286554;170;1.256637061435917
438;2.319432776105721;-0.4401466805016278;-1.1996091734077736;-2.46423144885375;1.507944235551934;1.0221549794870668;196;1.2566370614359172
439;-2.1833314759791493;1.103374036792233;-2.468784932427452;-0.7268169899080542;2.830609253863696;1.7696025158041435;330;1.2566370614359177
440;1.316265704299502;-0.5373964741763466;-0.0998749680692434;2.1923046228299667;-0.1133135306017031;-0.5048278778744971;13;1.2566370614359172
441;-0.3618599143181025;0.7779765802979994;-0.9841487712046066;0.5060936353019087;-3.169565794221918;2.5746887764437263;341;1.2566370614359172
442;-2.7806015998524343;-0.2994284220907387;1.8866148489313213;-2.051544668778802;-1.5060879200235815;2.201298023504961;353;1.2566370614359177
443;-2.8913971311319555;-1.36670333587117;-1.5752870141463844;0.9918402732793228;-1.214025737868388;2.3140421534084745;221;1.2566370614359172
444;1.366817182627031;-0.2470869998350692;0.944680748477924;1.1338759505633311;-2.293331526831046;-2.402302210882621;267;1.2566370614359177
445;-2.7540408435733905;0.3577224364790687;-1.7171989355911;1.3233153083796645;-0.1547676221248013;1.6500954184503067;251;1.2566370614359172
446;-0.7273098615004392;-0.8742421442981633;-0.0525542194964612;0.2808598105154194;-1.0022834021677625;-2.395831256900197;53;1.256637061435917
447;-2.028901933395481;0.6329513384760067;0.4506194927452252;-1.7541569553503469;-1.2401908669345176;-1.314386488322448;275;0.8681293789867779
448;-1.0425893584394783;-1.4392184807164472;1.5679717764244734;-2.9622228796309518;0.986958734345326;-0.1757366097766879;356;1.2566370614359177
449;2.72111367581509;1.0865659409024344;-2.207176713790636;-1.3808168544633883;2.442249132404184;0.0947262564044822;159;1.2566370614359172
450;-0.7767021857353436;1.6107074291514565;-0.1077115858520033;-1.0864915409486195;0.2673226914063495;0.1856016252708473;61;1.2566370614359172
451;3.1787712717010863;0.4347654628809603;0.6947431360322274;-1.2408577195934534;0.6451487348300553;0.0445375630761155;248;1.2566370614359172
452;0.2560347917219088;-0.6960357497383918;-0.6891275973892983;1.957217498229655;1.552504972138736;2.55872286113876;300;1.2566370614359172
453;0.1423130759860293;-0.7263425048764445;0.6218796957111407;-2.75291668274341;-1.6529248230448763;3.092558946611049;281;1.256637061435917
454;1.8809422012244688;0.9672227025493418;2.1726810880592944;-1.6006982881478846;-0.0879833458882663;1.5348820875116065;416;1.2566370614359172
455;-2.9359284311775387;0.0704786321977687;-1.592784812737682;1.231027888328222;0.5106879021872642;2.6484529244817177;445;1.2566370614359177
456;-1.016643980462711;0.8595672703616666;0.8619600473991074;-1.35065416034128;-1.2964333524354688;-2.3804818134960404;275;1.256637061435917
457;-0.6635855482389678;-0.1510928640185081;-1.91618100131922;0.2965612305715269;3.3307132870963847;0.5868675781017618;363;1.0670018519450002
458;1.559152749884555;0.4627740853374729;0.0888432771608154;2.718983087267759;1.1769314506412505;-0.6814240559526825;236;0.825109069269514
459;1.695720786904011;0.0642819224506874;-0.1384377488024182;0.3883515459128899;2.8722339114610294;2.809705936027568;106;1.2566370614359172
460;-0.1937266223589605;-0.7809291518381349;0.6370482110712605;-1.7474588160999076;-1.2641171959699185;2.236235630734883;16;1.1890652333348954
461;0.5802015431196824;-1.4959048501399714;-1.1703607486538017;1.3875896610611955;-1.955007697982804;-1.314105065861669;149;1.2566370614359172
462;1.3388659231407996;-1.0444922217157626;2.079813575131764;-1.7211396741407972;-0.1469175190526282;-2.3535355440497887;45;1.2566370614359177
463;0.995311338835994;0.3896897980598507;-1.551360184573246;-2.6984125344217977;-2.3662364508945197;3.412023178268048;46;1.2566370614359172
464;-2.357216812280198;0.1200524169049629;0.8258123751732471;1.6626869798574142;0.342882586231353;1.7175077803834973;328;1.2566370614359172
465;-0.8486195313538156;-1.5221316935935236;2.550194254346228;0.9628974470217329;0.2627778335374223;2.217744787344385;224;1.2566370614359177
466;-2.3356719848507512;0.122098625795873;1.1074651989858824;0.5645300821111722;-1.6154524066442972;-0.2090918023957679;145;1.2566370614359172
467;0.5971201897867946;0.0770082748241684;-1.8193284656849025;-2.9383868639720587;-1.307040561039351;2.546691073576495;305;1.226148453063875
468;-2.5972053028145874;-0.2819606485664471;-1.4255341746597845;-2.7095063944348627;0.7040561292719195;2.4376047860968777;301;1.256637061435917
469;-0.294002415166311;1.6112021551579614;-0.1756361115435112;1.3821254618912855;2.20838705909384;0.6167363125946458;240;0.9153490155463928
470;-1.4146931535052396;-1.46831503612396;2.467926903013025;1.986224013250662;2.602904115779137;-1.5919747283295504;101;0.9505035534179812
471;2.316870504513416;0.6288325796713172;-1.276942751595043;-2.636663251177516;0.9958548734293812;-2.568227364529936;200;1.256637061435917
472;3.453739938714796;-0.5752783375270115;-1.907090233441587;0.1551848295531422;0.8275136628717394;0.8410829241061575;382;1.2566370614359177
473;-0.4895585841049273;-0.8369367482391088;-1.5859156242242882;1.7345801074947362;1.168682707282501;2.511199952013562;452;1.256637061435917
474;2.8628553052491323;-0.4979525858841427;1.9520287093911763;-3.015753301947017;0.2773948351853521;-0.8846274645043204;367;1.2566370614359177
475;3.1269862045933063;0.0419808171728946;-0.4022638487416832;0.2205798222689342;-1.889763801398045;0.0692753657042714;110;1.2541439060861037
476;-2.305638402726644;-0.6108300864236782;1.305116699614236;2.3589149463714616;-0.0432126891363821;-2.140734006375825;326;1.0164733565883142
477;3.318213112184808;0.0605469839464978;-1.5294269261214686;-0.9534454348542662;-1.66632568640873;2.6913576480129637;130;1.256637061435917
478;1.2059549698488483;-0.0208637973557221;-1.7266817705457025;0.2128401928104234;-2.863801631548136;2.863252729838938;97;1.2566370614359172
479;-0.1687102014512745;-1.1555244316159583;-0.7037116884964982;2.4830622867761707;-0.828232728080595;2.424866590121044;266;1.2566370614359172
480;2.6429712029891443;1.4288945996209848;0.2600964795160158;-1.1092499433104206;1.8327808319681944;0.7340974762872918;365;1.2566370614359177
481;-0.7267477047772666;0.320621861748449;0.3431487398379477;0.4521082872826499;0.0734463079299643;-0.7877999608489865;0;1.256637061435917
482;-0.2707336585132377;-1.0465225172990966;-1.822407978887424;1.7469849841062373;2.126712713325043;-0.8253126435291165;128;1.2566370614359172
483;-2.165807511110249;-0.7190468725076633;-1.4572466697916917;-0.7534514740580567;3.266096437848484;-2.0074282435807977;320;0.8449897545596562
484;0.2767482466323022;0.5234689370989997;-0.1767569256797035;-2.461888125696384;-0.7169617435180213;-0.4317317476202416;174;1.1704492951279584
485;2.4032930570703503;0.0327035976423659;0.0256347921167463;-1.6856956470559847;0.9520368243228758;0.3208515914012276;451;1.2566370614359172
486;0.2757764062674771;1.690724329683628;-2.412718080481033;2.7997051714752565;1.1732760128170856;2.1526216926964223;206;1.256637061435917
487;1.4270378413241416;-1.6463049768399278;-0.2846706707053231;-2.303317511526902;-0.9586054964674572;1.8270769062376244;150;1.256637061435917
488;-2.6971652910903265;0.6551302553516168;0.3505642422954504;0.9291847788281028;-2.2902680378215186;-0.1535190262036003;466;1.2566370614359177
489;2.1858951540102605;1.636081265297862;0.6437156006673531;-0.1380887482517903;2.024210839940481;0.286516499997023;480;1.256637061435917
490;1.6730010521269687;-0.7802342556442178;0.9085809216557624;-0.8339696176783239;2.6640586865742417;-0.3117378496815409;158;1.2566370614359172
491;2.8571546029122707;-0.1658252669892839;-0.4218978479659095;-2.164668468358852;-0.852711583911713;0.1727468845995025;56;1.2566370614359172
492;-2.89778643760169;-0.4669330597018555;1.4758866910032555;-3.259146813156488;1.266187301240415;-1.444705928613225;294;1.2566370614359172
493;-0.5855496408157457;0.1497027830099165;0.7270898029673356;-0.1323373655130164;0.4240680632716124;-2.015517263822189;427;1.2566370614359177
494;-2.118732316497979;0.3034145626819066;-2.4230865689230727;-1.0608657507293922;-2.220965353445598;1.5155374908304908;143;1.2566370614359172
495;1.3285387814493188;-0.5739572461157803;-0.0894571509580743;1.9566771252346495;0.578127093185542;1.3491513876942274;433;1.2566370614359172
496;-1.447864148629012;-0.4304525222718806;0.2033864160279486;0.1618109785690372;-0.4815190496370564;2.48920152052298;178;1.2566370614359172
497;0.4563628593175118;0.8163947470308905;-2.283981128375169;-2.37388569203534;-0.6944628847650085;-1.3268985421228696;244;1.2566370614359172
498;-0.1997015767946053;0.8103370301813844;-0.7016550426811758;0.4007497368604607;-0.0604483278492168;0.4754321519033421;0;1.256637061435917
499;2.361190742503593;-0.3201849438047526;0.7579064414725453;1.6150116005815796;-0.4225052310460369;-1.6681920581320937;173;1.0741056245198448
500;-2.2241218383912966;0.2133693860527548;-2.601529704890241;1.2702374473629146;2.790011647297548;2.212161450703037;324;1.256637061435917
501;-2.0902847107418903;1.5485375345178325;1.1094521568433342;-1.7283146020375857;-3.0886706101238337;-0.5792410801587367;303;1.2566370614359172
502;0.9123116882195538;-0.1050932911777974;-1.1961158516641877;-0.2450893166179921;0.1418944224259477;-0.2928323028773402;393;1.256637061435917
503;1.541452739264833;-1.017838077361584;2.3919002227580197;-2.070532275919093;-0.2775321835483278;-3.3072583342187936;462;1.0898956272742804
504;2.3623690417064847;-1.0020044181150447;-0.0236868314707562;-1.623315448025786;2.8802767399996494;-3.091294874940769;395;1.2566370614359172
505;-1.2727500169301935;0.6511992354577502;-1.0715431547196297;0.8880655764966414;-1.553645676395032;-1.5623318350148494;36;0.8245945420317706
506;1.1354369677261775;-0.1826242728892144;-2.252087203707429;0.2625932648194729;-2.199663121455385;3.399610235135876;478;1.0190313103702768
507;-0.0067178746677067;0.7702990714536548;-1.4027150820800958;0.5528077570653375;-3.013884694580024;3.017039726804085;441;0.7235162377663448
508;0.5184784439415371;-0.1480656796577742;1.563851025149053;-0.9021099098415916;-1.6669086758904836;1.636945184438562;76;1.2566370614359172
509;1.3601390780281943;1.1108915824691132;-1.468699390495311;1.3123533445064997;-0.4354315423210971;1.8655724684991395;188;1.2566370614359172
510;1.691526390142003;0.5018803825991514;1.3187744922125946;2.599896837002792;1.5145620421901225;0.484535492914895;87;1.256637061435917
511;3.195048762438093;1.5214282987902443;-1.5149841161145612;-0.6420362776984486;2.212009904329771;2.818749917839125;351;1.2566370614359177
512;2.461574475993188;0.6746534469244344;-1.1486866002121978;2.8427130518420425;-0.4305775599559927;-1.189232856221505;162;1.155300978799342
513;-0.4206008878535985;-1.527976512169139;0.0616795179915273;0.5374592031164499;-0.9104901179991364;0.1067064068078216;2;1.1918671676467667
514;0.601364351821693;0.8794625298965523;-1.71962300306537;-0.0734941034176337;0.2777053886798369;-3.256512713988674;358;1.2566370614359177
515;-1.677834722622901;0.5047328730103583;-2.1565009731615405;1.3993609209473263;-0.6309989391353923;3.226015112476797;253;1.0042676794008918
516;1.843002877532114;0.6159835275364252;-1.0057176398036245;-0.6770001034300775;-3.01429937854426;0.7026670161315313;110;1.2566370614359172
517;-1.276474018255485;0.6894491423588567;-2.6416311861876647;1.0509147538884482;2.443872548115213;2.745945611337056;500;1.2566370614359172
518;1.8595991120843889;0.2047640735216327;2.568236699255176;-2.060954795486848;-0.5970536525621788;0.926700252442552;454;1.256637061435917
519;2.189002620502554;-0.9730022085940674;1.0730221330529195;-2.776123447235835;0.4045529118471811;1.9215802356911371;278;1.256637061435917
520;-2.7293098176352597;-0.7141294820226005;0.629456568018498;-1.1885778123756243;-1.237369579517875;-0.1553142483396422;100;1.2566370614359172
521;-1.2271210864950477;0.8914714884774881;-0.9167547208410138;-0.2319315013302879;-0.10065434371302;0.7377165596051981;498;1.2566370614359172
522;0.2196283039411407;-0.0734875524896772;0.5532202979529357;2.800278977452639;-0.1742229669127532;-2.4569549203753724;410;1.256637061435917
523;3.231660556025129;0.8792421020850726;0.4200049097526573;-0.5827522400936433;1.3600742916767068;1.369897500635567;480;1.256637061435917
524;2.717527161647137;-0.1237846506066081;-1.0018883234580611;-1.588618769470181;-2.757282194674823;-1.5772925215399851;271;1.2566370614359177
525;-1.552600888568203;-0.2503764143355698;2.144089182321729;-1.6688665583601028;1.4231725956735068;-1.1482646487579855;1370;0.9731011603959204
526;-1.2150321202352488;-0.9527985481228538;-1.640502448007545;-1.7432448321523808;0.5361951554765234;-3.239625655345669;321;1.256637061435917
527;2.201198157367595;1.1138891234046362;1.2916214054290656;3.000851059318178;1.326383641248164;1.3493499273166611;510;1.2566370614359172
528;1.4936506473916786;-0.2588576433735794;0.311578467686219;3.088121785931086;0.0379495393658678;2.655797195031921;359;1.2566370614359172
529;2.795848216649759;-1.0631587953391457;-1.4724887681306105;-2.868336582494059;1.066460577742982;0.2932181615197703;438;1.2566370614359172
530;2.267623769795204;0.581066771822909;-0.0144794973635029;3.0619259601967186;0.1634879573024255;3.045501409137678;528;1.2566370614359172
531;-1.200491971668785;0.0837568047739338;2.419640431241526;-1.9576236734158377;1.2619503614560337;-0.8590445165162033;525;0.7103349586280835
532;0.8581570380944548;0.1007125704166597;-0.0077333953558947;-2.0375118517975475;-2.130323923906985;1.4441639163619635;16;1.2566370614359177
533;2.6780384184593675;1.62293148241967;-1.5847195436645207;0.1460311496531364;2.8784979440902267;3.299805533183684;511;1.2566370614359172
534;1.3229855628050575;0.7511011765613614;-0.1797100333029566;0.5272134245511552;2.667613653292493;2.164277593842004;106;1.103028970857889
535;1.0287398583886769;-0.9500549716074316;1.7848689137247526;-1.6149821144076442;-0.5418380177334963;0.5607935642354553;268;1.256637061435917
536;2.579954048057852;-1.451773905081824;1.568345351039154;-2.5394318388034707;0.4890120095369263;0.9789403250423758;519;1.2566370614359172
537;2.954255336779825;-1.235972664372991;1.216402121760345;-0.0920999507504913;1.0139628003801822;-3.4052890232416666;209;1.2566370614359172
538;-0.2866340374344818;-0.7537194496204986;-0.3578470186459692;3.1131455800753067;0.7855685612948782;-1.95710103438752;137;1.256637061435917
539;2.2658542308624297;-0.7233317240448052;-0.0969803682316445;1.7291498275045198;1.099923713176749;-0.7017656430858836;189;1.2566370614359172
540;-2.7843019209880326;1.6071287702707184;0.42220489753542;-2.124374552304534;-0.0504511046983564;1.6548425162493552;419;1.2566370614359172
541;-2.748928211982839;-0.5708994926797485;2.512926819263863;-1.3551889472511378;1.4324404144882823;1.2371039208451526;297;1.2566370614359172
542;-2.1885925964196344;1.5187253832362255;-2.314043342470137;0.2886878704236105;3.2878486355832366;1.392336892432294;439;1.256637061435917
543;2.25559985556614;0.3115296361688727;-1.3167617697946006;2.4925509264379944;0.5789405138968482;-2.6058451805746885;160;1.2566370614359177
544;0.7405808480633466;0.0480419859812162;-1.3555035037530123;0.1672609457105566;-0.670817210003083;-2.870207426209023;358;0.3908409922639825
545;-2.1290144670299176;1.7261468788588583;-2.0307101516881696;1.2690818481103088;2.7689290914106963;1.8633315123793968;542;1.256637061435917
546;-1.4964888376921404;1.238386256430338;-0.6677134883324685;1.4767973840464688;-1.262502360271917;-1.0195530455980903;505;1.1330950723367152
547;2.5890743223570767;-0.3926282864361587;1.8177390562081748;0.0882181165680973;0.6157650161411165;-0.7205496628140542;136;1.2566370614359172
548;1.3478097356935057;0.3571504203276683;1.4160829500051004;-2.9146532654058186;-2.18538794997239;3.0441896503540327;190;1.2566370614359172
549;0.4602838866651541;0.4234517684030752;-1.9138030122335077;1.6421310477545747;-0.3477634751678711;0.6949718075229372;148;1.2566370614359177
550;-3.246743992247738;1.5305712521205463;1.7848012525805597;-1.7786386137333994;-1.7210557724752749;-0.4141293534661466;415;1.2566370614359177
551;1.9084970729093695;1.345167324561986;-2.331914816963409;-2.249678227147295;1.3868725243570517;1.440785207541201;318;1.2566370614359177
552;-1.5942544518446655;0.9621839000190946;-2.152287509576869;-1.3242412375898789;2.804527157216848;-2.485837116762427;426;1.2566370614359172
553;0.9437508949238284;0.6795049661119752;-2.3491789828292613;-3.045055652941942;-0.0054973475610212;0.3539003749347477;408;1.256637061435917
554;-2.059544849512206;1.409299544327547;-2.6002936957739307;-0.270778971267934;-1.8156809364280715;-0.3124186850832622;91;1.2566370614359177
555;2.869564223068433;-0.4254818534573725;-1.0703402529245254;1.5544516610560448;-0.6778122447538885;0.5356085939569415;429;1.2566370614359172
556;2.1993339426331104;1.2103600723865542;-2.0847471061211063;0.7200905235334804;3.062365327392272;2.547220243649675;533;1.2566370614359177
557;2.4732107037018016;-1.0838503802543007;-1.665003888601451;-0.0105824457581128;1.2918986149471987;1.0804897518680547;472;1.2566370614359177
558;-2.032539219887638;0.9122209770226528;0.7524094236957657;2.0466425379965987;0.3102813550346081;2.549563928336512;464;1.2566370614359177
559;0.2030205392149636;-0.3903731452767635;1.8005720809318733;-0.4040463060506157;1.2706528953835536;-0.7264840366196681;372;1.2566370614359172
560;-1.3482094967271718;0.390897852282938;1.6957191851272375;2.0718485369916317;-1.0735938160951166;1.8875436834367527;313;0.9286665561731552
561;2.6079785110442173;1.3595324258425858;-0.7166023230207492;0.0695653659961502;1.872809462904596;-1.7790990784986715;132;1.2566370614359177
562;0.1058139615474028;1.093844259274708;0.0072224892611149;-2.6995636950354704;0.7045073682208819;2.4046835238147937;72;1.2566370614359172
563;-3.114746238584964;0.5316731368865006;1.600475659487448;0.8780428938468677;-2.809519761686221;-0.5442622413697065;144;1.2566370614359172
564;3.1094966186454087;1.1206575403190826;-1.303005220546591;-1.8571246227848397;1.0364544304509098;0.4273908793153304;318;1.2566370614359177
565;-2.396759139937225;-1.210053017886622;-1.4053016419821591;1.9128038208621876;-1.166302963934976;2.9702313744707856;443;1.2566370614359172
566;-2.1654227070097614;0.7254853294144616;0.0965477513511159;-1.7986159235878638;0.7338744774620405;2.516975430941767;122;1.256637061435917
567;-0.2876263374590464;0.947327170512774;-0.955566339206432;-1.6462305095747212;-1.8669518167553016;-2.647337393143293;237;1.2566370614359172
568;-2.8225567148174093;0.3585725482945965;-1.4726505101821996;1.653623623843028;1.6442334286604063;-1.9210636770111964;401;1.256637061435917
569;2.472875850480765;1.2065143829903473;0.4934992457423989;-0.9465209960651704;2.091041372079474;0.1238800421514953;480;0.7735675631443963
570;-2.201145886898429;0.8988347783099098;-0.5457191197765254;-0.484602742037202;-0.2460862732976478;-0.4217956669787479;348;1.256637061435917
571;-3.334804321584634;0.1063970955159035;1.7974322359693096;0.2459106675934026;1.5859109393326911;0.0686111969493494;317;1.2566370614359172
572;1.598201715768409;0.915478277883084;-2.0637314065361934;-2.571641279084965;0.6589057436510091;1.1766806026259753;1010;1.165754804026108
573;-0.747109268195923;1.359711656625676;1.0446968526889489;-0.7054651739505251;2.5315617831394466;-0.9654250653384202;234;1.2566370614359172
574;-1.737744905548182;-0.9481281572922038;-2.117980502849404;-2.49926787282142;0.6484670103811232;-2.536969882287167;526;1.2566370614359177
575;2.327543814713287;-0.6677157170017143;0.2140439781314055;0.7909670354937947;-2.1846400389255924;-2.4388880201833456;267;1.1448605134136605
576;-1.8084202278594737;0.3599465749658455;-0.0365640110452941;-1.8904583729552369;3.1662506511384607;0.6782844127747587;392;1.256637061435917
577;-2.97816707043526;-1.1248996055750125;0.7446063150921445;0.0196891045156569;2.763005337171816;0.7830878540313166;317;1.256637061435917
578;-2.26365585348272;-0.2070809180104728;1.3178552933831424;2.074993766141753;2.1663483990986543;-1.4451502318962912;141;1.2566370614359172
579;-2.0171297394032117;0.5948242905067628;-1.5436603658702386;3.001551678141891;0.033530612703997;1.0145315852653178;362;1.2566370614359172
580;0.8487313571349516;-0.4510341584969525;-1.5624165934821146;-2.304371192477046;-2.7567961973317403;1.843139972308552;336;1.2566370614359177
581;-2.399856845137058;-0.0806987879420497;0.7259624375578395;-2.6670138238776757;-1.607815490037026;1.8074084541303732;353;1.2566370614359172
582;2.4254439416689126;1.2506820908529157;0.8905202159131854;-0.060676797498151;0.8331267005417837;1.5097639539362924;523;1.256637061435917
583;-2.776151808802169;0.6242070239375273;-1.0575839686649868;1.6590630639812542;2.73945521385775;-2.287943812825309;568;1.256637061435917
584;2.836865344887212;-0.9357652949713888;2.4705782405374888;0.2040014819306137;1.8852008764443775;-1.3605442610658725;397;1.2566370614359172
585;1.33490949409396;-1.27370437565036;-1.4073775796172052;0.5044619154626633;-2.076773166130714;-2.517821660876106;293;1.2566370614359177
586;-2.9023873280878574;-1.0307500619089816;1.5078757503680815;-0.6532169685318772;-1.7678839837462683;2.564227317713156;386;1.2566370614359177
587;-0.086293765711169;-1.769983023105962;-0.3263235182132977;-0.1973534496026339;0.855906395378967;-3.179616992240802;112;1.204277480809823
588;3.040883825646345;1.2004125807056265;-2.282915937288132;-1.9341854969591403;-1.9498893914704576;-2.079828936437712;271;1.256637061435917
589;-0.1469258981123992;1.4545283971021004;0.3063843021599998;-2.783777730827897;-0.3410048330997605;-0.6649338976241695;484;1.2566370614359172
590;-3.209166961090603;0.1154478558004005;0.728868427470411;1.8662812835677944;-0.0580154010124207;-0.8331621833283873;252;1.2566370614359172
591;0.4377193932589318;-0.9810823519072194;0.7486895050199696;3.030191175815786;1.6499834942592724;-1.7062320178343495;137;1.256637061435917
592;-0.8427985729457887;1.1669155549288217;0.9457623640147196;1.2893397857407352;-0.2104258774924406;-2.2235510243286725;427;1.2566370614359172
593;-1.508450484794105;1.0300121077188713;-2.2538716651729667;0.7524637293542171;-1.1370964987377858;-2.3515941966149065;36;1.256637061435917
594;1.3965965904873234;-0.7306341278905532;2.335709822744516;-0.1292851296814463;1.8504197604394816;2.2750908566133408;261;1.256637061435917
595;2.999731551178865;-0.9740525463587536;0.4275662208315305;-1.7095625240929528;3.1867645804252405;-0.608092703552946;158;1.2566370614359177
596;1.3606140557617803;1.1262076749806624;-1.1543731231452423;-2.016561447072086;0.7131986715652769;0.593338422010623;1010;1.2357213116980974
597;1.087987384675009;0.8292332250189096;-2.29429118172006;2.139865290063496;1.1914021634174132;-2.1868717315919413;151;1.2566370614359177
598;1.9896245788421176;-1.1678426772864343;0.4828527753419008;-2.0694545520303693;-0.983384200115656;2.8880911639245745;150;0.9851300674347296
599;2.9783182716988854;-0.600064327278337;-1.719481242355453;-2.808035675812987;-2.078651179887066;0.7163240920867646;219;1.2566370614359172
600;-0.5317533841858356;-0.6125510576729887;-0.4350925405186732;2.0023579703908223;2.4781260609808107;2.39076177097319;452;1.2566370614359172
601;-3.000378078229933;0.5641230611664816;-0.9506775813809908;-2.456870262273384;1.0595078580659645;1.9036843402379224;468;1.2566370614359172
602;2.5457763926638046;-1.514828095931273;-0.8499885223574837;-0.1066201898752065;2.098461553581897;1.3336933538600018;557;1.2566370614359172
603;-2.3530304539119946;-0.0747751203633081;-1.39619722804323;2.996340640536814;-1.059463166994911;1.82533470179422;362;1.256637061435917
604;1.1394956177023368;-0.9613558871487188;1.5527999485232853;3.2584444903373773;1.6539920477549748;-2.328765914201502;591;1.2566370614359172
605;-2.5024456341093977;0.6846785479566757;1.4672918221421385;-0.5929926337033464;2.868127164463249;-1.796452444645776;307;1.256637061435917
606;-3.143397199953847;-0.2171698501654538;2.274631776117972;0.1932647519824213;2.035275205814542;0.2076723951343062;317;1.1169110164663854
607;1.693880029439426;0.947367613883179;-2.2941881131735298;-1.2392148276186254;1.6642874063629114;0.0836542633294288;195;1.0235726685628
608;-2.44431102597061;-0.3126784775122252;-0.7945816833811286;1.3650490504300352;-1.0072784714494576;-0.3631131567312005;265;1.2566370614359172
609;-2.274772710241181;0.5616624603026793;0.0467121643336241;1.6487951584114162;0.6345858069312906;-1.2379264464292037;252;1.0882793971055935
610;2.5945937835713195;0.7495037620178913;0.1750377672581896;1.8832792494353416;0.0266509879777468;3.042841325053092;530;1.2566370614359172
611;1.7322187004080956;-0.604310262754746;-1.2782428510195911;-1.7448619981892688;-2.398129806396524;1.3405005190920338;580;1.2566370614359177
612;-0.9978196230148128;1.330398875433885;0.2481091834575736;0.7302613133561746;2.658996645489476;1.2302125114425753;184;1.2566370614359172
613;-2.025758726147388;-1.1628547233033266;1.0391158890673935;2.77321379100441;1.8335166759222736;0.2127488390126192;141;1.2566370614359172
614;-0.718115957187605;-0.158041747980987;-0.2094823724436209;-0.2859803360387213;-2.872666817302039;-3.0208604697429906;135;1.2566370614359172
615;-2.9311788915858057;-0.2811064467142567;-0.6741634214441983;-0.8360928667334746;-1.3075206839344466;2.9499536825653925;41;1.2566370614359177
616;1.6292594704872991;-0.3309142253268292;-2.452189550965841;-0.2106835558518683;-0.5982039925029425;-3.21640963435081;375;1.129398371348436
617;-2.8108526020143265;-0.5896732465341731;0.1140142804157917;-1.646130178783923;1.5311257746136944;-2.5212666643375257;231;1.2566370614359172
618;-1.8089453316034687;0.1298394839918364;1.6748486699081886;0.7476992375253021;2.909779920694576;2.3732893171419853;357;1.2566370614359172
619;3.114157795583949;0.6333234730220572;-1.7338053056466445;-2.660711902807688;-1.989755904787784;0.8144414665852033;599;1.2566370614359172
620;-2.9308417967635765;0.6524205547601041;1.849965197286085;-0.6431101590781376;1.9965643745381592;-0.326427255030933;571;1.256637061435917
621;-1.646486169310474;1.104451320891802;-1.646866895315731;-1.1743174037319497;2.1663752678944954;0.8506162222647546;330;0.6298612606502894
622;2.0134783025203733;-1.674948568170256;-0.0074212759841748;-0.5919040810500248;-2.094564835677763;-0.9133698087319349;437;1.2566370614359172
623;1.598709717341513;-1.529971368260639;1.3851298231657072;1.8322870608039044;-1.3101282711102962;-2.07773999439149;267;1.256637061435917
624;2.7510927329964066;-0.1271503763184537;1.1944055476606334;1.237982071341443;-1.8512516261864769;0.1007222486432125;105;1.1541217713362628
625;2.971834389379672;0.8767469838045561;-1.568338171456307;-0.3800465259405836;-1.3979929764576275;2.0663190829569524;477;1.2566370614359172
626;-0.7901726579253054;-0.1807608283747886;2.4381772242970023;-1.1712620806186935;1.6829179267197796;-1.9173081701421064;525;1.2566370614359177
627;1.9294724227669853;-1.3827861835498116;0.3106330625415503;-2.73935182682884;-0.0094535415192917;-2.7230645851831627;168;1.2566370614359172
628;1.0451187214846955;-0.4351169983478464;0.7432489068642324;-0.3078865132771914;2.3138079097474;1.948845334769426;27;0.8421624480966188
629;-2.5562329894606437;-0.8288141360029222;0.8389280010298795;0.2835639707469708;-0.0082753951535393;-2.0166370131618474;298;1.2566370614359172
630;-2.539370439888086;0.4361794209275148;0.5965467488997327;2.56848345191094;0.0779505504335063;-1.485449650329979;252;1.0313470596039052
631;-2.845257539757055;1.0679234729896103;0.4892943138000029;-2.7290152827905385;1.43377659911797;0.0304090066859907;182;1.2566370614359172
632;-1.614915939873075;1.4289654090692818;-1.579508997666069;-0.8089265592048364;-0.3546951321091347;-2.8423327020758054;147;1.2037299127521406
633;-0.1351495975579296;0.4763201830375114;-2.40339989343172;-2.9706228623747126;-0.0559580206100294;0.9562291459901882;553;1.2566370614359177
634;-1.0082235467267542;-1.5513016479009372;2.320783036171754;-1.147317160884734;-0.5991338750761852;1.629831951407458;387;1.2566370614359172
635;2.6514598707876487;1.6537458368694482;0.0898674756527655;0.4288803360238213;1.170888701473433;-2.2465292926638503;561;1.2566370614359172
636;-2.581367304939725;0.7894393117609354;1.626600486222205;-2.67250988000471;1.7375015986040956;-2.4112886279230867;139;1.256637061435917
637;0.5851597298518709;0.5012534649108558;1.6125003442491657;-1.236606884853155;-0.8931423024774627;-1.2947931710208238;210;1.2566370614359177
638;-3.213127420936688;-0.9896322818777544;0.1056095644089967;-1.060335524330212;-0.5269020593614564;0.5328206027985211;520;1.2566370614359172
639;1.980750124373292;0.3665814767570308;1.8809419324026164;-3.326598202035771;1.117897671503187;1.6801649993554095;1835;0.9989366482475164
640;1.2053617305941886;0.484586394949847;-2.5268088541727165;-1.3091764913620014;-1.8168421645680397;-3.2498560733439272;309;1.2566370614359177
641;-3.097416908587836;0.2425079001226576;-1.8012755080888072;-2.9121181962126705;1.4614909110413492;2.9834227544335947;468;1.256637061435917
642;-0.9233912872156912;0.2295909251554919;1.665873347999917;-0.5199609110430834;-0.5177467574409798;1.319191552599429;387;1.256637061435917
643;-3.039329885283022;-0.7310897324088736;1.9623118917329816;-0.7572810819944049;-0.9961320347646504;-1.3667981715468611;255;0.9051458601014648
644;0.3370293004834657;-1.2491860773249197;-1.3972539179076282;-0.9627522149795956;-1.2106475705678112;0.6777427264251741;192;1.256637061435917
645;1.7259781288891318;0.0945005297434661;2.372437881461134;-2.4923325460561347;0.4773670711701055;-1.241114677801988;367;1.2566370614359177
646;1.2147863354059003;-0.8664914436522375;0.534593833799849;-1.1511953597799205;2.850655974027245;2.515725479661296;628;1.2566370614359172
647;-3.222295120939686;0.16389034453751;1.3369403711662065;-0.0917942706386885;-3.2072529758917923;-1.0581484897168347;563;1.2566370614359172
648;-0.0366128962216416;-1.45050031580158;2.007576523019517;-3.41953824592913;1.0191665639248375;-0.530024433889426;448;1.2413955076530994
649;-2.857180732909943;1.0306774238732763;0.5651930991384848;-1.0223757344611797;0.012912208609525;1.603196622080103;540;1.2566370614359177
650;2.244580808624;-1.2484860011338506;0.0202806620623661;-1.635154621247282;-0.0514602026454813;1.3603453894992408;150;1.2566370614359172
651;2.779455717506023;0.0984612400879533;0.3071210947343777;-1.7741487945400845;3.116949629959189;-3.16844476060487;504;1.2566370614359172
652;3.298943276896136;1.281441227807764;-0.5405596692441749;-2.5344587243081342;0.6405743373136256;0.9935794713585412;564;1.2566370614359172
653;1.7588071735695987;-0.5992978414633756;1.9145462846547163;0.3900785336233626;0.5766242465610667;-2.035835893484441;209;1.256637061435917
654;2.380307185178261;1.0518137213067975;1.4560402183392605;-0.7261837467380302;0.2425783618990343;-0.5060729651256946;248;1.2566370614359172
655;-2.22423598611931;-0.4758522393119309;-0.0724048535789159;-1.970906421950188;1.00599141312469;2.530727635427876;566;1.2566370614359172
656;-3.172167187970338;-1.392507245789394;0.0520696409299288;-2.837385473761604;1.0548144837153828;-1.5426143428827752;294;1.2566370614359172
657;0.0566805417289554;-1.5677014593380212;0.0206740987011288;1.8774008626415672;2.5405963636847093;2.58113745392362;600;1.2337137928020008
658;-3.095592173174221;1.0618960774843256;1.6091205458796491;-0.822182515016769;0.8414407750423926;-2.235851746554339;1817;1.1764539227401285
659;-1.525353495236847;1.3959521053764865;-0.8488931975538785;-1.811132734948785;-0.1248816509993995;0.047455149925202;61;1.1861120386841082
660;2.412344656766304;-1.0326057145300975;2.166854325261514;-1.563490218038626;-0.9844927023678476;-3.1935243925472814;503;1.2566370614359172
661;-3.1939784403522493;0.5349449662113269;-1.5167042857527977;2.6085625969624697;-0.9524385165330962;-2.7835510167673743;107;1.256637061435917
662;3.411273285104283;0.3254531069425924;0.1815917110381452;-1.6031610179761493;1.0902180403861204;0.8600577352637679;451;1.150545210056046
663;-3.126038660371293;-0.1224227197958739;-1.3832255318009423;-2.27943505075606;0.7414324886062332;-1.726483788916286;405;1.2246157878005226
664;-1.9187880459195297;-0.2554189508367186;-1.5495573150573885;0.3965380758185862;-1.2183361975021174;0.9908731889857584;221;1.2566370614359172
665;1.5506687615610943;1.0667239324938622;-1.294268227411853;-2.8937376832558668;-1.524829901151295;3.400778274769473;463;1.2566370614359172
666;1.7766629722150566;0.3972470769270894;-1.0422495772715838;2.843645146223753;1.7245915966060088;-0.9441519359815624;69;1.181357918610235
667;-3.173054985210321;0.881773541899161;-1.3009745859178037;0.6355486690550394;2.747007773775173;-1.7895601140476045;583;1.2566370614359172
668;2.9332497375101427;0.9804959504031192;1.764138718061642;2.398107727084572;0.7597582068325555;1.692580070756038;527;1.2566370614359172
669;-1.9236491262278328;0.7951060070396998;-1.2031011038514363;-1.8059582549337576;3.27461051401756;-2.78372358907394;552;1.256637061435917
670;2.489630507027617;-0.8473310190430876;1.99761892700218;-0.0459053115021811;-2.6707688462597474;2.7579649770062664;274;1.2566370614359172
671;-0.677534690619388;0.0871390760459114;2.650513090033868;0.1460661341690298;-0.4763020828420097;1.0301005614385774;642;1.2566370614359172
672;2.465218171344441;1.4657846222383366;-1.750647933355752;-0.3562442999953845;2.705337498474032;-0.1113427892965119;449;1.2566370614359177
673;-0.1705572649372221;1.1100280668765092;-2.0089747745896243;2.73742931636677;1.816841482943896;2.832070995414385;486;1.2566370614359177
674;0.4662517710816709;-1.143546962665954;-0.6713459331737012;0.2317832052298603;-2.0254932195592774;2.3960842527697404;1821;1.2108629617485291
675;2.3442347520048914;-0.2984121925797766;-1.7067608889943204;-0.9105599675732494;2.803704616621518;-2.968542357789244;395;1.2566370614359172
676;0.4512164771399718;0.9674448066747516;0.6030237969575042;-1.6828546225483183;-2.442077589189411;1.7016806509969786;532;1.2566370614359172
677;-2.813070839904792;-1.1228005071576244;0.4072527436826058;0.2607247881117728;-2.2952893240380385;-0.6065063491527991;145;1.256637061435917
678;2.475964869506608;-1.484175756578598;-0.7360782456913938;1.023903116391047;2.1336083567373945;1.1399108081436704;602;1.1557070063865664
679;-0.1004188896426594;-0.7335426817763799;1.8581918929981744;2.0651505420048637;1.1910336034929974;-2.5615524894576445;238;1.2566370614359172
680;0.9372152047753834;0.6112417432742622;-1.217718160007507;-2.6969233670608945;-1.666213206345776;-1.9285461709150664;131;1.2566370614359172
681;-2.269348792902286;-0.1156781925813073;1.0761973673012204;1.8196139158130649;-0.8426572510589138;-2.73258119996714;476;1.2566370614359177
682;-0.4486060821087456;0.8901699269022202;-2.1695405820648457;1.3206525968660645;-2.370974298471309;0.4966928488620412;157;1.2566370614359172
683;-2.5076053182972635;-0.9766164032530986;1.9688584002939915;0.2885110267867615;-1.190745925019397;-1.0434967872336018;643;1.2566370614359172
684;2.687076025443637;0.8673897597530931;0.0209693426861403;1.1159501460128731;0.9595418539822764;-2.9083698680404746;635;1.2566370614359172
685;-2.495286184972248;-1.0314629084080749;-1.6683294226595424;-3.058589868977104;0.7289711174276828;-0.0319217443011321;104;1.2566370614359177
686;3.4523200558027325;-0.1337295815346913;1.1018522563728674;1.265265283343955;-2.255197096186553;0.1699783084230537;624;0.8179497992704624
687;-2.4938289234391005;0.9511190254703968;-0.2083669533422139;2.797304845294098;-1.308992947308531;-0.7990328927418666;222;1.2566370614359177
688;-2.495575576649329;-0.8972891790004034;-0.7866268445117559;2.208117050645882;1.2937304421019191;-2.783966161160352;194;1.2566370614359172
689;-2.4773109360176706;-1.0589466951711897;1.6283553868920235;-3.0668884192096866;1.654367297453485;-1.5831493107308168;492;0.8702528740516234
690;-0.1634192495748229;0.3157624788719149;-1.446465478959681;-1.4437534988593006;-0.8635440207199813;0.4378488769723038;18;1.2566370614359177
691;-2.657041439452689;1.148117773656295;-1.0843045101488136;1.5501093036580849;0.921706985627044;-1.4263036909613322;994;1.1721873944471788
692;1.7259116070616356;-1.320306676687966;-1.1009639742212174;0.8564142215938176;-1.0737153929086158;1.6901645685268942;167;1.2566370614359177
693;-0.6277124401809253;-1.2008994859177549;2.241727492694514;-1.0670977972758913;1.3672783110127111;-2.5197942191394773;626;1.2566370614359172
694;-1.0833477045552131;1.7272899320860309;1.354740064204176;1.555905263772177;-0.5416890123145958;-1.2966215776827403;592;1.256637061435917
695;2.866901528421124;0.1427095096544693;1.9711685453514665;-1.860691884914324;3.123192132192793;2.4448144838237305;205;1.256637061435917
696;-1.460482482096385;1.1070604026697304;1.8206424558506609;1.3977561847129274;-1.7879243803916418;-0.0950556981700663;33;1.256637061435917
697;-0.0619774141156024;-1.3220343826866885;-0.1404066994947496;-2.9902035299687237;-0.9149045776868164;3.1147807331896824;453;1.2566370614359172
698;-1.732711733823879;1.0272183552527794;1.3586528073761048;2.8520910314079777;-1.1077860697991475;-0.8339979144272093;434;1.256637061435917
699;-0.8404439014658815;1.1337956063488606;0.0475147196302686;1.7988424242943737;-0.5577865162862887;-1.0765420009543756;546;1.2475859576171182
700;0.6500853764233638;-0.4296588168510763;-1.0442292530040216;2.344703914353706;-0.9856479818802591;1.953745796647763;479;1.2566370614359172
701;-0.62928832200893;0.5049711773824705;-2.662705596647756;0.1627883197960192;2.978150762624749;2.5188127097643096;517;1.2566370614359172
702;2.881261375128044;0.6780401152399448;1.001212737632321;0.808501836236172;-1.8870417313483168;-2.132171564504667;117;1.2566370614359177
703;0.8452546576225507;1.628101924059829;-1.6147428317839865;-2.2195253589072887;-0.8974853637082528;0.262171836399494;408;1.2374129001109877
704;-3.046561333593802;0.9677102837844967;1.9218456217790547;-0.2688012284759944;2.505616262907725;-2.6681372893740485;605;1.2566370614359172
705;2.091453640081403;0.8156332925816875;1.8078604288306157;-1.442284480741627;0.6412995761357191;-1.0087977341653958;654;1.08972752891118
706;2.7222168635066994;-0.4734843713943266;2.570561037326438;-1.672881614636668;-1.982166207209042;-3.2077100908428164;660;1.2566370614359172
707;1.4039364580574158;-0.9509871102907688;1.3432115177485402;-2.1676296630638543;1.1737820752788255;-1.633012854794814;45;1.2124236473010623
