Komment314/test_diploma/benchmarking/path_finding_for_benckmarking/pre_rrt_star_results/2_1_tree.csv
id;joint_1;joint_2;joint_3;joint_4;joint_5;joint_6;parent_id;cost
0;0.0;0.0;0.0;0.0;0.0;0.0;-1;0.0
1;0.7805636082967202;0.6589139273627099;-0.4759027121108427;-0.1830117431959093;-0.5250837117665054;0.0;0;1.2566370614359172
2;0.6580657119993003;0.920803698477668;-1.0830571120513424;0.2254032032982267;-0.784553116733704;0.944870949580634;1;1.256637061435917
3;-0.7481943135306375;0.3096219913474695;-0.2949264678174483;-0.1804397528670887;-0.8962637521778988;-0.0254432023677096;0;1.256637061435917
4;-0.6722455650064855;0.1629154916911364;0.2410913704824152;0.6960333787784243;0.1896050447749309;0.7225950185072839;0;1.2566370614359172
5;0.9453150462157665;0.7143359722657762;-1.1429842632354672;0.8125916445019216;0.0984278234535397;1.515798906973831;2;1.256637061435917
6;0.9847651655941478;0.5525362099428622;-0.0506083434200498;-0.963428656479504;-0.2391156432100051;-0.8089614419705169;1;1.2566370614359177
7;-0.3149529318906655;0.7541697950151522;0.0661088710109159;1.6569975362451437;-0.0364518402227542;0.4115896729191061;4;1.2566370614359177
8;0.5381638655275565;0.0200789347452973;-0.8389629645621421;-0.9077933216288824;-0.9782011064454088;0.4998324363032683;1;1.2566370614359172
9;1.5881700612816172;-0.092556004276816;0.5809652678832365;-0.8582172589189834;0.3604110204013091;-0.980741493593564;6;1.2566370614359172
10;-0.3184084507815986;-0.0014040169211523;-1.2463739938527607;-1.1692200888249804;-0.962475636270206;1.2811032357628984;8;1.2566370614359172
11;-1.3105530035685575;0.5725056963944437;0.4845203833514278;1.938626381571735;-0.1253591793501612;-0.12936119508262;7;1.256637061435917
12;-0.9643518647943388;-0.1454538364344538;-0.4379657666362337;1.0533867441311038;0.9887295750385532;0.3087122655443215;4;1.2566370614359172
13;1.495384572977618;0.1598943728491644;-0.7527502330329775;-1.0362587331285529;-0.7371387246944768;-1.455415206625133;6;1.2566370614359172
14;-1.3473861893000931;-0.1436701371185894;1.1985454153460235;0.8043063984860652;-0.0713276046274476;0.9037025872713756;4;1.256637061435917
15;-1.0410886300851256;-0.955331483120484;0.8023657659084256;0.5945827660947842;0.3170037970943239;0.2146592108250462;14;1.2566370614359172
16;-0.974540101093672;0.2506532508493857;-0.6246317351450839;0.1538808881472305;1.652852852609689;-0.0615813785524435;12;1.2566370614359172
17;1.3387198998664491;-0.2646576448635073;-1.6922329852583284;-1.049333898179478;-1.0117599917631852;0.8283779559465079;8;1.2566370614359172
18;0.7512986872890057;0.1277472330751952;-0.8391018147870181;-1.625651438916547;-1.1801224241160275;-2.1434301374492573;13;1.256637061435917
19;1.0768659174626214;0.678377039863587;-1.9043623938851952;0.2907721579058273;-1.3805383293628295;1.502507540385192;2;1.2566370614359177
20;-1.892791863734272;-0.0746932995335961;2.077081082915326;1.4297679266401335;-0.0659376114439151;1.2411273284023312;14;1.256637061435917
21;-0.6378954461240394;0.6185181478752895;1.1205991450030073;1.481718358988706;-0.8383169368680593;-0.1830405464750084;11;1.2566370614359177
22;0.264428118211226;1.1733734684858257;-1.0162720938441865;0.0104192442647933;0.3554144965917383;1.9391611499362704;5;1.256637061435917
23;2.065616409429622;0.2193426273973014;-1.994458081347872;-0.2302894758338464;-0.7920774323015917;0.7504824901142806;17;1.2566370614359177
24;2.508046742465379;0.4861042079968463;-1.2579360443533385;-0.6571700840411582;-0.8828768888040955;1.511596185797804;23;1.256637061435917
25;-0.1938807991818147;1.4177139048201377;-0.7759502599429238;-0.1246411010116749;-1.1554746731658208;1.4468427201768883;2;1.2566370614359172
26;1.637905581410119;0.8938619533604798;-0.5604939100946396;1.569591907338388;0.2531725756912706;1.8776485015069235;5;1.2566370614359177
27;2.887086136243304;0.0879956896063845;-1.750401725986379;-1.3693145845624906;-0.1983902825557398;1.7540447337028138;24;1.2566370614359172
28;-0.0734559445312289;-0.3825731599790248;-0.2173586712885686;-2.124734282552557;-1.209500027629124;-2.1879085930321653;18;1.256637061435917
29;1.3223892916136857;-0.4067722879866088;0.593950205575796;-0.9436154053311778;1.1357214668902158;-1.875837953897301;9;1.256637061435917
30;1.2826027650448488;-0.3961144459331824;1.1586451581007788;-1.600468334587522;-0.1245977112955425;-0.4575461004286738;9;1.2566370614359172
31;0.3113772804228106;-0.8788005997617303;-0.5754594721510254;-0.1151858773970485;-0.5036526081764501;-0.3343696444149954;0;1.2566370614359172
32;-0.2174506867959635;-1.4825823195956465;-0.1910778524473145;-0.4959224821281917;-0.6975938432856552;-1.1119315555397775;31;1.256637061435917
33;0.6571445256503103;-0.5587872276485986;-1.1871696910552445;-0.620522314123515;-1.9145698406844616;0.1133931653462727;8;1.2566370614359172
34;-0.7693964504989218;0.533789041930686;0.1953007938380366;0.4532787310633553;2.219770545587835;0.5496164777629868;16;1.256637061435917
35;2.100348673364788;0.1763215350368082;-1.0262111819713349;2.0335290144539697;-0.1856688221234498;1.4025623516029584;26;1.2566370614359172
36;0.4265504553293449;-1.04211786178014;-1.143206940673502;0.4441539815211955;0.0598282079549719;-1.1001962696681011;31;1.256637061435917
37;1.5500154316223445;0.0733222183878677;0.9612320541825164;-1.42467052666067;-1.2005093300620566;-0.2130184458535198;30;1.2566370614359172
38;1.2526823960773137;-0.3841785057823134;1.6200716706528069;-1.9187960976260947;0.0273124273552706;0.6563548501032301;30;1.2566370614359172
39;0.1520639833411142;0.1168221033368454;-0.4562799726751572;-0.4074114964751518;-2.314691423634242;-0.2441947254800652;33;1.2566370614359172
40;-1.5843635882203486;0.9833709807939098;0.2766712523963663;-0.0765495331600752;2.334667221946786;1.1917231367551588;34;1.256637061435917
41;-1.1759689403152604;0.1225394887151652;0.8178758088375124;-0.5150793163928661;2.489633131818726;1.594332726885555;40;1.2566370614359172
42;-1.546111766324345;-0.0639448430521794;-0.3668498739183467;2.3350538585428726;-0.6116919408333318;-0.1207664322463469;11;1.2566370614359177
43;0.6417453696650355;-0.4575238324818388;1.681862671361997;-1.704819718753639;-0.7342229118396968;1.411982420839869;38;1.256637061435917
44;0.380243254719791;-0.4887491935026189;0.1885684951876443;0.417946071386117;-2.560580567395222;-0.1908262293312922;39;1.2566370614359177
45;2.037901805854962;0.5855211565416343;-0.5282761732736078;-1.5532943797800307;0.1172393253984217;-1.6920103910970543;13;1.2566370614359172
46;-0.4977909678178472;1.183197408842942;-1.681434485185911;-0.2062413149838874;0.5043196337684575;2.6366614829800232;22;1.2566370614359172
47;1.6131246133547203;0.2747767436122695;-1.108650827023676;2.6954191032088626;-0.9797743995062812;0.8960472593034979;35;1.2566370614359172
48;-1.2409159655778923;0.3690204377793307;-2.161318633133886;-0.4524103458330844;0.6947080623771007;2.8287085103432767;46;1.256637061435917
49;0.3401173309026781;-0.6594489401328187;1.308146863739163;-2.086271295580425;0.4065933697268848;-0.7421398693568259;30;1.2566370614359172
50;-0.7728587019888705;0.1342424388737986;-0.6883924306093481;-2.074386277232234;-0.939680532343208;1.7533561786482657;10;1.256637061435917
51;1.755524196650867;-0.2778281588468916;-0.4431198301823879;1.8963698780739136;-0.977628191001786;1.9202234809152263;35;1.2566370614359172
52;-0.914592753474142;-0.6974575017361444;-0.5917391464262828;2.2239239231593637;-0.908071044107854;-0.9133675498237036;42;1.256637061435917
53;1.876175284786676;-1.007911973063348;-1.0758549995407063;-0.5412965303984844;-1.044786891544444;1.1426021634137853;17;1.2566370614359172
54;-1.5865311805820077;-0.1225025763103918;-0.7998496576919267;-2.5104129011647114;-1.4138424259024611;1.1023689534419048;50;1.256637061435917
55;1.457186751892776;-0.4788619738682488;1.1391036522621871;-0.1798007798200633;1.9566946739125;-1.8416713497508927;29;1.2566370614359172
56;-0.5611107373668637;-0.1933549902449716;-1.5634026606022082;2.3880546044898754;-0.5354488670425315;-1.213620233734591;52;1.2566370614359172
57;2.9199425498467564;0.4553069439919129;-2.2390934846816646;-1.7421721032980648;0.5304787538551652;2.484830041524645;27;1.256637061435917
58;-0.7444218037328368;0.6327550001652786;-1.5723512362168024;0.7271267269016499;2.022025849836812;-0.1923819149475213;16;1.2566370614359177
59;1.0325105030088697;-0.9431906618845288;0.3511632325027903;-0.4977686156770237;2.589241307866541;-2.0888893981140995;55;1.2566370614359177
60;1.9175386472546017;-0.6009486879186587;1.1758667529497355;0.0323241003707059;0.2350703997039052;-0.758237657151952;9;1.2566370614359172
61;1.2232916550291837;-1.0393895028060487;1.0929375084630826;0.4848992079675226;1.894458234798846;-0.9685116185512084;55;1.2566370614359172
62;0.7247314797990667;-0.6640993236605562;2.239476667630369;-1.277209676401339;-1.50350169596341;2.078317930388633;43;1.2566370614359177
63;1.323201302755732;0.1171098695435427;-1.1833945599721687;0.8330613924922956;-2.004622943623781;1.5115024503271692;19;1.2566370614359177
64;-1.9630989701545636;0.2473120863977154;-2.107867313910292;-0.0823448444946662;1.6201062863777005;3.0445975964218013;48;1.2566370614359172
65;-1.6268738693997888;0.6045638407824276;-1.1492305943464145;-0.6468520606895404;1.3427018686028884;-0.1871751758775039;16;1.2566370614359172
66;1.59488641967666;0.0247842312694169;-0.3121551393998889;1.3803898702432016;0.8930888601116717;2.43892166310072;26;1.2566370614359172
67;-0.1120670639325765;-0.5389056555625061;0.13587229987921;1.4694925113553523;-0.0133874843073604;1.0722631167490082;4;1.256637061435917
68;-0.6177575435197693;0.9653587250700876;0.4995922774666817;1.5844727474507667;0.2113790080224681;-0.9694761200673784;11;1.2566370614359172
69;-1.646250265006813;-0.2851706658728411;0.0076580423115334;-0.4746755643087242;-1.0746509206388073;-0.4824988081019633;3;1.256637061435917
70;0.6209288607846376;0.0545095394404883;-2.478673215307053;-0.3837307792292325;-1.5400092123127622;1.91703058211272;19;1.2566370614359172
71;0.5262309969159971;0.2748024084705158;-2.247531450064544;-1.470489310449558;-1.1314424270060146;0.4707060588014502;17;1.2566370614359177
72;-1.405380279278036;-0.5848625018131227;-0.2849131198433665;1.8488934919942632;1.282685062933652;0.9787008767405564;12;1.2566370614359172
73;2.238144825148397;-0.8420309594516633;-0.1007228627753139;1.84287928341534;-0.0541603214394106;2.154742989255408;51;1.256637061435917
74;0.9630971266117448;-1.1595549590006142;0.6376723261843719;-1.4554376023556457;0.7336368567082927;-2.5524607998173288;29;1.2566370614359172
75;1.480428966173195;-0.5484934149826883;-0.8781589816754598;1.060646820931661;1.616920981855526;1.8996072573062048;66;1.2566370614359172
76;-1.785176100861599;0.1667623160608722;1.472657164466999;-0.2696267419379046;0.1786245628383013;0.8909486704466075;14;1.2566370614359172
77;0.1558773172430958;-1.2824842985949252;0.2074475425334255;0.3101381969943625;2.440813420839689;-2.100393081211926;59;1.2566370614359172
78;-2.209169826448401;-0.0174290589397271;-0.1421287286868701;-2.672428763458204;-1.700205395031947;1.9020986994315616;54;1.256637061435917
79;2.1073389881222786;-0.1210920571239309;1.6118609652332154;-1.3212706172449322;-1.9234127765341085;-0.7365939732976615;37;1.256637061435917
80;-2.0339736924741385;0.9779882613424644;-0.2954779323370943;-0.9615772808190992;2.8500078145345977;1.2191777278497922;40;1.2566370614359172
81;1.4768401603715746;0.3695478027282108;-1.4070240470477318;-1.2401976874511949;0.3938554026370556;-2.2125468701142874;45;1.256637061435917
82;-0.5183767729660896;-0.682604346986511;0.3797802615987801;-0.4177557995373097;2.5092495303855977;-2.5481099921407853;406;0.9417448776306856
83;0.0456660759538292;0.954243893896279;1.153548092678084;1.6293744278668052;0.0325914708639596;-1.7924238178165284;68;1.2566370614359172
84;-1.0593116203069797;-0.2032790918933804;-1.3232257863253971;-2.31568111900522;-0.2613436533508652;2.432902449650386;50;1.256637061435917
85;0.0663417529627664;-0.339273478760381;-2.069989864912765;0.2445384244272182;-1.3989306660113436;1.1856911607702416;70;1.2566370614359172
86;2.142559460076;-0.623530798019452;0.9489061360649352;2.4191615072692163;-0.1732582368019831;2.427233854115692;73;1.2566370614359172
87;2.854362279114945;0.5375837176113554;0.3531096710863734;-1.354694876024472;-0.1158608395555576;-1.8910393972632416;45;1.256637061435917
88;1.2789806528338474;-0.0791639883735335;-0.4716637574866258;-0.2652752795645445;2.559725791239338;-2.2885854280384605;59;1.2566370614359172
89;3.2563736579564457;1.2614924331523505;-0.1114855953604362;-1.6265397486013835;0.5491131769403316;-1.4891179023737204;87;1.256637061435917
90;-2.0788430805069966;0.8589291274155416;-0.0449807979019724;-3.101616192960419;-1.4492702653211746;2.635269868568246;78;1.2566370614359172
91;-0.5825651605096486;-0.2410465660414227;-1.578969967843935;1.286319875769175;2.710858050559221;-0.145698213158517;58;1.2566370614359172
92;-1.901129221859117;-0.1791184766266955;1.0428606811803889;2.5306038660954044;-0.0888293713906202;-0.1729717426822735;11;1.2566370614359172
93;2.0972872582759163;0.2443296223361165;-0.9161809595456016;0.5220217640926328;2.1422910766220977;1.949385003377698;75;1.256637061435917
94;2.517566195074191;-0.8675261261050053;1.621400451674199;1.5052773593505766;0.0252040659897678;2.655603744380511;86;1.2566370614359172
95;-1.9112959512087944;-0.4717298959742753;-0.3278236765903899;-2.796214535733609;-2.2076287156263;1.1258885683448887;54;1.0782267035441735
96;-0.0239233746394716;0.2667779082368004;0.3906648211962263;-0.9832377630616154;-2.009779872555132;-0.8637235653607445;39;1.2566370614359172
97;-2.2451619960307365;0.0834139733701981;0.3055170028405178;-0.3417327190030062;-1.7688844124729448;-1.186936814359927;69;1.2566370614359172
98;2.971821729508048;0.1812137786950125;-0.5081498602100349;-0.0261413647159521;-0.327086316486162;1.5541586676935937;24;1.256637061435917
99;2.528920684368122;-0.0874337985336464;-0.4343834219854913;2.5991889734598472;-0.4518118954610641;2.2269045792680875;157;1.1573026910777255
100;-0.4695836453882819;-0.308424210892828;-1.219261452511974;-2.5719722703248973;-1.210535760120692;-2.649307995573792;28;1.256637061435917
101;2.0049434505889803;-0.0931306965102233;-0.608443240186888;0.6186905901295187;2.170972420647124;-2.605896289332436;88;1.256637061435917
102;2.198878791423758;-1.2415404584847949;1.5874832469194406;0.9657575732129202;1.0422475661064308;2.7608599297635648;94;1.256637061435917
103;-1.4715161169399378;-0.5608440527493727;0.7368226036078555;-0.6141041222076196;-0.6495229364016348;-1.3431693503258015;69;1.256637061435917
104;2.096835727201796;-0.2221418684956314;1.88735079025585;-1.8630529262139377;0.4093990466217352;-0.4854714697343119;30;1.2566370614359172
105;0.6463107912961098;0.3365352132781087;-2.5899150023502835;-1.1911218240797017;-2.0248738673536977;2.691372375429453;70;1.2566370614359177
106;-0.080053268822138;-0.9546703282365904;1.1688828946863676;0.3163371792103994;1.813637059784016;-1.7869207348173548;406;1.1175189155855685
107;1.65356385418178;0.2218612762218532;-0.3197815142882032;0.1820970865741211;2.8424885039827026;1.301138216818377;93;1.2566370614359172
108;2.359970579062029;0.5123249503328106;-0.3121415588203922;-1.4462822122437806;0.1260369992281194;-0.9122503487505412;45;0.8805423769184351
109;-2.262770699467903;-0.1448280606599228;0.8753791308777513;-2.507318707895667;-2.176014207243298;2.4227286490550197;78;1.256637061435917
110;1.4454628525913296;-0.0061643759184913;-0.9766564263757382;-0.5067024253925064;2.5634563689295704;0.5939984646692427;107;1.2566370614359172
111;-0.0068612249122194;0.1237708474858803;1.4454673615575164;2.160586903951013;0.6087895362528104;-2.225187426701778;83;1.2566370614359177
112;-1.874572762715008;0.2842494762002225;1.510659950797676;2.319160347540448;-0.6407166151628891;1.329116940859198;20;1.2566370614359172
113;0.0986918672485501;0.7979748714143577;-0.8425545852776176;-2.133955283888761;-1.4479323101564985;-1.5319327131548603;18;1.2566370614359172
114;-0.2849815536320724;-0.1301224954707823;0.5292321693262407;-2.202150710643114;0.6528501995856735;-1.219028784566026;49;1.256637061435917
115;-2.475959478904988;-0.8328907874896715;-0.4052847459940777;0.0361173752720822;-1.420740228160365;-0.28372000992961;69;1.2566370614359172
116;1.186582948068475;-0.7479713896305334;-1.5333335631242817;-1.741815240685242;-0.1170407880734411;0.9591334019778732;17;1.2566370614359177
117;-0.9476013066128888;0.3207785211928715;-1.2554567693414114;2.8240447239183464;-0.1750453279829699;-2.080003352986379;56;1.2566370614359177
118;-2.1706161828262225;-0.2463287675493227;-0.5973447263060577;-0.5023970183842963;-2.485227627191387;-0.8541764946214083;97;1.2566370614359177
119;1.131615744079408;-0.101990029881689;0.696114723302869;-2.510413770907265;-0.1083833143507327;1.1689248334276725;38;1.256637061435917
120;-1.7305732663773576;-0.2619604268252065;-1.8200307878807356;-2.623915917777984;0.3029110240979897;1.7510712639071635;84;1.2566370614359172
121;-1.983676260503227;-0.7607651248923852;1.317879971935742;-0.2049661620234562;0.7833337448710801;1.4253802117292709;76;1.2566370614359172
122;1.1107567331552637;0.9977933639843456;-1.8519479676493236;2.681840967234057;-0.4788604690541896;0.9165512351170996;47;1.2566370614359172
123;-0.7395849707083494;-0.0227069450196587;-2.0460306278712777;1.3489500368685992;-0.9434406864157504;-1.4111993696551068;56;1.256637061435917
124;0.3520461635548539;-1.4450787629169863;-0.2896203076564435;1.3440721912376503;2.726470428164378;-1.7590404041975556;77;1.256637061435917
125;-1.4805924835362985;-0.0447138726054055;-1.6872328847640916;2.1106482948480703;2.5124573594648627;-0.0862333592349587;91;1.256637061435917
126;2.4027792154621754;-0.3071946924736187;-1.508077665152866;0.8967280810062062;2.535841818112909;2.681507655855285;93;1.256637061435917
127;1.3215966940264032;-0.5523195360130293;1.6636621584734794;-2.494416638013171;-0.7477044095952872;-0.7903650454738483;30;1.2566370614359172
128;1.6080950554793292;-0.9304938397297032;1.991828043922736;0.8472617693208488;0.2354179686508696;2.208726510430071;102;1.2566370614359172
129;-2.084565228876744;-1.0288448813370907;1.9935232164036627;0.3456883264501679;1.6413356721336816;1.3905966270699917;121;1.2566370614359172
130;1.102136698894434;-0.167215151725981;2.23333514941651;-1.598875239567342;0.8267574609692452;-0.4686456576851598;104;1.1646498538248489
131;-2.8634215103868947;-0.748957326478886;1.546473082576001;2.2947008612016617;-0.136067927519595;-0.0429456642560849;92;1.2566370614359177
132;0.036153905342837;0.417124933943557;-1.2991677603655742;-1.3790725860389523;-0.3572185093106528;-2.3287205400611306;18;1.2566370614359172
133;-0.295656185634046;1.114333543586021;0.7212611219905599;2.4750671032993554;0.763955775362478;-1.7991506134868194;83;1.2566370614359177
134;0.2352776993995346;0.7451939844559177;-1.6030692864544176;-2.1985786923095256;-0.0337940119584012;-1.578182522603495;132;1.256637061435917
135;2.5730361755433746;0.9113482934759284;-1.6578032212040177;-2.501717286854656;0.2716551368652081;3.003503385945853;57;1.2566370614359172
136;0.153322140198884;1.5460510665108296;1.122248471858795;2.9806766563479825;-0.1134279319535195;-1.8694435914737404;133;1.256637061435917
137;-2.3371468988573323;-0.4296984866628164;1.6166551303319403;-1.284972246779419;1.0247446028957643;1.6003977888191707;121;1.256637061435917
138;1.8830967464940036;-0.4833842118191155;1.3409894598742464;-3.0922849349973003;-1.5297518273118738;-0.8463355293950788;127;1.1816638343583232
139;-2.819856746794132;-0.7647532914352703;-0.7749328261071475;0.5079743439238105;-1.7416402251489178;0.713256993255712;115;1.2566370614359172
140;2.882903618906798;0.0425265821406807;2.465922924437768;-1.3126993844305717;0.3906770426216328;-0.9886606351616188;104;1.256637061435917
141;-2.083941361853848;-0.2336955751837335;1.9420384206679813;-2.4198626701212405;0.7833778786477203;1.756916365031947;137;1.2566370614359168
142;2.161646359932588;-0.870084302397257;0.1619063938408814;-1.5974631570554836;0.9646081084896544;-1.7467343689845458;29;1.2566370614359172
143;1.7580418590351263;-1.21912248800118;1.173477598346974;1.5926709046391938;1.7354298724963946;-0.9244648311450262;61;1.256637061435917
144;1.7971595728805054;-1.3911782902559748;2.4529027089795226;0.5486010725553263;0.6764920598075687;1.2950379764984763;128;1.2566370614359172
145;3.1088950124389454;0.3246749607751812;-1.1589155823080133;-2.32178263154998;-0.077707489308158;1.3042615926977004;27;1.2566370614359177
146;-1.1693407851373667;0.91277048701048;-0.3844573697018854;-1.782948316549936;-0.2795391797479404;2.2036155801039428;50;1.256637061435917
147;-2.6441297661124405;0.8560769349701038;0.2163530216413058;-1.2428837180250203;-1.822747258300293;-1.1923057658129843;97;1.2566370614359172
148;-0.2488658418260633;0.7677632379129167;-1.4488991456347144;0.4102452791715814;1.184489064122504;-0.8982229951659936;58;1.2566370614359177
149;-2.1576287554350726;-0.0713396621126014;-1.573053606865963;-0.1414647234882874;0.9576964006560512;-0.6944412727189131;65;1.2566370614359172
150;3.210429094746192;0.6651125056508471;-0.1176707164070811;-1.2193364467819716;1.5716054376522606;-1.5891857563940497;89;1.2566370614359172
151;2.7994821240643724;-0.6055007278818013;0.1836241077392407;-2.610415529626855;0.7100608163218817;-1.6420477790102337;142;1.256637061435917
152;0.0118573700648542;0.7639414979150208;-1.5309684467752498;-2.449192639488447;0.5575881328768951;-0.5240810718311568;134;1.256637061435917
153;-2.708125776586389;-0.2263098802385797;-1.4741848125229295;-2.9518799419810016;0.6606199358736924;1.2342237747191045;120;1.2566370614359177
154;0.210838961155667;0.5346265619818493;-2.277477767500805;-2.754466856101401;1.3467221361081574;-0.0617427731529603;152;1.256637061435917
155;1.1705271827297448;0.8079929164181998;-0.6409507598860094;-0.4509964884270634;-2.2422936181698763;-0.092841068764241;39;1.256637061435917
156;-0.6257744778971189;0.162538917131103;0.7481706043018311;0.3440849002753205;2.7619264881151677;-2.818991809195985;82;1.256637061435917
157;2.507487298386429;0.7576414813983908;-1.2154041136503937;2.527869300264365;-0.5495587464422819;2.2167243769755296;35;1.256637061435917
158;2.9226329618607334;-1.4117534492925887;-0.8616593722923782;-0.477270897582586;-0.7408520052498453;0.7199680038296843;53;1.2566370614359172
159;-2.5830787941462354;-0.1512038503134814;-2.160386518278597;-2.7831528711176468;-0.0033196724122381;0.4482838077045677;153;1.2566370614359177
160;-1.357813951467017;0.3027974678946979;-1.2478389558066416;2.7928484905094564;-1.0693599372631788;0.3418381851492027;42;1.2566370614359172
161;2.408778822722624;-1.1988438406213957;-0.6996691329813765;-2.8863990293781283;1.0958272065484584;-1.3789089639461949;151;1.2566370614359172
162;3.1252633546869664;-1.2284742802593118;-1.1806815679916371;-0.0420297392802829;-1.4693049474682445;-0.1062478626483847;158;1.2566370614359177
163;-1.5310124281081412;0.0097506290526353;1.359720265386132;-0.4838454609089739;-0.8478569842390866;-2.2407847422432936;103;1.256637061435917
164;2.5020894478190545;-0.8614447084431465;1.145129068959658;-2.6975610776382557;-1.8656736216866432;0.0174024705443836;138;1.2566370614359177
165;1.8121385267516092;-0.1639766253606332;-1.0456125513042704;1.2250340968321076;1.1984568080539604;-2.7858622540118545;101;1.2566370614359172
166;2.332162336612483;-1.3201464537605014;1.672210669936946;0.6315022159029531;1.5756097134047329;1.7480719903598994;102;1.2054307845683778
167;-2.310897450148664;-0.1661444964280763;-1.6499273846128026;0.2104377870216001;-2.064072573512552;0.7737429395032669;535;1.2220828518277935
168;2.895344373161631;-0.281205709096997;1.844129950448168;-2.7911688523928118;-1.7085415563166495;0.7695692324544202;164;1.2566370614359177
169;-2.673932456268229;0.153004109947454;2.0474949647137803;-2.199087839376056;1.5765406140061529;1.1303855733931474;510;0.953632214058565
170;-0.3291668203906261;-0.6220110526317434;1.9123957635840945;-1.4145422562493786;-2.074080757735506;1.954782374935129;62;1.256637061435917
171;-0.6892960480280322;-0.1046976223600183;0.9211462687027272;-1.165689380305171;2.039608566588591;-2.9261347181230764;82;1.256637061435917
172;0.9848560152948014;-0.2040417264255591;-1.8049792669548612;0.2830169385411653;-2.0934797907890283;-0.2269256405780634;33;1.2566370614359172
173;-2.1795774099755487;-0.3862435246023751;-0.4563618476841735;0.8033067123937883;-2.1148870843422687;-0.7514511171794508;115;1.2566370614359177
174;1.6111830653744097;0.3511227216608221;0.1747747251232097;-1.95953799907918;0.7895123456738208;-1.831360207124892;45;1.1694936249193186
175;2.4896865917049977;-0.4293114593604549;-0.8436911321209617;-2.9473304176775312;-0.0788201650465628;0.9347424601140044;145;1.256637061435917
176;0.5715695797150874;0.2674391172594295;-1.6031415092158017;-2.2225169227697097;-1.9814534397099788;-1.982570881048931;113;1.256637061435917
177;-2.606805486158664;0.476767820817943;0.2010808944135337;-0.820090777542759;2.567943223141421;0.4107044892279159;80;1.256637061435917
178;-0.3294300060777863;1.1212154173164248;-0.7690049191260511;-2.980410786098376;1.190850584017553;-0.2572243522313828;152;1.2566370614359177
179;-1.0488831857643266;1.0856282372102446;-1.493442894243082;-3.025669197397714;1.3590685625427243;-0.9679292045725046;178;1.256637061435917
180;-0.644658932105729;-0.1826111963980095;0.0004242731410353;-1.676118827788638;-0.9194480604558698;2.663746496819943;50;1.2566370614359172
181;-0.5296552649360619;0.1843498580947843;1.2438273035872265;-0.9982272551876432;-2.518968704041717;1.6892716993490842;170;1.256637061435917
182;1.0024304929909698;-1.0820090228364176;0.2458456783673502;0.6198231477389314;-2.094120241421868;0.5697276834380005;44;1.2566370614359177
183;-2.666395792688209;0.0831797150732906;-0.4668246831693091;-2.6950431006584354;-0.8382907869664058;1.660469389370689;78;1.061319035819987
184;-2.3829677865767307;0.475162220480372;-0.7236470730252625;0.1992436240731313;1.5373956688740835;-0.9312319780663558;149;1.2566370614359172
185;0.1021490262115998;-0.0156847295596877;1.6374038266264268;1.6296258717015497;-1.3971284630994918;-0.0156381561722645;21;1.2566370614359172
186;3.168242735527824;0.3271020114313897;-0.9647203370142492;-2.641097381985111;-1.0124616461107017;2.0540413100572628;145;1.256637061435917
187;1.6918386513076753;0.2957101844945526;-0.7243931767986104;-1.4128082730772045;-1.9306764538163552;-2.354423243581866;18;1.2566370614359172
188;1.8558818437221367;0.2637503733909531;-1.2627817501670957;0.2025267615998465;2.018100265432836;-0.0809474322595411;110;1.256637061435917
189;1.4260732969074064;-0.6831427572190365;-1.10778754197687;0.3601552867252986;1.143591508182392;2.788760373580174;75;1.256637061435917
190;-1.37605697891976;0.0527185567576648;-2.309792075897394;2.017177872878717;-0.7792285619335357;-2.201950225809379;123;1.256637061435917
191;-1.9029950549048056;0.6997681165931672;-2.119610602187545;2.404015974164535;-0.9148858386548684;0.7769126573478449;160;1.256637061435917
192;0.035681451090433;-0.7057022507435231;-1.117468370331958;-1.5093994981288477;0.1406898327541465;-2.471839738066743;132;1.2566370614359172
193;2.8601676791653494;-0.3861457270379772;-2.086800451536359;-1.8183629284883729;-0.8496882307732523;1.2360475027068636;27;1.1103392962131091
194;2.9976429021480984;-0.4767015172571879;-2.25923742906166;-2.3353722879584384;1.120817808499831;2.4242730388611835;57;1.256637061435917
195;-0.732511225700433;0.7149859038609852;-0.8774747809595487;-0.5599069909354606;1.0878923911174758;2.2601784776772886;46;1.236140301756104
196;-1.1960806226555905;0.4438917615506897;-0.2036914064656023;3.256201214654456;-0.6654669110643631;-0.0183919950835113;42;1.1264658132820833
197;-1.4709592374141784;0.5268089878607771;-1.216159893933737;-2.7518838163675063;-1.8401303198844856;0.2474826811716792;54;1.256637061435917
198;-0.5295499507209465;0.0241325294651129;-1.0677831350136446;-1.8911044582695524;-0.6801742090897634;0.3317887344099868;10;1.2566370614359172
199;2.487808242145612;-0.5150283095597441;0.9124134979146262;-3.0313359681273866;-2.040414119206318;-1.7205730567206134;138;1.2566370614359177
200;-2.0750680775873303;-0.7061985662149267;-2.376418706921128;-0.5585279233975795;-2.258464485737661;1.0475616609048173;167;1.256637061435917
201;2.3801952148492065;-0.6879439290012304;1.225556258622786;1.7750183162168436;1.6151029558069905;2.4062692519665783;562;1.1551897149390404
202;0.4030686123572454;0.0003867473340061;-1.513677443453758;-1.2472734421903375;-0.546676452397732;2.180087063900561;10;1.256637061435917
203;-1.3508241122142075;1.0016433946558112;1.1349163078133997;2.585694660355517;0.5562535620510599;-2.2751432632957247;133;1.256637061435917
204;0.7058851570195495;-0.4524121443651218;1.392713470646067;-3.3959179953249574;-1.7959303164296236;-1.0095253334138496;138;1.256637061435917
205;-0.6349642196779691;0.2603164624496373;0.5569503961219096;-0.0472702964722156;-2.59099413044813;2.1146763512522115;181;1.2566370614359172
206;-2.141065420361943;-0.1533501120655368;-0.7824275002586666;1.3214318331069088;-0.7127113769126178;-0.2034359620920905;42;1.256637061435917
207;0.9277316443672124;0.0735884229666088;-0.390073653002425;2.412206074931864;-1.2736504186637667;2.5635527452987823;51;1.2566370614359172
208;-2.363439841589549;-0.4013982657040855;2.570152565688064;0.1083520023750673;2.2075123819829487;2.02169915054133;129;1.2566370614359172
209;-0.143682351054608;-0.6045578708180498;-0.5803062963906812;-2.576377042938164;-0.3830701401539977;-1.4857925648675088;28;1.2513490310514224
210;-2.377588296845192;1.20343834706945;-1.206847411150474;0.0116529116335498;1.769381738770592;-1.783424016236743;184;1.2566370614359172
211;2.259563355470734;0.8145931784380962;-0.8141649510722282;-0.164681491579106;2.37944363933757;2.779681747739565;93;1.256637061435917
212;-2.8093551427223185;1.2434985364506537;-0.3014538260363708;-0.37552557491185;2.1960007799033727;-2.272771281004768;210;1.2566370614359177
213;-2.0922439862529765;0.172145080895838;-1.781891706044321;-2.892315551455953;-1.7643349216351116;-0.6021272177121051;197;1.2566370614359172
214;-0.4164187167272153;-0.8626375836917356;0.6951446149382557;1.3584932887429744;-0.5461913460362514;1.9513069776796943;67;1.2566370614359172
215;0.6821278377353103;-0.3136489705745844;-1.6694657443275471;0.4254014943499998;-0.331518336056457;-1.428964870350231;36;1.0651420648694734
216;2.855819329206965;0.0124007934359719;-0.4645306537942487;-2.439219218342274;-1.9930395946899349;2.414615626050492;186;1.256637061435917
217;1.6061286664241576;1.404357052654707;-1.8255995411428727;-2.53911381858832;-0.1819585404300135;2.944885451729633;135;1.1902618635535331
218;-0.4134519561503772;1.1654885263527952;1.1185689934599468;2.1786433211139915;0.0796454078151798;0.4951740161068375;7;1.2566370614359177
219;2.1981490777799904;-0.6218506868562761;1.3281196921046765;1.4923256509941354;-0.8782718595630337;2.703226321339294;86;1.256637061435917
220;-2.844643736666934;-0.5946372155381218;-1.1894571127531617;2.14933759210474;-0.8239678996398899;-0.0424984455524405;206;1.2566370614359177
221;-2.3811864133011182;-0.6878616723459766;-0.8071735119552923;2.091934779992354;-0.0669989571876695;0.0036354180831148;206;1.182146751064472
222;2.507572797210714;0.0877423310435553;0.9971069087229352;2.410691348225876;1.2003852078385364;1.8292403427336643;201;1.256637061435917
223;3.3146824394542724;-0.5813992022884502;-0.9935137772367992;-0.1924739642873577;0.1197617221573761;2.1999812777914918;98;1.2566370614359172
224;-2.925151364571117;0.6871747446776857;0.3637068928230229;-1.059283125274237;2.783189951002025;-2.234333205603631;212;1.2566370614359172
225;2.161564740841408;0.5548364691611875;-1.2217341141078222;1.1687706388686545;-2.5898964793869275;1.0340475910325544;63;1.2566370614359172
226;-1.8052833569272155;0.3356547026248475;-0.3738249166548181;2.533212626393618;1.5177603294054214;0.7776935565489258;72;1.256637061435917
227;-3.027751583437864;-0.7931787568538126;-0.0906399538795295;1.1417127627985224;-2.4857454606629523;1.0472251263585186;139;1.256637061435917
228;0.8364939741904942;1.1752760962285902;-0.9185647429619244;0.2170933206791615;-2.625517606398432;-0.9067129529149192;155;1.2566370614359177
229;-1.9247399368922;0.1138742014286187;0.1192857433129436;-3.082131469807944;-1.1316949174275162;1.3947002308858454;54;1.2275976308716292
230;2.451999552404575;0.8014085282255095;-0.7509168061193041;-0.8481512738714371;2.8954294611417706;3.215740425927875;211;0.9822043245499325
231;-2.2035717078328902;1.313997170813004;-2.199627000068602;0.5027742285762397;1.714231195145206;2.8901669350620223;64;1.2566370614359172
232;1.9584838539969744;0.4018585075372483;-1.3438046244053805;0.896129929778538;2.803827863133812;-2.0457811812826594;101;1.256637061435917
233;-2.279270999108687;1.1468092461847998;-0.9907464495033316;-0.2975017527866305;0.7094902897470483;0.3708255806150804;65;1.2566370614359172
234;-2.822571766505485;-0.1223850561771093;0.5523155088866493;-1.6325363864615512;-2.213737505379541;-0.7771745571772362;147;1.256637061435917
235;-1.4906039644167928;0.0051964409025223;1.4785144480938657;-0.0807717294908551;0.7293117485715931;2.265126141546434;121;1.2566370614359177
236;-2.5317016724814723;-0.220709325176525;-2.3744984542470973;0.4694523617214595;0.3258498631742872;-0.7406071187549745;149;1.2566370614359172
237;-1.932695659523148;0.9041230555272906;1.0880250278580206;-3.1653063809703355;-1.1876738529868294;1.472627445344727;705;1.2112789400214437
238;-0.5762327273328464;0.7792513403922336;0.2740240138426072;1.3441786229009354;-0.2519891359014776;-2.2676824996883305;83;1.256637061435917
239;2.010358477760084;-1.0082994042828008;-0.4446784041194384;-1.141788516636048;-0.1497824671426688;1.1761280482333727;53;1.256637061435917
240;1.098838408012168;1.1786358440273117;-1.88613679425441;-1.7071422348760128;-0.6658452707281752;0.6466354818093869;71;1.2566370614359172
241;-2.064913867369748;-0.2746614569558722;0.1142697748149865;-0.760924196525872;-0.9456325247572768;-2.148344044815802;103;1.2566370614359172
242;-1.472130185217852;-0.3860724825754996;1.8038973068274744;2.312023900233722;-0.2494309943823703;1.4813511177373837;20;1.1037642467519808
243;-0.5492447490322742;0.5313948582404204;-1.2217733434372018;1.8357892706404744;0.454873135330847;-2.118847029920365;117;1.2566370614359172
244;-0.773323078630765;-0.1024248432707607;1.7563468953070558;-1.063098228119808;2.8848163656403294;1.765158859351768;41;1.2566370614359172
245;-1.1424310924153702;-0.4495022782125792;-2.1604837238559083;-2.4710653356118417;-1.1310780636162592;2.606162216825424;84;1.256637061435917
246;-0.6091701795780272;-1.1997506675609575;-0.6796462049438462;-0.5052001879470329;2.8490017224942243;-2.7889220215090123;82;1.2566370614359172
247;0.9558637490051026;0.1322116117511866;1.011711268947746;0.4428226477623053;-2.7041625858210185;-0.5950622532216384;44;1.2566370614359177
248;-0.49959435485068;1.4945869258804398;-1.5702837424398066;-1.818937560353485;-1.5818945993475235;-1.2333524744543838;113;1.2566370614359177
249;-2.520977834039463;-0.4668445520034777;-0.7379503058245873;-1.1779375902668157;-0.6724787731075639;-2.747857023835214;241;1.256637061435917
250;2.3761870270536773;-0.4124159598441354;-0.8813520284919341;-2.946688124014147;1.0600889948816152;1.451884863006507;175;1.2566370614359172
251;-1.8301583651567663;-0.2817970332829858;-1.2589408323656115;-2.968100245844738;1.2756474304980014;2.1861863235372527;664;1.0031836620629973
252;1.258107626675081;1.1905247366850995;-1.6814513795006958;2.8633362202748613;0.1345110542722625;-0.1236625877364579;122;1.2566370614359177
253;1.3123791948133663;-0.4099562682623087;1.0545696971391838;-0.225835562934666;0.8110492180534775;0.1154497298667205;60;1.2566370614359172
254;-2.184772697184507;-0.9765109789095464;-1.3335817865193191;-0.3046142967337665;1.6616804297897616;-0.2707589051568004;149;1.2566370614359172
255;-2.764022365217208;0.9130883732291007;-1.735767851333312;-3.0526256401614127;1.0654657513374866;1.0463185343588202;153;1.256637061435917
256;-2.811931579437506;0.2342857328688501;0.7051193262142217;-0.8479844211880283;2.769864025860741;1.4982051192946704;177;1.2566370614359177
257;-2.101545072697335;-0.3544103924449713;-1.586407712285626;-1.3192945800624436;1.208915401659446;-0.4816272771740504;149;1.2566370614359172
258;-2.433770697071292;1.2480089767300564;-0.5619602275787424;-1.1718277106147963;-2.2059824395141963;-1.9819799813396857;147;1.256637061435917
259;0.4499652455815068;-1.2081301814346947;-0.452817040503729;-0.8840171079505699;-2.4318630891466886;-0.3747375054809314;33;1.2566370614359177
260;-2.570121030795737;0.2512352360163652;2.033808346387864;2.785394830851498;-0.3676349821675463;2.056184307320493;112;1.2566370614359172
261;2.2311807843015647;-0.5506673912070533;-0.1895649283408562;1.9381478562124443;1.0252415299433315;3.1456995327362125;66;1.2566370614359172
262;-2.087058343294854;-0.4480399682427075;-2.005290502609831;1.866840783308368;2.411825361866512;-1.0232148829621108;125;1.256637061435917
263;-2.174265371775551;-1.4683359185075977;-0.8021129178046432;-0.9961359883675698;2.111451613126823;-0.2592498148102695;254;1.097765986006051
264;0.1031248784318646;-0.3125262288900209;-0.085734438163481;-1.6029946546492864;0.0558373005119488;2.861549827569645;180;1.2566370614359172
265;-0.4030130087481631;-0.1311293771236826;-0.8274921063004733;-0.3198865198460121;-3.26015872663635;-0.6567220695848909;39;1.2566370614359172
266;1.20029842569896;-1.165628319401823;-1.822970363210168;-0.955168195392339;0.5128307689170868;1.5114648701416582;116;1.2566370614359172
267;2.19449121077841;0.5744249148179618;-1.4585760825539191;-0.6665032551205688;-2.0980346267171104;-2.7076805588144395;187;1.2566370614359172
268;1.709229601422836;0.3584502408996517;-0.1812859723334348;-1.1898393827621836;2.3483136163786478;0.1133288047938089;110;1.2566370614359177
269;3.1204579738743163;-0.3780122301912962;2.3844381440047124;-2.8124064961768447;-0.9392306304822442;1.5663538873493688;168;1.2566370614359172
270;2.478895859479066;0.5914882954920058;-1.5612422366045542;-1.2301110343644823;-1.817236864073323;0.9882448868619984;24;1.2566370614359172
271;2.275072377117596;0.0226375511382648;1.3885321240842574;0.870776905260517;-0.3015047008205199;-0.5960524727693481;60;1.2566370614359172
272;0.9843212374533414;0.951351039485029;-1.6811396696709968;3.254094459977705;0.652241426093904;0.8893708879461614;778;1.097198721892369
273;-2.0557077910392567;0.0831935951189541;1.7257652754749389;0.1657403762214191;-0.5587501020810788;-3.0525138303668053;163;1.2566370614359177
274;-3.2359614074605627;0.5428648068510602;-0.8441722145122705;-3.2294565988753288;1.6799834390792712;1.1708207406586726;255;1.2566370614359172
275;-2.198660531039281;0.021790136630431;-0.408554777136016;-0.0027581178752428;2.921914985571576;0.2092960249234026;177;1.2566370614359172
276;0.4595794237457636;0.876712763896852;-0.5426363919461471;-0.1659580477519195;-0.0727353480746519;-1.349787502427948;6;1.2566370614359172
277;1.8796259073043933;0.9122802100867536;-1.8963979772319624;0.1151404886862363;-2.777279571038397;-3.026775679779236;267;1.2566370614359172
278;0.490213036693831;-1.0810806021113948;2.059531715464926;-2.916852418020124;-2.211233778987809;-1.5487570516286528;204;1.256637061435917
279;2.5146023427404427;-0.5100160464837;1.3699487489433757;1.7144615226105793;-0.8655611420135992;-1.051830379701273;271;1.256637061435917
280;2.606132433641203;0.273552413596997;-0.7318472163461534;0.5116927140492964;-2.711854049817665;0.2493429778757996;225;1.2566370614359172
281;1.7698914224280282;0.1019461946314524;0.7582185159436252;0.4563582160358824;-2.345934913487099;-1.44524505882444;247;1.2566370614359177
282;2.887691763619869;0.2476086165691933;1.4161517047023502;-1.4761583910430702;-2.79729287851819;-0.8276285458091363;79;1.256637061435917
283;-2.6849483554435607;0.1437347970418659;0.0347494402599518;0.0336381359627951;-0.5416428623630327;-2.616081237344907;241;1.256637061435917
284;-1.1862204259807925;-0.4202848753445444;0.4022071191086834;1.997969897880112;-0.5767401247782259;2.4946210452717392;214;1.2566370614359177
285;-0.9908598667157557;0.4359292053276665;0.5263147967704068;1.7080783889114337;-0.8531595353444286;-2.3714658345696726;238;0.9263024677482258
286;2.1650851365899166;-1.0464063726276902;-0.8880726609061329;-2.7179310778325;-0.4756388904701408;1.8733081687704287;175;1.2566370614359172
287;2.9690038617535808;-0.9248998956700916;-0.2633432666821299;-1.1171281551831485;0.5128152013286131;0.7808679673696339;239;1.2468813967548258
288;0.6114559437146092;-0.3169792985060047;0.4411566247251107;-2.1946814437694178;0.5705084328135255;-2.9183032226395955;74;1.2566370614359177
289;-0.333002926789349;-0.7355747312003803;0.4528910886091187;0.9734797970939368;0.2585547074874721;2.788860063309144;214;1.2566370614359172
290;0.0171656896873305;-0.9791205364569804;0.0514937026277283;1.798734031904618;1.9987230565275225;-1.1288163890286458;124;1.256637061435917
291;-3.290561536682713;-0.3757934791639465;-0.4084932125093252;1.1296424588358296;-1.6887197562261431;-0.1130202954586231;139;1.256637061435917
292;-2.1942381802177326;-0.4067555215412481;-1.8861543485824452;1.5843198481127807;-0.5360598204397113;-2.724093661025928;190;1.2566370614359172
293;1.1008065841891197;0.3554042924835081;-0.5835994922301267;-1.312787773179917;-0.7102917810772185;-0.8094945805718285;6;0.8249031446021672
294;0.9663456790601684;0.0382813776593326;0.6478645988855943;-3.227988353769528;-0.2245820749859222;0.9601967360967882;119;0.7882266103283746
295;-1.2380716684945243;0.7144446299778715;-0.0262317263240275;-2.528576858022089;0.3605569920211933;1.5394853355474596;146;1.2566370614359172
296;-1.5015777661574343;0.5539061288905335;1.666414129219608;-0.5395058060748942;0.1699044784338789;-3.189167027688835;579;0.9283342838243228
297;-0.4118765720152132;0.2578153912333187;-2.356576886022592;2.115305577157628;-0.5024873946073047;-2.1287448597275245;123;1.2566370614359168
298;-2.3997385922465835;0.3663465003608528;-1.4661438724499776;1.2332243602810489;-2.4988793274251253;0.6367333524187446;167;1.2566370614359172
299;-0.4184616726579485;0.7709227469865836;-0.0845433311816259;-0.3130674955141316;2.7451544454893484;-3.020198542369936;156;1.256637061435917
300;-2.669011208235042;0.9761470747488568;-1.3156400260517596;0.9872927483373144;1.2554326938273452;2.7429498939468404;231;1.2566370614359172
301;0.5904140625867229;-0.3507867489638596;2.02967040420643;-1.0016236511867591;1.064377237564566;-1.1794333201558396;130;1.120459564391567
302;-0.6845030252263438;-0.5211364080856039;1.1897085372287102;-2.7241585306941394;1.3822814404089263;-1.0582920861736564;114;1.2566370614359172
303;2.4610568993157877;0.5927950860956455;0.0526350076376576;0.9199610440477152;1.8807589907878095;-2.06868974078727;101;1.2566370614359177
304;3.2737842744532903;-0.2872304409568186;-0.2284026140765955;-0.9246067349810924;0.2121690237046704;2.8007942177612994;223;1.2566370614359177
305;-0.2350950321245485;-1.0195309792061742;-1.7895195680061655;-1.7613263068499316;0.3823506087902526;-1.9925080981650416;192;0.9874649642411144
306;-2.3684686151997;-1.0848578920121006;0.6149938384905717;-2.227336012616572;-1.4653083906928948;2.241028337755415;109;1.2566370614359177
307;1.161918812935887;-0.0954277286614048;0.3595986038711019;0.758328475664348;1.439629024060311;2.929131025867357;66;1.2566370614359172
308;2.6680109582818687;0.5447209305269779;2.2790073151575863;-3.0162946868609275;-1.006358620746244;2.248849085367596;269;1.2566370614359172
309;2.91554110959973;0.2024481906032504;-1.2844714313577212;0.7895811642029399;3.0240036205965493;-1.297407472661431;232;1.256637061435917
310;-3.0568946275280955;-0.2852301811921975;0.1931174696540326;0.0463234081226177;2.6436881599978115;-0.3443110641044529;275;1.2566370614359172
311;-2.7387918578788333;1.3412202957786294;0.6611270176718085;-3.2214506751218366;-1.7598364195250196;0.9977300560897578;237;1.2566370614359172
312;-1.221629418258342;-0.0615612795251655;0.4032006583663106;-0.9833180036828072;-1.776017446678718;-2.1591688752618032;241;1.256637061435917
313;2.870452256878796;-1.3090723706808558;1.5982261450511228;-2.8170457265990123;-1.7036664528503458;-2.1359716674291795;199;1.2566370614359177
314;-0.5919973082027111;0.178797519278419;0.0468965136907914;-0.7962598076025784;1.781489916567617;-0.3011005733858784;16;1.2566370614359172
315;0.1557469924029426;-1.5309486236007324;-0.2040750131850989;-1.282528408949624;3.075667835123055;-2.738308882050404;246;1.2566370614359177
316;1.383920314845083;0.050397939887812;-2.355263388767018;-0.3384987303348572;-2.4384208562722804;2.679300758593482;105;1.2566370614359172
317;-2.812065889267513;1.0184429794875596;-1.9649262916033536;0.3804612621613669;0.3969553709048684;2.916393537908617;300;1.2566370614359172
318;-0.2375873257052866;-1.0183824627407674;1.2489976420121105;0.2775497960342175;-0.3173352700739075;0.6912837412574742;15;1.2566370614359172
319;-2.503719869275689;0.4948395007681585;-0.1997769395052717;0.6644624751659935;-0.8087467224500263;-0.7005833042954184;206;1.2566370614359172
320;0.0977240928560397;-0.3430588318868664;-2.42251067678925;0.3246688570557685;-1.1231344778865908;2.6015479635478584;70;1.256637061435917
321;1.4886585873604647;-0.0257919311105104;-0.8729871122335257;1.29588964132324;-0.6719654294022507;1.55476100434683;35;1.1145639932286056
322;1.7583978370802664;-0.7882947592662619;-0.2024680355963357;1.0596161260404124;-1.6733048906614725;1.6436080475203263;51;1.256637061435917
323;-1.2928907221632002;0.7930517716252153;-2.219862908286312;2.1854468362268697;-1.3711019683241925;1.7424443332345998;191;1.2566370614359172
324;-2.3012859261416505;-1.4745484499372077;-1.3623560377522932;-0.6987164837219435;3.188386173921181;-0.2301787988252309;263;1.2566370614359172
325;-1.3574491889894422;1.1459682375014713;0.3323150081528968;-0.8317200971079947;2.3348731639192124;1.3461057027581824;40;0.8216695441435279
326;2.5156922424846737;0.6896756305637766;-0.8152131452763454;0.5571211397478811;-0.5373192770105142;0.912222973015625;98;1.1650536072128514
327;-2.851574222717393;-0.6405544430378961;0.3074524926233061;-0.90621384802003;2.4416268708257807;2.2350569531084137;256;1.256637061435917
328;-2.4910143332095123;-0.3587028945285823;1.4125580672761084;-1.4524046166663116;-2.390845939964304;2.2390401074958466;109;1.256637061435917
329;-2.3064037608808188;0.9310141186638504;-0.7997445490086376;2.697508003876979;1.3327472806296063;-0.0772519844916949;226;1.2566370614359177
330;3.198506478481524;-0.6169699206605954;-0.5912850115331262;-0.8238994029470567;1.3090805156188796;2.4548153008748197;304;1.256637061435917
331;2.443479295998648;0.1917912871541463;1.969751392930671;1.1733974544317678;0.4908953263498798;-1.2778662223523571;271;1.2566370614359172
332;1.8622009871807672;-0.5761724325140438;-1.077882013888356;-1.7391494787401216;-1.825688775810228;-1.8992922946427504;187;1.113023879798551
333;-1.5484891603398598;-0.4448281054997098;1.3034344370900794;-1.642725226252442;-1.9364965027273304;-2.3924362847419345;312;1.256637061435917
334;1.4319543546911149;0.3282120433973818;0.3855154199371021;-2.8620347277036826;0.0586181287590526;-1.4397347070427586;174;1.2566370614359172
335;3.0303031654056487;-0.9502938050585386;0.7665846952994491;0.902069172714714;-1.112634437963225;-1.2369523287258974;279;1.2566370614359172
336;2.192798943699568;-0.5747200971180958;2.178466796997082;-2.4157394261998806;1.0964526387402802;0.2783104512774904;104;1.2566370614359172
337;-0.2759859507038871;-1.21138126095924;2.039413783774731;0.177241666452208;2.618144442251417;-2.0115156287811486;106;1.2566370614359172
338;0.3301091832878334;0.9586404492132172;-1.4982822792476205;2.938902979260598;1.6551845190562906;1.0007836986755048;272;1.256637061435917
339;0.611846938989141;-0.0736104242306715;-0.7789505548278625;-1.773035412133966;0.8684664952212738;3.167211660086391;264;1.2566370614359177
340;0.4343598405294581;-1.266247019852104;-0.0326108945736085;2.3104794941311075;1.693726895981029;-0.1486814657233592;290;1.2566370614359172
341;-3.005472960525813;-0.9385881897872558;-0.1249172434237807;-0.9342895432006432;-1.4482846380994714;0.2325415687952653;115;1.2566370614359172
342;-2.620359838545272;0.1014764763565368;1.6311290126507665;0.8957994256265976;0.2355769710178817;-3.34759478325523;273;1.2566370614359177
343;1.583364828805879;-0.3298423037289762;-1.6523331799939622;0.5933800221206575;3.261517427959339;3.198952400443255;126;1.2566370614359172
344;2.9298504149737927;0.940298921879556;-0.6659238591070216;-0.3689508558914011;2.207644042945644;1.7693186782250143;211;1.2566370614359172
345;2.945042239346714;-0.1552705401746034;-1.0809965249525455;-2.8540417651536254;1.0937451483835512;-1.1421578047563938;161;1.2566370614359172
346;-3.156144848492476;-0.4838599094203379;0.9306615492034463;-0.6038788896376341;-2.58175413725877;-0.7551877364519213;234;1.2566370614359172
347;1.263268981616454;-0.8578204155419832;-0.3543854245455574;1.2387708792684498;0.6579296472521482;-2.9480549477465785;165;1.256637061435917
348;2.884718572140351;0.3562171800799188;1.8556026439389768;0.3804963605076819;1.3367394320802;-1.262556151852818;331;1.2566370614359172
349;-2.6747706745734416;-1.1377606893722965;0.712459989530793;0.3859732636613221;2.083242503787387;-0.4287605193439521;310;1.2566370614359177
350;-2.8886340793390595;1.0655138254270593;-1.502002350728082;-0.499264789900486;-2.22514192088523;-2.0324216908253376;258;1.2566370614359177
351;2.006538554233172;-0.4136356868777888;-1.3661388445903655;1.2770758948237602;-2.3575998231037523;2.2009653064462444;63;1.2566370614359172
352;2.274837556988764;-0.6719053902239305;-0.931139905485699;-2.6692387486340614;1.0264334667008528;-1.9535322447375236;161;0.8551895141941862
353;-1.0335992202595228;-0.1761857538803908;-0.4446822021784355;0.5514314260330917;0.6343845945771671;1.1361907716932484;4;1.051499658386263
354;-0.4279425263598456;0.6360350850549155;1.7108400010636216;0.0763913878779427;2.9446108695842037;-2.2860426232386017;156;1.2566370614359172
355;1.4712401866417646;-0.9666767969545942;-0.3337596420044674;-1.883679011532968;0.6574553483521544;0.9070214486435552;239;1.2566370614359172
356;-3.1993841127407805;1.0451175984186871;1.1818032205686753;-1.336469964516946;-1.327376472882163;-0.9712893521681276;147;1.256637061435917
357;-0.1178546316250339;0.7275222421847448;-1.4201013653187515;-0.95869736412056;0.7686426592659227;-2.3157609554452137;132;1.2566370614359172
358;-1.976971372970815;1.2772818429365531;-1.620324802770435;-0.4543406467220832;2.72339861859713;-1.4444134473836432;210;1.2566370614359177
359;-1.8353079350771853;0.5018030505783772;-2.321189169912629;-0.5543336451899319;-2.130254998883634;1.2546324357991685;200;1.2566370614359172
360;-0.5905804380071066;-1.215195593611255;0.7522345371117913;1.2192188839204494;2.5412180543745606;-0.9475056908039332;290;1.256637061435917
361;-0.2945948037501543;-0.7147688507930379;1.587139211884519;0.8414066608201481;3.027205591080719;-0.5411677700469681;360;1.256637061435917
362;-0.4731698833296794;-0.0868686809230506;1.0552307955595128;-2.0053593151337283;-1.7006228220176245;-2.178087774875388;333;1.2566370614359172
363;-1.4995498950397734;0.0181793807503233;-2.3930110306789865;-3.3396809474692457;-1.6555733424352297;2.9454277730216307;245;1.242987698259118
364;-3.3151647584138835;-0.613995072870381;-0.1673482278366411;0.2641114779618531;-1.0862874461071823;-2.1500229980441854;283;1.2566370614359172
365;-2.9038555663561683;-0.9021106496835128;-2.048628689682632;2.1763333979786528;-0.0331498841899449;0.299251528837529;220;1.256637061435917
366;-2.6058058940171724;-0.2407590839605508;-2.114427992667753;0.3644885291529894;1.388187018346121;2.2234024955699665;64;1.2566370614359172
367;1.948491488884427;-0.904698503099808;-1.8242700955954896;0.7498835492280103;0.9193445646846654;-3.105074432917529;576;1.2367646147049705
368;0.0018435104786238;0.2002553154274445;-0.1805506748390212;-1.542156706519335;-0.0767498648066644;3.4729131718723885;264;0.8229451363981208
369;-2.292238837438933;0.6831849990995877;-2.479752523645728;-2.6076618675410312;1.2361667704762591;1.3903265228497004;255;1.0837073148133591
370;-1.512158430889488;1.1103975793924703;1.6670242997581592;0.4235646608400977;0.8368742949696809;2.501222927750117;235;1.2566370614359172
371;1.730966820489365;0.428581725649628;-1.88391791370689;-0.8486134277658396;0.5423982351257017;-2.275125124746208;81;0.6890663008485421
372;0.9731069266778798;0.8900100096461213;-1.488894827640637;-2.774835292611772;-0.9102122579483808;2.481658567749998;217;1.2566370614359172
373;0.9154756613412094;0.3310141430949628;-2.3877482024556387;0.1504970538843532;-2.780106150859541;0.4508659031825263;172;1.256637061435917
374;-2.255856564057241;0.8846079779639762;1.7123593623793156;2.9472525615054828;-0.0706458834249646;2.9843457263706066;260;1.2566370614359172
375;-2.644394175924852;0.0431784752900585;1.984806937782932;-1.557572608298326;1.272339784805517;0.1017005879728283;169;1.2566370614359172
376;2.193359625751776;-0.9644134388324894;0.0659019413978934;-2.954800493138232;-1.0673744768113251;2.3785692402509464;286;1.2566370614359172
377;2.353860129840972;0.6210529186320028;-2.2114510248724533;0.8095972432510279;2.194691979494698;2.991976529130235;126;1.2566370614359172
378;1.5620649653344838;0.3975625267002404;-0.4828723151992267;1.9905038806640745;0.9724308570117098;-2.288302805381512;165;1.2566370614359172
379;-3.2934845955934406;-0.3341873860048754;-1.6293510131556403;0.4686803140275337;2.007894490865599;1.818315804251979;366;1.1295658578816394
380;-2.606636352413007;-0.3387788352119452;-1.279547383387612;1.3673832907400003;1.679445344355047;1.5547884773688283;379;1.2566370614359172
381;2.384434159435674;1.3249198915903329;-0.7812417430392424;0.9593996342882768;0.3439616785737782;0.4445322818251573;326;1.256637061435917
382;1.1615900953261802;-0.7673961341626017;1.6422837110484596;0.9603086215898364;-1.1879343549576296;2.779820651468442;219;1.2566370614359172
383;-2.1074331406006417;-0.6509824590958727;0.9559657428465472;-0.8156378305146665;-2.754814140903466;3.013735845846484;328;1.2566370614359172
384;1.8488764565475897;0.835246092080723;-1.363679408854487;1.7219969190436872;0.5530050593071564;-1.7577617185408196;378;1.2566370614359172
385;0.4470823131548778;0.6184496224641729;1.5417741321937062;2.1393115988250773;-0.795603351862741;-1.3357161700977602;83;1.2566370614359172
386;-1.1315440452695151;0.5678519242258411;0.0002562473484052;-0.6097347796369784;2.050224980161277;-2.3484224880040645;299;1.2566370614359172
387;-1.3403887515138115;0.2041087617641857;0.6825708297421784;2.7376344690109438;1.4015115609703843;-2.303482194767144;203;1.2566370614359172
388;0.6077854032224818;-1.2218009742584577;0.30643306848997;1.3128707055766715;-2.8831868123093543;-0.4575459582253794;44;1.2566370614359172
389;-2.195604509098241;1.125897414432668;0.5553801892171599;-0.8607264432054524;2.262839180818756;-2.862007409780522;224;1.210627702661507
390;0.4479185076670895;1.0311826286144523;1.5374666189729709;2.8451198628050616;0.4222967243968078;0.2087068661056313;218;1.2566370614359177
391;0.3923674494623092;0.525408664056721;1.2788773921443288;3.287279086774629;1.1556566807899418;0.3059252412444401;390;1.0336994867808005
392;-0.6319957426746816;-0.7386764655409964;1.4409340484929878;2.109767860994055;-0.9113495373893132;0.0954169829624724;185;1.2566370614359172
393;-0.0853253222841772;-0.4768666071096644;-0.5199139360361622;0.3153978822033028;0.3273221818359336;-1.8219895799420829;36;1.2566370614359177
394;0.4625473227643428;0.7298533137048115;-0.2264226803252833;2.925412457305361;-1.961485507604953;2.1527278398369027;207;1.2566370614359177
395;-1.6888758799511243;0.0732792524438514;1.2142363203511797;-2.6950913325405192;-1.736667020177879;0.9332183108313292;237;1.256637061435917
396;-2.182914214585012;-0.646556241866431;0.6980343564644496;-1.00813022244324;-2.468296034143246;-2.682119725109231;333;1.2566370614359172
397;0.4545110469337967;0.2746072740516802;0.8316386975823866;1.539328134997357;0.2721537605044257;-2.6261143585395743;83;1.2219755100445633
398;1.794031929566528;-0.2017791276077072;0.090649448467907;0.1544005549920474;1.2711851580960671;-2.7004246500855973;101;1.256637061435917
399;1.6223385127899168;-0.6100595658634758;0.9300274333043164;2.4780590638714943;2.0064863501910786;2.920019588647929;201;1.2566370614359177
400;-1.0650969688332723;-0.8517720847055845;-1.9338309062697667;-2.091663641160144;0.2384738635261906;3.1298386584462192;84;1.2566370614359172
401;0.6970308150128104;-0.9367951708066972;-1.3005570085585327;-0.341683462905968;2.6993098425149538;0.5458995925160566;110;1.2566370614359172
402;-2.9619226188052354;0.5435131581805761;1.4263312822618248;0.6605284904963213;-0.8245183719147071;-2.677135990844393;273;1.2566370614359177
403;0.6145486006536831;-1.2532088734097675;0.6843250534656433;1.9242264603330024;0.0474257509645121;0.9000549396155431;67;1.256637061435917
404;-2.122382301554937;-0.4732505000894065;2.08564018372268;-2.020819206042382;0.0831295853653771;1.3038434083985233;141;0.9666148130178456
405;-3.0470934116948323;0.6948270164286876;0.730573897889869;0.0399180289381424;2.913811624872877;-2.686341707228612;224;1.2566370614359172
406;0.1929288918822624;-0.7463072954442097;0.6944550119805231;0.0944959261021777;2.482385866511121;-2.426759612368539;59;1.1566595186381952
407;2.1725453035691253;-1.076902438049693;1.76305033545546;-0.6772934706549526;1.959430957796517;-2.1117278656284784;55;1.2566370614359177
408;-0.7771430275903137;1.6158361030775932;1.2039894780063327;0.8932268695100685;0.5845429790989561;-1.1012506363241226;68;1.2566370614359172
409;2.374495344801692;-0.3961685804566595;-0.2801899312479935;-0.6091136463874496;1.4496224190687903;1.7285443495225787;330;1.190748576260364
410;2.5192911945073355;-0.7531651765244084;-0.9253817162610548;1.4000419754838094;2.328203327133258;-2.227404486611348;101;1.2566370614359177
411;3.1320619478500227;0.1698639833713779;-0.3013555314035571;-3.370043396102651;1.843699580812588;-1.1859580527020028;345;1.256637061435917
412;1.7702057625467946;1.5219952454328065;-1.552773081681045;0.6934911393767199;-1.47066257416464;1.807146481807467;19;1.2566370614359177
413;1.6813226705241713;-0.3897528355785344;1.712772078319489;0.413983339067122;-2.267844730598977;-0.2824795631411999;247;1.2566370614359172
414;-0.6249999684186488;0.0294126607531463;0.8337090146965029;-0.976970287862813;-2.766554066119976;-2.379062515752277;312;1.2566370614359172
415;1.4802782630992222;1.2708124214180003;-1.6608419525595175;1.5422681822610438;-2.836604021630082;0.5766821407628988;225;1.2566370614359172
416;-0.2102011358240137;1.5106645562442818;0.506925843110237;0.6100667072335118;1.0347791222706189;-0.4099745930112528;408;1.2566370614359172
417;-2.880046786242333;1.2701173554121388;-1.4281660714673328;1.98765680284596;0.9103769118497678;0.1633312911895646;329;1.2566370614359172
418;2.325942874328068;1.1015995423410063;0.6752355711205276;-0.7734026836290955;0.1544828530761273;-2.574445839810529;87;1.2566370614359172
419;-2.0430938075846647;1.552420816600424;-0.6073883417564503;0.3610719513340197;2.095500895987316;1.3125995745229595;40;1.256637061435917
420;1.0361172482804195;1.6669199242266308;1.266759225456377;3.089467423287029;0.0541574443489111;-2.720558491665916;136;1.2566370614359172
421;0.7904561722079672;0.3397698717179486;-0.2412578991540624;-0.754102081075394;2.3065448101006285;0.9312953402003908;110;1.1534706627432845
422;1.6490997363776514;0.4552941154186704;-1.7663703009487763;2.880290551674765;-0.2799878807755646;2.7171848032231627;157;1.256637061435917
423;-2.333097687392167;-0.1596547924035487;-1.4950429716735925;-2.947916335676579;0.6445636890707442;3.072296566614156;664;1.1983669611581935
424;0.9360088341809794;0.714812166101553;-0.4483835310100048;1.0144181552786091;0.4317165232623768;2.98984867878646;66;1.2566370614359172
425;-2.2576630050391104;0.2429726061354966;-0.5602941243308588;0.5147289569975614;1.1289157079258438;2.4929218102807686;300;1.256637061435917
426;-2.924684033701405;-0.6674813134239296;-1.5896862298466974;-1.1176414332907905;-0.607064063816974;-1.9462747738520456;249;1.256637061435917
427;2.9261452011483966;-1.359533207337507;1.7618096232741594;1.682403938942403;-0.7023910500858;1.887719821914048;94;1.256637061435917
428;0.0055896979241999;0.5900877394797022;0.8564606960193516;-0.4668866653043471;-1.2606164889491724;-1.5186330302874052;96;1.2566370614359177
429;0.3219283511659362;-0.973908249373408;1.9533056269876692;0.0470424400820884;2.8871577915612097;0.048049448677568;361;1.2566370614359177
430;2.2914353277203827;0.5057440716209023;0.3862179503762292;1.214561922947948;-1.9300557952871813;-1.9530473930580512;281;1.256637061435917
431;-2.582587356879854;1.203125128637861;-0.8683057371060283;0.3488510555705435;2.409383215487061;0.3333811980041439;419;1.240434901256941
432;-1.110981351666194;-0.6433919043087607;-2.104628588863677;1.1809299420422503;-1.5765133819053865;-0.6215753435353573;123;1.2566370614359172
433;2.2652041538996257;-0.2092765566153858;-0.0509442473852442;0.6214523621706225;-2.27069202455518;2.28797102931019;322;1.2566370614359172
434;2.3105469528558333;0.1225312873088431;-0.9646532026370014;1.249154123688292;1.608400602157642;-0.0985608482952244;188;1.256637061435917
435;-2.158214208674965;-1.127104388908731;1.5240929738130455;1.066219331586683;1.7206644761457213;-0.6721674312052442;349;1.256637061435917
436;-0.848422406962396;0.7379319508992149;-2.408815117647971;-1.4796867897307728;-1.3442020032087203;-1.3343733645445348;248;1.2566370614359177
437;1.013515420590246;0.0698012095694197;1.1886150316616058;1.1195127721478304;-1.7772662708445377;2.252717375791128;382;1.2566370614359172
438;0.7203514993867219;-0.804343185247565;-1.646303497233191;-1.7812772692477612;-1.3529224035472716;-2.0823348045302232;18;1.256637061435917
439;-1.5841625773022572;0.2959470604262719;-1.183994249077749;-1.6765824612446816;-1.2989893466136;1.3885973886111052;50;1.1620598952442849
440;-2.999974125152603;-0.9611593688571862;1.5397692095675826;-1.3626902279176354;0.6114176929833229;2.4217110293622905;137;1.2566370614359172
441;-0.6291490290013361;0.8843593974804363;0.2785127094009824;-1.5064729349653567;1.0602076896879478;-0.3416232909386706;314;1.2566370614359172
442;-2.575052754123336;0.9050335769510888;-0.5158284393947905;1.4659865315535645;2.3265388443526938;2.515138387452348e-05;431;1.256637061435917
443;2.735584459801824;1.175497620533585;-0.5075119896191849;2.712997761211182;0.3162542256270657;2.47651030267986;157;1.2566370614359172
444;2.6623424420093373;-0.7556881808605143;0.5074521150919831;0.491875395609585;0.3611558467062172;-0.1867513145213292;60;1.256637061435917
445;3.041421896748161;1.254765034462167;-0.3535885242041894;0.9693053786365866;-2.5399760232985726;0.03756352852925;280;1.2566370614359172
446;3.1984971517112077;-0.9632984594541106;-0.9603742521549712;-2.599284931952928;0.4933367491538724;-1.7134262138198513;161;1.1421185890913197
447;2.627711994677841;-0.5863236621426043;1.3732191290495692;-1.8436299046315925;1.2961094950248615;-0.8226875367472695;104;1.2566370614359172
448;-1.597912810671145;-0.9373438684740488;0.908993775273796;0.3855571250240456;-0.6984923689937262;0.0205653404569313;15;1.1976405417428957
449;-0.8834310471317737;0.3684219996677414;-1.8652373725608424;2.2696397678718228;-0.6545984200883042;2.5072606383057163;323;1.2566370614359172
450;-2.6856366659808355;0.4569703251372742;2.078123540537174;-1.3717858471870013;1.2303465238465645;2.2397319423209137;137;1.2566370614359172
451;0.2645647783762015;1.5600537961067906;-1.7356981978352672;-1.1005879447584015;0.3800245794674772;2.830774796728577;46;1.2566370614359172
452;2.514919598311704;1.6167511168279272;0.83561831254849;0.1789481220046019;-0.2140210176993465;-3.032216059194393;418;1.2566370614359172
453;1.0203551654319374;1.2627276294164231;-1.09964288882749;3.275211100234292;-0.3627836471860085;-0.9965618699957896;252;1.2566370614359172
454;-1.524509935694766;0.1497694566713208;-0.6745296859573896;-2.944937449521268;-2.268039747940516;0.8670012225957415;54;1.0332213736184672
455;0.7160247388368106;-1.365439767213836;1.7059224862021265;2.2516837497786133;-0.2177584065183694;0.3212360597706203;403;1.2566370614359172
456;-0.3004848788799061;-0.2840072969470862;-2.5576996409909274;1.244674030602103;-0.3859610612600821;2.506843086958465;320;1.256637061435917
457;1.353457934627824;-0.31783510663296;2.2270538934984514;-2.0033127166096425;0.387730528862671;1.6854845128591978;38;1.2566370614359172
458;3.0970036634852605;0.4354037314939812;-0.435731076448958;-2.687695645463429;-0.1377155621389962;1.1314913045937565;145;0.838296468659541
459;-2.971435047888674;-0.4771892267543828;-0.9865950622911608;-0.8656292332460069;-2.349195467721408;-1.617439937688146;118;1.2566370614359177
460;2.4117813978455644;-0.8642914987253043;0.7037842073569702;0.7703928202343878;-2.7028280384009875;-1.3778272987521052;281;1.256637061435917
461;-1.0238887911803292;-0.0484960388755211;-0.9203902792409594;-0.445262135583935;0.2806803747163906;1.149740580342876;353;1.166784238222323
462;0.8578579512419455;-0.9080248601321864;2.355179364264216;0.0025772681688447;-2.131998892255197;-0.1034809574632574;413;1.256637061435917
463;-0.8423921006174322;-1.3235161836051608;2.154540910880633;2.3453374449900792;0.1692819344956296;1.415133973124478;242;1.256637061435917
464;0.6096480793296661;0.992429415242191;-1.4548103752129495;0.2529128130965222;-0.653179559394314;2.287526055647026;22;1.2416346501329314
465;-1.4317667842061237;0.1593860058626788;0.885477529065909;0.9161737775257568;2.4406218507498445;-2.126079390169435;156;1.2566370614359177
466;-1.884786555230596;-1.5801633264288235;2.090403190437131;1.965093552908429;1.3448272514417647;-0.842976900956203;435;1.256637061435917
467;-0.687062377315775;-0.6085124359094902;-2.3144421379188924;-2.558476576034084;0.2495939025206504;-2.5191098271763086;305;1.256637061435917
468;-1.989392831733503;-1.0439046995151748;-1.4376912695960722;0.2593023897865141;0.678966654988197;0.2210279610630233;254;1.256637061435917
469;-2.913463880612482;-1.2139196281920728;-1.828427161395341;-2.9019742771392742;1.2559113314314887;1.5157373449309444;153;1.256637061435917
470;-0.1898893366354576;-0.459813496897707;2.351790816303322;-1.7765170419801872;-0.3383941311238776;1.1086303421703307;43;1.1807915396483504
471;0.5011768498045461;-0.1180876100044955;1.169870176105442;-2.321622660422303;0.6681342602180889;1.1088923558953276;119;1.1244474580573132
472;-2.511421722070183;-0.6966862144252014;-0.7530195467452171;0.8836564814917398;-1.5210402813107382;-2.252194803857648;364;1.256637061435917
473;2.9376622632223373;-0.1439637404067178;-0.8223122091368154;1.3003661308431778;-2.185128442660248;-0.3729715719339018;280;1.2566370614359172
474;-1.142565310994488;-1.5772184693713187;1.9719543584913128;0.6969638148800057;3.1275707080848782;-2.411719386243376;337;1.2566370614359177
475;-1.1180411396953405;-0.0215512579377934;-1.3555530403519058;1.4025796987716528;-1.3044505840725134;-1.3351470401826595;123;0.8711934056130609
476;0.9546242960410748;-1.3082046524513495;-1.3313161565225662;-1.9042849329433869;-0.2515244280258769;2.0203484114202;116;1.2566370614359177
477;2.609413903720768;0.2767554803790881;-1.385213348303072;-0.4678160470525481;1.016372996164102;-2.682618995337485;371;1.256637061435917
478;1.0841850586405917;-0.242566058957295;-1.3557152289949383;1.4862124384642226;-2.916825306781316;2.7862481684055087;351;1.256637061435917
479;-2.200372196986798;0.9389360940801298;-2.1375090737511515;2.59521743396931;-1.3854373262045765;2.4903963652298025;323;1.256637061435917
480;-0.8692948224821554;-0.2044925595449446;2.143732285777518;3.1399095485133963;-0.3196659641157475;1.866903520429425;242;1.1622597853978025
481;-0.1705504895940256;0.1399739902716549;-0.0551288343953419;-2.293188991054249;-0.1855570171501598;0.2607255483328385;198;1.2566370614359172
482;1.9592508335071408;-0.5607942487869271;-1.2470753736313245;1.6242126199650386;-2.818156944318246;3.208867093355284;351;1.1775188579759843
483;0.4660554447102238;-1.1484257195470406;2.543839636963032;-2.3289785637377007;-1.4667374118322445;1.800028273313173;62;1.2566370614359177
484;-2.7288730739846887;0.7876205093097014;-1.8146461120641488;2.712426309773903;-0.412676396339629;2.9515740768811263;479;1.2566370614359177
485;0.1989816871404979;-0.5843915314323778;-1.4888209226981546;2.2909281603935394;-1.1517685700290234;-1.887148760061476;56;1.256637061435917
486;1.0537095455981107;0.7399366307351954;-1.6635342011977186;1.0230084308685663;2.63277212003165;-2.751924307063635;232;1.256637061435917
487;1.6001448873760569;-0.3128045739851866;1.0368722901476477;-2.6021491263885106;0.5385464061863647;0.6106319035578003;38;1.0937861167944802
488;0.4123503133724779;-0.087916864319981;1.1460033067716329;-2.8864290599475444;-0.0510406647564012;-2.5642168447386204;288;1.2566370614359177
489;1.5395602500332537;0.9476610153024072;-1.0881555073146794;-1.2692412232394783;-0.0050265206756321;0.9041985612987538;240;1.2566370614359172
490;2.808428593857617;0.4467616140385115;-0.4372365851159911;0.9408668547301297;2.883382426858019;-2.643676450386207;101;1.2566370614359177
491;-1.411569767900945;-0.2207904725525049;1.599190724065064;1.7689144500902192;2.03484733858484;-1.9444520357259072;465;1.2566370614359172
492;-1.2659861166496045;1.166448077174281;-1.086328438696147;2.65586320709458;-1.3237427743214722;-0.5038867909622212;160;1.256637061435917
493;0.9299366580577124;-0.6467492342651735;-1.7165540031957345;1.685263163987837;-2.088428994068756;3.3831488579341027;478;1.1830102724228642
494;2.2499531815351914;0.6787051370982831;1.8482426151321667;-1.8164299530590984;0.4861650844257843;0.3715992661549729;104;1.2566370614359172
495;2.505465286155008;-0.5582533223661037;1.2995880853063018;2.1789551185707143;2.0410503134635265;-0.5629264758960969;143;1.256637061435917
496;-0.3777898287026571;0.7396490236469623;-2.156188713503568;2.6040184654629672;2.0830297260297934;1.5503457184499791;338;1.2566370614359177
497;-0.8664723708194058;-0.2685182757489878;2.1684131084576688;2.3628692275312955;-0.3426050583993756;-0.5261554784513419;392;1.256637061435917
498;2.6413006632324527;-0.2784807954503654;0.6115370613710515;-0.6615973684738745;1.9460842532239968;2.3991375855975217;409;1.256637061435917
499;0.6767779447301767;-0.4798229831696138;1.8438742674665491;1.4089658065631738;-2.564200640986958;2.0759565341709427;437;1.2566370614359177
500;3.240764260889388;1.3423573764804102;-0.9687473517242816;-1.2724478149012102;2.193111112171497;-1.6675075716082914;150;1.256637061435917
501;1.341911011523178;0.1333277653412345;1.1159727889445197;0.5933502799743704;2.331353128684636;2.613031603345;307;1.256637061435917
502;-2.912360214847672;0.1390293159657886;0.3239267294090558;0.6386793180234912;-2.1904220760305857;1.4769757077813903;227;1.2566370614359172
503;0.825575997696141;-1.3183947432697922;-1.5076030159450438;0.5360532806581819;3.235382003146596;3.146601375667605;343;1.2566370614359172
504;-2.395670538622735;1.0723318159291928;1.4948375309151885;-2.935636566850709;-0.8073447630425359;0.4859147588944918;237;1.256637061435917
505;2.138288635888853;0.233534511996943;-1.1521389113083935;-0.0787858359827957;-0.669237696230713;-1.173436510261188;13;1.2566370614359172
506;-2.2208082179217805;1.3823719711336682;-1.5916423909804367;-2.833814101606986;-1.6315545194816088;-0.8038967891103321;213;1.2566370614359172
507;2.3850549899498783;-1.3241412611690726;1.3926622280737218;0.3646909837032116;-0.1344398448831048;1.9384242451000508;128;1.249142660814472
508;2.4873067606388264;-1.3782907593230695;1.9115916480526305;-0.2931116727425963;-0.7676160432693704;2.6187513248677527;507;1.256637061435917
509;0.8066188200596979;0.6185809007745935;-0.0799721588123147;-0.9275395133507136;2.0657291354695877;-2.1066124821259087;88;1.2566370614359172
510;-2.9877767207153134;-0.3173528557017073;2.047406122112778;-2.0044438590025;0.8788342574402186;1.3853366574230914;137;1.0984842478389802
511;2.051862139802047;-0.7219773278830157;1.4572332672427406;2.9551339642879846;1.2627200701455068;-0.2260707675872926;495;1.2566370614359172
512;-3.0057523218791102;0.617913194258814;-2.0276060160139022;-0.3186610242397028;-2.3167713492579245;1.1160897541553478;359;1.2566370614359177
513;2.30619472203668;1.4362070573140302;-0.9182524349345182;0.4227857085769608;-2.9060472343167234;-3.260615400277135;277;1.2566370614359177
514;0.2836786044293907;0.9130882574319684;0.3339926624921145;-2.3756023955267844;0.4749173116000589;-0.9590103444676958;114;1.256637061435917
515;0.6493678075391431;0.4488679639389167;-0.8776521634431504;-0.0693957936661742;2.19112442580019;-2.8814884272286654;88;1.168685744519142
516;-1.5691070026076115;1.0115791937986751;-2.4187587678076823;-0.8563553220595935;-0.2139147362116297;2.887896647463946;741;1.2519009951159497
517;0.5653480671777054;-1.1069150963885108;-0.5005775638804002;0.4784510431967346;0.0878424170587641;-1.5047639298078763;36;0.7759330193821182
518;-2.1958008316161486;-1.318926930462274;1.7256942836200864;1.971166858028369;-0.5002520641484022;1.484454933985166;242;1.256637061435917
519;0.0162308015538331;0.6851781816634743;0.6546250680187682;-1.178887315799194;2.396354163127178;-0.5439545376672383;314;1.2566370614359172
520;3.097826758195167;-0.0117492968823521;-0.9397908105369528;-3.013975983870665;0.0484023399875581;-2.254903260593722;446;1.2566370614359172
521;-1.0008934520643031;-0.79131462298547;0.8569058026489071;-1.8743010361594492;-2.528905366260882;-3.1375935157676937;333;1.2566370614359177
522;-3.0378412789134384;0.9089781867752206;1.1636621663356814;0.4092171650998079;-1.7683117520193146;1.662944344338407;502;1.2566370614359177
523;1.905650123019355;0.2836161507352341;0.7862566621365505;-3.3223238705931912;-1.661074905231581;-0.0637460114146691;138;1.256637061435917
524;2.685767068121672;-0.6205114972283781;1.2989095751737525;-0.1585180915141049;-2.168182698414757;-0.1930032188028049;413;1.256637061435917
525;0.0455737599700258;0.704399659463159;-1.1210863583000712;2.9022676493045907;0.0871652400210446;-2.673843565646434;117;1.2566370614359172
526;-2.767764221550249;1.406029974363128;-0.4711477975121023;0.2016041051436298;1.25579000619237;2.975568344150504;300;1.256637061435917
527;-0.3213274664072441;-0.2567605977234848;1.1445291132897837;-2.066031569940264;-1.4893473221463336;-1.0274112310483985;362;1.1967742228103109
528;-0.2143745898602605;0.4937392114126135;0.2210654475295833;-1.1406218175055078;2.923575735845624;0.1249464514085106;519;1.0023258146354277
529;2.8680562286348072;0.9091347046290617;-0.8705046593440584;-2.764166204905369;-1.2744463807693396;3.082440152440288;186;1.2566370614359177
530;1.32169851952147;-0.585370839495415;0.3471696352046783;-0.9982936612344356;2.462052678558256;-3.1380575221582325;59;1.256637061435917
531;-1.937083508277724;0.1515353517038686;-0.1034973755420257;0.7268735737792892;1.91620596970519;-2.3126594920092542;465;1.2566370614359177
532;1.516999766563922;-1.3388810075404305;-1.060272163648072;1.8810548440994328;0.0478347473494701;-2.9302354931169368;347;1.2566370614359177
533;-2.583113098491633;-0.6656906944733968;0.6589897781366014;-0.9584824868051836;-0.039462740702182;-2.176796792208815;241;1.2566370614359177
534;1.6873087371004043;-0.6233419842750791;1.6658311320303996;3.08727336902938;0.4557538509762214;2.5532192958065822;86;1.256637061435917
535;-2.379212514272238;-0.6552385745784339;-1.4065816785334595;0.2177225461066545;-2.097994664234608;-0.3167549389185393;115;1.2394600222758674
536;2.6788201014277595;-0.9785976716413044;1.6192472568934186;-0.2355481277495048;-0.4196372218260998;1.0000889739037575;507;1.2566370614359177
537;-0.2836910877356972;0.9730473158438409;-2.6654152500175483;2.702390926248329;0.2602018159146605;-2.300218781282956;297;1.256637061435917
538;-2.4256007116980958;0.5631642271087066;2.132462529281091;-2.40472130310903;1.073898645276557;-0.59258967655192;375;1.2566370614359177
539;2.9382292719826952;0.1334162396015714;0.0633819111012745;-0.8967089289153454;-0.762887351052264;2.747305722116507;304;1.1528457136082289
540;1.1224011112424528;-0.9764999960679706;2.148677468725423;0.8781683323907719;2.9073834663960003;0.505240726007335;429;1.2566370614359172
541;-1.378074075261685;-0.2890925733295893;-0.0726958909151341;0.1249251778261336;-1.9411435979593192;-2.014447892010238;312;1.2566370614359172
542;0.72949669452192;1.5470839728852457;-2.318090002493689;-1.7685630121169895;0.3508933946204498;2.369579848947069;451;1.1023838775585884
543;1.49358889168505;0.6903525660650668;-1.9691955189475756;0.3911076760195389;-0.3753400524698586;2.875446317057363;464;1.2566370614359172
544;-2.91222901742231;0.9395933331279712;2.13692339226255;-0.0695197564954799;-0.5494015503155143;-2.123794423716452;402;1.2566370614359172
545;2.5975217308091456;-0.6056264757396657;1.0299350855095757;2.058979039586988;-0.2641552352638118;-0.0684031838319997;279;1.2566370614359172
546;-0.0031976291381802;0.2785573016530939;1.3643472683367366;1.1748458865983211;2.444429055378541;-2.905203110802548;156;1.256637061435917
547;-1.8008410697961834;0.9807269742421276;2.1457850432193477;-3.3890576391402707;-1.4781584547741216;0.1149581326111022;504;1.2566370614359168
548;0.5392742875180656;-0.7577608568773886;-0.289302935131965;1.2359953733643343;1.1965749382610915;2.7182965758679045;307;1.256637061435917
549;1.349729219645319;1.3616166251912831;-2.5387449562178315;0.5003852802602413;-0.9134538439607824;0.8915090309113145;19;1.2566370614359172
550;-0.1597862226765051;1.1266318972639655;-0.5060571727231469;-0.3184767889252496;0.1867621807150897;0.9391318240433022;22;1.2566370614359172
551;2.3596419416911405;1.082190172022962;-0.8513504251509361;2.703186459107314;-0.1032759994049214;0.94924153473172;35;1.256637061435917
552;-2.151649934027841;-0.4742642591184358;-0.743882547964125;1.4136449996156732;1.6748851402820573;-2.76153463845075;531;1.2566370614359172
553;2.645727817520107;0.019840647511609;0.1613021780530942;-1.6526429193305552;0.4012225950937171;0.4606463513795877;287;1.2566370614359172
554;1.0308002646088543;-1.1896669255022323;0.2143805089895078;0.3464999387026103;1.4961407841836716;2.9827168997022477;307;1.1879846621325634
555;0.661109505182008;-1.0093589262542944;1.9148380542080576;0.7945386636286971;-1.5466410306992855;2.087777413293938;382;1.009151468081055
556;-1.2452485684903187;0.6999447617142913;-2.386365015198399;3.077191117700915;-0.0889481824839572;2.8149033691212946;449;1.2566370614359172
557;0.4340522920043966;0.9866784318036412;-0.8657507647378215;1.1483871310141485;-0.8886394960136067;0.3868274540433195;750;0.8710646712099965
558;0.3506880429057495;0.4642635844604652;0.128039788962522;-1.6839200536018166;1.848749577516081;-0.4398471213891126;519;1.001860351659684
559;-0.2024313387483564;1.2446040814622377;-0.6634489102833063;3.3563221097360585;1.164747359117314;1.320233233535808;338;1.2566370614359177
560;-3.022231966109398;0.194409244501085;-2.189629401621475;-1.2330642390339257;-0.634910653934982;-1.2734180987785737;426;1.2566370614359177
561;-3.185377614648776;1.429028069054163;1.305458756938473;-0.8490203536760483;-2.190940907213163;-1.6292497808389397;356;1.2566370614359172
562;1.980227403996568;-0.2023412004295139;0.2854887757519852;1.542831236532752;1.641992169757879;2.4241095332487475;66;1.0699133839292478
563;2.116156448036435;1.476983588438416;-1.307620759631594;2.200513886368056;0.0753638215577642;-0.2182390994845081;252;1.1873636106842065
564;3.011516436178124;0.0464190122011616;-2.665606390856881;1.0296501048143576;2.7132458201623386;2.74847716533801;377;1.159994106820392
565;-2.9004026693805405;1.7477051702763775;-1.5897720861883662;-0.6949448206170586;-2.997213979204749;-1.5465872789539126;350;1.15915834577468
566;1.1716034927962071;1.0550900941577857;1.5048300273459183;2.1505790031662837;-0.2568022750913348;-1.832246547910173;385;1.1197886760339382
567;2.965639617322287;-1.42351541240515;1.4460933516305865;0.2476849069250729;-1.3993624352879088;0.0867184921913692;744;1.091457058424277
568;-1.0111308562206425;0.6102340459836428;0.7989299799153098;-2.247541217799905;0.205654349352251;-1.6975000484968836;114;1.2566370614359177
569;0.0240911636340765;0.1884729677250206;-2.0063423042977013;-0.1390218847413794;1.8843398671597087;-1.1567293223713235;148;1.2566370614359172
570;0.3168397686169121;0.0668665810948283;1.679818731519931;-2.622341138327821;0.337072803126612;-3.3532943132587283;488;1.0775234718821198
571;-0.5360995496593894;-0.9710238954470014;2.453962973924628;1.6503275486801534;0.7725973792046262;0.76368258540605;463;1.2566370614359172
572;2.3649857822107854;0.3447123217689828;0.5027339456719122;-0.2352384823834911;-2.6227240176506115;2.6008150554313274;433;1.2566370614359177
573;2.965398061260581;-0.7305354836078573;-1.4952358255942444;1.546235391644013;1.781535638251372;2.3775720694293225;126;1.2566370614359172
574;1.3677431037303671;0.5930630907959944;2.189045593663073;0.9966973008335818;0.6330703036508573;-0.8761415983952989;331;1.2566370614359172
575;-0.6308420830617137;0.5754613079392952;-0.9425989490709112;1.141206999521956;-1.7298166098527707;-1.5034503551213452;475;1.0207330482188122
576;2.0710442656725463;0.006910326156566;-1.4580907221583477;0.2042005358773236;0.4414632588645129;-3.257747431404495;600;1.1350752005862743
577;1.002635212028277;-1.5819538150544483;0.862563980638039;2.9723322641243497;-0.68165029390479;0.3870332831161709;455;1.2566370614359172
578;1.82329103798214;0.4968015923470243;-1.314016775870578;-1.82877660805316;-2.7802707126268995;-1.826291469295649;187;1.256637061435917
579;-1.256471013073719;0.2487622836126697;1.1293415774591744;-0.6409116362467493;-0.4610399806832322;-3.080569251157612;163;1.0320412290810883
580;-0.5160385371501177;1.2457989430331762;0.9078845898416048;-2.8846118468272417;0.1999416346608256;-2.4132617636699285;568;1.2566370614359172
581;-1.981514629720761;-0.8037872536611844;-0.2444936285235451;1.5797364330074035;-0.9948713495556086;2.672370729479728;284;1.256637061435917
582;2.455139689319926;-1.568804196164718;0.866620109894471;-0.7474487834889126;-1.2093586766063171;2.838483739887581;508;1.2566370614359172
583;0.9155430244265838;0.4833937861712259;-2.269698710283139;1.7538890240124545;1.986322780013794;-3.169912204957858;486;1.256637061435917
584;-0.5492328433237278;-1.4894872900042224;2.773194493636632;-1.9102303520094424;-1.206427017864549;2.169200570756609;483;1.2566370614359172
585;-3.219400758280571;0.254361603514099;-0.006605675787163;0.485819974942529;-2.2353294456935866;2.633231281091034;502;1.2566370614359172
586;-1.4724215268044574;0.228236502266559;-2.314620881577646;2.383871045911332;2.111650011664513;1.3382357854088922;496;1.2566370614359172
587;-1.3034991651124703;-0.5394656056741085;2.5643773918573074;2.962125294529904;-0.8549813032015936;1.320638525488136;242;1.2022675939935634
588;2.4655258573184797;0.610947477152904;-0.1083874651242115;0.5612365009323455;-1.0677421047900628;-2.303344281753948;430;1.256637061435917
589;-1.023861776343572;-0.4420438066715469;-2.623880490412594;1.236283378753674;0.0007930916423492;1.5704361522722916;456;1.2566370614359177
590;0.3151256854507946;0.3870027915734262;-0.886741970778314;-0.9378404477178764;2.0943469617716284;-3.4516925123779507;515;1.097416244523032
591;0.8106213271020958;-1.698239796105296;0.3643127184238929;1.637537919935199;-1.819172535590723;-0.1927533862401887;388;1.256637061435917
592;1.8111696311316348;0.1613214290463218;0.4954671274062922;-1.4843803632831405;-2.112828104019446;-2.4975159907586355;187;1.2566370614359172
593;0.979465109768237;1.223227411038356;2.2777775130705344;3.0383493071477634;0.3633798184657932;1.027757948534419;390;1.2566370614359177
594;2.7765653752225905;0.0692989038674367;-0.7447918311383629;-2.763558869194134;0.5243214410434786;-2.171777938321757;352;1.0698056684288035
595;-0.6014402747853712;-0.3374226220858045;0.7753033154287842;2.384551801079175;-1.3854813605728142;-2.534063347537341;285;1.256637061435917
596;-2.8988790795147823;-0.718053725178524;1.3307426450308888;-1.6402301706441305;-2.6254218198851023;-3.1688028774364936;782;1.2296695913001088
597;2.5236406858502427;-1.4558930974042918;1.5592524598481454;1.2416866240030189;2.0330082372363534;-1.683655009489848;143;1.256637061435917
598;0.2610086026702309;1.3182408153994358;1.5082883098736133;1.691848737681436;-1.0917684356072206;-0.0320402916152462;21;1.2566370614359172
599;-3.221010199775824;-1.0577684077793057;2.0072469385191605;-2.6142528314093685;1.43936302333055;0.8478876659681907;510;1.2566370614359172
600;2.401132758370484;0.4055876578565838;-1.6357947574057548;-0.4707411401861348;0.40975473396579;-2.528115152526214;371;0.8576723910791316
601;1.279281212624926;-0.3599357668729293;1.1008687070089451;-0.6599809081217036;0.3472922569710217;-1.0994942675029955;9;0.7005539367726773
602;2.030419608743645;1.32199036708519;-1.6384671534020705;1.5000697515787231;2.495547604910002;2.6959482909890733;377;1.2566370614359172
603;1.6971901505196167;0.8442516995493634;-1.8914716292078704;1.1980585289929488;-1.995313132389953;-0.1093872393704909;415;1.2566370614359172
604;-3.0358619175915456;-0.6134783009515306;1.1971786143644114;-2.572485367073796;-1.0113392531969638;1.7436662993085084;306;1.2566370614359172
605;-1.8776314984265137;0.6982572772727926;-0.726386556818393;-1.0419429013290016;-2.550022806456454;-0.3165019520510295;118;1.2566370614359172
606;1.5504565039290048;0.2218242300696771;2.513103333928558;0.1549296120738836;-0.1315449791328367;-0.7775949885268327;574;1.2566370614359172
607;-0.4155549337933825;-0.9238901998491372;0.4189023468801627;2.610020790396787;-1.1421208410236536;2.687111825553466;284;1.256637061435917
608;-2.0607818320286064;0.7442694404688246;-2.5442359257263343;1.434505691352137;-0.6284860492481201;-1.7384290720640423;190;1.2566370614359177
609;3.015828025777318;1.1122290678042266;-1.5893114245220734;-2.9412881218630367;1.292994754383976;2.684644896126464;135;1.2566370614359172
610;0.1594870803464857;0.8636312231529025;-0.4180783885626017;1.4196532819568195;-0.0859641793124693;2.780949529428991;424;1.0497138752503818
611;-0.5117308000741811;0.0434906092929158;-1.4656119142347963;0.2729219160783288;0.1150230670290779;-2.252481916932798;393;1.256637061435917
612;1.806018827429;-1.0523796282350304;0.1872554097276187;-1.6632587567433366;0.769683619971646;-0.0283176814106681;355;1.1519192504820104
613;3.0294267993319357;-0.0182312697145431;-2.326309199031677;-2.827829843778021;1.0437346650339574;2.324971345001412;194;0.6884917486961737
614;-3.0424061503735897;-0.4449956472389585;-0.2055117173660717;1.6458349182917744;0.627030588003352;0.2042899621462361;221;1.2566370614359172
615;-2.3404925283716747;-1.066608705126017;1.1416745332377034;-0.0740319210005285;-2.4189290514847865;-1.2268608645789716;346;1.256637061435917
616;-0.1438852459120511;-0.6536358661651912;0.9830612275848924;-3.3128683444000933;0.5384912075909275;-3.1917137010698227;488;1.256637061435917
617;-2.899184708667417;1.390306055451416;0.9750748459069508;-0.8966900339194002;2.5516636876934458;-1.4404458718155797;224;1.256637061435917
618;0.7879938714240226;-1.350162243221104;-0.637180047828979;2.22298075436224;2.3825964807588678;-2.3661234524207404;124;1.256637061435917
619;1.8383505498542252;1.07717858042825;-2.3184881111212947;0.7169151170546523;-1.9465309200368832;-2.4612622220393834;277;1.2566370614359172
620;-1.6261894992545178;0.7700239062971466;0.1432005267250791;2.44030986235722;-0.1432283869951545;0.906009267853174;11;1.2566370614359172
621;1.216098492436115;1.0485559587180298;-1.8191905182301769;2.641605430409703;1.6465826903417589;0.6830657958061369;272;1.220101094667336
622;-2.1318332603703443;-1.3684170600523535;1.6663741385073951;2.289076623538076;0.1252052378082224;2.522151058042148;518;1.256637061435917
623;-0.6137515810255207;-0.435502637712626;2.5459599479896284;-1.3785481632307357;2.232789069708824;2.307925655506553;244;1.256637061435917
624;0.2855197469733121;0.3249325635391168;-0.529225233886371;0.076143085444472;1.7665569219155035;-2.777417458936586;515;0.693841925094649
625;-2.169026803262528;0.7453041232807859;-1.1251568061182842;2.454564208632135;-0.241470426184944;0.5293071427513709;191;1.2566370614359172
626;-1.8632141873391763;1.0985507267543042;0.3957439440286796;-1.2318134798759646;3.008169488884984;-1.78624052681668;224;1.2566370614359172
627;2.919804160672636;-0.1907480007682656;0.8943894436150241;-1.060130222842413;0.0703187174853288;-2.6847471632588915;87;1.2566370614359172
628;2.945171368082355;1.2661022093291083;-0.5628522237665945;-0.8715104981484684;-1.3618474785522028;1.6570806425840197;24;1.2566370614359172
629;-0.0111512374564309;-0.2701492057193853;1.450307484750786;0.5838375889768753;-3.216411008820307;-0.6815156607296898;247;1.2566370614359172
630;-2.818815987626813;0.325508635792583;0.6232960767661622;0.6909795258789425;-2.741476789258316;0.4094584806812171;502;1.2566370614359172
631;3.388434853006677;-0.0258125348126773;-1.1019359130452544;-0.7368018206940027;1.790978862937456;3.1376331313555887;330;1.1629085867395703
632;2.8536546917708363;0.0858476741593276;-1.9093970351595448;1.6593307825634462;1.4926847873796496;0.3582203359343053;434;1.2566370614359172
633;-0.0984846524404658;0.878314258017008;-0.0722334842368644;3.291819016562527;-1.2437300595059666;2.9071403376477285;394;1.256637061435917
634;1.3312615368634204;1.1692676581845105;-1.768071301724916;3.1263889563392566;1.047566256036275;-0.9378884727749128;252;1.2566370614359172
635;2.924843375505872;1.1454796933741755;-2.3559456881104084;0.7912305919220652;1.6245486588844256;2.197110535609318;377;1.2566370614359177
636;0.0147693819871062;0.8610414657115797;-0.2211291035237486;-0.3068911663137528;2.340791921710226;-1.6336359522153694;509;1.17911350007796
637;0.3791796024224166;0.0455839502344655;-2.4354282963909712;-0.9681740862343788;0.1086931212192206;1.7115864034738872;202;1.2566370614359172
638;-2.328835321356662;1.441948898454529;1.0317120190742288;1.1009192235033842;-2.0846069273479184;2.106209795188261;522;1.256637061435917
639;-3.157566292976602;0.2548610479392564;1.974414603969249;-2.9487352652508427;-0.6078804348431546;0.7317629722922865;504;1.256637061435917
640;-0.8392964889837147;-0.2600966057034014;-2.3187587910077387;-0.0417326187106228;-0.5492689847930297;2.132602014637809;320;1.2566370614359172
641;-2.941165784787741;-1.685922203098394;-0.2004433545177662;0.1004713979407019;2.3806758336818348;-0.8807769876950806;349;1.2566370614359172
642;-1.840339399193612;-0.3833571490360415;-2.438526145298582;-1.0982579873085836;-2.744961741612151;0.1052415903856886;200;1.2566370614359172
643;2.3696062227645696;-0.5074602434461444;-0.792030860080464;-0.5133325566064032;-0.2422564696147208;-1.8631712576356607;505;1.2566370614359172
644;-0.2860033572937631;-1.5281014317136554;-0.2655362304254317;-0.513389261197853;-0.9590654171083576;-0.5713059985573397;31;1.1386892507518245
645;-0.3223975342832848;1.100572075440585;-0.572930379682437;0.3604111642233039;0.9219696192607916;1.4321789220739638;22;1.1165689836269994
646;2.868802037183362;0.8407400691496354;0.6538782248793205;-2.7599133051804703;-1.6529646464787828;-0.1485549903704861;523;1.2566370614359177
647;1.2640727274969552;-0.9468333630970976;-0.5588963568066861;2.826452227297549;-0.9344336010856016;2.018818821952849;51;1.2566370614359168
648;2.8421843879698083;0.4762102285440586;0.6091620032215234;-2.1054487715413224;-1.979271564053147;-2.475144638177015;592;1.2566370614359177
649;-2.8855105807807875;-0.8024779359689953;0.1258307144718954;1.0450933311092994;1.7863229864944228;-2.9294963985793205;552;1.2566370614359177
650;-1.066687087170708;-0.3405027903554293;-2.140423649059044;2.27256848410307;-0.5808952888810102;-2.271944087675539;190;0.6232800445675837
651;2.9979148576305645;0.0479288901802458;-2.222866253284679;-2.5579190255254147;-1.112817666852821;0.3775328420956461;193;1.2566370614359177
652;0.6007805703432407;-1.1668836489402086;1.512426883910819;-2.2725498275948617;1.2586027050792554;1.079970973131494;471;1.2566370614359172
653;-2.581868308900331;-1.6717846029035657;-0.2050304947275787;-1.6494577874742085;1.7657610596565934;0.4254153812856244;263;1.256637061435917
654;-1.3949499484233774;-1.7289208820713284;2.399431144491343;2.5424388895042545;0.5205864096917221;-0.8820260295127563;466;1.1712354269978615
655;-2.887338636949971;-0.2180875491590243;1.534723443065379;-1.06948947427042;-0.6036108758331059;-2.611238766126298;533;1.256637061435917
656;-2.7016936827288296;1.3980391053326449;-1.0337843297262956;1.016128850432067;2.3957043420873965;-1.8542774049783812;210;1.2566370614359172
657;-2.6949481092376337;-1.7379516380061797;1.7356371127440386;1.830908958020772;1.5252515597689795;-1.058601003265894;435;1.215827250368042
658;-0.3539308862086816;-1.1826801469627302;2.444193761750289;0.6543051688133495;1.588581139797606;-1.6639519257794766;337;1.2566370614359177
659;-3.089458644508031;-0.4614226905443636;0.5943204518351739;-0.7731823240443927;0.1228354935855442;-1.0739974061742852;533;1.2566370614359177
660;2.132800969791304;0.2830265437175708;-1.645773471735924;-3.1389892178665453;0.365963146958574;0.6769779230534991;175;1.256637061435917
661;-0.355431470867534;-1.2320427715749964;1.5410595341470432;-1.3179099459388846;-2.4182784342854804;-2.715220999655734;521;1.2566370614359172
662;-2.317751521324434;0.4965706676675615;0.8006434754173647;-2.7203475761621565;-0.9036305457356124;3.1175425449226264;90;1.2566370614359172
663;2.3577970213586816;1.3856617248261884;0.0675959480824115;0.1237337046016686;0.0297083340104937;0.2055355030444006;381;1.256637061435917
664;-1.597768100601011;-0.1369326971721332;-1.2172133675126804;-3.17745945553016;0.3368857635948327;2.253570458487708;84;1.1992815173523337
665;-3.0861714415904653;-0.2816165206416338;0.8425605817056345;0.3025730068509661;0.4038481277870505;-0.5750436556848926;659;1.2566370614359177
666;-3.0189910513005183;-0.2377652228646427;2.1421635305307625;0.0964718588452243;1.639594444588324;2.807044302224431;208;1.2566370614359172
667;0.085452745879818;1.3102004064755917;-0.1015150969042011;1.2606675069899609;-0.4116416820761588;-3.095879011548641;238;1.256637061435917
668;-2.0567658429251057;1.0733621278371697;-2.032126271505716;1.8367617906890632;2.1287554836588827;0.9587403804907724;586;1.2566370614359172
669;1.986360959827571;0.2280536413360746;2.7882202253591477;-1.4772098136162677;0.1071120352390004;-1.7163826494141574;140;1.256637061435917
670;-0.0415576787806425;-0.4915611392940451;0.2041512613728573;-0.0508745717585945;-2.220690357721635;2.272243039403829;205;1.097216303366901
671;0.8286531660044224;0.4258605535242412;-1.8113997132136197;-3.1194231669255603;-1.2224288668189205;-1.72955548670287;176;1.256637061435917
672;-1.7039601080129383;-0.01873479102636;-1.781590223147386;1.1110251089072651;0.2871865917633269;-1.038157593778588;236;1.2566370614359172
673;2.0245909805275084;-0.2364201556075459;0.4418851312496207;2.588472642425529;-0.589629450378995;-0.6868480592037617;545;1.2566370614359177
674;1.465423409040005;-1.4989996261358682;1.8010363349095702;2.908077741739562;-1.330105431798159;0.157404621615397;577;1.2566370614359172
675;-1.6402257072132125;-0.1139589333305667;-0.0088057113748225;1.362397486165983;1.002633394429242;2.671469103435167;425;1.256637061435917
676;-3.1130341616814685;0.7086564310690564;-1.9074927201735128;2.0442340523530724;1.393735639253254;-0.6986574191873683;417;1.2566370614359172
677;2.326528700559418;-0.6409082281274903;-2.043510129509508;0.241561605581635;-0.3350897208960667;-2.8742773986479877;576;1.2566370614359172
678;-3.055460305982313;-8.079951344858172e-05;-0.0134661710913897;1.2024763307271662;-1.901135968427411;-2.321776383551144;472;1.2566370614359177
679;-2.231035835897553;0.3329296565973463;2.656877449713444;-0.4980641623544499;-0.6715586593251105;-2.10237607768694;544;1.140810501993366
680;-0.360372488876187;-1.7227600663547102;2.037995564682035;2.81557908358518;0.0024910163186054;-1.0693336591272031;654;1.256637061435917
681;1.8817525470926229;-1.109223220094055;1.0792374217330527;0.4284390568189951;-2.450479707295562;-2.3352391227339155;460;1.256637061435917
682;-0.8350890797181423;1.089861720868762;-1.5894888993318237;-2.8077469498582794;-2.1482811478937784;-1.295569296861459;248;1.256637061435917
683;2.0407034469631222;0.5454058539101592;0.8448166115683505;2.819486308639275;1.2289552751239017;0.8738524748182086;222;1.237461422241046
684;-1.4214877072070733;-0.8959739948140482;2.282622341689573;0.2022926067258846;1.8228174325399855;2.46447299268898;208;1.251964984162053
685;0.4889253571300368;0.854700538599817;-2.4784099031448448;-1.3159263658953717;-0.8987598309358963;-0.5829197749967984;71;1.256637061435917
686;1.275862930521476;-1.4997458857857986;-0.3370946773460482;-0.5067796499345792;-0.3305749969629665;-0.1820155532438633;31;1.256637061435917
687;-2.639314036556313;-0.5374234100621764;1.7363529388422825;-0.0503737769246476;-0.3072318869098071;0.8843350289610853;76;1.2566370614359172
688;2.909352613788424;0.889470137361602;-1.633008998799194;-2.3864372290370817;-0.708352921210504;-0.190069522917807;651;1.2566370614359172
689;-0.2807247697573837;0.941042768037384;1.1323942302386525;-1.4627105123373;-2.4202776034416864;-2.808571569199348;414;1.2566370614359172
690;-2.94161834891216;-0.9407888117996304;1.7788755421988154;0.5509526067571233;0.1566896132087617;1.452620800701789;687;1.0750186104114496
691;0.7041305418845987;0.8825183843510876;-0.1973404944716218;-3.2968314636583487;-0.2921749296794145;0.6882335310107339;294;1.2566370614359172
692;-2.7387908086969976;-1.0609901808629691;-1.063831968094533;2.1207347185502563;1.2930864975837628;-2.3846509898414854;552;1.2566370614359172
693;2.729287222463104;-0.3381914778026385;0.4721812028264185;-3.4478300103776807;2.2072779148639987;-1.1027742694736948;411;1.07882640604806
694;-1.204154917017599;-1.749221501268237;2.1445388369921634;1.5288178911745594;1.8002609742661884;-0.5305894621509396;466;0.99504422136648
695;-1.1773840064431669;1.0173142279863043;-0.9520105685495556;-2.3633795254275185;-0.5743425620239512;3.110377159034922;146;1.2566370614359172
696;2.03193808607412;1.0264362800498528;-0.9054198054385488;-0.0729889830886316;1.4673769084568762;-0.7588400568372136;188;1.256637061435917
697;0.1189092191632291;-1.2002423442715846;0.5435064048554094;-0.9647758224758248;-2.489079662937195;-0.1034778839831996;259;1.08889770268766
698;2.667376921502542;0.7088345497730184;-0.9367414892635866;-3.427397868810566;-1.714468485594648;2.0483864212050515;186;1.228203218706713
699;-0.6576679774874423;1.1767390466921694;0.5929647499717281;-1.4573382075532118;-1.895096963807238;-0.5979670097919432;96;1.256637061435917
700;-0.5041548141164237;-1.0326166373330117;-0.3512301981672376;2.1436884087234054;-0.664789572186181;0.8162948861316544;67;1.2566370614359172
701;2.5150907130231976;0.2466889883076789;2.089703345739644;-1.3014992819380595;-2.044217808161775;-1.1979927734167013;79;0.8704776397266968
702;0.1573439715317764;-1.5595082482499762;0.646485629230914;-2.0980327127292284;0.6276415202979055;1.3034080210607588;652;1.256637061435917
703;-0.975867549762556;1.1444291804516498;0.846932839139746;0.2259919155395593;2.38496987612276;-2.5898301529708974;156;1.142359370887494
704;2.314272760244613;0.2374140765622547;-0.2752581965830605;2.3723250259570543;1.0305841013982482;-3.1801547002019688;378;1.256637061435917
705;-1.569958069400733;0.8670179196021466;0.3767070383413891;-2.494219288845109;-0.7053028642876948;1.853715862872702;146;1.2456202010115158
706;1.3364819329623585;-1.095179916287534;1.6491318284693182;1.3056846378712637;0.0465501420796824;0.7125552134191687;455;1.256637061435917
707;-0.979368544478664;-1.2019012476054465;1.7036180833570167;1.0598806525928175;2.2741160884163074;2.3391645662154885;684;1.2566370614359172
