Komment314/test_diploma/benchmarking/path_finding_for_benckmarking/pre_rrt_star_results/2_2_tree.csv
id;joint_1;joint_2;joint_3;joint_4;joint_5;joint_6;parent_id;cost
0;0.0;0.0;0.0;0.0;0.0;0.0;-1;0.0
1;-0.7638208389600105;0.3928283811328615;0.1945203204099467;0.740286858558737;0.0369099663203625;0.5041578716040598;0;1.2566370614359177
2;-0.432136136017047;0.3663963498383026;-0.4925317800579809;-0.1247533841136953;-0.9892538273451262;0.1462008304211678;0;1.2566370614359172
3;-0.1243882907194149;0.3524373347381925;-0.1950978385555446;-0.5794014335886205;-1.659546154986053;-0.7138977167483262;2;1.2566370614359172
4;0.7082137953124142;-0.3487107195209497;0.3264728876360907;0.6422615700328271;-0.4581752599563192;-0.4764049945751455;0;1.256637061435917
5;-0.2162185657325666;0.3375432703447622;0.8413668660793872;-0.2701490813047927;-1.937881028278141;-1.2823303588208668;3;1.2566370614359172
6;-1.4868185980529511;0.2954104040336935;-0.8064184517042428;-0.1274498726006404;-1.58484480301676;0.0541037080036362;2;1.2566370614359177
7;-1.35170414910256;0.5067923812139298;-0.1557037384209812;0.90733983290704;0.4706989161784372;-0.4348872198979735;1;1.256637061435917
8;-0.0580931013696781;0.3228073312762302;-0.7800445032651737;-1.1018889846177813;-0.7655706383079658;0.7376708575827726;2;1.2566370614359177
9;-1.957572881146071;-0.1270548765277791;-0.3617792823660611;-0.9405757640564024;-1.1871978245815802;0.4566572698060294;6;1.2566370614359172
10;0.776101880514878;0.4655001718680917;0.568239592970512;0.1226268037168558;-2.4444876564081026;-0.9781228824984044;5;1.2566370614359172
11;-1.7853670707478435;0.726512346111663;-0.6943639873362337;0.2601387500059171;1.101690125143255;-0.9202966350610942;7;1.2566370614359177
12;-1.633520956471587;0.367781423891228;-1.1810736601460723;0.1350880618548264;-2.391195371430352;0.8865000236320926;6;1.2566370614359177
13;1.2355314927869752;-0.113873290311457;1.2417882349881344;0.0349139197737815;-0.2738495753725644;-0.4037770345593524;4;1.2566370614359177
14;0.8659242605223425;-0.3323645188860921;1.5141704304004229;0.1796498613253113;0.6284875968381906;-1.100509304201139;311;1.2230257837287934
15;0.7106498408140468;-0.5163406994971702;0.2032515544650419;1.649053614438285;-0.3242618936647744;-1.186534878731333;4;1.256637061435917
16;-1.5508932261201696;0.3959996789631456;-0.7251527041111925;1.2238034009551206;1.4189358996227592;-1.5405205552861925;11;1.256637061435917
17;1.5256339048659786;-0.6261653312653296;1.672253155840579;-0.2842167037910733;1.3424704000626015;-1.655186859510474;14;1.2566370614359177
18;-2.054785508382416;-0.5163367136919684;-0.3463588379537122;0.7225659598796479;1.334458333912622;-1.842201436690979;16;1.2566370614359177
19;0.960069524610033;-0.6830489046046299;1.696727227011598;1.0449698338264684;1.4058196939149543;-0.8536429292261909;14;1.256637061435917
20;0.9851655472166008;-0.1279696243154931;2.0462438264843925;0.349669420780323;0.1229773897192774;-0.1229656336286889;13;1.0224618919812207
21;-2.203168767711237;-0.2472471720051063;-0.5289505125639815;0.7647936177055434;-2.583921514387685;0.7544362182457793;12;1.2566370614359172
22;0.4232792469246357;-0.634747916938762;1.1273250438976528;2.198580548776501;-0.3828450652227898;-1.755051301866641;15;1.2566370614359172
23;0.8050502986206434;0.1255092939184434;-0.1308685062294677;0.9884131129885864;-2.9181604976760296;-0.9771912547314664;10;1.2566370614359172
24;0.415297037989105;-1.2846488682007076;0.9286039081521944;0.6856199307041315;1.8396341615854337;-0.7392036545583052;19;1.2566370614359172
25;1.8559804274678309;-0.2906681028045391;0.945091664121042;-1.063104397576115;1.2345137657285827;-2.113842481309657;17;1.2566370614359172
26;-0.5660666922737525;-1.2824075144072102;0.9259653066333648;0.4640419848935577;1.2747621059179646;-0.2413354773563107;24;1.2566370614359172
27;2.2599649884884467;-0.087512772176486;0.2769549453629876;-1.673208291711125;1.2965057989046198;-1.3707512073063195;25;1.2566370614359172
28;-1.638762089300685;1.045745792116923;0.7051514415008959;1.0339748505500042;0.1311153678033651;0.6814765985491613;1;1.2566370614359172
29;0.66027531432887;0.231908351066127;-1.2406266837796835;1.3180665120922062;-2.9747657892180763;-1.4282094511770136;23;1.2566370614359172
30;1.745548654706622;-0.1445231683024062;1.463677635259308;-0.3891363044499321;-0.5481068345935624;0.6031039121511145;13;1.2566370614359172
31;2.395117991763799;0.6446997516546615;0.2643192818165489;-2.005910087705717;0.4295200433162345;-1.7735175718159677;27;1.2566370614359172
32;0.1087482866735812;-1.163886300820102;-0.1289648645682342;1.5656600389804187;-0.2410292827902682;-2.007074952395615;15;1.256637061435917
33;0.9039392602375692;-0.987997535942852;-0.534905893726071;1.9318649402646604;0.4614043151315324;-2.3585917425478327;32;1.2566370614359177
34;-1.436900034205096;1.0659884821970154;-0.9811401339659328;-0.120744449923094;0.3590136229457425;-1.6710179045517717;11;1.2566370614359172
35;-2.13514182754828;0.3897852240943276;0.76249262460739;0.9005292199223004;0.3056516467769867;1.6039195141484868;28;1.256637061435917
36;-2.5036638612752813;0.3157478348081232;-1.793780266919902;-0.4123931829427697;-2.5351462997266845;0.5351973537669004;12;1.256637061435917
37;-1.9377519561848888;0.3059937696130225;0.178954943391122;-1.071274894478684;-1.4586057989577323;1.460686478061582;9;1.2566370614359177
38;0.5364474642928431;0.9826165673782484;-1.008866097834884;-1.8148410179367311;-1.0940298894387872;1.0866186879270636;8;1.256637061435917
39;1.1458728517158026;-0.063979138703392;-0.064003644787332;-1.0100934333356608;1.2366992189427235;-2.1629114897801878;431;1.2329832912454262
40;1.90225696632892;0.4787713654350751;0.8578687052248721;0.6723510130646609;0.1874930977971712;-0.5335030681666261;13;1.2566370614359177
41;0.7618340803611627;-0.2975986799279833;-0.3907043097232653;-0.4023767583146253;0.4484078049195551;0.6281354082511091;0;1.2566370614359172
42;-2.251101749646398;0.5661946650106415;-0.553288068034897;-0.7921613334935068;0.2360539103157917;-1.5389523971166033;34;1.256637061435917
43;-1.5838067137855654;-0.5774957707084396;0.4244438322847385;0.5765877459094468;-2.6931567125565854;0.3936749981864343;21;1.2566370614359172
44;-2.442838866753857;-0.0398489750088009;0.9682463809563976;-1.2926527764987772;-2.057017298588597;1.043156539031323;37;1.2566370614359172
45;2.4963353947296025;0.3484621324356458;0.4463138384461449;1.4154118843983423;-0.5069371404944876;-0.4594976214202425;40;1.2566370614359172
46;-1.2079837180247377;0.8419848707906888;0.2019868418371807;-1.461612482709078;-1.9604912077316532;2.0560902885411285;37;1.2566370614359172
47;2.8676408770911306;0.2269170560790674;1.0259848466040145;1.683387670473137;0.0219229922912457;0.4001378813858818;45;1.2566370614359172
48;-2.2151515452899493;0.0300923506965242;0.800237273414049;0.0749455625456509;1.1685781822669743;1.7292229321957668;35;1.2566370614359172
49;1.3393207642108198;-0.7580251661342801;-0.7791233099709752;-1.4575813789035512;0.6546146957802874;-2.065183642843701;39;1.2566370614359177
50;-1.1363822503955343;-0.0222138119463657;0.0339808678123293;-2.307593290132504;-1.8369516845149445;1.795324065402975;46;1.256637061435917
51;-1.9001835604431812;0.8510256337877763;0.6743450413681331;-0.4149176149481378;-2.2356108107397925;1.4873805026557203;37;1.2566370614359172
52;2.053448358344373;-0.1885880538556499;-1.131770241070686;-1.0639625766683352;-0.0198818558195748;-1.9619429482322257;49;1.256637061435917
53;1.2245936247193594;-0.0226015647436853;-0.930829389372406;0.2056361493494849;0.8531533787960701;1.309408567707152;41;1.2566370614359172
54;1.1432119032950945;-0.44961321914209;-0.0106558709734759;1.3642718875439086;0.6274289798761586;-3.1379911810419943;33;1.2566370614359172
55;-1.3035226917599114;-0.0886512280439954;-0.5968802864647451;1.1503993226935745;1.4158603089359678;-0.160629240874437;7;1.256637061435917
56;1.323539996330804;-0.1325737977607385;0.4505587200369392;-2.387016789787154;1.329400256294911;-0.9714123106576806;27;1.2566370614359177
57;2.291641310836127;-0.9938899298853968;1.2171117869229438;-0.1026867333174511;2.095353803904023;-1.4311159732207317;17;1.256637061435917
58;-0.6965570511639347;0.6149140618351504;1.1989792594925297;-1.6874161019956733;-2.3392144093569573;1.7775119377603823;46;1.2566370614359172
59;0.7695858412959803;0.1488221000777866;-0.2734085994398727;-1.1396778517080637;-2.058791173894809;-0.2049291847335089;3;1.256637061435917
60;0.0146066208680867;0.8162248417128978;0.0568637894269996;0.5627867921860812;-1.6207334909047972;0.0837637424260892;2;1.2566370614359177
61;0.2489086741411228;0.6068167306744213;1.7440584758439948;-0.5932431089081249;-2.529627422465699;-1.1378330563632422;5;1.2566370614359172
62;-1.132641408314275;0.8194441216284429;-1.2533445149116127;-0.7271570572083204;1.2873094670260798;-2.02060998340918;34;1.2566370614359172
63;1.447103291595157;0.9388236220341531;-0.7004319885287336;-0.6105388031169274;-1.9458475774130173;-0.0603226825909242;59;1.2566370614359172
64;-1.845784108618015;0.8186756257890415;-1.5396054287534566;0.4812991298390563;-2.3270089816982398;1.924887452190302;12;1.2566370614359172
65;-0.156483829627349;0.5673870260146455;2.047370330767728;-2.045184292643574;-2.806990055603295;2.2450793202191868;58;1.2566370614359172
66;0.9736767263477464;1.365378786512802;-1.4153504339389469;-2.6630856168688744;-1.523988473876569;0.6720736834544907;38;1.2566370614359172
67;1.705758090861472;-0.199162290850025;2.2968253593067995;1.0353125068771618;0.2812802712225824;0.5819154528342274;20;1.2566370614359177
68;-0.7631326869021098;-0.0101442944235551;1.159899858828577;0.4895229885104511;-2.263951595161691;-1.8940885380307804;5;1.2566370614359172
69;0.6167871704629349;-0.6340302521659829;-1.3806100131022552;-2.107723008783308;0.1513040825537847;-2.127755242289288;49;1.256637061435917
70;-1.3440359031136475;-0.0797850176335495;1.3736690821395725;1.4137618691795597;-1.8795927323961867;-2.329050378286125;68;1.2566370614359177
71;1.4846970775696826;0.4373900704595828;-1.4851298131489976;-1.1232499634645376;-1.4795064202555626;-0.5401042162267965;63;1.2566370614359172
72;-0.640860260655597;0.406770077336628;1.018243611431755;-1.637824403245349;-2.590610688188705;0.9797996087864004;58;0.8837962494988789
73;-2.348964048069665;0.1705601243507827;1.4903157264672555;-1.7768802684060714;-1.7656720858555734;0.0766486316272615;687;1.1650617085768702
74;-1.1184246107224511;0.1688193282597694;-1.247785790446082;1.9541410200803293;1.316295176708269;0.4710292193873687;55;1.256637061435917
75;1.028696619881918;-0.7329099296945296;2.4462640639201645;0.2865478757346754;0.3545576423032913;1.079397064874568;67;1.256637061435917
76;0.6288739754211116;-0.6329799316686072;2.125696371489082;-0.1429511796056467;1.88317720494242;-2.162120136533496;17;1.2566370614359172
77;-3.205885335673847;0.1630966868439838;1.0907061288202275;-0.2968874816926408;0.7785579068082995;2.182152643425302;48;1.2566370614359172
78;1.2801670718074192;-0.98934993471902;-1.2929891884592983;0.81652129066598;1.2194940265072731;1.363260579570068;53;1.2566370614359177
79;1.554590346448944;0.7517477274975625;-1.654270196758223;-2.896622513361471;-1.180968235200181;1.4694744448890644;66;1.2566370614359172
80;1.816391451086228;-0.5940763683472258;-0.6133367680560955;1.0103526823579123;1.9626702943773648;1.652310645957532;812;0.9406979108546732
81;-2.686824081231467;0.6195118624550062;-0.7112430251024091;-1.936466368350616;0.273494619271611;-1.3138869789813348;42;1.2566370614359177
82;-0.0233494503396602;-0.910655811538226;2.5283108008711093;0.0354662370363702;1.0749450029710357;-2.64114724139342;76;1.2566370614359172
83;-0.6657988749152526;0.5941833630654476;-0.9454564657865469;-1.0395314599874357;-1.9439952391110424;-1.3237347024827983;3;1.256637061435917
84;-0.1159651507338115;-0.2253741879108377;2.168353366619049;-1.27139732108909;-2.33089674749386;2.575195342539475;65;1.2566370614359177
85;-1.8186764578978152;1.190591240286082;-1.2681356927353882;1.3322151090015972;-1.6271931547875136;2.3155082944112566;64;1.256637061435917
86;-1.2996965019153266;0.890241232446489;0.1307701237223892;0.9466299125861676;1.7626027753494615;-2.127228528131645;16;1.2566370614359172
87;-2.588830427242009;-0.0920154396703694;-0.9461687578497586;-0.3586996657148572;-0.5278469601018677;0.710799822654849;9;1.2566370614359172
88;0.101725208018674;-0.4297096065174146;-2.122580371124822;1.2507112946341457;-2.880699060204585;-1.6236386702573211;29;1.2566370614359172
89;2.484813104994389;-1.0168039680760637;1.396585833237964;0.3146039873474586;1.8957436829487184;-2.5691448084126405;57;1.2566370614359177
90;-0.7154794433928511;1.3890037301326152;-1.5769264767555802;1.7067765119903195;-1.3714206051505036;2.46267468045789;85;1.2566370614359172
91;0.9495572847342798;0.0686557960727149;1.7200633429751389;-1.4235165355223716;-2.4259356886850654;2.927627479504705;84;1.2566370614359177
92;1.7396860528994105;-0.4415493272320575;2.541503135766653;2.106850769703113;-0.0837078894313216;0.160066781212199;67;1.256637061435917
93;1.3239753882299368;0.0415732044190757;-2.0117114300651133;-2.1846128870124217;0.0738481208145601;-2.588603395589905;69;1.256637061435917
94;-0.1363387048191598;-1.274994742379449;-1.0184016981375636;-2.79120585528471;0.1020744823781382;-2.14606982706726;69;1.2566370614359172
95;1.2325620405155815;-1.068487066872346;-0.5779135767924828;1.7536978764658109;2.0416202639015424;2.325485537706665;80;1.2566370614359177
96;-3.106350933717071;0.6736498991992687;-0.4602827110681624;-0.8565243799471064;-0.1792310896846883;1.0566583150206448;87;1.2566370614359172
97;-1.007533370051204;0.722603335480265;0.533925643999531;0.3317887500455269;2.6299649784315164;-2.5429131730666934;86;1.256637061435917
98;-0.4732924874809748;0.491752460629304;0.4426066012217866;0.9097662029264167;-2.6022470789453624;0.1407522177794908;60;1.2566370614359172
99;1.9638114841255063;-0.96686407541353;-1.641812407977107;1.6207557652504794;1.160471120451785;0.7807599565767172;78;1.256637061435917
100;2.9628768920664723;0.3077626150698693;1.2864962695743631;2.2742854591312835;0.3027362546550774;1.4334085694240344;47;1.256637061435917
101;-1.602101394237487;0.7454983899637058;-0.0015413798413672;1.0649326671409836;-0.2213048074607164;0.9078370149838616;1;1.0956994277716778
102;2.0265757908028705;-0.6451098993371507;0.9709012347710192;-2.680528674226622;1.3050160426110675;-0.2897349884426791;56;1.2566370614359172
103;1.081350974305674;-1.0842507461233208;1.0878188269525062;-2.9913579909893304;1.639385729917034;0.2306056613496381;102;1.256637061435917
104;-2.653037895073619;0.4016022354125267;0.2881926083006069;-1.8118649843708636;-1.280625660288981;1.115513121018928;37;1.1099563405641202
105;1.1769584860575473;-0.9004824882452681;0.0266741280131429;0.3975620622578396;-1.1735888465215802;0.1508025381382597;4;1.2566370614359172
106;0.8460411931369556;0.1269339513004881;-0.3341892117256435;2.5699324552352887;-0.4242802812486667;-1.1983465291441917;15;1.2566370614359172
107;-3.0701520726444813;0.2915661218773427;-0.8947609646098509;1.128232298758136;-2.11456065131023;0.5287100434746512;21;1.2566370614359172
108;1.448787880168382;-0.029943880962767;-1.0053405170546672;-0.8443795999392572;1.869935180597152;-2.5772263774453688;39;1.2566370614359172
109;-0.6470235780711293;0.6052650712451954;0.9168963590595248;1.067599450739379;-1.37213309176839;-0.1176913636273721;745;1.1899557539552386
110;1.7459984582127015;0.2693550159668014;-0.0581565037424155;2.1554990586735268;0.8601382335597859;-3.009852946732134;54;1.256637061435917
111;1.4858735733054682;-0.3665061792107032;2.010196736134599;2.445683397984149;-0.9088353850832804;0.8166907458624655;92;1.2566370614359172
112;1.0938925065128646;0.6811269234355576;-2.3937961112072803;-2.2499072305367185;-1.050004323469122;0.853344486901748;79;1.2566370614359172
113;-2.5312263438893354;0.2164063716527;0.2482088895351604;0.6987787364539729;2.020761735538223;1.885429646255424;48;1.2566370614359172
114;2.237386086258063;0.0759250923192053;-0.9932205752821244;2.630500931172361;0.9029475644120109;-2.5643694652806888;110;1.2566370614359172
115;0.1388204999881216;-1.056591576013803;0.0455909302952429;-2.565669680948456;-0.1172022974268456;-1.6720497983233762;94;1.256637061435917
116;-0.7758007031296994;-0.2479481806293703;-1.6212057506181698;1.9148722798670443;2.0755258024537158;1.2264329273289063;74;1.2566370614359172
117;-1.5420662575105133;-0.0028772500425015;-1.1181472808417354;0.0249843811095514;-0.2619069838866187;-1.663767689672421;34;1.2566370614359172
118;-2.332323598524526;0.1748448170905724;-0.6716526573787305;-2.5325582946213143;0.7575613685982769;-0.4987037289593442;81;1.2566370614359177
119;0.1422281779704402;0.3303533739546936;1.2925176320970455;-0.812259622187572;-2.2934219435444465;1.6438855285124556;58;1.2566370614359172
120;2.3107924775951614;0.0160820921975502;-1.515567569684952;-0.0183951597868385;0.4555905047438245;-2.028540706606435;52;1.2566370614359177
121;2.0542900069029897;-0.0029713112133484;1.5823189591836924;-1.086518761263916;-0.0538527682057254;1.4510858791867027;30;1.256637061435917
122;2.6313425951507896;-0.1044070462053135;-1.8674690728391297;-0.0578117795330106;0.5407403717086307;-1.517159649293256;120;0.7151359547633207
123;-0.7195395722747601;0.5718094542055172;1.0622431139131394;1.7651902190046354;-2.566083558664704;-2.5988799687954924;70;1.2566370614359172
124;2.8746585643471203;-1.43025596287274;1.755763698551173;0.9366858029097732;2.701084431657637;-2.8718764127748324;89;1.2566370614359172
125;-0.2998685501920538;0.0791665496656193;-1.6938160583678463;2.690276921673303;0.9520198290657824;0.3051091638874613;74;1.2566370614359172
126;1.325694517032904;-0.3102925678852949;-0.2831038270263056;-2.5186751429265417;0.5962186426459588;-0.2973216880759166;56;1.2566370614359172
127;-2.5938910050274964;0.3379626601449224;0.6683124558484594;1.781218570394175;0.1066242273075758;2.340061326763061;35;1.2566370614359172
128;-0.1771204041226486;0.2262190272700146;-2.455864068366713;1.2354230922887253;-1.9177950419753444;-1.442963392918717;88;1.2566370614359172
129;-2.031973841674733;1.0523601959661244;0.0932033624018359;1.6075838929601212;0.1052149772346213;-0.7993739973577983;7;1.2566370614359172
130;1.6656229492575554;-1.1527491717531342;0.1798649391218935;0.5871025389792145;-1.6935592911948656;1.1239124942655372;105;1.256637061435917
131;1.6890520659561854;-0.6032569296237715;1.1254181079376668;-1.1409677310383677;-2.805251890151272;2.986787420377896;91;1.2566370614359177
132;0.9078333841054356;-0.2225962990546432;0.0309790036101702;-1.9521694514470065;-1.833393856819628;-0.9913605744845544;59;1.2566370614359172
133;-1.3566759041646796;0.7905707451300764;-1.2976608529078324;1.3339937979922185;1.893244730143872;-2.446530289793815;16;1.2566370614359172
134;-0.7044992689194323;1.2387988762297668;-2.0070997270245603;1.0706845545306023;1.890657621920484;-1.8298845923499252;133;1.256637061435917
135;-0.3506667811887474;0.2076875533747266;-0.2971954776045827;-2.4654950126714508;-1.3027492690991656;2.49457389305146;50;1.2566370614359172
136;-1.669460311758684;1.338063127541522;0.793897081355089;0.5095492732373017;0.9995810470332818;-1.9572639016280935;86;1.256637061435917
137;-2.8563655927605223;-0.348457396420163;1.253966399033592;0.4047897947255031;1.8526080725911855;1.2371689609041452;48;1.2566370614359172
138;-0.8862223987304928;0.8266620696329179;-2.5411908900730924;0.632018238780325;-1.3421926461336766;-1.328582378511691;128;1.2566370614359177
139;0.0453206218160869;-1.1885873515931065;2.6655755629419864;-0.9426595829763528;-2.56449036781164;2.110997526271857;84;1.256637061435917
140;-0.5579129601916687;-1.2806365426643656;-1.073484306666971;2.034388401697454;-0.1537217876870222;-2.047361599222685;32;1.2566370614359177
141;0.3859821415625993;-0.2867853360968007;0.1043650031617139;0.5086426891287776;-0.0427025375474831;-0.4448390370732987;0;0.8369843232174653
142;1.525418213118237;0.0448328223949594;1.0251918106629727;-1.575822532233967;-0.0142437283280621;2.3146646994334623;121;1.256637061435917
143;-2.9635569242013813;0.9521621292784213;1.138240248491614;-0.9070520044976798;1.0282479418920178;1.5032682484946696;77;1.256637061435917
144;2.3614334632051865;-0.0160797207156199;-1.2668260992908422;0.7110884903274817;1.7258451607812877;2.26492167912146;812;1.0360397353158686
145;2.811261682403629;0.3301243096488075;-1.1961888396118594;-0.0940671547043873;1.9512083995426055;1.5213625206277686;144;1.256637061435917
146;-3.021224533374784;-0.3780152806701518;1.3114349980328794;-1.881788764407364;-2.309764579080946;-0.6213677151405423;73;1.256637061435917
147;-0.6294826354843895;0.9068056906756408;-1.9420732418032784;2.202079713652643;0.3965040098397757;0.7257500353711831;125;1.256637061435917
148;3.366477792874342;-0.3246559534540076;1.9969418755199595;1.1508313132789028;2.6811088980068787;-2.9742235436413305;124;1.2566370614359172
149;3.105302530953513;0.2041726280470461;-1.4352942785037328;-0.9164774221182006;1.1508817971715148;1.200800314274834;145;1.2566370614359177
150;-1.0543069185275131;0.6068516478816873;1.425817413106607;0.8136434595744295;-2.978779740860164;-0.1918003108508623;98;1.2566370614359172
151;1.0183600832348048;-0.7197447932715573;1.6064573716387294;0.9596156717973716;0.2364392182406581;1.7170560950521256;75;1.256637061435917
152;2.3655234156319285;-0.4315468778322801;1.256918232364424;-2.038989268879729;1.4342198755118531;-1.7219376170620728;25;1.2339124481290862
153;2.3547451815935223;0.5492439745753224;-1.6552545245372876;-0.9286550104311506;2.5915960010123174;1.448277029686648;145;1.256637061435917
154;-2.401264175338358;0.0645085349715387;-1.0501211013266338;-2.275818150251177;-0.5459506156042729;-1.8506132364139172;81;1.256637061435917
155;-0.176806778271303;-1.499190959141136;0.2977560247212419;2.3767360796206427;0.3824645548903386;-2.402658279249158;32;1.2566370614359172
156;2.6440394127285045;-0.6760234272849346;0.7817790520119656;-1.087572342168196;-0.238727662699789;1.129699488788974;121;1.2566370614359172
157;2.309418402949313;-0.6194206051652337;-1.2679572943401487;2.01989615564739;0.1965947278576775;1.1136821687799616;99;1.2566370614359172
158;1.2490963858294268;-0.9700692409241988;0.5692537676184778;1.5881413275785328;-0.157982614210832;-3.317511849061845;54;1.1478666088603895
159;0.9295383656381526;-1.0163283357014563;0.4499216927691771;0.4472022475730515;2.8000267686945066;-0.9245763553748404;24;1.2566370614359177
160;2.701935715885155;-0.3161508667106179;-1.5516070411310103;1.602998985524147;1.2140160490711918;2.7492549028054567;144;1.2566370614359177
161;-2.347990320075681;0.6914154667049585;-1.622704121430414;0.910106599763272;-0.8154204345478467;2.610326497761004;85;1.256637061435917
162;-0.893361320119306;-0.3240664207587529;-0.2184760870669173;-0.1724267292503935;-0.3973051400777264;-2.097869130457252;117;1.2566370614359172
163;2.656102047268372;-1.406603758614294;-1.5754265841769255;2.5105559971697557;1.4926436107713985;0.783825527611723;99;1.2566370614359177
164;1.823351043750363;0.5508671280625955;1.3668986666614087;-2.596244934340651;0.0391271730925128;2.443923412465421;142;1.2338623959954502
165;-1.3952645338448364;0.6766871982615832;0.4298622225421731;1.402944441453945;0.4215264053812297;2.360830706276696;35;1.256637061435917
166;2.823671633310591;1.2926873178703808;1.010045320746541;2.6926992341988822;0.412408237436799;2.0045116878194187;100;1.256637061435917
167;-3.005111343721748;-0.910246075089454;1.33538737444933;-0.2913795107751725;1.35615528533024;0.5274799873909697;137;1.2566370614359177
168;-2.5734364997500405;0.0748966813664927;-0.2711946345552933;-1.215781950601864;-1.5930428996699604;2.398794006657317;37;1.2566370614359177
169;-0.8869614616417103;0.2746509778321155;-0.2430886214203549;-1.841401075423548;-2.1662549010319663;-1.816084215448318;83;1.2566370614359172
170;1.3779793650353778;-0.6137002222295322;1.4293494149843584;2.2256881529850334;-0.6907890649573872;-3.3910904682328646;158;1.2566370614359172
171;-2.4187610323700146;-1.0656712968793547;1.2243428057501422;-0.4798559534563372;1.593663677190426;-0.524617211111259;167;1.2566370614359172
172;1.5952587546424235;0.3770378894406271;0.9323734852841898;-2.561113321017728;0.907852529666858;1.7008460955171083;164;1.2566370614359172
173;2.1297859372046823;-1.3548638554956791;-1.809141186083795;2.0420803727373635;2.199076498409093;0.0583521040329768;163;1.256637061435917
174;-2.743972648359017;-0.2892232983383303;-0.1960757152030857;0.3303729209673138;2.1662467540602965;-2.271508918788418;18;1.256637061435917
175;1.7190976664889142;-1.492335325354194;0.4367950749495117;0.5884450668008101;2.68850323212641;-0.0899561907917823;159;1.2566370614359177
176;2.4404719737631506;0.8903169243865592;-1.567784398352653;2.6288068137036347;0.625152899280956;-1.880730351755246;114;1.256637061435917
177;1.8359466712182817;-1.2788631533434585;-0.2177673213486315;-1.7782070552763611;-0.1308940435109991;-1.903066851830161;49;1.2566370614359172
178;1.447058494148964;0.3987422985051591;1.868146281336236;-0.7498470980465468;-2.6561505631632154;-1.3484228131155684;61;1.2566370614359177
179;-0.2535179067474855;-1.2491840426696283;1.106170617033337;-2.8561504113654403;-0.253505809718822;-2.0724601458840985;115;1.2566370614359172
180;0.2487691563922834;-0.8184090443021311;2.353973575181272;-1.1272829966185804;1.3412776951563803;-1.869548113781065;76;1.256637061435917
181;-2.771959667907347;1.1291567592238505;1.2444461739527417;-0.4381399963807382;-1.714852720533891;1.1065358744882177;51;1.2566370614359172
182;-2.7569521265295447;-0.7350426668031865;1.7120779221763245;-0.1997349071194009;2.1981968708229838;-1.3453695917838304;171;1.2566370614359177
183;3.265884799570888;-0.7315295012022612;1.2727494582248988;1.9673202835671704;-0.1913284657311242;-0.1566380527510227;47;1.254672926489607
184;2.549946584829503;0.6205726826563447;-0.5488378144374196;0.8115685583988046;-0.785011073829682;-0.1950364599288475;45;1.2566370614359172
185;-3.1063200115607885;-0.4485769199127267;-0.5041778653994289;-0.0046860129711291;-2.409912233896933;1.070551785315793;21;1.2566370614359172
186;-2.933573423132846;0.0584516259930414;1.7770019393682686;-2.278808325958434;-2.234796907557843;-1.6218442843530985;146;1.2566370614359177
187;2.5898851418420983;0.9797774997221428;0.7486950599044018;2.55400927439364;0.0542311259540938;0.0850598123516873;47;1.256637061435917
188;-2.111206040707976;1.0421163162611795;-1.8122694020412564;-0.0376106150417804;0.9361325085487278;-0.8332146114861805;11;1.256637061435917
189;-0.920648766844827;0.846753654133228;2.080442243126208;-2.7846892198601108;-2.2120980227597915;2.12144631293508;65;1.256637061435917
190;2.3610354007400884;0.3052956977528328;-1.7951193434299364;-2.5988516217914017;0.3106097679978402;-2.1891891467512394;93;1.256637061435917
191;1.8283438586672365;-0.3769902311811794;0.5018419229193722;-1.2400832191416866;0.5903974972709741;3.061143812245004;142;1.2566370614359172
192;2.425281440104957;-0.4852552005775223;-2.002315235110693;2.642606228680442;1.148972561265846;-2.582225137433933;114;1.1956143525234932
193;1.007889213837426;-0.8129776257837212;1.2673034934552314;2.8745122625839463;-1.5529700452204191;0.8419271907510733;111;1.2566370614359172
194;3.147326749720353;-1.4240214084263774;1.4881818273415677;1.9647043805769;2.117881091052456;-2.681609482204624;124;1.2566370614359172
195;-2.439211612341372;-0.1148139062721977;-0.6644161663334198;-2.995255675925244;-0.9419781290746292;-1.0007051727894258;154;1.2566370614359177
196;1.006990040428742;0.2073221437207208;0.1018883983891182;2.809967904292632;0.1620564996101405;-2.713385009981441;110;1.2566370614359172
197;3.226125293346462;0.8229740107726354;-1.3848693203797016;0.6874353338355683;1.645262804161334;0.8700754181592838;145;1.256637061435917
198;-1.5507458787608672;1.2183459557724363;-1.56484150803613;-0.2991820777191271;-1.489738090907335;2.07166093349119;64;1.256637061435917
199;-0.8929220881114823;0.3737921446267653;1.6498565367061624;0.0792413558368808;-1.5034316266054475;-2.5483859011604597;68;1.256637061435917
200;1.722204801525992;-0.9032660313391646;-0.6608556687314513;-2.8548319851408674;0.9763421047290362;0.5212789759843233;126;1.2566370614359172
201;0.8098931519281464;-0.1457597543967042;-0.9767387753626524;2.3563728130697057;1.9339682714583912;2.448751315212089;95;1.2566370614359177
202;2.6469554323152877;-1.1723446069918302;-0.2967340195171321;-0.9187109101980327;-0.3141663938031258;1.497663966370438;156;1.2566370614359172
203;-2.3782487315856105;0.3532158913120193;0.2905168073584175;-1.1871355940715518;0.7095870875458934;-2.191152816403147;42;1.256637061435917
204;-3.087064268884142;-1.1461531770512103;1.305848277640675;-0.7026435514729134;2.491683511823443;0.766923590148546;167;1.2566370614359172
205;-1.2141695438724172;0.2467253443717185;-1.1270462296150303;-0.8739394073280966;2.3732623447706045;-1.854197539141579;62;1.2566370614359172
206;-0.6597133847729237;-1.6479126747405763;-0.2567614290492021;2.2090074036045197;0.9046261813995172;-1.556759653297055;155;1.256637061435917
207;-2.0395606835101727;1.330562929934238;-1.7599843310594565;0.721478645015239;0.1652636438505327;2.853905562579075;161;1.2566370614359172
208;1.3733989918759455;-0.2493330509184892;0.1120878738488465;-1.450464547795483;-3.1762147460789976;3.293378101418355;131;1.2566370614359172
209;2.9052340290155017;0.8046793947000082;-0.2201748998608265;0.3896673579713213;-1.37113950842178;-1.0835440730538168;184;1.2566370614359172
210;-2.037452444073126;0.038776036079136;2.3351118922208403;-2.2318545183951666;-2.8926647591949;-1.4508610205827883;186;1.256637061435917
211;-2.5964270686089628;0.6255545561168564;-0.3479129878462961;-0.2258795797608282;2.328955245519321;2.2050322100554736;113;1.256637061435917
212;1.236557427093065;-0.8721166231363566;1.617617755024664;-0.9926394016385844;-1.9511570788775836;2.819136676530312;91;1.1835358093921924
213;1.226048327194111;0.4370220141819592;-2.034222362017476;-1.2576278386896198;2.5418437339223887;1.643907587093371;153;1.2566370614359172
214;2.3565189531623205;0.7970998925197395;1.4289984859557447;1.6659711562161186;1.0611871659706844;1.353315964772243;100;1.2566370614359177
215;0.7962949957900605;-0.9015718854578122;-0.8900215170832445;-0.7513749474007505;1.3450287460143675;0.432894544384934;41;1.256637061435917
216;2.555733010747531;1.3668278179624738;-0.4480179712057258;-1.6690924699367633;0.9983527698558712;-1.4778328829389449;883;1.0735569441203865
217;-0.4286194118728554;-0.5982783055469816;-2.057313573067802;1.3496464106679558;1.4796823427337422;1.912851833133551;116;1.256637061435917
218;-2.2516188867825364;-0.8080230195455885;-0.3401582690583704;1.005105848169234;-1.6763566517464747;1.34201879093855;21;1.2566370614359172
219;-1.5255603534976268;-0.0865990263734107;-0.2690821434672223;-0.5511055794128403;-0.8816193835224269;2.132161728725741;37;1.2566370614359177
220;1.2177543190348166;-0.1917142357281619;-1.3999449631961345;0.1666217261863598;-0.007669823943683;2.0761436584593;53;1.2566370614359172
221;-1.6137844351685793;0.9188051786036808;-1.33647560735025;-1.9213511000108368;-0.460275794183139;-1.7314342121536233;154;1.256637061435917
222;2.3759013206787523;0.1190492482748786;-2.1146361264336058;-1.1654968505109395;2.8334116160840277;0.4148258627944368;153;1.256637061435917
223;-2.9746109366743565;0.3362312426912589;1.2593014629940953;-0.2907590591588618;2.459034860440892;-1.0247371194652588;182;1.256637061435917
224;1.534685864458102;-1.3520722912320553;-0.7841535100065795;-1.1047858583680683;-0.5548028550723991;-2.630411989262752;177;1.2566370614359172
225;2.5916982994604485;-0.7559727974120519;1.401578158474139;-1.3436434499563763;0.6230348452903584;2.8837073308601235;191;1.256637061435917
226;1.648640110226883;0.4086994227718563;-0.1493557193532652;-1.8407692859472489;-2.4845292901854794;0.0202214619765256;59;1.2566370614359172
227;1.8520539248973675;-1.4122856824753918;1.3699977991164198;-0.8418762420754269;1.9059150982617257;-0.6531813083967747;57;1.2566370614359172
228;2.33465464178352;0.5168716126343336;-0.4557519971481535;-0.731026755256792;2.3773824490748874;1.947413347319879;145;1.256637061435917
229;-1.7911857307565533;0.9419976364069902;-0.6656329433869588;-0.4181755501317115;2.941000970093796;-1.7133593225317791;205;1.2566370614359177
230;-2.822259910068151;-0.4450550979534484;-1.6657299195751385;-0.6767986403765615;-2.0052305692908474;-0.193976384535588;36;1.2566370614359172
231;-2.446195020644696;1.4348925072628826;-1.4301441448002985;-0.9416260017496584;-2.0304251793228696;2.156484436989347;198;1.256637061435917
232;0.7663246679420943;-0.8425416383215416;1.0577869541350218;0.9546723640173984;-0.9876902234883466;-3.2795307466476697;158;1.2566370614359172
233;-0.2890886274551432;0.5355264687584118;-1.8346598111235304;1.328094579781033;-0.2839661265756025;0.4308041132558148;147;1.2566370614359172
234;-0.9321650593891836;0.5896081654394825;-1.6745721842297634;2.241568442638053;-0.6218604992262439;2.273536282779662;90;1.2566370614359172
235;-3.085213571709068;1.3367052706166305;1.238621256941242;-1.7348154894329797;1.3325949098414227;2.296090502213396;143;1.2566370614359172
236;-1.0955021135715348;1.0553834224938246;-1.9173885648796083;2.664792064708366;1.0562764275348906;1.5563374850595637;147;1.2566370614359177
237;-0.1109549366190498;0.3105232894337776;1.080823803501796;0.1718610896819097;2.999084053576711;-2.9231111576439086;97;1.2566370614359177
238;-0.7516727117681776;1.3146226107562924;-1.4911226425904578;2.9990132826318687;1.7612318719751423;2.333089988909803;236;1.2566370614359172
239;-2.736598368038849;-0.6821963663061354;-0.8824592073183053;-1.6985177726366567;-0.4900811495460347;-2.58859144737556;154;1.2566370614359172
240;0.7831822759654762;-0.0518133306858871;-1.9242195447741155;-2.9219398624880024;0.923784587655102;-2.653876456967298;93;1.2566370614359172
241;-2.6632980190357247;-0.5393487499496256;0.0644322781770927;-3.2424754097983337;-0.1519666826254338;-1.3643484260067331;195;1.2566370614359172
242;2.2131175533112613;-1.3459042345596568;-0.2330242237640242;0.6169783394717571;-2.1541328952997727;0.197316889194645;130;1.2566370614359172
243;-1.5010343425923312;0.2253662765327149;-2.0774569064885284;-1.666989744971769;0.2010051311461592;-1.9172329287224577;221;1.256637061435917
244;-1.6775548239637217;-0.013567425544901;2.491209648569661;-2.700484039304646;-2.5122107844969688;2.1076796442080505;189;1.2566370614359177
245;0.6493197280266949;0.4046610744235644;-1.6843085680206626;-3.2704606854335494;-1.1677175528619503;2.175392148042104;79;1.2566370614359172
246;1.5608026699138997;-0.6156204091122289;2.004582824825418;1.4519314869756776;2.2126133972088744;-0.303733068986086;19;1.2566370614359172
247;-0.5616018894421235;1.030123168658386;1.8430233358117687;0.2482567775764296;3.0013229242064003;-2.4021115403874407;237;1.256637061435917
248;0.405066159370119;0.8004000804759694;-1.8414547205821064;3.178072051968493;1.058160406774849;-0.2343524821144582;125;1.2566370614359172
249;-1.5622918891382491;1.353293337537906;-1.6601981734441429;0.1713964965174604;1.1480773775463722;3.122911228271314;207;1.2566370614359172
250;-2.2482882206071246;0.5653020274454157;-0.0006461398243069;2.265135059816759;0.5108047657918959;-1.629696098372874;129;1.256637061435917
251;0.9871328879201868;-0.3353435814062332;2.1708628466345754;1.5129842761001848;2.633469817456809;0.6775864355974163;246;1.2566370614359172
252;0.9253224335008932;-0.8015205933465673;-0.8276641602824361;-1.7784663540566896;-3.218864500764546;3.0089225726320947;208;1.2566370614359177
253;1.5041339879822309;-0.7638876195036618;1.9124847854945253;1.5145543449165526;1.0513282064707128;-1.79378680878646;19;1.2566370614359172
254;1.6155518274498328;-1.1651443505686;-0.4468134923503593;0.6654814745581771;2.3113871658618894;0.9412044918071892;80;1.0678936112695223
255;2.309308403877456;-0.2836358399963359;-1.408086749871572;2.86326038609914;0.1091738751392903;-3.3313846176062585;114;1.256637061435917
256;-2.9669914383581;0.93055050688954;-0.1750594832795479;-2.482598355874253;0.1403390228718748;-2.208545889780589;81;1.2566370614359177
257;-2.97542633999054;1.478865601490832;0.2056974132961606;-2.2268542418161745;1.3346944578861322;2.783774518285572;235;1.2566370614359177
258;-1.533052685749295;-0.0207767319796251;-1.8646808444727936;2.836849780815041;1.6408044925296528;0.7969633193220704;74;1.2566370614359177
259;3.077682906422958;0.4780841226729;-0.6256904972125686;1.1210442557535645;-1.6399644530799036;-1.902758147621135;209;1.2566370614359172
260;-2.394479665865381;0.3951957965251564;0.5377456590618134;1.972013767986945;0.9104687016289268;-0.9917294904606788;129;1.2566370614359172
261;-1.3188951193684155;0.0806768883028352;-2.8378730598358035;2.560190279891928;0.9609125742743574;0.8224508365284189;258;1.2420557563342305
262;2.375630531615609;-0.8242576274834159;1.710247499155567;0.9602782295353116;1.213281764483887;-3.1336600135963777;89;1.1613377985472757
263;-0.0178988465029723;-1.2949066700676362;0.7975716605049674;0.2580990863177453;3.3380953394620225;-0.5273922011905756;159;1.2566370614359172
264;-2.8714828645896966;0.8001068790296382;-0.8673780558294242;0.8814840482449202;-1.1851791901068038;1.1250900607513254;107;1.256637061435917
265;-0.9055662473288668;-0.5873031945180942;-0.3309198379261601;1.070764114152668;0.1595584735951767;0.0591389899836191;1;1.2566370614359172
266;-0.1774217306117329;-0.7564520870423665;-0.2442345643622425;0.4227577695000424;2.949216232472541;-0.5348864434251448;263;1.2566370614359172
267;-0.0389450548618145;-0.0180079202324038;2.2796887490757296;-1.3309921823011794;1.8830363348572092;-1.151775736217568;180;1.256637061435917
268;2.079642189139403;0.804858116564275;-0.251591533613957;2.5322581974812115;-0.2740158105351206;0.5086157271412625;187;1.2566370614359172
269;0.7032734923919449;-0.791302948848825;-0.652325381541404;0.9844858517149536;-0.8702966205770046;-2.288519584070083;32;1.2566370614359172
270;-2.693833488289205;-0.5312783085173085;-1.2314335433577752;-2.14649854447706;-1.468651378436812;-3.112482711898347;239;1.2566370614359172
271;2.714778008748043;-0.5933580955682926;-1.7323213119762626;3.1510926806043105;-0.9542192609209096;-3.326611226722737;255;1.256637061435917
272;2.099285331889204;0.8192153839233818;1.6408776199247916;2.158759334782067;0.0582983187960083;0.0229073173207097;187;1.1056943865369246
273;0.1364726997992495;-0.0118166350951031;-2.0269785745627087;-1.1652506591744625;2.773639661717122;1.2858710590931592;213;1.2566370614359172
274;-1.1566868358212563;-0.1146070429337199;-1.3286625699975383;2.729854759451555;-1.4361257890963903;2.3817151424754064;234;1.256637061435917
275;0.1456604316778551;1.5903938214654028;-1.6806851799369258;0.7600597836881018;1.6047005578133828;-1.1606009941531372;134;1.2566370614359172
276;-1.7816203018436845;-0.2716277466330182;-2.23237124913422;2.4978827610031824;-1.2485404025770304;2.889898872815688;274;1.2566370614359177
277;0.9552275782720216;1.1552772035021257;-1.4000953183189666;-0.5853177180391786;2.650676694585408;1.291856894810674;213;1.2566370614359172
278;-2.3663935380279715;-0.3204499276279401;1.448028750920446;2.402224575267902;0.6989161965700482;-0.9037069781296956;260;1.2566370614359172
279;-1.1520173928145403;0.3257601808664586;1.1756836005406346;1.7237686305977271;1.264802651163366;2.5236964365496366;165;1.2566370614359177
280;-1.5395528860756524;-0.2577462235813669;-2.34206069389546;-1.0493190622433917;0.6280303469641038;-2.760068954684296;243;1.2566370614359172
281;0.4338955500976384;-0.68890141443017;-2.084805899260242;0.7585952870381238;-2.244434659453904;-2.4459577710732083;88;1.2256278784084933
282;-2.976886288447468;0.3685685359764852;-0.1399678784544397;-2.607385176492161;1.2151621990058306;2.523392583513605;257;1.2566370614359172
283;2.630194770370744;-0.0064196763008056;0.6486984887832595;1.7950978215676354;-0.9240131599590964;0.093140418873845;45;0.8990781933668631
284;1.4196580943774948;0.0318491012612797;1.6028598885987329;2.293665917730417;2.245332208546834;-0.8224135641694632;246;1.2566370614359177
285;2.809121776522717;-1.459186456182016;1.0539206445757383;-0.6374820647511321;2.801760788735519;-1.96328285563715;57;1.256637061435917
286;2.3474130399780115;-0.5810163839329311;1.71666618786473;-0.0586444983589752;0.6976330277133231;-0.99707839142319;17;1.2566370614359172
287;-0.231403151641288;-1.0076127619976;-0.4139647304391747;-2.7590678114218394;0.6873929955796068;-0.934686658470112;413;1.0996243731011577
288;-0.8527530013647681;1.0986553389535183;-0.6483414423671411;-0.0448880885620112;1.6146213203760622;-0.951498486371777;11;1.1693976325411752
289;0.6894840798963838;0.5536310479797295;-1.892347760935128;0.7752514942406064;1.8152910628371228;-1.5057608096826938;275;1.2566370614359177
290;-2.314391681858759;1.567446111949344;0.9091994946467604;1.2615588273334974;0.7036496524161957;-2.623743662923543;136;1.2566370614359172
291;-2.4605263086627325;-0.1710718974254156;1.6477219142664077;0.048121238525291;2.2596416691176087;1.6244075311390398;137;0.8865891257091231
292;1.8568392502951312;0.6617243949913433;-1.1284513497562825;2.533329502064656;1.837719689303692;-2.99983635532804;114;1.2566370614359172
293;-0.8108084440936565;-0.5565457477700163;-1.2150773511896804;-1.2984231142311593;2.734172927369932;-2.527250089441293;205;1.256637061435917
294;-0.6590244796622411;0.7274011440987869;0.2136328784868755;-2.6530707190568674;-0.3746516316608936;2.732175530149235;135;1.256637061435917
295;1.0239934277795888;-0.3515103546637875;2.029218613632624;1.881335459182576;-0.7940377380600027;-1.520701588372401;22;1.2566370614359177
296;-2.4808776036080347;-0.3058306906822496;1.5590154538179652;0.516217482892948;0.6685620751748627;2.3417592448175144;48;1.2566370614359172
297;-0.8750077648148045;0.4428341764402145;-2.464906559179469;-2.2279405862468744;-0.152865054183215;-1.3974457846805963;243;1.1399067621730474
298;2.73675041451188;0.3162064158838312;-1.2742210043904207;-1.1583503932187182;0.2665854664713695;-2.825744280083434;52;1.2566370614359177
299;2.4433597523570665;-0.7022726145997754;2.090559827807548;0.0342212376988431;-0.769622237324039;1.0028913129655626;30;1.2566370614359177
300;2.469162185024367;0.9085461106258548;1.085720993956597;3.1787735236569827;1.0971504682790671;1.2331308849341212;166;1.2566370614359172
301;-2.7275727448564333;-0.5643711325686109;1.3469804695221006;-1.1403722442981583;0.5790107136523386;0.2874741380169364;167;1.256637061435917
302;2.951158997118996;-0.5411645688114579;-0.5372882430469085;-1.463788383886586;-0.6148304973673616;0.6958946948310236;202;1.256637061435917
303;0.6102639207894188;-0.2811222495074171;2.111794513809324;0.86987824675324;1.6280816427421487;0.7568752631456636;251;1.2566370614359172
304;-1.4058163979894052;0.2949775769495174;1.4346978133653023;0.3162645649850764;1.310335966264666;1.3749784698983871;48;1.1539267783655014
305;-2.195722409032735;-1.4336386889706414;2.3931226221688524;0.0438726662063213;1.771079339745651;-1.6109361327135996;182;1.2566370614359177
306;0.7104034685639579;-0.095927800430192;-0.7550366752875936;0.2464771260469234;0.7060769767289135;-0.7084450298973152;141;1.256637061435917
307;1.4533803733346216;-1.2877516796983413;1.281218783824822;1.8588007427616284;0.4073997129514116;2.0687957811092943;151;1.2566370614359177
308;-1.6019904256327424;-0.7181868352127148;0.4355427795920933;-0.2002952491478789;-0.5141944151376724;-2.7903069680520134;162;1.2566370614359172
309;0.8477425320960399;0.4744940311371806;-0.9903318857342068;2.818188995794737;1.6822164977013057;-0.4176219052761131;248;1.256637061435917
310;-0.2668100496589572;-1.0661280015257075;0.0865229503946529;-2.552031145739192;1.0244155162145134;0.1458330051508305;287;1.2566370614359172
311;1.1151265808890984;-0.6554192954143558;0.4392508222190879;-0.1103804073040173;0.4011730347826815;-0.905357436018626;141;1.2537876353531587
312;2.9405876605433607;-0.7406090929648791;-0.973473843898426;-0.585002227203093;-1.0704372637127575;1.904157952751891;202;1.2566370614359172
313;1.0532129485838897;1.2976453949089066;-1.3693149889202028;-0.2374466669649637;-2.781794142213061;-0.1594446665079887;63;1.2566370614359177
314;1.7952892775994025;-0.436681123796168;1.537260563488942;-3.1961346269898225;0.4589228419077066;-0.7136625842463074;102;1.2566370614359177
315;-1.392585624280872;0.7379829961725033;0.1518049776203069;-1.1351056938134392;0.1120397077904645;-1.1118353450059284;42;1.256637061435917
316;-1.9758340967379064;-0.5729443007703229;1.3739817393045068;-2.5642515434857738;-2.2638292229313883;-1.7577313076104824;186;1.256637061435917
317;-1.940282536736076;-0.681159308570701;2.102319962837765;0.2169617162842687;1.4598928667487192;2.7092968366081243;296;1.2566370614359172
318;-2.7858819924038825;0.2751341270644913;-1.2544335236041264;-2.480674668255612;0.8188835359712302;-1.3994070063780395;81;1.012121450860168
319;2.847446148583685;-0.9123516057177958;-2.4122794192020662;2.858666860039772;1.521020716400287;1.4737022180149548;163;1.2566370614359177
320;-3.0397603664697117;-0.0069225387707089;1.1078473173183363;2.432950657122216;-0.6055305345159752;2.709224439985583;127;1.2566370614359177
321;-0.9694105017919624;0.8987335332528493;1.983505714377615;-1.836270101644443;-2.68900532973894;3.1092854287569285;65;1.256637061435917
322;-1.737530708488571;0.0045148199244129;1.5420028052329526;2.7797384063884705;0.103024133655097;-1.6597698012005937;278;1.2566370614359177
323;1.129310881501511;0.4790106060710301;-2.401706016012171;-2.4157738117526253;-0.8229780703222122;-3.171752249937411;93;1.256637061435917
324;0.6836284492218627;0.6254675395458889;-2.1348703436185827;-2.4487556157045645;-1.8021072244383167;-2.5989771942000357;323;1.2566370614359172
325;0.6354110889572718;0.593317437408179;-0.1279577869924577;0.3264186413202892;-2.45955393648902;0.2712263933574527;60;1.1242227545160168
326;-1.3755130816090042;-0.0023595661315917;0.5860038322138446;-0.3446747869458643;1.580995072641484;2.422783261996959;48;1.2566370614359172
327;-2.856923878705596;1.09672980076922;-1.209631993289512;0.0540145478213438;2.715260446996423;2.769956921185435;211;1.2566370614359177
328;0.091698765852523;-0.9641965429964868;-1.593842575461096;-0.65403997676751;0.7961226407686641;0.95502759074378;215;1.2566370614359177
329;2.2136722390211254;-1.0762781841677396;2.0251622553283983;1.9772783991574563;0.2099193493332483;-1.5856385872107095;253;1.2566370614359172
330;-2.698033156310886;-0.8544581762974769;-0.3965059314611652;-3.111903320033778;-1.3760305233495886;-0.1692664086166786;195;1.2566370614359172
331;0.8786445677878902;-0.1805272917848897;0.7150976593427076;3.005595106093561;-0.2975337873392979;-0.9072977456547688;106;1.2194975798567589
332;2.913934094222243;-1.1695420198230069;-0.8368756811628243;0.3761875179986943;-0.9314406288696048;2.561864564389667;312;1.2566370614359172
333;-2.6071916187136046;0.2099630603265034;-1.1611198727597352;-1.7836299930312127;0.3964752279802581;0.2572698339658231;118;1.2566370614359172
334;-2.0154451873315176;1.2283610594954288;1.032826261871763;2.3402028057121917;1.1430775452656792;-1.5453813376704562;260;1.2566370614359177
335;-0.861880004357116;-0.180512903555489;2.0316482119313104;2.377409425073792;1.243006451856992;2.8034244929233214;279;1.2566370614359172
336;-3.082687615000695;-0.9087947623329736;-0.598914112641399;-0.8292557192416351;-1.6519946838234851;-0.2946983819212646;230;1.256637061435917
337;3.126015419120873;-0.7349583078576756;0.1045952013243077;1.6486837725238983;-0.947700457733354;0.7891889096556804;283;1.256637061435917
338;2.9523514022785005;1.196046463829071;0.0061826803443304;-2.803051646474592;-0.0777547116969998;-1.7010773444206335;31;1.2566370614359177
339;-2.1354691268284207;1.105209004545793;0.0208325979170675;-1.08113634999333;2.799978606491575;2.4224848107664902;211;1.2566370614359172
340;-0.8711993734340117;-0.3861331077767648;-1.7010128076434117;1.2571549523617584;-2.0236613197832924;-1.0675495107793862;128;1.2566370614359172
341;1.1087676711055028;1.5941168702321578;-1.3120334710922363;0.3045125458577036;2.1359762410215115;-0.999771679204166;275;1.2566370614359172
342;-1.9672452542829475;-0.9408934949450868;1.9651420653554963;0.378499471248787;0.1406310699356209;2.280436109952467;296;1.0646594310502089
343;-0.7133940921067549;0.6432031329758214;-1.2028630050598073;2.305818233365577;-0.0351022814068597;0.3507610826251271;147;0.9801130551534368
344;-2.8706948052241885;0.0633997752122165;2.1006192723483608;2.559903678250673;-0.0691662227000321;3.21539477996369;320;1.256637061435917
345;1.1825321957188268;-1.6376001911802085;-0.4922494244722272;-1.0841551823423483;-2.9511277243667706;3.393235880856759;252;1.2566370614359172
346;-0.6412635230551964;0.9501724945099446;0.3944520851533871;1.7074491348191625;-0.3061098820678939;2.9197523642166683;165;1.256637061435917
347;-1.259406132395573;0.0039876013073184;-2.324112398357965;-2.315152250387195;1.0924334047967377;-1.474349126571767;243;1.2566370614359172
348;3.3123951467152986;-0.9500023439756556;-1.1529071831862927;0.9314603990550308;1.633732629091145;2.885712349901751;160;1.2566370614359172
349;2.219488225507793;0.8127044035393445;1.1929552962797665;2.2774028933894344;-0.3035548138924156;2.519473157399869;166;1.2566370614359177
350;-1.2344862939836552;1.1812977238309308;-2.3848549454287515;-1.0024486039355844;-1.855216308101861;2.492569279899448;198;1.256637061435917
351;2.7650019211040764;-0.982333755330782;-1.6751417112420308;2.633414677564552;-1.6581066595321343;-2.515072744936908;271;1.2566370614359172
352;2.421794882163145;-0.0923775164404309;-0.5892024307996908;-1.0989993744272804;-1.0807475729871747;-2.076649527181337;52;1.2566370614359172
353;1.1334287030504846;-1.0042157010442103;0.0212281452725724;1.710370122125424;2.4067414965328724;0.9120796207415328;254;1.2566370614359177
354;-0.219156125618521;-0.1703333736340259;-2.1572877045832093;-1.286630421995378;3.124890474658023;-2.3288448957326007;293;1.256637061435917
355;-1.1604956649364515;0.1328904507508542;-0.6889189808982403;-0.3108766251269804;-0.3007446142121702;-2.926138463875561;162;1.102728096341981
356;-2.6821873885662435;0.7302704537884499;-0.7988292421906313;-3.336107026839894;1.172199939154687;2.669734205142036;282;1.0982127192538578
357;-0.5609773957767146;0.4854826800288168;0.0347132783971143;1.461068154277017;-0.6443473501914749;-0.4253409099102689;109;1.2566370614359177
358;-0.5299132747412592;1.540900769110024;-2.002868770546291;0.1219489644369412;-1.5886090915108635;1.8392793959120408;198;1.2566370614359177
359;2.148055208390685;-0.1053499935646774;2.00458894698224;-1.42253249078267;-2.0917075953568864;-1.1388681201181838;178;1.2566370614359172
360;-3.032249857111212;1.58027082742071;-1.955017512003052;-0.276545588684021;-1.7940572746830887;1.4925207459109306;231;1.256637061435917
361;0.4477748606108134;0.1109693828537557;-1.6799211009721904;-3.3210686264172007;-0.0228791434127037;2.548254272140929;245;1.2566370614359172
362;-2.921757357678406;-0.3968097989253566;0.0340138317753721;1.6486041956559565;2.3321195968746395;1.960239512261131;113;1.256637061435917
363;-2.002603971367216;0.0968005194450954;-0.7340384790965424;-1.216423882767466;0.0440355489702311;-0.5661051422029931;42;1.2157525504818285
364;1.718216752496974;-0.2906107604262194;-0.3677957836895032;-1.6389407919947685;1.299389865656143;0.0888396780565672;126;1.2566370614359172
365;0.0812223427585913;-0.7794250420647693;-1.6962183589558713;1.1460852999943714;0.7072090437857801;2.6324642789937043;217;1.2566370614359172
366;2.357268180469536;-1.6228000161778309;1.222245386221662;0.5389400639253573;2.9524070168148056;0.5925582188350219;175;1.2566370614359177
367;2.985870979694937;1.4654028379251527;0.2079545953255817;-2.4090334236031614;-1.058785160719227;-2.290209993574643;338;1.2566370614359172
368;2.694463790038028;-1.25177789368938;-1.610204746341254;-1.34542203867829;-0.5496792642023378;1.855037938054008;312;1.256637061435917
369;-1.0012839341920337;0.8197781313516468;-1.590394276662463;-0.795331795049488;-2.5346222246702217;-2.092678775464895;83;1.2566370614359172
370;-0.2181043934874419;1.5718496021133277;-2.2289898559863515;1.5516970246534432;1.5003909499593286;-0.654672851657964;275;1.1518854347629732
371;2.241532710745993;-0.8983780049768747;-1.5846328111824666;-0.4105259317167156;-0.2672913410107815;-1.422446702670511;52;1.2343051110007803
372;0.8083038361141872;-0.2215988694667048;-1.9881946548290568;-1.4995402190348324;0.7748940528312362;-1.633337835761436;69;1.2566370614359172
373;-1.6340651667675163;1.3692770234153906;-1.2757563664868554;-1.1280678809872045;-0.6339885083157455;1.856056733135743;198;1.2566370614359172
374;2.0392276995579497;-0.6787653756862274;-1.264330455153328;-2.809706190887363;1.1531408803209269;1.53654085338561;200;1.256637061435917
375;-1.5951941569359906;-0.5558373694053624;-1.8191902184996869;-2.877660853330454;1.818940017997084;-1.7063079888604062;347;1.2566370614359172
376;-2.920357246375421;-0.585988335137738;2.3555745757816986;0.065394312225399;0.7063603023896563;1.6574133015654562;296;1.2566370614359172
377;-0.416366421808225;0.3952028326616658;2.091518382482104;0.7831034669070687;-3.111392538596279;-0.1480553976340394;150;0.9567411048313108
378;0.0115556754212763;-0.643417383151546;1.8007074103294731;0.4085388627134696;-3.1910781833059563;-0.4414288183272876;377;1.256637061435917
379;-2.7424605064631526;0.0147011560152071;-1.350616134009235;-0.6411776708787607;-1.4592136598791212;2.215183084122384;168;1.2566370614359177
380;-1.6031023515313518;0.6988709312173036;0.0004667197871027;2.6000542917831564;-0.4608686167114969;-1.3318539358079533;250;1.256637061435917
381;-1.1089423008960515;-0.4278637144720215;2.129376252241746;-1.1435768124504824;-1.7388070154464368;3.0038018361827703;84;1.2566370614359177
382;-1.9627239134293084;0.6035510795624252;0.4855532227513386;1.0772652212603342;-0.0201298733555086;2.2208739839755283;35;0.8186093337129094
383;-0.6876572537577439;1.257574879170743;-2.30111297948117;-1.554568997745374;-2.4868769101336525;1.7419350559044529;350;1.2566370614359177
384;0.3677387106288986;-1.3949610333490294;1.3479233911103383;-1.1453880327355794;-1.925854518125252;2.145180408664633;212;1.2566370614359172
385;2.114943478675516;0.7031560077492228;1.5691782455517496;2.498888257245192;2.4714904456608653;-0.0803463394999917;284;1.256637061435917
386;-0.4558810607898589;-1.4387249178752586;2.4251664396542534;-1.044367146281665;0.6988896217565885;-1.3468559543244614;180;1.2566370614359177
387;0.6141108840848837;1.0919405650347973;-1.764290694448579;0.478627952272015;2.3561615537707103;0.9641272107544896;277;1.2566370614359177
388;-1.7422659257551678;0.0844846845024202;-0.6763894854748811;-1.4084574296880483;-1.7450191271518136;2.80620894657909;168;1.0398686779218862
389;-0.8159010790987462;0.1185459026668679;2.3820573470978146;-1.6341517969126844;-1.0820846553804435;2.3263771041928774;381;1.2566370614359172
390;-2.52130357643959;-0.5640369028241111;1.0504275981915574;-2.081899243313561;-1.37180486393366;-2.1430388839595924;316;1.256637061435917
391;-0.5228861777624947;0.5798201008065648;-1.653458966203909;-1.38784644089397;-2.8509766184500247;2.4580460302798675;383;1.256637061435917
392;-0.2634624655463679;-0.4087970542385382;-1.7507631055307615;-2.702968738237963;-0.6275144808102591;2.772911941319052;361;1.2566370614359172
393;-2.441826801567538;0.7250389780046256;-0.4708225587201624;-2.015321928208609;-2.2519271353198014;2.6969227507536924;388;1.2566370614359172
394;-1.2622655027109846;1.5209234089418946;1.5253845259899443;2.486172519899522;0.5406035707129884;-2.0925272482932176;334;1.256637061435917
395;-2.135213863499388;0.6267926403117238;0.2740382292309267;0.475749555801447;-0.6382605374998329;3.0927676385694576;382;1.256637061435917
396;0.3533853856343806;0.3172600932928245;-0.2473657473416367;1.307997752092509;0.9591123516067764;-2.693014894172989;54;1.2566370614359177
397;2.7811271999159177;-0.835977805453;-1.135311738826056;-2.0564515912685217;-1.0576518623214215;2.495048789916618;368;1.2566370614359172
398;-2.4755432003370923;-0.6053481293777139;-0.3430496734972464;-0.7583047531041222;-1.6597229528854491;-1.3183546366807004;336;1.256637061435917
399;1.4623552998044658;-0.5425897632396238;-0.6124777237264878;0.5956693285823428;0.0947799163187252;1.6360310765119033;598;1.1717040373340608
400;1.262092292384155;-0.6380127876454056;2.0374499677949087;-2.6672721184700308;-0.2724892867237801;-0.2783988190919877;314;1.256637061435917
401;-0.9380918420669376;0.7134027014273641;-1.7633808405261675;-2.819295266800669;1.711490594943694;-1.6186134017994882;347;1.256637061435917
402;3.245835386829325;-0.194155101508057;-1.2953253495355763;-1.1178978370977053;-0.6828405282116449;-0.1244717291871301;302;1.2566370614359172
403;2.076280386117961;0.5257143221490586;-1.1288558292043482;2.278070395784965;1.4489218621335318;-1.6592366091132398;114;1.219927466431883
404;-0.6069667433382029;0.9561412733015244;-2.1599534345018823;1.462996884582925;-2.223300095437946;2.9675946596596576;90;1.256637061435917
405;2.073533695130255;-0.1785848378285281;-1.6595190873048271;2.0852676283727045;-1.3894890234646915;-2.8016584841738608;351;1.256637061435917
406;-2.302898747244176;1.1417283670984988;-1.747791136633534;-1.208560725528105;-2.995312283960245;0.44119871322795;36;1.2566370614359172
407;-1.299861674152608;-0.213520360451653;0.4199170263119696;2.337209623937949;1.755818413231747;2.8027409218461745;279;1.2566370614359177
408;2.44020126995945;-1.21003700146023;2.327738369694033;0.2012594779956544;-1.042704658195117;1.164654690258333;299;0.6653807044464515
409;0.3294797813039306;-0.5553691557219225;0.0366217076117649;-2.995110912984017;1.3119261793326311;0.9711985893122428;310;1.256637061435917
410;1.929263678842621;1.2687065859353643;1.4587110925599385;-2.949250671159932;-0.7836553682241214;2.9364800574829046;164;1.256637061435917
411;-0.9236816813901312;-0.2138746066793156;-0.3859594613735123;2.342642911459384;1.9596309094659412;0.7663223647184901;74;1.2566370614359177
412;2.6893303615707382;0.641849829266679;0.5877264657823189;-0.6505660616392264;2.841904095498635;2.303251368787128;228;1.256637061435917
413;-0.5171094483301255;-1.791713908684914;-0.3425704961780579;-2.873797100373903;0.4798622336062457;-1.6065513041538109;94;1.1442718229482982
414;-1.1136105084783297;-0.9580077525417984;2.2226882838207707;-2.8303638932621613;-2.06034740954655;1.832029553448416;244;1.2566370614359177
415;3.021027017281966;-1.5539503227201856;-1.8219106709534405;2.8485299185801405;1.0707272998921775;-2.54994583138975;192;1.2566370614359177
416;-2.374084729524601;1.355481624115895;-0.3145809632052216;-2.8059046681999185;0.3156517650713492;-2.088082724502883;256;0.8374628149855402
417;-2.9651319685943283;-0.4662106588322842;0.5417896580637503;1.990980280841524;1.6181368274983694;-1.0932248761864258;260;1.2566370614359172
418;-0.8270486194428459;1.4941212765370306;0.2630204192374961;0.7289311616462406;0.0741172575579088;3.279468836358113;346;1.2566370614359172
419;-3.1197511716904733;0.5073639449709791;-0.0848841296040586;1.0103429864764644;-2.016011797091781;-0.3935684820257292;107;1.2566370614359172
420;1.855755705237024;-0.7286142753719954;0.7861789649206032;2.406985245959932;2.47724159405886;-0.5448166145505775;284;1.2566370614359172
421;-1.724342622098798;0.0165869966056773;1.6481289733553928;2.30868825528422;1.0731539667944294;0.0260620181241206;278;1.2566370614359177
422;-2.618316531986008;0.1749601543154628;1.1411717047563703;-1.3235438542539746;-1.4434638754952511;-1.4833903887444908;390;1.2566370614359172
423;2.675890882406153;-0.2239312835269045;-0.0186986287378626;0.1141359733100629;-1.9326192833532991;-0.8918966663427594;209;1.256637061435917
424;0.254926658775941;-1.1628005028402235;-0.8987254434915506;1.0099356250663836;2.8772298962456486;-1.2047926770223842;266;1.2566370614359172
425;-2.895642464577833;0.7381909077114952;-1.0856296548106572;1.0251632401298845;2.987370407377381;3.4153538877013583;327;1.256637061435917
426;2.9302974811515936;-0.968801523735417;0.281126157315116;0.0021381800752198;-1.0586666574321175;-1.1974301531573202;423;1.2566370614359177
427;-0.978084029789408;0.3684867829273651;2.0922741083698746;2.811622336836728;0.6318992985803278;-0.4774139836879062;421;1.256637061435917
428;0.0079241756869485;0.1817065610380615;-2.329405037551791;-0.7882352942125193;3.41410370877314;-2.5748872025112184;354;0.7731110981373185
429;2.904321288124401;-0.5391589064953961;-2.4983231422616377;3.2658442601790747;1.4225451745233666;0.4874485702820912;319;1.139341134045093
430;0.7620569465266933;-0.8452450771078729;0.7104789712321715;2.5638347722610515;1.9607684240710763;-0.2759668661897532;420;1.2566370614359172
431;0.890863472381231;0.2738285230139917;-0.3121125332856237;-0.5807874440004923;1.0847017088727609;-1.1274699894874574;306;1.1699455631263909
432;2.130998260000218;-0.0445959782380404;1.556631321817535;2.7260571731935643;-1.3000747343424042;-3.166544837320988;170;1.256637061435917
433;2.7466664934602525;1.3577619061261628;1.4688552165243711;-2.1705971179723025;-0.2410719214138267;2.8889675656526363;410;1.2566370614359172
434;0.6077267356972064;-0.2521069542816362;0.7974159156652967;-1.0487417463530375;-2.5064362680981684;-0.0129042391982274;59;1.2566370614359172
435;-0.8516313258860762;1.2087421245039045;0.0242205448801423;0.7763586474196884;0.9517320197154102;1.958035133527252;165;1.2566370614359177
436;-1.950189950071988;0.1798318628749534;1.9965925899389003;2.8386615980476675;1.862796394370712;-0.663609644848564;421;1.2566370614359177
437;-0.4015274681071753;0.6087623344470723;-0.1788820831068331;1.2537785793417966;-3.208970351545254;0.8936754509216641;98;1.2076592039858078
438;-2.9013360661090624;0.1502323434546549;-0.1586408102209372;-1.221434662909232;2.164460341123768;1.7509137814601112;211;1.2566370614359177
439;3.090640065157059;-1.2380686712321824;1.9740187926603363;-0.5592048228259947;1.8147315129815176;-2.813314213958818;89;1.256637061435917
440;-1.1827920443000337;0.0304523705526397;2.1832737614993327;0.8132021550474304;0.5075990619642882;1.287093312170107;304;1.2566370614359172
441;-1.2191609532790122;1.1472894564164504;-2.132883852754237;-2.1695939721547424;-2.106701672539186;1.9089008131299583;383;0.9346799402305226
442;-2.1960898865447924;-0.6286295408968957;0.1390007052824311;1.0667780065346275;-2.426173443341028;2.207032788142808;218;1.2566370614359172
443;0.5757809664325634;-0.0747663989830994;0.4154958210968519;-3.0882008588485204;-1.8773085166544616;-0.9096588128414672;132;1.256637061435917
444;-1.544839735218672;-0.0896621441067528;1.220695269785379;1.0197380637469626;-1.7517811011049096;-0.3444553730866944;109;1.2566370614359177
445;2.1358178076654504;0.984505924850458;0.0298584017582808;-1.6797924653303564;0.4437714555740846;-2.666315293130333;31;1.0683259346530571
446;0.1658816819216375;-0.3863359811861199;-1.7441521919744365;-2.5009228368218053;-1.8051868461155705;-2.9622085908410547;324;1.2566370614359172
447;-0.4591161540556954;-1.0815712535109872;2.180679736151096;-0.1737268334236076;-2.4297866246212383;-0.761817289385849;378;1.2566370614359172
448;-3.1316296504355354;-0.8822414414143063;0.2018574847236865;0.1411520394408628;2.0244981716540287;1.348778800517645;137;1.2566370614359177
449;1.248409305347641;-0.433282631865637;-0.2362152676538191;1.5829275860222731;-2.1586268832576545;-0.6181865628591998;23;1.2566370614359172
450;0.7795149203654236;0.5366813804782538;-2.211969769505533;0.0640818675940675;0.8373586437985372;-1.586206930014903;289;1.256637061435917
451;2.63875877153962;1.1616142514476604;1.575293058076472;-1.067303296419462;-0.7597981856254736;3.066042457476415;433;1.256637061435917
452;-2.9351742444649696;-0.4713740702491439;2.371795881390568;2.1416495826441326;-0.4112825400950455;2.2544165159593703;344;1.2566370614359172
453;-2.614706202364921;-0.4592443980389993;-0.4432887059097001;-0.6807176142286083;1.9451988657264212;-2.90494337766888;174;1.2566370614359172
454;1.2532253926015982;-0.2807521175584763;-1.2400561326677084;2.539177633058345;1.3289780619635143;1.6183218746174717;201;1.1718132342624752
455;1.2435427952898503;-1.0945950103824402;1.5545725825292358;0.0813679145774145;-1.5147116409021464;-3.253831245987684;232;1.2566370614359172
456;-1.642779979090608;0.8748149644669816;-2.2406835795944864;1.3573981473219707;-0.7375704382580462;-1.4782151318435408;138;1.2566370614359172
457;2.08110063824972;-1.2401494060568454;-0.1393122651281018;0.1886687060248234;-0.6594678517885895;-1.8404309014731095;426;1.2566370614359172
458;-0.5380082559100821;-0.1090785235090956;2.2290281839081523;-1.3542902859594708;2.4329381362151623;-0.1436698463832312;267;1.2566370614359177
459;1.562843100003127;0.0046369084605397;2.179661285866993;2.874929266184059;-1.3513676001878063;1.8299331621775727;111;1.2566370614359172
460;-3.0721244487961195;-0.4775833202291901;-1.063494544213636;-0.651811443882405;2.173755695124461;1.6391182995941695;438;1.2566370614359172
461;2.7763128800063783;-0.7784805750101061;-1.0398857419187464;-0.0729649536274223;0.6232170636296518;-2.716834176052677;120;1.2566370614359177
462;0.1655108738268074;0.0057817486992896;-0.9934884656252464;-2.935775182388537;-2.08692383160333;-2.1918762397794502;446;1.2566370614359172
463;-0.0147529413689843;-0.494420696751234;-2.2254114722624534;-1.440259515684247;0.2765580454288605;0.7097775367651126;328;1.2566370614359177
464;-3.112659731814363;0.0825897371903515;1.769296888654572;0.0360216901919736;1.9560410803437152;-2.1618201080389614;182;1.256637061435917
465;-2.944460746048056;1.0483852673001892;1.1270937142079835;-2.5465014387130114;-2.555892455882542;-1.6655123651586663;186;1.256637061435917
466;-1.974148714768392;0.3651444791131155;1.7187208561227747;0.4415162497922282;2.1080793005816774;-2.0478341759639456;464;1.2566370614359177
467;-1.5200166270432287;0.2840196635594059;-1.8190506342162824;-0.3055759759062396;2.396322931785387;-2.679887870202751;205;1.2566370614359172
468;-0.4750948440319764;0.4428403568555885;-2.39507006652205;2.4671353817588737;2.337424568325082;1.028765503982314;116;1.2566370614359177
469;-1.4767885440655024;1.5450045444710572;-1.8084072756224636;-0.8027316627176674;0.2821504204059791;1.3132405360403814;373;1.2566370614359177
470;-0.2919256403299561;0.4640428387286877;-0.7349685333056;2.710754981677308;-0.637367892693948;2.049411249177433;234;1.2566370614359172
471;2.248072963231727;-0.846731576813687;0.3766872385773565;1.5761138843069122;1.8568574239788973;1.7846869542515271;80;1.2566370614359172
472;-0.123680184678129;-0.9879214810964748;2.6307125893323398;-1.107310984951133;1.2001104157358526;-2.863322005633545;180;1.1189062025039032
473;3.064030382850261;-1.0534956896403471;-0.4842122753399143;-0.9095526129603412;0.144183371330972;-3.14414768846636;461;1.2566370614359172
474;1.8051895932770483;0.0622593035559646;-2.063211796857636;1.8583185317903443;1.3707383137007902;0.3152977505657524;99;1.2566370614359172
475;0.3102471191816607;1.6335790838791586;-1.5351779205665927;2.150105048376307;-1.252098406051398;2.967336645566492;90;1.2566370614359172
476;1.679714288058996;-0.5588969606532681;-0.3262488948423941;2.0626951177931154;1.06359371321588;2.2609940328414377;95;1.2566370614359172
477;0.1539810231065413;-1.2447202809564657;-1.624412768200877;2.8216921778842146;0.1099377451574864;-1.7677763208598865;140;1.256637061435917
478;2.4903342700204387;0.3200554677548046;2.197467892980052;-1.8251999647584496;-1.949890532004097;-0.1085494899078769;359;1.2566370614359172
479;1.8217329203968091;-0.7679692047298498;-2.192899623911104;2.973386702329209;-0.0697174136379805;-3.1430467384110115;255;1.080666906595286
480;-0.030978230178167;1.1989247220085038;0.4644205547316105;0.6956066616517768;-2.6183476399890155;-1.1214240484343634;10;1.2566370614359172
481;0.748989641419136;0.8673892017206737;-2.0344397983262046;-1.2519785862462862;3.0693752873571394;-2.2021970119369843;428;1.2566370614359172
482;1.253340257796241;0.7201825048123588;-1.0155678616866823;0.2128870126799728;-0.0183848832869878;2.8483571226856523;220;1.2566370614359172
483;2.883621595743504;-0.7485781030617182;1.532266441191631;-1.5300897625858412;0.5643322467784766;0.7942673885407213;156;1.2566370614359172
484;-2.2944914293752445;0.0634674950193313;-0.3985697190680517;0.5468684850897294;1.2198068241289397;0.2026393062803863;55;1.2566370614359172
485;1.0388454428911764;1.2175943329739272;-1.6190276129259322;-2.063578253363857;-2.626439929653978;-2.690430569922832;324;1.2566370614359172
486;0.5716033384545502;-1.3386616111317104;0.7451809109353971;2.398216139993925;2.584834831031303;-1.2147488510132007;430;1.2566370614359177
487;-0.5725484295171666;0.4792283105545369;-2.4023862138449807;2.067054536136669;0.1852047297462918;2.7490425627021926;234;1.2566370614359177
488;-0.426268553948163;0.5652326018038973;-0.7646669574406335;-0.6995950563943647;-3.092930064266308;-1.553149056139601;83;1.2566370614359172
489;1.6986180959353794;0.3471370875742766;-1.989714027103098;-1.1614511975284183;1.4432272579674328;-2.927834783096891;108;1.2566370614359177
490;2.2783257334008;-0.7495032892655833;1.994372572949252;-1.1018895622487732;2.217989148535166;-2.341034344882467;439;1.256637061435917
491;2.248482568604168;-0.7358951543770921;-0.4948655636083835;1.6699285041986005;0.4132018185748605;1.5762007065578545;157;0.999134479059264
492;1.167349717778866;-1.2172562852026363;1.1512377338189987;2.830924668814168;-0.91739996099508;-1.7550513768381943;22;1.256637061435917
493;-0.4919532568525517;-0.5134328620580144;1.556206631498395;-2.759374073177697;-0.0619848166744613;-1.216669795682679;179;1.2566370614359172
494;-1.894490422876953;1.0842165604939529;-0.738718073803714;-0.6198499737140741;-0.3967079104958767;-3.0557111273702224;355;1.2520831365820466
495;-0.2867866559800034;-0.7828637243986106;-0.4109825788118976;-2.3310385015505024;-1.9227771564616365;1.5254582053810144;50;1.256637061435917
496;-2.5529456837161484;0.4633907396705463;-0.3254594711675957;2.1111289243700013;-0.3814772051776162;-0.2561110994584374;129;1.2566370614359172
497;0.5459612297768351;0.8662786513027567;-1.4867592832329437;-2.541790527552912;0.5468783231120672;2.720865500676988;361;1.2566370614359172
498;-1.996133842384569;0.3828601314267034;0.9186444570904696;-2.114934134843026;-2.280239656987536;1.1626586808118615;44;1.058746586191072
499;2.935690673480446;-0.9276314671320738;-0.1731161376512803;-0.281809054633709;-2.8341077130364383;-0.7397513303606293;423;1.2566370614359177
500;0.9182987905033516;0.2873934840246466;-2.120596194508785;0.154392163320772;-0.4304071103566638;2.8256263538935404;220;1.2566370614359177
501;1.2643785858267893;1.329328665510355;-2.5231077088814136;-0.4031822749406114;0.4090827937550281;-2.0522449238230003;450;1.256637061435917
502;2.7117156125007016;-0.5520342748487805;0.7476936957283324;-3.0745365629230523;1.3101183685375437;0.65682045180046;102;1.2566370614359177
503;-2.6232054930916457;1.104869429337269;-2.2074988536926994;0.8094663004684367;-1.0770981609468566;-1.093029657611195;456;1.2566370614359172
504;2.775080147341733;-1.6584093965680178;-1.0702025153329269;3.23858661048649;0.7141502090933607;1.1158540300781108;163;1.2566370614359172
505;-2.6949324950332696;-0.9548558162994614;-1.517034146573654;-0.9445297278127603;1.2372560043957788;1.4374748933176924;460;1.2566370614359172
506;-1.2740306415951572;-0.1878827833247405;2.641844172935366;-2.5640151959512814;-0.7079714227198679;2.777220338522154;389;1.256637061435917
507;0.043383877598579;1.131284703526572;-1.9560400714428727;-0.3457001444827083;-3.200492497704828;-0.1802442141618973;313;1.256637061435917
508;3.139177222203355;1.563649666331989;-1.7867691701923274;1.1429468865296095;0.8460908498358057;0.7464379082244752;197;1.2566370614359172
509;-2.495850144982352;1.5673672471950062;0.8363060720112325;-2.9475013591853805;-1.8046896933377168;-2.2122105980093454;465;1.2566370614359177
510;2.94182439063304;-0.2842684315473417;-0.8793703507615782;0.5720098211932545;-0.2522594662381691;-3.0319217765316484;461;1.256637061435917
511;2.214299938800481;-1.0742390490647693;-0.6256819013475431;-0.4334893938493928;-0.5869967677947525;1.7289368781056378;598;1.2143020830449418
512;-3.125755735937766;-1.207585830944543;0.5320639614660607;-0.8750347301759285;0.9514202838353194;-0.6307426943908612;171;1.2566370614359177
513;2.9191697744083136;1.0335911127190578;-0.3635133815181218;-1.350267410441261;1.806856405189744;-2.235153917034735;216;1.256637061435917
514;-2.158107799572003;1.6230817262729849;0.3926051143141808;1.5976995442832778;-0.0264263973268361;-0.6148283508586229;129;0.6948082447883082
515;0.452228411081308;0.5978220929010117;-2.4124108732961203;1.1925533011387075;-2.647519789396507;3.0771978303010146;404;1.256637061435917
516;2.6039252450597314;-0.1441630770320132;-0.3890269181134276;-1.7457696914178795;-2.021493551136404;-2.523749534535847;352;1.2566370614359172
517;2.971681294825853;1.0025862769042688;1.6899686945285015;-2.2844501437881144;-1.9077523288450648;0.5328175258591021;478;1.2566370614359172
518;0.1593174605625063;-1.3287135340697722;-0.8949070472709572;-0.0858508514461977;2.053888599207589;0.646243679935865;215;1.2566370614359177
519;-3.3909352237848727;0.1277165366569781;-1.24974212968876;-1.9236186495026424;0.2795124491809067;0.9981401168912816;333;1.1004718648180958
520;1.2845218292102931;0.9203653163716976;-2.422725131923697;0.3987600452146913;-2.9592207604854264;2.842637333099664;515;1.2566370614359177
521;2.697343596911571;-0.4148345031137745;2.1849646153361664;-0.9584006523054812;1.2021622190454402;2.288639628413729;225;1.2566370614359172
522;-3.322613749993053;0.4255314545340125;0.4682217726506835;-2.8739116719392923;1.6308654739044843;2.073955115492595;282;0.968765465252892
523;-2.3274992408813837;-0.7936180252505184;2.215955096401981;1.2268849076631383;2.0793240087676463;2.7088177959415587;317;1.2566370614359172
524;0.0227405407629378;0.9217447365870308;1.2666075179255;-1.1868327609658342;-1.5557547562951308;-1.1657763878095628;5;1.2566370614359172
525;0.0217312563027394;0.5304326889067266;-0.3951952631809688;1.610178878850444;-0.6160495020567553;0.0811608877637826;357;0.8977583628499859
526;2.2531496578599146;0.2968159106179877;-0.2335758806457278;-1.0838804360345662;-2.726659569125271;0.7702788944663225;226;1.256637061435917
527;-1.2755460924690525;-0.1071015306806817;2.5475443315765456;-1.804916120772197;-2.8615777416659056;-2.316300106689702;210;1.2566370614359172
528;-2.1570378289174905;0.1300528177686808;0.5458321653127702;1.9516882334297525;0.7501101835554538;3.281833061668376;127;1.2566370614359172
529;2.357364598655177;0.3505603443915094;-1.2680817662416373;-2.855040732556594;1.4998685776619274;2.080714346388451;374;1.256637061435917
530;-0.0211042308863957;1.3878451825756517;-0.8429855867087341;-0.1464553463532248;2.646670629117467;1.5542260142058943;277;1.256637061435917
531;-2.9363135662007767;-1.2748295037819597;2.423086162257214;1.6288586584477862;2.5393562174560853;1.9599509675956852;523;1.256637061435917
532;2.47473690370239;1.292557757696054;-1.7571675875154549;-1.2627630653282464;2.6609133835362497;2.389236086367496;153;1.2566370614359177
533;1.4543572184996838;-0.1297894991498546;1.3256024735695593;-0.0489137168184613;-1.904806093216298;2.7680398139341578;212;1.2566370614359172
534;1.4958585590346098;-0.6745120589954849;-0.6681234185096255;-2.2145175253483167;1.1541174210693197;-2.9095069847168133;49;1.2566370614359172
535;-2.4311939536580365;1.0438630518599736;-1.4569174643999745;0.1038019275733356;0.1032442155805186;-3.060512304758725;494;1.2566370614359172
536;0.9887833195000326;-0.060649988837664;1.4827849545572902;2.4419745413403384;-0.7858080263184398;-2.1959615333615767;22;1.0916760742562557
537;1.6220391729672607;-0.365491886661553;-1.5007780643835102;-3.2163273484978663;0.3932573447937147;-1.860066658101868;190;1.2566370614359172
538;-3.084120646823114;-0.4052562157870243;1.0794780153725034;-2.999301371957056;-0.0542251190750257;-1.8982579107271091;241;1.256637061435917
539;1.7875160704749895;0.1920022044070174;2.650967849918764;-1.7806603206659135;-1.0219167824188768;-0.1106407931894064;478;1.256637061435917
540;2.8353343683686507;-1.2316861996728747;2.249025896205346;-0.2749378722392206;2.354027745743428;-1.1750728021387573;57;1.256637061435917
541;-3.3652665232040406;-0.7226866403798234;1.2815882256666131;2.226947187581988;2.277500317350881;-1.6549246178780272;417;1.2566370614359172
542;0.1196807858828322;1.3047189710713023;-2.5606992618742908;0.1032607711366876;-2.4638225214246785;1.6848133306231443;358;1.256637061435917
543;0.9938395506303748;0.3392510126946378;2.0130423608721704;-0.5040394223830533;-2.638514132058153;1.2966515854161211;119;1.2566370614359172
544;2.6802271168802148;-1.0273262551879674;2.6956691407787954;2.465086542056408;-0.5209837231153405;0.2499245654919811;92;1.2566370614359177
545;-0.0074334891978709;-0.9437128151814116;-0.1764926754254362;0.868047683198464;0.3365704614143738;-1.9466144248897288;32;0.9424295201547004
546;-0.8423536954381878;0.2872736241194314;-1.232940195792657;2.178327743216359;1.5816606530773925;-0.6985823482457069;74;1.256637061435917
547;-2.33581195782862;0.1222918015160356;-0.9584020239395352;0.3944977423941727;-2.779543614575421;2.4761945425494654;64;1.2566370614359177
548;2.9944093302453774;0.4590584232186485;-0.4697251226445905;0.1757298369266867;-0.1508739689617618;0.5417288694764499;184;1.2566370614359172
549;-2.8819845932839887;-0.9406259107155148;0.7689901160882691;0.4518269870907575;-2.1072421173112685;2.5738771909838705;442;1.2566370614359172
550;0.3801416936328565;0.2025716052069745;2.0431905887294137;1.878658631590156;-0.1575144086168016;-1.9228685966215169;536;1.2411454980948435
551;2.3998554436322515;-0.0208147153467195;-2.115753132469039;3.0702901891275736;0.3761966317890344;-1.4446459456329537;176;1.2566370614359172
552;-0.1135766043722284;-0.8521543042866434;-1.5625170357852525;2.0503164906287656;0.4603632481443046;0.3976213354830725;125;1.256637061435917
553;-0.2388679003048359;1.1141807554930725;0.6984346940401509;0.5185866475042473;2.378314859491997;-1.700492399624193;97;1.2566370614359177
554;1.710073912777777;0.2526694423177443;2.538346359599296;-1.118053225697671;-1.9909488792661565;3.049207442188621;91;1.2566370614359172
555;-0.8663290514704697;-0.4054108896964674;1.8025569034290367;0.5543609264939269;-0.4496803175179582;1.687946375908871;440;1.2566370614359177
556;-2.7702676115899285;0.1381094093173628;0.3266638466597871;-0.6470816540896925;-0.8245209686887096;0.0607726344551179;9;1.2566370614359177
557;-2.526537303869339;0.5572874384982364;1.9738420137109012;2.6984850021540856;0.7589844626571867;0.5613474214303825;421;1.2566370614359172
558;-0.9442567040212868;0.4253801152923071;-2.6121946066091266;-0.3273726960937007;3.446221236035121;-3.14032125275896;428;1.2566370614359177
559;-1.839266787638727;0.9094399135163737;0.3082400769464338;-3.126547209530558;1.0292594945557985;-2.3950022362159538;416;1.2566370614359172
560;2.383409465365027;-1.2864254665451456;2.262989362124627;0.348691847486018;2.442986781927167;0.2985274095512412;366;1.256637061435917
561;-2.5170081498715637;0.6338066572080376;0.0767145144594442;-2.174039105536603;0.3624231371503383;2.0213190343642093;810;1.1891573554803552
562;0.5187339947538621;0.0129769523093558;2.472434406345333;-1.406122934635152;1.1887189987013207;-3.0873146916281637;472;1.256637061435917
563;0.9863815101236172;0.1884981480434305;1.9432107370371672;1.7453683098935202;-0.0174077571867581;-2.0585602654199646;536;1.1698934941677164
564;2.2930886747144026;-1.5791564961585494;2.097724696960014;-1.3486519307476388;1.2552106466674018;-1.0365282340006214;227;1.2566370614359177
565;1.3452227562955787;-1.1639746522249383;0.3833922287314059;2.227070400956216;0.3598915178386553;-3.3990353743938706;158;0.8743306936760329
566;-2.7297391288590043;0.4906454807213982;-0.5565038195013144;2.0094590359103486;1.8103933104442336;2.0199320615921503;362;1.256637061435917
567;3.0289640621566054;0.0267498629073028;2.084776939337498;0.0985897225067109;-1.354296253191632;1.6018154111129712;299;1.256637061435917
568;2.5633532712547065;-0.246489690737876;1.079475619970588;0.2473275049595074;1.237073543083988;-1.682549944924067;286;1.1912331001336864
569;1.80755510521384;0.2085834753827202;-2.3222238660230587;-0.9807473063093256;-2.303239161121901;-0.3885197474287959;71;1.2566370614359172
570;-3.409038248647587;-0.6070200786266733;-0.1459230617384424;-0.95927609527135;-1.3772561552507103;-1.5097928102733584;398;1.033005444392733
571;0.0862828820304131;0.1414522755645758;1.447991185438827;2.300981105786358;0.9196764789499248;2.449273134684338;335;1.256637061435917
572;1.5113060525566606;-0.2944514965274358;0.5078135862948379;1.4202283167693732;0.6655991649390528;2.723617522923825;476;1.2566370614359172
573;1.0820508680695944;-0.8975224488681084;1.5787510477542088;0.55867041733203;-2.5427977501007004;2.8721300083974577;533;1.256637061435917
574;1.3683150032946705;-1.0262335252826391;-0.3940887441285294;-2.319155347849487;-2.3510632808374865;-1.3627333256319218;132;1.2566370614359177
575;1.978802144588565;-0.98735533914452;2.146584556212113;3.2510595213109026;-1.2265057596673596;-3.3617195173259278;432;1.2566370614359172
576;-2.4420611194188098;-1.0074764318258502;-1.740963919590757;2.5767088209541007;-0.7148618994551821;2.6272700716453263;276;1.2566370614359177
577;0.7934590264387003;0.2958217227698179;-1.7769923157666845;0.212337309496983;0.050311620839516;1.080007631386151;220;1.248046977945097
578;-0.8768944631004714;1.1025688612561189;-0.5646253541110272;-3.4262061855572594;-0.4518428182853592;3.158245657046433;294;1.2566370614359172
579;0.1398501961466047;-1.0705820457506094;-0.0226559095669906;2.3211376627322244;0.0054432344436695;-0.6079984683409114;15;1.2566370614359177
580;-2.381633583323901;1.2389856026580448;1.487657834106075;1.3401764001525869;-0.3924356924741655;0.5827058184604796;28;1.256637061435917
581;-3.054861457227033;0.5883856782625057;0.6111344454261297;-0.8945415711565031;-1.9364613816255825;2.688724212126726;168;1.2566370614359177
582;1.8562233743688568;0.6058566796577107;-1.4505780770539702;0.6878546984456324;-0.7867320348734285;-0.5089044382968122;184;1.186770889176201
583;-0.1313892948574014;1.406036934599119;1.218316014958798;-1.095430394454599;-2.504901986495251;-1.8055223048980351;524;1.2566370614359172
584;-2.939898898819366;-0.3767717765716095;-1.228580626131253;0.9033535314180104;0.8666279119151987;0.3700915328319339;484;1.2566370614359172
585;3.315615109903604;0.8835255240318813;-1.4261205007673894;0.6720760945357733;-2.1805597767580114;-2.375662299035053;259;1.2566370614359172
586;1.632937509577616;-1.3200785891511826;0.0028403064983091;2.179494000180898;1.1575775774406312;-2.0387916606081253;33;1.2566370614359172
587;2.8814819910844705;0.5942930722411739;1.7086769069913914;-1.825757288184381;1.3353237047555713;-1.686701000562374;152;1.2566370614359172
588;1.8374663986836448;0.4357442657916922;-1.2091186768526996;-2.258664930887893;-1.053091820375555;1.420169986704603;79;0.8965545764274333
589;0.7080668735664009;-1.4467507979748957;0.940688319939892;1.1281413677821912;-3.172179760251217;2.7717408962707;573;1.256637061435917
590;2.044190220797571;0.268519130067546;-0.1805528732145194;0.7741313821857375;-1.508241458333744;0.0208334040067179;184;1.0423188240500183
591;-0.601969909212192;0.3996287282165987;-1.6884624924366591;0.0160955686528549;-0.1684917032399658;-3.1954848881643843;355;1.2566370614359177
592;1.047815520602203;0.2805503897965035;-1.7354656348028208;2.616698268620705;-1.2263228090301268;-2.7639204878482437;405;1.256637061435917
593;1.8531712657110024;-0.6084577049650894;0.5409269467337992;-2.4860641574161;0.2902465908867171;1.7342588041567348;172;1.2566370614359177
594;-0.4327764985885471;-0.7489054913650137;-0.2243913450744727;-0.3960036238707191;-0.9069906680418488;0.5739798438131554;2;1.2566370614359172
595;-0.4576846930939993;-0.532071332651443;2.318697192403644;-0.2154688437000952;-2.145409797306078;0.3223981405463135;447;1.2566370614359172
596;-1.5611842948861436;0.4327031212295777;-2.1930473537430646;-0.8045364797680215;-3.169864091927079;-1.5019050968396248;369;1.2566370614359172
597;2.919257123272769;-0.0407404573123296;1.1153424682960886;1.0964383304221903;1.1405218659778285;-2.761707303589433;262;1.1939528538586686
598;1.4267689893938913;-0.6511093426129165;-0.4603169782683256;-0.2974379096863862;-0.27276919728406;1.0004512749980643;41;1.114307713602764
599;-0.2445446496913329;0.2603861283668216;1.799117779367474;1.1923964836112333;-2.43949284920955;-3.206687418735937;123;1.256637061435917
600;-1.6424798830359455;1.5268583757814127;-0.5091928794257609;-0.8052698956593412;1.4559627006699287;-0.5649820662143958;288;1.2566370614359172
601;-2.794843588213237;0.4090536038253814;0.647888197376727;0.3474851455230007;2.0565187683709536;2.9754298274768254;113;1.2566370614359172
602;0.5193172643819137;-0.7803073868709799;-1.4914501719502906;1.8088740791011657;0.4969739905404006;2.257081899738353;365;0.9264219466703196
603;-0.588428989051753;-0.5696116554951491;0.8613898173126622;0.4990198475074696;-1.1512580836404174;1.9943397294000125;555;1.2566370614359172
604;-3.1381432238978038;-0.6857349782183402;0.8203726061879675;-0.308796590035904;0.5187663705971148;3.0267346893194107;77;1.256637061435917
605;-0.6109055098091596;0.052026624683425;0.7674623271831467;-1.2562458906111338;1.4231209423489093;2.743315326102249;326;1.256637061435917
606;3.050554179395219;-0.015163243822056;-0.8977372780120509;2.343103173830166;1.4226621822230892;3.3393186590161514;160;1.2566370614359177
607;1.8940666673837865;0.15110843410031;-1.8447380250431609;-0.4049578751034357;2.662397181907964;1.3426349711909882;153;0.83490858200024
608;-0.4939430813568596;1.5011337101131754;-2.1743061949586853;1.2183722441270095;2.016988013508344;-2.329297807657402;134;0.6544433185764413
609;-3.025590660875281;1.2617224237120204;-2.0553553132167446;1.6863330611718252;-0.7610771490248492;2.655897226145478;161;1.2566370614359172
610;-3.0554248540258464;-1.2360440623562596;-1.6277817823731735;-2.103712656145308;1.3152656870440045;1.52724973835841;505;1.2566370614359172
611;-2.711481706410541;-0.6341960027963994;-0.272999393250307;-2.7271266052977805;1.4159456579095469;-0.1106603548069672;118;1.2566370614359172
612;0.4872679030591995;-0.8825477776999918;1.560073714443623;1.6981169904527065;0.8251845286124218;-1.8787119822110852;253;1.1244282652805486
613;2.3807713163724618;-1.124324132948506;-0.6273640744676501;2.423865765469546;-1.3699198228999696;-2.946977715657419;351;1.256637061435917
614;3.101975287397466;-1.230693321855172;-0.2786835443658683;0.3186058065159961;-0.2203789962427274;3.362712632884955;332;1.2251364664219488
615;-0.3984634629369115;0.664537588585576;0.4122253539808423;-2.0282219354280024;-2.434111114999202;-2.246817119884887;169;1.054636473102255
616;2.5636452545546136;0.0695261598747873;2.118252450158339;2.0645270885766167;1.559720963597561;1.0005865256182072;214;1.256637061435917
617;-0.5139304671616257;0.733859265080549;1.5517395007122017;-0.2490988236419509;-2.967923464821551;2.026608885557041;119;1.2566370614359172
618;2.997914915905019;-0.5001751549504201;0.0667490356616443;-0.8633219789480171;1.4680198526445472;-1.003658668647711;27;1.2566370614359172
619;-1.8984087732023345;-0.5040071017292058;-2.1026917253690507;-1.5666367493916462;1.2043908127405785;1.335838115601798;505;1.256637061435917
620;2.76047650695351;-0.7466406463732593;1.8489230959889769;3.4014358527240405;-0.7287748415516702;-3.4564394238742144;575;1.0182738755319498
621;-2.028259160265017;1.551411412927611;0.1784435239843345;0.3384046875249067;0.0323047848103458;3.208115471575109;395;1.165042539049454
622;3.207996198764533;-0.4424841670389718;2.254190427170588;-1.9726376074271423;0.0391058024467457;1.4166327708432498;483;1.2566370614359172
623;0.9875531236403484;-0.0706085017933787;-1.296438190490956;2.774983866285561;-1.0978215993424734;-0.8845616164459909;106;1.2566370614359172
624;-1.5168384874395402;0.0936573461871628;1.1583486418007736;-3.2555928267500374;1.1691251189198624;-2.1696674585944984;559;1.2566370614359172
625;2.5120449243290626;1.1800475750968868;-0.6833949904670505;-1.6828307184131182;-2.54403089397494;1.141196495460181;526;1.2566370614359172
626;0.4936645049688951;-0.4098876264026454;-1.0458392339380669;0.1152150008123794;1.411231552343292;0.3189213605269792;215;1.0611166863317705
627;0.3873886624547848;1.0655994265887705;-2.6276861913055893;-2.937639465180506;-0.6330994372201075;0.3730528707874158;112;1.2566370614359172
628;-2.431132234423173;1.2846131032876251;-0.2560540895696184;0.3762646358904506;-1.8865177875508643;-0.1640010607226498;419;1.256637061435917
629;-1.7551726520438746;0.2001393313794398;2.069678752656852;-1.241924216844697;-0.853714622365142;1.704547227126735;389;1.2566370614359172
630;0.3172416271661458;-1.2838625745937056;1.881710496375255;3.114623695283832;-1.9587144634908165;0.3121800983799039;193;1.2566370614359172
631;1.4181230604041146;1.667375348172676;-1.4681480983677764;2.2022909237941586;-0.6954072745751777;3.1503230850453585;475;1.2566370614359172
632;-2.127607310465389;0.7774470559692631;0.0015859544122334;-2.706066491183912;-0.8711347024027708;-0.6086569130369526;195;1.2566370614359172
633;3.0833473548772656;1.0143331806980245;-1.3365811608057356;-2.040060838804071;3.180691936324176;2.6721964947783574;532;1.2566370614359177
634;1.2975732936325703;1.1036769794745591;-2.122432854995492;0.4547470768848097;0.4136460855852641;0.4781174426800956;577;1.2566370614359177
635;3.040451490752453;1.2222711504423107;1.344400205497736;-0.9013625742075266;1.1378475444279614;-1.3215859511995354;587;1.256637061435917
636;0.6003727079752812;0.4951089972588807;-0.3877612015035692;2.971609021371026;0.0309089091905615;2.4325347414897864;470;1.256637061435917
637;1.866338645419173;0.6302726665982231;-1.7585719290251012;1.1826610272692155;-3.1199803553808185;3.116550233783106;520;1.2566370614359172
638;2.592585060740724;0.2054863973955724;-1.84958046466412;-0.7465702846244318;0.0219135306391144;0.1011966572894228;402;1.256637061435917
639;3.0376361056314467;0.5380895149418993;1.330115733848775;2.459201947302813;-1.383365444955551;0.1095638693294904;283;1.2566370614359172
640;1.1083161187863044;-1.7603840368907064;-0.863603031508943;2.0601808115418687;2.0838800324327047;1.647601151316331;95;1.063495110268062
641;-1.192253808612593;-0.9292862560118768;1.6360302995490672;1.2969304602810432;-1.3226450468317692;-0.906909508567025;444;1.2566370614359172
642;-1.556255155157737;0.8094948663737119;0.9999153029081322;0.6590602979837777;1.922933579022088;0.6724570930977372;304;1.2094282644102146
643;-0.4914688668684058;1.341432847029093;-1.508689308932092;-2.6319336580272026;1.4360607698900216;-0.7189417832755046;401;1.256637061435917
644;2.921903783575094;-0.0859980133875812;0.8963921987360306;-3.2610997148389185;1.4357581419642658;-0.6140967653691235;102;1.2566370614359172
645;1.7081541949570704;0.0926719135988383;-2.0564284905323875;0.1303212547970886;0.8855517250469856;1.909902561036082;220;1.2566370614359172
646;-1.8914268499195752;-0.7570119428884755;1.9059084356977416;2.07785807199483;2.646546924339925;2.213225751440844;523;1.256637061435917
647;2.800611402995291;-0.6215485708974631;-1.014884371417638;-2.10648012824423;-1.2504037861119528;-2.966655114632029;516;1.2566370614359177
648;2.316559512371723;0.3506853765631452;0.0164273361107624;0.1004073663466899;2.6541848063407447;1.43544839603282;228;1.1317724932271604
649;-3.202682416555263;-1.1503572444696415;0.6028317658322531;-0.4885940977350221;-1.5974289006422469;3.08416382409312;549;1.2566370614359172
650;2.743990190214757;-0.798355124282039;-0.9237306529033374;-2.2379519231009097;-0.8824994931327549;-0.1101804846146379;302;1.256637061435917
651;-3.2091256717145176;-0.9408199443047512;2.5483031637501607;2.000848950224053;0.0659567326200063;1.2519341326842586;452;1.256637061435917
652;-0.1352941414319352;0.1166590517148944;2.492983858808649;2.168705434802297;-0.2601630107554114;-2.9274101676252537;550;1.2566370614359177
653;2.9749326991055707;-1.2449562414802986;1.4531737826896205;2.472323071836498;0.7177833405303838;-1.961139658758258;329;1.2566370614359172
654;0.712501015315604;-1.4774165191254465;1.889829958823877;0.2664205398337608;0.1278645100942378;0.32876187853858;75;1.2566370614359172
655;2.957999488476001;-1.3756636874184194;-0.4911195892703208;-2.4040408294206768;-1.767475147733283;2.96081820280212;397;1.256637061435917
656;-0.1090901241283397;1.387662072279222;-1.7715155939759764;-2.6583201500836284;-2.0296610429254898;0.7020811590381617;66;1.24754243370387
657;-0.167318459507289;-0.1465284158391606;-2.466772749510702;-0.9566844444340208;-0.5633805994598511;0.0485405256531889;463;1.2566370614359177
658;-1.6772954059095193;0.6003978875958413;0.9831637511331088;1.5050249974213648;-3.311302067749517;-2.420742228921512;123;1.2566370614359172
659;1.712046285631884;-1.5670045357746687;-0.425292531922342;2.642593121440078;2.020053640302274;1.438311954171774;640;0.9904956915372736
660;2.869873679558169;0.1436831058413599;-1.879375969502252;1.5618368260570377;1.0280608751039455;2.628541690973254;160;0.6308155371970752
661;3.390920559724124;-1.1985496476781097;-0.9621965106176628;-0.6011793710998774;-0.6226358249519396;-0.5339606663853184;402;1.256637061435917
662;-1.930476756580988;0.522130237025839;-1.0576525557921932;2.139626320688662;1.6077830143633238;-3.0707841196277954;133;1.2566370614359168
663;0.1084254227710793;-0.938177900706504;-1.2845271879008882;0.1078990242035975;3.24175496273887;-0.090499048305818;266;1.256637061435917
664;-0.5451976482457536;1.1438203599246328;-0.7403120940539676;2.1697540893419087;1.4968772810080595;-0.2237185281019782;546;1.139040758281257
665;-0.0146777812615279;-0.4154046228210926;1.3142035845753848;-0.8766491577675593;2.1408195375539165;2.9602168545938534;605;1.256637061435917
666;0.6924921311085013;1.0726686777471042;-2.2620594644667555;-0.4859822296084312;0.0241533956613512;1.571766341095811;577;1.2566370614359172
667;-1.1506894725248622;-0.5567955712467046;-1.0528153332481198;-2.4938149816383253;-2.441445422311787;1.2529887929074817;495;1.2566370614359177
668;2.6929705579925125;-0.4213253380388633;1.937074589265497;-3.170499495625686;1.2190086178053867;1.01677005924735;502;1.2566370614359177
669;-2.4611000175653883;0.9857527754498938;1.0840748942843363;0.8925785651231744;-2.6604938661102118;-2.507134582520797;658;1.256637061435917
670;2.543812564412779;0.5951502460372091;-0.2098399438746199;0.7515434062305653;-1.816455490066356;-2.872192538495746;259;1.2566370614359172
671;-1.663712487804781;-0.1342193494438145;1.110199758570373;1.3106866356055349;2.1976485459006625;2.5065835264686136;279;1.232409112960107
672;-0.1341781554894166;-1.1487168523737514;0.1462021475134453;2.199837561669788;-1.0582192634105845;-2.618790455270552;32;1.256637061435917
673;-0.3612284750029506;1.571031454504568;1.4396648199798832;2.420075231262085;0.6020496369631143;-1.226925824991493;394;1.2566370614359177
674;-1.9561872847298132;-0.3933395476666105;1.89036598254258;2.8846481362036944;1.4645459678924169;2.903432314012562;335;1.256637061435917
675;2.797584667859048;-1.0163441688111836;0.6501873696649123;0.6810968749180307;-2.734110386946563;0.2888442789661111;242;1.256637061435917
676;-0.1212970449254869;1.4397454394434444;0.3912924061224943;-1.6395787121808798;-3.1955196181584418;-1.4578436703147024;583;1.2566370614359172
677;1.826269792569464;-0.7609409706039203;-1.64380538769484;-1.8869910873703304;-1.330269650196569;-2.5663186945472525;647;1.256637061435917
678;-2.465810867491075;-1.203919966166927;-0.5813316506574115;-1.3626816239619868;-0.4932514108798004;-2.7360347786084507;239;0.7554698509694392
679;-2.6282751591074227;1.1546695434953564;0.9942563790554542;0.8124549295263973;-1.2756838960747854;2.954999688944064;395;1.2566370614359177
680;-0.6890730182725864;0.3652620211194233;-0.8367403171735321;-1.6194492041129078;1.1189355624780195;-2.4425202847458323;62;1.2566370614359172
681;2.2593563575437905;-1.5646953369509302;2.356219146330722;1.8163267311287536;2.869255475143624;-3.0128357896940754;124;1.2566370614359172
682;1.602598127216483;-1.5586791201428742;-0.6082760604473382;-2.7842142413474336;-1.862992474099208;-1.0690458465235793;574;0.9617735296363634
683;-2.8169153150716584;-0.6190970317410796;-0.3760922021048276;-1.0962009618692528;0.355903008129633;-3.264850535368943;678;1.2566370614359172
684;2.5015385011139566;0.4704585728947771;0.1469973859651648;-1.6017965614649838;-2.4506644282001684;-0.8175176927828741;226;1.256637061435917
685;-1.9930224185170728;1.406443143970158;0.1943616215167942;-3.083387722692708;-1.2651367722768585;-2.0295004589953303;509;1.0167548477055024
686;3.2356240633696256;0.7597975171391043;0.8004532097158941;-0.8697910006835858;1.8907355686196727;-0.6408165084911732;635;1.2566370614359177
687;-2.6103570040321307;-0.051573661281103;0.6869592788963064;-1.0215327016225668;-1.622117564200462;0.1328594798587531;556;0.9863743192228404
688;-2.877453798204796;1.3158211749467443;-0.7909032458364554;0.7807543883756232;-0.5258463879505243;-2.9686805366149054;535;1.2566370614359172
689;-0.4219848870901386;-1.643137058396153;0.8871158008872211;-1.7405791404305684;0.0543283334427728;-2.163621921867287;179;1.2566370614359172
690;1.7118454570553374;-1.048166301657688;-1.433772908760625;-2.6300615780269503;1.5682735891628723;2.432604081244629;374;1.1313193992416186
691;-3.166701647071134;1.3443154156596262;-0.1219703146422679;-0.2110861154569719;-0.7757108681659269;-3.0004508748950114;688;1.2566370614359172
692;1.1940423258098454;-1.4722836815456113;-1.851268220178452;1.0861787887397487;-2.422517587953005;-2.005433674618906;281;1.2566370614359177
693;1.479395621505489;-0.3177815218907829;-1.3598442221028209;2.306514377291078;2.4197776206208683;-2.8169102160115296;292;1.256637061435917
694;1.0563235630245142;0.0681935316110951;1.132870257985375;-2.985266730989704;-1.8219158099279436;-1.3374898850217465;443;0.9811666650245668
695;0.3388276477489408;1.282347010851446;2.017885793255842;2.040352477512783;0.9116345136689452;-1.1922391397757366;673;1.0719104947135725
696;2.197229176541939;0.9463257191555324;-0.6357761639530878;-0.216024475685224;1.471052722456574;1.0086138693144335;145;1.2566370614359172
697;0.6412505974431061;-0.0646860523518372;-1.223210150850469;-0.1247021704275263;1.7391253980148564;-3.1631438149841387;108;1.2566370614359172
698;-2.997384173405015;0.9516259931177182;-2.127795153792662;2.3670344426722134;-0.3055437156769997;1.7580839427760049;609;1.2566370614359177
699;-1.1150495355249257;-0.1730736063918363;2.4252270664059594;1.8154282401707624;0.1886171612690785;1.4595403685719004;440;1.1137763862086494
700;-2.533369606867226;-0.1613163796840383;1.3700377442250833;1.4701722908204644;-1.837107112820304;-0.948058199198614;444;1.256637061435917
701;-3.3021613066912594;-0.6439567334722957;-0.5349753694216786;-0.1079967357490794;-0.365243720769827;0.4275582210276727;87;1.0733488321573628
702;2.7023548458260143;-0.3411204864579517;0.8599924487936524;0.8263040999919047;1.7416291720858992;2.3397057933183865;471;1.2566370614359172
703;0.8152617875535412;0.2246120378689959;-1.1807363635702832;-1.6664657341705646;3.10044283108558;-2.712106692047152;481;1.2566370614359172
704;-3.353101542159267;-0.4933046684061038;1.643377636417258;-2.024783143160429;0.3326503738528674;-1.969525831095861;538;1.2257746842049226
705;2.4869553440414807;0.8847975735676641;-2.041619319851603;-0.3669402616519901;1.586678963505624;-3.046418554161029;489;1.2566370614359172
706;-3.299250849823841;-0.1951939236341751;0.5883645925011181;-0.2572502764638348;-2.702479108718376;0.703566298863604;185;1.2566370614359172
707;0.2897126391195196;-1.5456395684612363;2.1961662455560207;1.1311614173912663;-3.280626172516193;-0.4756435344020583;378;1.2566370614359172
