Komment314/test_diploma/benchmarking/path_finding_for_benckmarking/pre_rrt_star_results/2_5_tree.csv
id;joint_1;joint_2;joint_3;joint_4;joint_5;joint_6;parent_id;cost
0;0.0;0.0;0.0;0.0;0.0;0.0;-1;0.0
1;0.5129785137769781;0.1936640351788726;-0.4611667156783917;-0.8070591879062118;0.3592577630094648;0.53422708405668;0;1.2566370614359172
2;-0.3876762146555711;-0.4353590641839855;0.6019586739059781;-0.4923922382810465;0.1195418987104551;-0.7875352151111119;0;1.2566370614359172
3;1.0840112239590467;0.3493398113034721;0.3241517630199831;-1.0977044495850257;-0.2911911059672392;0.2109007960288222;1;1.2566370614359177
4;-1.0483221040241857;-0.7647817322670871;1.091520522990246;0.0210543972632824;-0.2261811327018903;-1.42889451589977;2;1.2566370614359172
5;0.6832670344078239;0.1188063705999536;-1.2003718299122463;-0.9448330387381844;1.1767462110098603;1.091758837836492;1;1.256637061435917
6;-0.7731576615056752;0.3619204841789128;-0.6524132726714652;-0.2603034534916802;-0.4598108348324136;0.3815108486979183;0;1.2566370614359172
7;-0.568292562316908;-0.185580164855404;-0.4155377031116669;0.6011178715577001;0.8292924646880871;0.0;0;1.2566370614359172
8;0.0085866342283006;0.3698740428631967;0.5184885045940802;0.7361035326847888;-0.389389072953635;0.6927868185380246;0;1.2566370614359172
9;-1.2055065452617777;-0.7406948728792608;1.1639678355504215;0.9289776681132926;-0.800309317981107;-2.057108752312617;4;1.2566370614359172
10;-1.1833447417942953;-0.0720937849135778;-0.6622063048957749;1.505041484486337;1.384880900382652;-0.0369669483253828;7;1.2566370614359177
11;1.3717003283737472;0.5437905197795914;-0.6722826797025345;-1.3409743593016186;1.0351721336310662;1.7764014169001754;5;1.2566370614359172
12;-2.06090018228123;-0.8724348389171057;1.6258355862413911;1.3479685288194598;-1.020891549615881;-1.4305695836466252;9;1.2566370614359172
13;1.5216502171033317;-0.4429537200707183;0.557488210185334;-1.7142161779883784;0.2202902681211369;-0.0415550835275774;3;1.2566370614359172
14;0.5871586826739905;0.1577027275621816;-0.1432830552992762;-1.8655455412959876;0.769054998118073;2.21083607208586;11;1.2566370614359177
15;-1.5543762862441293;-0.6377391985257388;1.092158643207837;-0.3354472100886987;0.5657645530168987;-2.172288281734553;4;1.2566370614359172
16;-1.1516259171783598;0.3724409006343413;-0.0584748966788403;0.1888600661992834;-0.1022386702337334;-0.2542479945929148;0;1.256637061435917
17;0.0008322259611707;-0.0537810978528486;1.265258765634251;-0.5788870294256933;1.0291448707681587;-0.8756840891614386;2;1.2566370614359177
18;1.627572540245169;0.6179366200272276;-1.543132572452713;-1.7424813125194347;0.2758090778737875;1.8857122194318008;11;1.2566370614359177
19;0.6809827615733013;0.0002034984542179;0.8162317314764834;1.6520092853507464;-0.6364113846250555;0.6502492901932964;8;1.2566370614359172
20;1.2576307453389937;-0.1283945855906059;1.8516822459804876;1.514716333287658;-0.6664476283671686;0.278541015921228;19;1.2566370614359172
21;-1.5412297385497111;0.777069455820903;-0.4233576887813217;-0.861016424881628;-0.5557175400895036;1.009469994951468;6;1.256637061435917
22;-1.3281540446772206;0.4566646490364393;-0.606303322220107;0.5575278929151328;-0.1939576853785661;-1.301356659706327;16;1.2566370614359172
23;-1.6316703243722657;-0.1439559150399962;1.4200782273055836;0.978900269119739;-1.5934762039465933;-0.8323921573995656;12;1.256637061435917
24;2.2401023404692504;-0.7479190067130408;0.8633848410040679;-1.7575155207193698;-0.3556760308200937;0.6951773409015491;13;1.2566370614359172
25;0.3608236578872083;-1.2165213181734882;0.3673374362311434;-0.0294850882611131;0.4315161530539319;-0.9925037196159796;2;1.2566370614359177
26;-0.8184989976809769;0.998169349778694;0.0276205754492814;0.4638188482337102;0.5886401493663027;-1.3566814487324417;22;1.2566370614359172
27;-2.7482445920545504;-0.7208222896063479;1.8533094751155057;1.220697912972443;-0.8436381117503733;-2.4227122348850534;12;1.2566370614359172
28;1.3524514510624055;-0.3438577071828764;0.1225855679454396;1.8776261527025095;-0.6997579121591849;1.3386006804149184;19;1.2566370614359177
29;-1.4900392581172612;0.7621884257728511;-1.0751325140807697;1.0867751444306983;0.4239466120636771;-2.0615381633733083;22;1.2566370614359172
30;-0.366658376040994;0.928053251400342;-0.4531313730448111;0.0114261565358228;1.4983224509036597;-1.683418370958349;26;1.256637061435917
31;-1.5565510158617144;-0.0212375661051827;0.0390447809878962;1.194908091826071;1.5599922585636314;0.8678355890934417;10;1.2566370614359172
32;-1.4708906660842826;0.2492899059765991;1.924120896658868;-0.3874841660019692;0.7628048390950615;-2.0176105310221604;15;1.2455559392732778
33;1.2577374320999573;-1.2692713616042195;0.1171449187714825;0.3208842419584367;1.178557036242861;-0.8237590183279113;25;1.2566370614359172
34;-0.2219441034164908;0.9618892207639944;0.8679943416554948;1.4121723118019744;-0.571543439792103;1.4431912259844404;8;1.2566370614359172
35;-2.1960606054616383;0.7136171439813805;-0.8355364484456672;-0.501736829698917;-0.4292877789464737;1.92125363271874;21;1.2566370614359172
36;1.8080922598489064;-0.8903930042195249;0.12082507744495;0.4330917867737481;1.546599078416434;-1.8160485106458344;33;1.256637061435917
37;-2.2244836412741757;0.5708196934208438;-1.1969535913485652;-0.8580923784445941;0.6900089574740514;2.1392006695312222;35;1.2566370614359172
38;-1.810648859047604;0.1495572355233457;-1.43339546872984;2.168981264232585;1.2513278857581132;-0.3252583088111458;10;1.2566370614359172
39;-0.5531216132342811;-0.5455607123367425;0.6275887117984864;1.3841054641951038;-1.5874424341966291;-2.025001958315091;9;1.256637061435917
40;0.9915400271049044;0.3311385925730289;-1.236317806539473;-0.9289552262426428;0.2155723878538726;-0.299351336576926;1;1.2566370614359172
41;-2.1394965595671858;-0.6583546938100873;0.3071940238628958;-1.090501873914104;0.3440830756632707;-2.1418531887447023;15;1.256637061435917
42;-1.4140233014269823;-0.5033496824401609;0.7214849859527238;1.6938894324292375;0.0329081721515781;-2.1218564310974597;9;1.256637061435917
43;0.3516510959154428;-0.0309189077817923;-0.0491370411797757;-1.9735002197101312;-0.3646437253977403;2.637807123992373;14;1.2566370614359172
44;2.8422733562176576;-0.7075765950098938;0.6269727184446261;-1.893555784830227;-1.4214716439979718;0.6274918360783286;24;1.256637061435917
45;-0.7136076697116813;-0.4670263037735407;-0.3727912044657572;1.988478055036;-1.2105649743321472;-2.222866688228644;39;1.2566370614359172
46;1.0959765454124406;-0.8671440318405731;1.8028448358988105;1.9030847212058437;-1.2348673077328058;1.0071958383426405;20;1.2566370614359172
47;0.8375678601107764;-0.2915628799788535;1.894302980321007;-0.9993951189196472;1.2462888275571864;-0.4253566177844308;17;1.2566370614359177
48;1.461079353236112;0.8587912650038939;-1.4080925327090112;-1.6775959379621952;0.0062138987906698;-0.967521774361862;40;1.2566370614359172
49;-0.4561853690104989;-1.0399131171747864;-0.9092848568503216;2.5914879169663543;-0.5786860786739954;-2.5888638069257937;45;1.2566370614359172
50;2.3366252033207955;-0.0537550185866029;0.1012081908357209;0.0711437353837361;2.2258749899584136;-1.8998311740605944;36;1.2566370614359172
51;1.067858937023656;-0.2580055529441166;-1.640705898634243;-0.0019618033268732;1.4047454713857623;1.48463875017151;5;1.2566370614359172
52;-2.3073129918222754;0.7151899125481522;0.3028764341223534;1.774875148661784;1.329259009182204;0.9859921281843074;31;1.2566370614359172
53;-1.0282323018352804;-0.870559760635238;1.9008815383459068;0.0204808500398542;0.7687800834416048;-2.8251060105093617;15;1.256637061435917
54;2.071730892638531;-0.0907631585477585;-0.469957936654902;-1.981648538187781;1.4232820680454796;2.066931133553649;11;1.2566370614359172
55;2.55172357606605;0.0873291602760369;1.0289598864499503;-1.885817337200408;-1.9894546574232468;1.2427837174558862;44;1.2566370614359172
56;1.906582019761286;0.3213084482056035;0.9433987639730316;-1.4515671044468352;-1.825758687643642;0.3017776449596374;55;1.2566370614359172
57;-1.781016978035678;1.0123482661347447;-0.3815282066637448;-1.2548593205903675;0.1563910216667492;0.1137456346875121;21;1.2566370614359172
58;1.8277855040065971;0.5729691665090576;0.64688538999924;-1.219854434343738;-2.3722227117414336;-8.326672684688674e-17;56;0.7751423269917941
