Komment314/test_diploma/benchmarking/path_finding_for_benckmarking/pre_rrt_star_results/3_1_tree.csv
id;joint_1;joint_2;joint_3;joint_4;joint_5;joint_6;parent_id;cost
0;0.0;0.0;0.0;0.0;0.0;0.0;-1;0.0
1;0.5581509745628676;0.0394027823424011;-0.5066345052206177;0.365068855599979;-0.6030333148342479;-0.7158551840304688;0;1.2566370614359172
2;-0.2169970043730205;0.4814052318798233;-0.9094282774014494;-0.2289916010163287;-1.0528677605725032;-0.9716177143849752;1;1.2566370614359172
3;1.626191598676901;0.421555329946944;-0.1175863691912847;0.3774487925701294;-0.3923068076110739;-1.0264481394270777;1;1.256637061435917
4;-0.4215712981550001;-0.1134053349760197;-0.741041370265494;0.3924737598515072;0.2857822978915654;0.7769839691654256;0;1.2566370614359172
5;-0.1474394609004375;-0.1512525753851513;0.573559631979176;-0.4120687380085145;0.8036819053145438;-0.6243757416596294;0;1.2566370614359177
6;0.6580127778631834;0.723024085166397;-0.7247493512514901;-0.6385865704234113;-1.737847524859658;-0.6817155020937353;2;1.256637061435917
7;0.2410943077594274;-0.563526766434813;1.5818453814739533;-0.255019003812296;0.9596796123259852;-0.1855498650964646;5;1.2566370614359172
8;-1.117336480863388;-0.0688965451046646;-0.4802778917725515;-0.0283417889243593;0.1828803453323276;1.692076506934952;4;1.2566370614359172
9;-1.1023619272716256;-0.0945308850664391;0.1119842630577689;-0.0864395279227614;-0.9216703536113732;1.7558988672465992;8;1.2566370614359172
10;2.06424861615302;-0.2275287809641549;-0.6214514997095716;0.4382447530739394;-1.1783278664613324;-1.3273256012867187;3;1.2566370614359172
11;0.5721755648779945;-0.2674687943207163;-0.568588595555526;0.8226817038969447;0.5389687454403199;1.314521051638624;4;1.2566370614359172
12;1.9104536632124045;0.6605758515975273;0.463111268406504;-0.5990662970185233;-0.0247899877834917;-1.1503065009051263;3;1.2566370614359177
13;1.3412693287480189;0.2762597481646697;-1.125808517172109;0.800514054250322;-0.0580682320291265;1.4712123418693055;11;1.256637061435917
14;0.8743552131199792;0.3571007759010321;-0.7648952719019732;1.5699796705170692;1.049697562675704;0.8247225936293647;11;1.256637061435917
15;0.5042623936024295;-0.6625784756511295;0.0818410745904598;-1.2051763370376714;0.8184559230687037;-0.4762469267377009;5;1.2566370614359177
16;1.0747768305305645;0.8339940024940365;-1.6403612747361065;0.1925884400532618;-0.7364791945697935;1.7913239275809767;13;1.2566370614359172
17;0.1391342181094155;-0.0380617358289232;-0.0668463371796468;0.0283119113119793;1.5518723837055797;-1.190375874988599;5;1.2566370614359177
18;-0.4004802564354589;0.7632296607810306;-0.8394966152898985;0.8552774016877639;-1.201243162385078;-1.4849408331004117;2;1.256637061435917
19;1.0035278718283756;0.3852133322328873;0.3411461777419596;1.6560970944716151;0.7805910160988236;0.3162950371934099;14;1.2566370614359177
20;0.7128479881855474;0.2705140091416148;0.1795576391552407;0.7915492731934806;2.075107349602459;-0.7027805467166601;17;1.2566370614359172
21;-1.3431069674784035;-0.372669951551394;-0.0191033155991739;-0.7799881015124233;-1.6622729648201802;1.125715255471973;9;1.2566370614359172
22;0.2412983015113774;1.1395594011058825;-2.0216368378206178;-0.0774143669029139;0.0043639517745164;1.6365373171958095;16;1.2566370614359172
23;0.25154540980488;1.0759196021453832;-1.313752762548672;-0.4188221370300619;-0.3763764847497702;-1.56238247795952;2;1.2566370614359172
24;1.5452076047926568;-0.762329160623623;-1.0261170921814693;0.2777706866033943;-1.9369458719477637;-1.835965199261517;10;1.256637061435917
25;-0.1797925501667227;-0.4330456913144381;-0.6527630020139964;-0.6778259628880651;0.4932630644083509;1.8321666340584963;8;1.256637061435917
26;-0.1719242552980734;1.2096726337553396;-0.0530771974450379;0.2376299223066102;-0.8488727674128413;-1.9360269951559697;18;1.2566370614359177
27;-1.8699950750694585;0.3066785477995484;0.1232977952040338;-0.7812920111680044;-2.3265834564312287;1.740876239995659;21;1.2566370614359177
28;2.4815866438745413;-0.0856811968858337;0.1790090030828458;-0.9900085701654624;-0.5066000297990906;-0.6703550809876766;12;1.2566370614359172
29;1.880425847161365;0.4385415538571488;-1.6498457209275943;0.5718310470552612;-0.983036590137198;1.7534076575056543;13;1.256637061435917
30;-0.6413657389665812;-0.6482071378166097;0.6003984877271287;-1.3432696453750284;0.4251238105513751;-0.3468005019141071;5;1.2566370614359172
31;0.0177595289106227;0.3911439321946342;0.5500341634021373;1.3504776126666689;2.537725926097683;-1.3491298861752397;20;1.2566370614359172
32;-1.028232417599144;-0.9960478821026972;0.8536485910696325;-2.0328811236102364;-0.4378020577389945;-0.1914395228003715;30;1.2566370614359172
33;1.1770973322163911;-0.0361459126373564;0.9645620779900456;0.8337207584142816;2.4658736945003428;0.0035198169069271;20;1.2566370614359172
34;2.4025113472236024;1.1728673145606097;-0.170135813381133;0.537820485907092;-1.0111891940105049;-1.0487802164168438;3;1.256637061435917
35;0.9009879744878008;1.35400851743638;-1.0559359680033449;-0.5373543026275502;-0.83257951130755;-0.2544969623354058;6;1.256637061435917
36;-0.8232015143704814;0.3663507500061986;0.7173180598562081;-1.9861893624814224;0.4990891536215177;-0.6370726608401492;30;1.2566370614359172
37;-0.741459334878154;-0.988162110316958;0.941173677150814;0.0518183807531665;0.5453272340183001;-0.2945560295547239;5;1.2566370614359177
38;-2.0416777246156426;-1.0286571377608975;0.7811475860359942;-2.766143435607121;-0.3495629007535166;-0.2083447750769171;32;1.2566370614359177
39;0.2571513174921013;-0.7119443432745822;-0.1963650675828665;-0.0925519756081563;-1.3768410018904018;-0.8556805100977132;1;1.256637061435917
40;-0.4166220478198931;0.3193640452889619;0.0553395977038072;-1.319063957739897;0.6329482299805741;1.9897124313061452;25;1.2566370614359172
41;-0.6944158646987112;1.3994929656112147;-2.1132577042852057;-0.0107034000583918;0.783300438257125;1.7646913617230275;22;1.256637061435917
42;-0.3715939108076203;-0.1003959584343037;1.3842012392325038;1.5906727451991969;2.890621611330613;-0.7942737225376348;31;1.2566370614359177
43;1.1765348613619615;0.9816703461227808;-0.9612019482484204;2.317277637137196;1.5604263799110905;0.334924135620104;14;1.2566370614359177
44;-0.1758304827209569;-0.034669735303928;-0.745373392079305;1.3061255251719752;0.4386072977313286;2.1454151738066587;11;1.256637061435917
45;-1.5547826729498326;-1.0536673475560876;0.7795409367659691;0.6291549438941362;-0.0553294686269943;-0.7340099992489652;37;1.2566370614359172
46;0.3785565759497988;-0.4747036103236934;1.5086975646860568;0.2743824099814698;2.822554575527552;0.1174164531862264;33;1.2566370614359172
47;0.3830105493383568;0.4728720769803991;-0.1749822653195483;-1.3789621081508925;1.464070010343664;1.578907933838858;40;1.2566370614359172
48;2.2074615997991183;0.1472259375422788;-0.3981596055653756;1.2615311329917205;0.2005317810260142;1.4136425819595644;13;1.2566370614359172
49;-1.2126347497961942;0.8306135687712575;-0.3032263409654315;-0.3170072337041318;-2.5869947500869555;2.37900551024352;27;1.256637061435917
50;2.019889059463541;0.1892167929711098;0.6931388698329162;-1.3620846656933585;-1.3956832356096198;-0.3586435921171186;28;1.256637061435917
51;-2.490635263462615;-0.0175372803311685;1.246648679430328;-2.757537911427685;-0.5218856312402648;-0.5381174542938556;38;1.2566370614359177
52;-1.0606808831922747;-0.2059480230601548;-0.128544356132334;1.8765152840098769;0.3311260567759703;2.36782350856866;44;1.256637061435917
53;1.2534911264410171;0.8387878332300773;-1.2446739616037532;2.6975970273285594;1.628354754239236;-0.8153738866327049;43;1.2566370614359172
54;-1.457142679460967;-0.3774098700644407;0.9113667674071374;1.6895058966500458;0.7423177678004409;2.695068530316157;52;1.256637061435917
55;2.4421139319627025;-0.6306101007688316;0.0852380290309303;1.2937618188366034;-1.1570342230407975;-1.532525498494569;10;1.2566370614359172
56;2.3925225718979126;0.1524004355482312;0.9282240733804346;-0.8910187280114911;-0.2243885954840789;-2.0146549667837657;12;1.2566370614359172
57;3.2583036586307363;-0.194308859631436;-0.2790029489360922;1.2181924729715443;-0.2442007956939519;1.7935873684969517;48;1.2566370614359172
58;0.8549818267218606;1.1411910065704989;-1.4904132764820384;-1.5341122492405086;-0.2425231007697253;-0.2189253124561023;35;1.2566370614359172
59;-1.8292483231690893;-0.1350777774643529;-1.0153712667965031;-0.7492305277540823;0.5906458186058621;1.382786832871088;8;1.2566370614359177
60;1.1685514661388798;-0.5443538348213143;-0.0767396265376119;0.4111447575481449;-2.6167156823615763;-1.9284876533326412;24;1.2566370614359177
61;1.4141342481800816;0.2769607661569191;-0.5586243488319397;-1.8867100593101664;1.5342407702820813;1.838958341364356;47;1.256637061435917
62;-0.0782851743153918;-1.042476450237522;0.5409688665193001;-0.8240395279915326;-1.593115219624187;-1.3371965362879732;39;1.2566370614359172
63;0.3381634031710984;0.9004272128960452;-1.8460851276552743;-2.1237445742347623;-1.071458424950456;0.0856493103189284;58;1.2566370614359177
64;-1.9395112096780864;0.0177818184958313;0.529364133560907;0.6523673707750881;0.413345113257293;-0.7157280835981833;45;1.2566370614359172
65;2.9707170886379908;0.6349019124683852;1.295004784254947;-1.1121753325924175;0.1573131155840314;-2.841023891601352;56;1.256637061435917
66;-0.6907225535357417;0.4707785119698344;1.0239303068060972;-1.9376170014908016;0.7841363287113486;2.360449002647238;40;1.2566370614359177
67;-1.3481789833810796;0.0874064787056041;0.8722472511738513;-1.8007781912274936;1.467210877063929;-1.1167448682536176;36;1.2566370614359172
68;-2.3334167394940164;0.591862992912069;1.3372826116347905;-2.4036275234483764;-1.287140772795507;-1.219269304326769;51;1.2566370614359177
69;-0.7132631462039468;-0.002055776015054;-0.1867051812702751;1.5233798862138506;2.5413640314618684;-0.7857088641058729;31;1.2566370614359172
70;-0.2926546533370496;-0.8210049455425719;1.340597087188118;-0.559262530061463;-1.0884773135990309;-2.0582799136626964;62;1.2566370614359172
71;-0.5833185129876783;-0.0977283849568532;-0.8778082453083648;1.1661959817303915;1.5969600652353255;2.3192352376826437;44;1.2566370614359177
72;2.412204870061264;1.3926442887473724;-1.088307320113137;-0.2103210180090677;-1.2205847954870168;-0.7587118144278606;34;1.2566370614359177
73;3.230762293451199;-0.7272711028810532;0.1576076430955796;1.4619083995163276;0.6919953560387153;2.203270085003024;57;1.2566370614359177
74;-0.2805315962532117;1.3726404449801646;-1.928758384236124;-1.2355826712408668;-1.2189459419382611;0.4805529243257803;63;1.256637061435917
75;-1.930690405347496;-0.5932920070102596;0.3917974255948785;-0.4673122730454526;-2.333559588410266;0.4416268163582605;21;1.256637061435917
76;-1.45160661707344;1.0562479257044295;1.0662811660116946;-2.319548551294636;-1.9964732556912377;-1.2664987229880078;68;1.2566370614359172
77;-1.814421446674105;-1.002395199096818;1.1877901620179492;1.2953491533067356;1.635683551890886;2.8711652922754274;54;1.2566370614359177
78;-0.0133750997215263;-0.1320467006218631;-0.6616793067191343;1.111928278257276;2.926335002465017;-0.0581785952963087;69;1.2566370614359172
79;1.827046809243988;-0.2197129152296109;0.2933154104812615;1.945844358137824;0.2421450232151787;-0.0822675710274852;19;1.2566370614359172
80;0.3830189397722763;0.6446325714795077;0.8265821630624566;1.0185698386013944;3.0682849604861437;-2.3048135792099638;31;1.256637061435917
81;0.961710547761115;0.5708732979970628;0.8924654698131028;-1.6626401132233353;1.5853463288481393;1.5753088440464411;47;1.2566370614359172
82;-0.4722857791685738;0.0326266941801729;0.9088266883417992;-2.2215539659404;-0.2029450110843156;1.8396357441670548;66;1.2566370614359172
83;0.3766603342090211;0.5997925995479944;0.2915985865198666;-0.631669866607761;1.4529996320118848;-1.9265995934643565;17;1.2566370614359172
84;0.2998511109133249;-0.1903987684994997;-0.798132560569018;1.2253497731809124;-0.6403899964852497;0.0798578526566372;1;1.2566370614359172
85;1.9655162167791365;-0.218982361659863;-0.090555350615324;0.747316373373535;-3.0595512950006425;-1.3340871126670042;60;1.184751881785297
86;-2.314868677204631;0.1756684668162368;-0.4473781873646462;0.9154234622627716;0.7967858909891378;-1.2087436850197704;64;1.2566370614359177
87;-2.0018933007553894;-0.0146993727872424;0.1195477995173296;-1.642373743471687;0.8954531909965151;-1.5887760169663303;67;1.2566370614359172
88;0.4598867869299585;1.4228245608865009;0.4830407912509317;0.9802318175725454;-1.0412013146746966;-2.444600907488753;26;1.2566370614359172
89;-1.3804904173574346;-0.314795661022695;-0.9970019791070532;1.7246588880571525;2.3302405288177868;-0.2430570728137981;69;1.2566370614359177
90;-2.204313452590025;0.9006057206680418;0.9181213602300994;-2.8997885123202707;-0.0605615693715241;0.0215115581195838;51;1.2566370614359172
91;2.944971043706391;-0.8307556581001666;-0.7115223309476053;0.2432169321747165;-1.059075774558888;-1.9431278239944676;10;1.256637061435917
92;-2.2514929181752343;0.1691744181487964;-1.1135649209969678;-0.5595323558303444;1.7143224688594754;1.3823361163961856;59;1.2566370614359172
93;1.43540774219265;-0.1417284427931376;1.4768499888394322;-1.5178749989111695;-2.071431729168832;-0.1773047591705551;50;1.2566370614359172
94;2.183986857662481;-0.4058691238847293;0.360691378303661;2.661962610979717;0.7429670073635971;-0.8878039383559668;79;1.256637061435917
95;3.065827887104265;0.9753896545536858;-0.4519832495880485;0.2510748523882873;-0.5903385525285336;-1.9213477770211376;34;1.2566370614359177
96;-0.3399095770884281;-0.7920746205310985;-0.5497457449994437;-0.8983224139490414;-0.2272288670306246;2.7520892429814614;25;1.2566370614359177
97;-2.4063910570186096;0.3499660353649904;-0.4955443150815847;-2.374791793335517;1.450911398759135;-1.3454057647362707;87;1.2566370614359172
98;1.1542264467828032;0.5959932243803312;-1.4193362596829215;-0.8980672111115754;-0.6987024884441505;-1.9974187442914075;23;1.2566370614359172
99;0.7416639811031621;-0.8916588908121482;-1.10328930217607;1.9723468339497872;-1.1201807412395324;-0.0242955355048911;84;1.2566370614359177
100;2.1324166307178563;0.7066831393323267;0.4565721912214473;1.2095856193035788;-3.023307934545828;-1.758432906010268;85;1.2566370614359172
101;1.966397319642616;0.925175969593748;-0.522034249275943;0.826166666236962;1.0242979280884157;1.23380750939325;48;1.2566370614359177
102;-1.865006246006756;0.1186408961690201;-0.5351670996554766;-1.4290669734378254;-2.844425721989224;1.090949608887266;27;1.2566370614359177
103;-0.6508168717531384;0.5060889553955285;-0.987223440643901;1.2215993937629237;3.357875809062903;0.6210513889465197;78;1.2566370614359172
104;-1.407969271642172;0.2227189877449366;-1.055102863795923;-0.4231525995308605;-1.5270090113020436;1.0867457779697487;21;1.256637061435917
105;-1.7245610817575283;-0.110600573482538;0.7529849045013538;-1.1030906465888304;1.6291378006068074;-2.101284137147959;87;1.2566370614359172
106;-2.2462542270533987;-0.8122923848768213;2.198645640520834;1.8135367684742003;1.5354299967518124;2.6342684882877867;77;1.2566370614359172
107;1.0872197397519616;0.4908065838424643;-0.718276929241657;2.135414748354341;1.3295154360970016;1.881018013950552;14;1.256637061435917
108;2.04233745373933;-0.0991491666467103;-1.8293705436278045;-0.2809147647984801;-1.4037470510687349;2.3256035604766723;29;1.2566370614359172
109;2.1941042502974417;-0.463319429752246;1.1078654817535372;-1.4303663096588486;0.6021715560685322;-2.4074492994008625;56;1.256637061435917
110;0.4243806513208523;-0.1670767948760485;-1.125915925714596;2.54177097604556;1.214392397247228;0.8323926449731713;14;1.256637061435917
111;1.5642645751742863;0.1566584734807703;0.1520754560335812;-1.91564727354998;-1.7167990685501104;-1.1760703060114797;50;1.2566370614359172
112;-1.2670535823146725;-0.2657770797713769;1.3051061261213543;1.443278337812496;3.2336081586230607;-1.5716519095956036;42;1.2566370614359172
113;-0.1896458085317217;-0.2114885847071955;1.324517773704203;-2.9415441707894256;-0.9032178503857858;2.3476633603404107;82;1.2566370614359177
114;0.2296941274799018;0.5434020082862997;-2.6178354744866703;0.1582276426950937;-0.3432160896317495;1.4435152786329617;22;0.9615548125162622
115;-1.1474910615788751;-1.2106517416239413;1.404955116605903;1.9811852319074323;2.301815452913439;3.2313129346864047;77;1.256637061435917
116;1.43126561578875;0.837380215836354;-0.9528925621593552;0.0088058928782361;-2.442204174036856;-0.6524783214962142;6;1.2566370614359172
117;-1.306646950231935;1.6124745661404871;-1.836827131081684;-0.9232290524925564;-1.7619973451540254;0.2202019807047676;74;1.2566370614359172
118;-2.0345148641291235;1.243965411990722;-1.8567342110649692;-0.5989859761359401;-2.1380772974685813;-0.5962415338567078;117;1.2566370614359172
119;-2.3784947449514178;0.6495384094602112;1.0481266390125712;1.021899517977964;-0.1303095023783261;-1.2505971177790038;64;1.256637061435917
120;1.9276608202827177;0.1783325881857818;-0.4028841501412293;-2.3172814026516755;0.5057258119391748;2.034431960297103;61;1.2566370614359172
121;-2.266354085043968;0.326510185112583;0.9961801589810628;1.4599382867989734;1.02988847809375;-0.3596613371552987;64;1.2566370614359172
122;2.452651764660677;-0.0825946039889357;-1.0663777431253598;-0.329527429221449;-2.1516498493441043;2.841961010750857;108;1.2566370614359177
123;-0.7846726064503029;-0.7469736790616921;1.5354310039770005;-0.0058018738614986;-0.3443993723823648;0.3145598539988468;37;1.2566370614359172
124;0.1592715856045289;-0.5326676992631263;1.6027392621105794;-2.973607289356213;-0.8742664077483532;1.218520363903529;113;1.256637061435917
125;-1.4276590186108429;-1.2863113917234514;1.4186057403720975;-0.0860003553360536;0.3183024164594957;0.9592042599085044;123;1.2566370614359172
126;1.7976935939898964;-0.4433424909464722;0.4997529623443198;0.603509722348258;2.968022189137838;-0.7085126155564695;33;1.256637061435917
127;-2.070914194652124;0.4303640505740987;-1.1880033863036017;-0.64618277247041;-2.76886267550211;-0.8580543885862539;118;1.2566370614359172
128;0.3397104239064462;0.6392367190353783;1.7410880015723964;-1.7069597243783925;1.739154281150502;0.9106302170175028;81;1.2566370614359177
129;-2.078381215130094;-0.0475217788414083;0.5764471016447295;-2.6368165857730155;-0.9314907552129046;-1.807100872108123;68;1.2566370614359177
130;-1.8453638585528895;-0.4950554527595626;0.615629653233741;-1.1920627531481442;-2.775726424629639;2.3091190867739697;27;1.2566370614359177
131;2.6009015059135963;-0.0569626304028935;-1.2644527471915532;-2.46494264709496;0.0431318797669684;2.33844249774362;120;1.2566370614359172
132;-1.4268056900279713;0.4215993677404108;1.099194466400499;-0.442326373573936;-2.873064416915803;1.6808793916540044;27;1.2566370614359172
133;0.583448916901918;0.3958388977039014;-1.557542781780887;-2.010026143684437;-0.6818461415637865;-0.9440816247696152;58;1.256637061435917
134;-1.5003646166513007;-0.161901064962278;-1.1229193483576163;-1.3215660178438116;-1.5981695948330572;0.3083771988127415;104;1.2566370614359172
135;-0.7633599497158735;-0.5903529833266521;1.8550746467743997;-1.0804090852711872;-1.6173722312684622;-2.7571090595916505;70;1.256637061435917
136;-0.7162402224930042;1.3481626501583428;0.2689943180120273;-1.031974502546427;-3.028304784081231;2.5564960779159733;49;1.2566370614359177
137;-2.3054293301639146;-0.4909304951121147;1.1465937541721547;1.5487699137181823;-0.1026671066918084;2.9349054327878745;54;1.2566370614359172
138;-2.094296574348343;0.8460294377005513;0.4778023425373624;-0.5608006048183101;-1.390303819205802;1.308422004588623;27;1.2566370614359172
139;1.8156787024412884;-0.2711477399755868;-0.7867143076762549;-2.3221236341917497;0.438159399080724;3.135635795591818;120;1.256637061435917
140;3.131334511494674;-0.3888938382980129;0.969902250041884;2.0826175940341747;1.258371139725723;1.905163248143008;73;1.256637061435917
141;1.9314007662437829;-0.5795710086815062;-1.6322586908287782;-2.6808722380781598;0.0788960504337494;1.5171020869708745;131;1.2566370614359172
142;-1.7545814778626632;0.7544062528293506;-0.3357216737954973;-1.9940061919848773;0.4734137575346591;-2.234854299763359;87;1.256637061435917
143;3.232112755612115;-0.3038239308601989;-1.0731906612527615;1.8990631823986328;0.4182179171488437;1.9761786976237472;57;1.256637061435917
144;-0.020106659505481;0.0541655530303839;2.0142007274840346;-0.2189246366211571;2.5228288059713693;-0.6254031145158977;46;1.2566370614359172
145;0.6285691432100795;1.2627391641224996;-2.5875092954372305;-1.105874177959556;-0.7335050553431482;0.7132852760339162;74;1.2566370614359172
146;0.1148376320364001;-0.3227703762470963;-1.3206116764463962;0.2657259383345528;2.4164489554446904;-0.3044392541849795;78;1.2343793525720543
147;-1.3467216451614747;1.0440547482967275;-0.8609077392399999;1.6041273521527046;-1.3017096879986387;-1.301711464960517;18;1.256637061435917
148;0.8869489666746069;1.4321173174738475;-2.2438828316952195;-0.3202183831057992;0.3915067446743033;2.367296070706874;22;1.1378444031853123
149;1.4543658367185452;-1.049247577628886;1.5402045624803284;-1.0392014851715108;0.5712399216118932;-2.997134149575828;109;1.256637061435917
150;-2.6344807091770357;-0.2965353570726539;-1.6138467697300536;-0.2755871605603605;-2.3776323819497103;-0.3467796075974251;127;1.2566370614359172
151;1.852418559246176;0.7544920808310533;-1.280372295761114;-2.1111640182363507;-0.4378632846314549;2.277761892109038;131;1.256637061435917
152;-1.9145001094474432;1.330606269823278;-0.5147579657767553;2.6090298660865114;-1.2604489789469295;-1.093621650487086;147;1.2566370614359172
153;2.513888490133147;-0.7377434658979766;0.4753449901334872;-2.2951495674569915;0.0986218056299141;-2.398988444925757;109;1.2566370614359172
154;1.0351325932765587;-0.0486038750083406;2.10404394589177;-2.900048401431386;-0.5132656598240705;1.6551524487143907;124;1.2566370614359172
155;-1.1661394766797923;-0.897981403801784;1.592337291460317;-2.8801230333950283;-0.8730676965565521;2.626796926195043;113;1.2566370614359172
156;-2.311119642840353;-0.3385079530916265;-1.3973639474514954;-1.6174559441481997;0.3763815820382414;1.982711790076741;59;1.2566370614359172
157;1.4803939176690972;0.422629878385334;-0.0222722116056145;-0.4204261824809844;1.7096605900687871;-2.273743125388614;83;1.2566370614359172
158;0.1548618821760744;0.0617154680712707;2.1840955084959828;2.2052387317571456;2.410369538809774;-0.9602154008751438;42;1.2566370614359172
159;-1.806403601519668;-1.1206617076515943;2.575634904881506;0.9802750082759728;1.5848177496443148;3.306348301684751;106;1.2566370614359172
160;-2.966964965519925;0.8059141118586944;0.9259597800500704;-1.45319504381661;-1.1083995668744029;-1.0535023620993391;68;1.256637061435917
161;-1.6925967048596613;1.276759154110766;1.301788437195134;-2.781183235309882;-0.6455536307676113;-1.5986917904380828;68;1.256637061435917
162;2.983575945734344;1.1849789764180083;-1.3607980837573947;0.649007758236364;-0.1916564170612037;-2.541993564062254;95;1.2566370614359172
163;-2.4513719050990463;-0.1021515033450619;2.1041727178028578;1.3063699181937642;1.1786148199048627;1.834704261270232;106;1.256637061435917
164;-0.606538170331479;-0.0742211277495504;-0.4583364707425874;-0.4962103599488585;0.9526352881167884;-1.674450928272316;17;1.256637061435917
165;2.0544836097597194;0.0214788051161645;1.94077689234424;-2.2695027236106187;-1.6828530952579284;0.3106290534882467;93;1.2566370614359172
166;-1.8935732177664908;0.3211740061804425;-1.0094925955641965;2.125742762306433;-1.5097707743028308;-1.9498503259450453;147;1.2566370614359177
167;-2.707024627979095;-0.0615176705711983;-2.4482865968197043;-2.094621928134345;0.4373737288468953;1.883583100460924;156;1.2566370614359177
168;-0.9091893043675632;-0.4595887964421832;2.3371781162448446;-0.3554737816123983;-2.013699735033113;-1.9660712659825244;135;1.2566370614359172
169;-2.621846773474543;0.4237555772167259;-1.0191480578173604;1.4879278211415383;1.2990696484986786;-1.927341583351882;86;1.256637061435917
170;0.6204040316777679;0.87621581810357;-1.3888459548174528;2.1260743594836136;0.3112501319373594;0.86084334674868;14;1.2566370614359172
171;-1.9439009489707249;-1.35375229418205;1.119154737991265;1.577669665087695;0.4347369952958324;-0.4467995417723774;45;1.2566370614359172
172;-0.2237852769437134;-0.0417578134392185;0.4013837079262748;0.6091673572769704;-1.5916302144079872;-0.908959820835204;39;1.256637061435917
173;-1.2010834711412244;0.0191631884715271;0.1160574381828097;-2.3677858871358453;-0.7332097602248339;1.4979314869380096;82;1.256637061435917
174;0.9600341971526452;-0.4153446256330779;0.215042359907929;1.2844847732691838;-2.8252166805288343;-2.7207513087801;60;1.256637061435917
175;-1.984196279906136;0.2225108105898852;0.6244128681269506;2.393407492903411;1.000280238381773;2.1500164689433268;54;1.2566370614359177
176;0.1761011665590292;1.6332224583993238;-2.206547468716096;-0.7278711056651817;-0.5495363937822734;-0.9790469053468048;23;1.256637061435917
177;-2.23036580640086;0.5179657537217097;0.4930014660049649;-1.8145912976790548;0.1097438045029173;0.2328425667978359;90;1.2566370614359177
178;0.9056028934573784;-0.0511496239386429;0.8453700173518818;-1.3992661317590098;1.0320519545335047;2.476062761321449;81;1.256637061435917
179;3.079952137870797;0.7987551250237859;-1.0192479743950926;1.017497463617868;0.1444689277685265;-1.6073373750000657;95;1.2566370614359172
180;3.246394445112688;-0.312991881159746;0.8631339649226899;1.2076000395518098;2.140237478554424;1.978602895704576;140;1.2566370614359172
181;2.434339274712324;-0.1839769249931663;2.3010183224526832;-1.922611411392656;-2.661991199825187;-0.1181079552578062;165;1.2566370614359177
182;2.0833856806839672;-0.441590329362284;0.1767619287939537;-2.3840288142238344;-0.381597568126271;1.8275637081685572;120;1.2566370614359172
183;-2.842344797673407;1.072201888790052;-0.4673996133812395;-0.4201201653855735;-1.6252391837782303;1.3046493285405614;138;1.256637061435917
184;-0.4712183726343759;-0.5638618493198387;0.6508518554098806;0.0916945269392751;1.0417718600136596;-0.6381550443389071;5;0.7692251993045965
185;3.188048095320572;-0.9337490934149778;-1.553243017606548;1.1857051072501592;0.6792671997627333;2.5868443698982224;143;1.256637061435917
186;3.158646324775908;-0.4463794967612294;0.4228194514128222;1.6962744200096185;-0.5079285486832577;-0.9541991793225404;55;1.2566370614359177
187;-2.7317006390208958;-0.561283959229005;1.8201899653914533;-2.225945768776384;-0.9444641630547308;0.1216183334938065;51;1.2566370614359172
188;-2.3738233203232197;-0.4145665555910316;-0.8993138824066663;-0.6293532251111256;2.2605140630240688;0.7113716754202595;92;1.074716358685748
189;-2.741735772337192;-0.2137038785977402;0.2966358928941601;1.581176341983182;-0.6961164841724419;2.4488415587804804;137;1.2566370614359172
190;-1.495830042579546;0.166956520424395;0.3564867799441681;-2.0877606304812084;0.8767522469232495;0.7174318148665996;177;1.2566370614359177
191;1.7727343653275205;-0.6817226327845114;-1.8601994428439288;-0.9457375037674932;-1.533044803658307;1.4845319634390317;108;1.2566370614359172
192;3.2101841245128844;-1.2849015494887752;0.2942863315845334;1.681504699904688;-0.3082673871779157;2.650855131284673;73;1.2566370614359177
193;-1.812621667448707;1.026776350201747;-1.1713662756582548;-1.2874916161094143;1.021962629598933;-2.1781801519125064;142;1.2566370614359172
194;-1.9405364088427768;0.2128991717216426;1.9588425017348243;-2.01617403946217;-1.3027063659851803;0.524446044305797;187;1.2566370614359172
195;2.384908323783746;-0.3714196853910006;-1.9811301185138277;-2.018901970208914;0.5263562585695541;0.7621159416820893;141;1.2566370614359172
196;-1.7345650763545537;-0.452973579550712;1.665388134118528;-1.443335242752556;2.177223201332542;-2.562991516186984;105;1.2566370614359172
197;2.5027167247919886;0.2281970093652472;1.1010429789788267;0.4450014809862216;2.105716067565238;1.6722603604061466;180;1.256637061435917
198;2.489231273394465;-0.3889794680723699;-1.0434205172133029;-0.6046061808945103;-1.9353363432630888;1.2981628437272426;191;1.2566370614359172
199;2.58881386281113;-0.9140915531461782;1.996079374860088;-1.9681135223870696;0.6679212168653533;-2.0363340664405984;109;1.2566370614359172
200;-0.847336517289663;-0.809907418763097;1.4334837209270284;2.4529689156863204;0.4569007681973775;2.4064957303668857;54;1.2566370614359172
201;0.1521716042533614;-0.7998940775013763;1.9573157668935448;-0.2350191194137544;-0.3562414664711513;0.998658915862104;123;1.256637061435917
202;0.9889898672606672;0.0897201358792961;-0.9366116720111568;-1.5545925825993028;1.4342356155799958;2.268198390154581;61;0.814390129807281
203;-2.288642648811588;1.2696162925319046;0.33361805415664;-1.2704429732987634;0.5319460856536089;-2.4661302141236283;142;1.256637061435917
204;1.3185033038484832;0.1418271846631134;-0.74399044838043;-0.9443469829411592;2.426173558294605;2.5409600899172284;202;1.2566370614359172
205;-1.6945580441040642;0.7745343550674599;0.479415211960578;-2.42036054173388;-1.428725756306623;1.8806826904794989;173;1.2566370614359177
206;1.264231622251132;-0.5001501175826512;-1.604225732162691;0.4621419683126032;2.5298559184431584;0.0032769431585593;146;1.2566370614359177
207;2.791420054174514;0.1045815468612925;-1.7036966413483776;-2.51104226924802;-0.393357230951232;0.6129065816325623;195;1.2566370614359177
208;-1.619557391689512;0.3055545401218378;1.5112977805171082;0.5309297639466699;-0.1866685451932547;-1.9033380681030416;119;1.2566370614359172
209;-1.1373590597975296;-0.0648589041883714;-1.0071493755795624;-0.7854217708289377;1.7933666529214185;-1.2210083588264595;164;1.256637061435917
210;2.743522879877306;-0.5577199702060216;0.9247417321947072;0.53619403598573;2.883918588094681;-1.4007850955326742;126;1.2566370614359172
211;-0.3440495864535865;0.41007290151527;1.473701508376776;-1.0642451462726117;1.2284108227464827;0.3505798164367043;128;1.2566370614359172
212;-2.0232731596563447;0.9182400942570365;-1.176748816544934;2.262571008556928;-0.9953139803712696;-0.2168679387525861;152;1.256637061435917
213;2.2525913985713006;-0.607910625509541;-0.1289384308739103;-0.7992552245801406;-2.5561724315068477;2.850930194750738;122;1.2566370614359172
214;-2.3555625995880423;-0.4894048734865941;-0.148648160210078;-1.139308006923713;0.2385901174768772;-2.275970395135249;87;1.2566370614359172
215;1.6681252470749062;1.255593543391472;-2.083485015532314;-1.0459130143801787;-0.2491567412392014;-1.533814585420347;98;1.256637061435917
216;-1.328201328945867;-0.0771160933479434;1.373590372511468;-0.5169700073375818;2.2287674736860983;-3.134639190856277;196;1.2566370614359177
217;-2.412280088746004;0.2258968766556919;-0.5390658289686965;-0.1766409122542274;1.2604019556460433;-1.597554372631031;86;1.2566370614359172
218;0.6837117274356562;-0.1476468807261367;1.0726978652722092;-2.3055290978047207;-2.400867988495839;-0.5262870083152741;93;1.256637061435917
219;2.324128261861252;-0.718844064345757;0.8786410409952713;-1.528686232810608;-2.6594260570473365;2.9122951230514715;213;1.256637061435917
220;2.23256417728695;0.5527175090719469;-0.210485140084644;0.3954558227037157;-2.5809258652302995;-2.250293713125635;100;1.256637061435917
221;1.2582916372761483;1.2319594877563504;-1.889766415976784;-0.4545408693935889;-1.5942401091719705;2.2040580286409184;16;1.2566370614359172
222;-2.499905266290112;-0.3250588701326791;1.7683201541337303;0.3485163433909419;-0.7283997192228869;-2.020142302674341;208;1.2566370614359172
223;-3.1011138196177725;-1.1107837017468205;-1.4510319190205507;-0.689615229896175;-1.9695982874984392;-0.9246811022882716;150;1.2566370614359172
224;-0.001316648870302;-0.5929408252027444;1.7271643872272506;2.7795565793800496;-0.2022548038764642;2.8411434954150208;200;1.2566370614359172
225;-2.0052544165867783;0.7740678199527594;-1.2022525710556575;-1.4419559212519928;1.5922450410200644;1.9749300165432613;92;1.256637061435917
226;-1.3042816636725971;0.3106281283788688;0.4201953165430188;-2.667500138708448;1.2111788198941638;2.672607865151217;66;1.256637061435917
227;0.6861646204952743;-1.0500888177749044;1.7142783574231224;1.1837278003385605;2.8614059119733097;0.6491719707897794;46;1.2566370614359172
228;2.5982288904205086;-0.737930661489663;1.4201411538573618;-2.191952794983449;0.7741837696893435;-2.7579628455636214;109;1.033782409913345
229;2.920375236725371;-0.0212219537814345;1.131847554825887;2.28908125632102;-1.1704031681196854;-1.1746333836021765;186;1.2566370614359172
230;-2.9313584240665778;-1.1336292901877254;-0.7844629316373989;0.0971647358243946;2.379888728582387;0.2686858988802461;188;1.2566370614359172
231;-3.16751607767108;-0.4443946256909163;2.317988426216749;1.5472851331691475;0.6139889428504779;1.1090430493663774;163;1.2566370614359172
232;3.054146693070005;-1.084116519813458;-1.2030433441979391;2.3357806469857936;1.1838588543167528;1.5956286318356572;143;1.2566370614359177
233;-2.767919148764577;-0.6105230969702568;1.0563747437324813;-2.769483055299164;-1.650770459915463;-1.953420490290792;129;1.2566370614359172
234;1.9023096383044296;0.2059860425532066;-0.7350293239346638;-1.1553300912148972;1.7466221326857498;0.9876987656812688;61;1.2566370614359172
235;-2.685281263964475;-1.355181442078892;-0.9224137104754976;-1.2913665321771175;0.5337339243694911;-2.385096245353304;214;1.256637061435917
236;-2.390471817888502;-0.4717118650058767;2.0212034439803985;1.5029360896588555;-0.7081873411473122;-2.405642593926544;222;1.256637061435917
237;-0.9893926024978896;1.515199702391397;-1.838258817162908;0.6708696565448801;1.149544592091416;1.828606831956924;41;0.8824882501982725
238;-1.323621563166792;0.817780570235736;0.0725260686593116;0.8902476710026006;2.3229605266989166;-0.9224946039034088;69;1.2566370614359177
239;0.4293343827628043;1.2108991274104586;0.0716241059921021;-0.0915273580770224;-2.2631632421442247;-0.3999713434983813;6;1.256637061435917
240;0.3306448323335534;-0.5069886735788351;2.44685458068787;2.288601875938584;2.463389469289912;-2.030733873869968;158;1.256637061435917
241;2.896859924694339;0.1380507268567524;-1.1206529293744434;0.8425904519305154;0.3297579967189856;0.7894830211934067;48;1.256637061435917
242;2.129768419082799;0.0264913741280644;2.159424140819108;-2.1033125052748742;-1.7690765428187731;1.5315235964222358;165;1.2566370614359172
243;0.1490748000118505;-0.6536500890698551;1.906356394069042;-1.0172747494685856;-2.420044616812352;-3.059919706020388;135;1.256637061435917
244;-0.1574791439773631;-0.1383269783004119;0.87389723964141;-1.797307255640817;-0.7429522006872646;2.82130095601924;82;1.25092288581879
245;0.0284081814025234;-1.303844292818508;-0.301665869634049;-0.8263121347495107;-1.3347466084525403;-2.18728316736274;62;1.2566370614359172
246;0.8624037966307385;-1.1967905800155751;2.5537126954067446;0.58377385806005;3.2958377098734664;0.1264585481033314;227;1.2566370614359177
247;1.6303949389523194;0.5041258099774897;-1.8876047565314864;-2.673298355759896;-1.250767516862509;1.929022188304964;151;1.2566370614359172
248;2.186174603868412;0.1687172309376785;2.013930206515784;-2.229373542255289;0.9803744502190757;-1.756439451919955;199;1.2566370614359172
249;-2.3772857837210117;0.4893073949882051;-1.3449185387145932;-0.9244679269449996;1.8633101330981643;0.1468281092755222;188;1.2566370614359172
250;-1.628990698067993;1.0486942487992048;-0.0186429562888139;-2.447340238933462;1.5622574853944986;0.5076550845741515;190;1.2566370614359172
251;0.1000474116478444;0.0393460190032378;-2.6031081889027505;1.2042317076407276;-0.5319455252734842;1.8657661474479657;114;1.256637061435917
252;-1.7512377708006897;0.9733323667744328;-1.8702010724761684;-0.1376857628894562;1.6892662157361698;-0.0195486236487271;249;1.2566370614359172
253;-2.6173185806622303;-0.1955271124266491;-0.2678147377586957;-0.6907682912007285;2.0718881321960763;2.054594724119969;92;1.256637061435917
254;-1.6071076922448595;0.1918611540297484;1.4138584335818751;1.8053678356914489;0.0328749532704665;-1.2710600591011407;119;1.256637061435917
255;1.2162171425848594;-0.5965373619520944;2.4358029189712784;-1.0582077446764908;-2.036739365707901;-2.969531582291273;243;1.2566370614359172
256;1.492105475478526;-1.1395962407832994;-1.6635581157335548;-0.5078766338420274;-1.33492205080395;-2.055010779928179;24;1.2566370614359177
257;2.4063381604710505;-0.9859560958714988;0.2643200480906815;0.64080783434216;0.4619745706636731;1.8966100283898024;73;1.2566370614359177
258;2.333849055133734;1.2265101417778412;0.589518531072436;0.3427119246368774;2.608137487629179;1.843851754385842;197;1.256637061435917
259;-3.059751285411328;0.5351407797605413;1.16818900375697;-0.4792402085977967;-1.7223308918078617;-0.7172963002243773;160;1.2566370614359172
260;2.9673618531327017;0.7490317031958879;2.140465926058581;-2.503615040758058;1.1802333166532062;-2.464221229543024;248;1.256637061435917
261;0.4740794110626639;0.4058559811848759;-0.8514912648352386;-1.6076356264618137;2.789531483839317;3.0023022144364857;204;1.2566370614359172
262;-0.3269691737992812;-1.4748396441123093;2.5382831351194084;-0.891199352725109;-2.635504353252004;-2.594605571143344;243;1.2566370614359172
263;1.5883310822959502;1.1335229088357457;-1.75550114125248;0.8611213181365793;-2.6548957830995543;-0.4268529398225903;116;1.2566370614359172
264;-1.0936268800664828;-0.0708459227799388;0.9070552714532284;2.2594969066844355;2.642030344430009;-2.1516865480757428;112;1.2566370614359172
265;0.1059432286454734;0.4162208336778855;1.3689813929556394;-1.1876296658665002;-2.758945053138514;-3.0573927948559056;243;1.2566370614359172
266;0.0061320536374678;1.0718139209473785;1.439450262643937;-2.6664153329200238;0.9330839562776112;2.2810918325877783;66;1.2566370614359172
267;1.2405501687104403;-0.0502657906951497;2.222539611119779;-2.256177926378136;-0.5605399370230869;2.70686167340798;154;1.2566370614359172
268;2.3802238136100025;-0.942996645084476;-0.5597107728466786;3.044365549461271;0.7490412684709935;1.599389394093751;232;1.2566370614359172
269;0.7115353383960595;-1.022001943548808;1.60136379849722;2.737045996894475;2.15745707752703;-2.4298191249148604;240;1.2566370614359172
270;2.5912128423620326;0.4676049689612839;-2.4426960891816885;-0.7268778807222066;-2.0178994507181365;2.259062098805593;108;1.2566370614359177
271;-1.4824581436736728;0.5725544622368616;0.866964525526573;1.48480732186156;2.048839242376668;-2.3973611150925898;264;1.2566370614359172
272;0.5552917574550096;0.9167219043697976;-2.058820083728925;1.8345159347266653;0.6565031030322487;-0.0984194380959857;170;1.2566370614359172
273;-2.6139035813004043;1.1169730801373683;1.0267427928669963;-2.629168030014746;-1.0050961037257524;1.5740133629373816;205;1.2566370614359172
274;2.0029305482856725;1.4941946424150752;-1.5807461353913752;1.7231514238151455;-3.067598156277288;0.1503830808621574;263;1.256637061435917
275;2.234775757272762;-0.1163614904541316;1.3667419742342368;0.3864476875690174;0.9789859346009404;1.4599434110866067;197;1.2566370614359172
276;2.619343107799292;0.5411987234315545;0.6318422440321549;2.7663751346494005;0.8597775335337628;-1.5159716437597683;94;1.256637061435917
277;0.7069551257507077;-0.5103408695778123;-1.3341558442722874;2.6671442287018987;-1.0532632745065138;-0.968757201666413;99;1.2566370614359177
278;3.038347775908023;-1.3568314759755975;1.3487249777897805;2.279644976727893;-0.1084916872771607;2.464007387097289;192;1.256637061435917
279;-0.2067223995793939;-1.4114281039454917;1.3151779623507531;-0.8662322598895867;-0.0333189448199387;-2.1804155588165344;70;1.2566370614359172
280;-0.0427013791517625;-0.8503414620409776;2.4150094402777;-0.1189642960515968;2.526351546644153;-0.9897122045137864;144;1.0592528868802935
281;-0.3664879409528995;1.165832926013967;-2.3482697786621736;-0.9668755278415128;0.9359418950793896;2.416003682736827;41;1.2566370614359172
282;-3.055166847181125;-0.1154778303313843;2.2982201362455243;2.6341895589038;0.1020845837205233;0.9885025688346344;231;1.256637061435917
283;-1.9501124694680567;0.3943111500021659;1.3695012964988371;1.060211407246086;-0.710947093266393;3.0390790076298293;137;1.2566370614359172
284;1.2073573037777958;-1.065623131058676;1.36702260529499;1.832297142742988;2.013582847791312;-3.091036484727503;269;1.2566370614359177
285;-3.103397238259781;-0.1229282126498681;-1.132214889326013;-0.7099238904817884;0.9335329905226256;1.0142679947378852;92;1.2566370614359172
286;1.875461708286701;-0.5421845350029332;0.3727510291124181;-3.103462386594021;0.7643273735997039;-2.2369834595165385;153;1.2566370614359177
287;0.4247030930281482;1.0638310497638404;0.2499845168576482;-1.051453210122424;2.218406443946555;-2.699709896188636;83;1.2566370614359177
288;-2.283737195288617;0.215162038154241;-2.013737992592748;2.5757440191307657;-1.856724844370777;-2.2401659509472136;166;1.256637061435917
289;0.13485459612506;0.3472035479594564;-1.7821322256736585;1.8000448324776537;1.6566083971990626;-0.1063637538507469;272;1.256637061435917
290;1.7781454064604114;0.0212328774348674;2.0175521137985943;0.5121918635643211;1.0495905393565046;2.412488827876436;275;1.2566370614359177
291;-2.603559704570845;-0.8464658092309104;-0.9011460171199202;0.0664892114855597;1.8292593719186196;2.40360770439434;253;1.2566370614359177
292;-2.0431723541440205;-0.9539850317619384;1.3297134045263506;1.699682462748994;-0.63965297368594;-0.8525456227698375;171;1.2441199453941614
293;2.0322986885086425;0.3892052742453327;-0.6846202367788013;2.269627509653058;1.5071164468750096;0.9784924600408932;43;1.2566370614359172
294;-1.4363949848973412;1.0446097419476983;-1.2612501378332706;0.2244610234291544;-2.243612121911554;2.7718981177674333;49;1.2566370614359172
295;0.5129280103775873;-0.1707093814630331;1.503589891131596;-0.3721945413446093;-0.8665337455442229;-2.356309269610227;70;1.127603334371808
296;-0.4271544825025433;-0.6489926876101536;0.674216259566676;1.1228593637501778;-1.290759896598138;-0.0486090487037463;172;1.256637061435917
297;2.2191339254755134;-1.5501351370109595;-0.0794202546396206;0.134849393001614;1.2211687795854649;2.4212681086361023;257;1.2566370614359172
298;0.7761637843913992;-0.093490479186705;1.427776922180665;2.589988838861848;-0.223937249843739;2.067081920991746;224;1.2566370614359172
299;-2.1115603470145223;0.03149232644235;-0.0614455282800551;2.687427131611924;-1.0698674860235644;-1.7500870547124652;166;1.2566370614359172
300;-3.273924397009422;-1.2015698661152128;1.8669465301259067;0.8318077404919898;1.1179780681357026;1.267623940936592;231;1.2566370614359172
301;0.7634279173290043;-0.1179872799993063;0.1240511403939943;1.058817468771808;2.8114104347895568;-2.844889911408661;80;1.256637061435917
302;2.340336489689736;-0.623646284513107;0.7481341831961984;-0.2284477541704285;1.142682200858614;0.7366956646878926;275;1.2566370614359172
303;2.447966021914888;-1.4990379768974516;0.1223584635504798;0.8695474491783544;-1.5660129289208786;-0.8423544028715987;55;1.256637061435917
304;2.24340486509628;-0.1855836039544968;1.7482588838999629;1.969492547780124;-0.3882721486026264;-1.172567679228799;229;1.2566370614359172
305;2.157248143901493;-1.149415248202773;0.0970637643903279;-2.2841328454847307;1.0285504846713485;-1.7394466871995653;286;1.2299568250332822
306;2.865072572488154;-0.7430142692128106;-1.177122654684445;-0.2664549964823645;-0.8229945882605634;-2.146759517629481;91;0.7667017976556871
307;2.1116617151678136;-0.2842456317918886;1.396818895232835;-0.1751213342421706;2.6922806791804703;2.2617698861510824;197;1.2566370614359177
308;1.5405001128750653;1.5393505207708915;-1.855435593880392;0.5282202018202912;-1.7003477210270523;2.2860660257069614;221;1.0766210736341977
309;2.4746790995801837;-0.6766361773013682;-1.2298939650645069;1.8490661746337247;-0.4770899578884263;1.781730317653194;143;1.2566370614359177
310;-2.0455418261458003;-1.2106294131473163;1.715057920381128;2.6192525097243835;-1.2933658529764869;-1.155571620888877;292;1.256637061435917
311;-1.3502696868106443;1.739099268725689;-0.3185766702368707;-3.0685179485867566;1.1698490840195717;0.1268627051515072;250;1.1528892674861624
312;-0.4138130417757517;-1.5799831084177796;2.832178870661742;-0.7051152540315148;2.171960354813919;-0.9127699134732414;280;1.1485718568936547
313;1.9635960047833905;0.9341776124673522;-2.728245462231247;0.6625311574891571;-2.2015403470328367;2.2325704743579737;308;1.2566370614359177
314;2.9844507227657666;0.3248101424128777;-1.5907607628452425;-2.0261591216447408;0.929451094616056;1.889324920191967;131;1.2566370614359172
315;0.2905773242961125;-0.0747341002166912;0.2042226604391378;-1.0943858292121815;-0.2033817436017049;1.600356358486259;40;1.2566370614359177
316;3.2313289163474725;0.1767699178377108;1.524701488014604;0.203536635637517;2.3880359325231586;-1.10890444079088;210;1.2566370614359177
317;-1.0421986490980415;-0.046302705857553;-1.3692890280669665;-1.3965565569816258;-3.1082017861957927;1.420379176641493;102;1.2566370614359172
318;2.4566603894144508;0.8042065935955407;-2.278747792810885;0.3783463332531904;-0.8538565278320037;0.9387065489937908;29;1.2566370614359172
319;-1.7639882357868162;0.6742309359387412;-1.8816274369224;-2.141314717619814;0.6054950572505108;-2.3916120607037903;193;1.2566370614359172
320;-0.8317745496832989;0.531577381689909;1.5016679637711865;-1.5138809695932938;-2.087395506587879;-0.9968008159201204;76;1.2566370614359172
321;-2.267149744457843;0.1169688278156312;-2.267088218897996;-0.2912446265651852;-2.017214641867091;0.4995941048332319;150;1.2566370614359177
322;-3.194611706527246;1.1581928507334105;0.865681550796916;-1.884187421775695;-1.433106896947671;-0.0007010462586668;160;1.2566370614359172
323;2.369585949002753;1.043005302254846;-1.2023161500733377;1.425667637814526;0.7863599288176013;-2.24193766457793;179;1.2566370614359177
324;-1.3262349974048795;0.248410783563803;1.2952750826208748;-1.9176159831304047;-0.2518148463668305;1.5461971272586943;82;1.0516687606307578
325;2.0399067238146813;1.1859226562189984;1.4687426223601798;2.894798711094452;1.1834115482609406;-1.4379498656508918;276;1.2566370614359177
326;-0.9139485690148272;1.2055858221216071;1.0489680451006973;-1.291172030228374;0.2894291010946933;2.9315110280609424;66;1.2566370614359177
327;1.0143175870550047;-0.0076251063972791;2.1750402999802865;-2.302718145979377;0.9431812788504564;-2.133363835947684;248;1.256637061435917
328;-2.931009611711008;-0.4367244412814424;-0.5609885733671048;3.066564727383408;-0.5340514196545496;-1.6605033632078765;299;1.256637061435917
329;1.7254617828150307;-1.09833890406276;1.837201566620637;1.5106660483837584;-0.7596767530307177;-0.8241778225060306;304;1.2566370614359172
330;1.3618959411504323;0.8973699088045993;-1.5953648731644;0.3533138565834045;-1.9232016061307031;-1.5299210354068251;116;1.256637061435917
331;1.8206950364068368;-1.0144502403911095;2.088912863770668;-0.1585380894742847;-1.969444581601368;-2.645764352274126;255;1.2566370614359172
332;-2.259039968941291;-0.5010676764604125;-2.141512607944524;0.3214508670413346;-2.495865644193853;1.2590873774282765;321;1.2566370614359177
333;-3.028013515270891;1.2489493143439694;-1.5088757621900517;1.0701147476333763;0.8526387115001755;-1.581626371211939;169;1.2566370614359172
334;1.706490337904206;-0.6104787763496153;1.6376454376306144;-0.7528063664374465;-2.598212422879203;2.8483208058705944;219;1.2566370614359172
335;-2.896403003377465;-0.2830189047358525;-0.1641638149389421;0.64646126009107;1.8900860165652984;2.944622369758525;291;1.256637061435917
336;1.8386115917617945;0.9060909433842246;-1.0560285432046947;-1.4389397950513088;2.072806034483807;0.0960365593503123;234;1.256637061435917
337;-0.0322286572826251;0.1350714344229806;-0.0941360088547504;-1.2313349993655458;-0.4636935197855102;1.6879173194892183;40;1.2269738338891525
338;1.316052752492081;0.8214030154767282;-0.7375517577253834;-1.8071809385580624;2.8990281809817;-0.5197758150935085;336;1.2566370614359177
339;-1.8204225706292765;-0.87665342466315;0.9551935633757882;-2.945252793957577;-1.5514634977815884;-0.2201989979510447;38;1.2566370614359172
340;1.3595550346223146;1.360425928448381;-1.5140882769526232;1.2561912649703664;-2.09443002926695;-2.2465783275943307;330;1.256637061435917
341;0.2880749660337051;1.36688725574445;-2.339281717694086;-0.3577783085387127;0.0541349449763347;-1.439781844471895;23;1.1583624550261145
342;0.2758376235101794;0.8643185870934164;-1.9924379280843183;1.521725260641051;1.895321453041972;0.9487089123204014;289;1.2566370614359172
343;-3.1816102320046937;0.9430503226104848;-1.6857962921946257;-0.7586989530287569;1.2488152870264595;1.1830130430527186;285;1.256637061435917
344;-2.4896960128353025;0.7928049109571109;1.1351514717893392;2.3965670724870045;1.7904167891784226;1.8135767415772064;175;1.256637061435917
345;1.3277357330696564;-0.1894323739416585;1.0785499431120251;0.8409396263588644;3.2145464684270424;-3.211675423115772;301;1.2566370614359172
346;-1.2261059181473126;-0.2415724732894516;-0.8215176375492828;2.218720609174023;-0.5465386359789557;2.7954803736991165;52;1.2566370614359177
347;-2.047299256006973;1.4070247471879815;-0.2584713966349848;1.2729959309570218;-1.557560514483448;-1.9486606784648344;147;1.2566370614359172
348;-1.5663662254649713;0.2715038270748966;-1.7423871984252368;-2.035602691210364;-2.532427241724396;1.989839913854108;317;1.256637061435917
349;-2.779164732884651;0.0355978585703264;1.166101287626481;0.968897600797192;-0.7582799015013306;1.8316991109353495;189;1.256637061435917
350;2.7874794813988464;-1.2569482822424165;0.4845231356222005;-0.7718081835689101;1.0839737428743006;2.527470343812753;297;1.256637061435917
351;0.6611554036949738;0.3805049642780141;-1.4911406971648842;2.74491504614298;1.1376854201009576;2.497322862727604;107;1.2566370614359177
352;-0.8014317229255845;0.2940598250243351;-0.7973867511002242;2.730973271958057;-1.435048945083409;2.551654793631889;346;1.2566370614359172
353;2.4253970185400826;-1.3483194997774424;1.7574488913068695;-0.2604041716386056;1.3039282054979866;0.7685150777302259;302;1.2566370614359172
354;2.3923972189893066;0.6564587436956726;-1.2606208046163123;-0.6088136921863817;2.4611286016145177;1.2125968311350863;234;1.2566370614359172
355;-0.9659836727537884;0.9040159752255544;1.4118979131466152;-1.1004818812806263;1.456492093569954;2.249557284041286;66;1.2566370614359172
356;-1.4940543009317724;-1.250664496278616;2.1375674862611214;0.2339953305419254;2.1910100124295804;2.716120876509115;159;1.256637061435917
357;-1.2043534168112937;0.9911121118346418;1.5529966352998872;-1.0983294958478431;1.8872176349451093;0.1057705358149135;211;1.2566370614359177
358;-3.305285510469488;-1.572128854638466;-0.1963272677779091;-0.589673448976602;2.694346432051882;-0.3062049357393012;230;1.2566370614359172
359;-1.753834479927658;-0.5566201215365371;-1.3621143339118502;-2.0637980066499004;0.1662497935323019;0.9945934303676162;156;1.2566370614359172
360;0.3568093239733935;-0.0825955696006523;1.1444755227138708;2.530386871618641;1.7188612541543806;-2.78619061165825;269;1.2566370614359172
361;-2.134098931339275;-0.6738161781952837;1.9066580203472057;0.9178260824276276;3.1259171970460136;-1.678005394378019;112;1.2566370614359177
362;3.067178949316408;-0.1653578162642587;-1.0859463554966968;1.0586706941632718;0.9377705885038392;-1.7256097402797068;179;1.2566370614359177
363;-0.0132331210166869;-0.4682223476252071;2.23957235562654;-2.660649847752144;0.7154918087250336;-1.7769870076563197;327;1.256637061435917
364;-0.1213505358846052;1.130895243153408;-2.720490839442123;1.3646505718069462;-0.8766799093774504;2.2903662534869405;251;1.256637061435917
365;-1.887237700747274;-0.2618600074794517;0.2151166193648361;-0.0970121476934436;-2.085637279755504;0.4635184098636281;21;1.2030852985207374
366;-2.4670387605056234;-1.1658218145987431;1.702323438420818;-2.7900593795524866;-2.2533818198896816;-0.269478531792097;339;1.256637061435917
367;-1.815074102759372;1.5759568026785906;-1.4139970560134238;-0.2522074752864606;1.8998250534394596;-0.9923451413056888;252;1.2566370614359177
368;0.5347824859040805;0.7780449519986831;-2.7126329386496093;1.1999280677305617;0.2644327248368091;1.501095348501523;251;1.230401560212658
369;-2.003551740461804;-0.0956038791824097;1.5173858430503595;-1.5043276375020929;-0.9070941894522908;-1.109259204698483;68;1.2566370614359172
370;0.8552209771249263;-0.0115859045697077;-1.3367579018005382;1.1220088958159908;-0.6124492401485702;-1.1913912330088066;1;1.2566370614359172
371;1.7312014701769003;-0.6247237185774418;-1.510508395474188;-1.3568621463771149;0.1027018651137553;0.2637420450314169;195;1.256637061435917
372;0.3045864187925184;-0.2455250863569966;-0.1771620730388738;-1.8999292058042545;-1.3864414730036951;1.812268723531567;337;1.2566370614359172
373;2.3778047048394213;0.9652724899900328;-0.9528801445314252;1.959792568212015;2.32898836131751;0.4451310937955733;293;1.256637061435917
374;1.4928065335222604;-1.2114955153405214;-1.9542447809954848;-1.1132720252000727;-2.031246287873857;0.5175775975617487;191;1.256637061435917
375;-1.2643461176581592;0.2046329966641792;-1.2456631432252352;2.007710612668183;-1.022226552201618;-2.8784087082395944;166;1.256637061435917
376;-2.012321965349877;-1.5015339286744722;1.3562395818997444;-2.9968608418965417;-1.4827040561703653;-2.16423653166578;233;1.2566370614359172
377;0.8565385006991595;0.8910437762984086;-1.7599198938404492;1.0018626901840952;-2.994472678235901;-2.659614026099608;340;1.2566370614359177
378;-0.5551425530383954;1.1787500029399622;-2.864148636339192;0.2530234889677649;0.4493408596925571;-1.607034529531151;341;1.256637061435917
379;1.930986794574833;-1.1006373837975527;0.0126675952669193;-2.2320333608170126;0.975701158479839;-1.163971369651851;305;0.6303772206432785
380;0.5028347851162968;0.938029862345528;-0.5525134099000433;0.3114273440239683;-3.23139418574882;-0.30054565080108;239;1.256637061435917
381;-3.1957734040014363;-0.8161611084489059;2.3261196619684257;-2.806512370915554;-0.6891328116833534;-0.678753002444785;187;1.256637061435917
382;2.139106865426005;-1.610932921743201;1.5187040449911058;-0.2232896187626784;1.1012494301667868;-0.3842006571152628;353;1.2566370614359177
383;-2.715792413033966;-0.2493785949025803;1.934917483126927;2.835789632855683;-1.5474235443931692;-1.3703409291744355;310;1.2566370614359172
384;-1.7702308138306806;-1.7001902212909838;1.5209972332233106;-2.045738960698177;-2.532243273260426;-0.6177501389258603;366;1.2478140124820336
385;-2.7792224668492747;-0.5393771947518324;1.0681102556716406;-1.3271360935307843;1.3423644241781856;-1.87492743336021;105;1.256637061435917
386;-2.6926441847325364;-0.7894501246608865;-0.7034915680500707;-0.4102973917703476;0.9490685717260854;-2.4531658753157406;214;1.2566370614359172
387;1.7406802135035946;1.1885547585615428;-1.985268132569132;-1.24585035563476;0.6537502782854742;-2.373168920558652;215;1.2566370614359177
388;-1.5494894973992424;-0.0018583022847698;1.627884997366761;-1.3995822795693984;2.500802948627415;0.1401086064443573;357;1.2566370614359172
389;-3.080199589297392;-1.3170963985369166;2.440319825261789;-1.9677173744251188;-0.1367582285146054;-1.2201464168016904;381;1.2566370614359172
390;-2.389678287235122;-0.1556272422795731;1.4708875049035903;-1.5637348212310245;-3.078282080152697;2.763542846174889;130;1.2566370614359172
391;2.3449031865502024;-1.0550608105225892;2.140978665154322;-2.63921315364585;-0.279334859771568;-2.398421570403323;199;1.256637061435917
392;1.7514694992556883;-0.8502303804750846;1.7032328007262174;-2.7193683909727207;0.1876859019432847;-2.736900593643861;228;1.1968058122169465
393;0.6191380739245489;-0.5783020256052787;-0.4090452854876153;-0.4818198440994036;-0.2051082370572267;2.763002301432677;96;1.076731417934946
394;-1.4543593026939257;0.2880326384986681;-0.4874583319160324;0.6254378468386244;2.4699698497622906;-1.858492981855472;238;1.2566370614359177
395;-0.7902427676856102;-0.3473278493040996;-0.376928707696379;-0.0958660234117442;-1.0248825563280648;-0.4980933809590276;39;1.2305840364285456
396;2.3377027654998868;0.7576006285760121;-0.4953324727359741;1.6582000708233549;-0.1999200410991455;2.3423331683653297;48;1.2566370614359172
397;-2.0564863966770126;0.3035789919484052;2.1872501456881364;2.797143724245084;-0.4303682112966143;1.2779694303715277;282;1.2566370614359168
398;-1.066925064954688;0.5959887998988498;2.036691747279735;0.1985532887417395;-3.0998830182003982;1.401350511736208;132;1.2566370614359172
399;-2.094029155807717;0.6412742930959543;0.8296158374110765;-2.0932596281680773;-2.8555631813975912;-0.880526942674135;76;1.2566370614359172
400;2.7988156551314685;0.4879953295930735;-2.178267982379265;-2.3902223008136194;0.9383292626457256;0.1939967852778489;195;1.256637061435917
401;-2.4454939738341928;0.5489363601782161;0.3844510786714558;-2.5778339099362904;1.5822360152224149;-2.185140441217485;97;1.2566370614359172
402;2.5379520022724686;-1.3746282699678911;1.895441216197035;-1.4507946752027048;-2.904513729380425;2.970135677170811;219;1.2566370614359177
403;3.0295110803037746;-0.0041168043707703;-1.9328305326435469;1.82803770717688;-0.7730175006897926;1.2950263570140486;309;1.2566370614359172
404;2.153416086450368;-0.9951913670395364;-0.8588732295894057;-0.4297240096236725;1.4834956350966306;2.942564411851197;297;1.2566370614359172
405;2.384708879882365;0.9330670485376912;-2.0358226920993827;-1.4929025208377198;2.7998144085880687;1.285441461409107;354;1.2566370614359172
406;-2.1293667984335163;0.6897067850904111;-0.6221959477753323;2.03364918892012;1.5079516295771822;-2.803044536671208;169;1.2566370614359172
407;-2.0402175573751475;0.6874063990148909;1.0406530484125305;1.5203102223392233;1.0269460037709222;-0.7174562046312186;121;0.5612773291320808
408;2.251515690120926;-0.0573958772305884;1.3482082665618245;2.4921240737924384;1.837576486711157;1.684086758069457;140;1.2566370614359172
409;0.967823957330216;0.0653735524959726;-1.038326788297688;-0.0968685735550895;-0.0549692647676009;0.9416895830181068;13;1.1301712358179496
410;-1.207556375996913;0.5218876392060561;0.9580094785209508;-1.43699201598307;2.451658833732244;1.9943188749735263;355;1.2566370614359168
411;-0.50595680354872;-1.1373922091556672;-0.282907794966975;1.9204546323653973;2.306589664583768;-0.9442322623673116;69;1.2566370614359172
412;1.399985728105699;-0.8239046047472068;0.2319395431768956;-2.635380696276665;0.2915195173196103;1.1592613399492262;182;1.2566370614359172
413;-2.426046745701733;-0.0913390483153114;2.4411383810636624;2.4556133475421698;-0.2421026583166151;-2.768979088608376;236;1.256637061435917
414;2.412344071153845;-1.6763325927156558;-0.5072639370445524;1.2897475537767638;-2.072621747288192;-1.688988568209295;303;1.2566370614359172
415;-2.0539873208297688;0.2262369224849975;1.2568684954590528;1.6476987109826562;-1.0081651658956357;-0.6469101385957661;292;1.2566370614359177
416;1.0632407771468229;-0.3500577496678549;1.2797256583011818;0.2601676842842346;2.396696204806979;2.6919575995491893;307;1.2566370614359172
417;2.563341633580764;-0.0940361932179962;2.050939333922132;-0.2551484458277183;-2.2019487202681747;2.796076696770866;334;1.2566370614359172
418;0.2673911986149142;0.5694430458868288;-1.308865732134079;1.930195844561141;-3.231415924252484;-2.5746391670015045;377;1.2566370614359172
419;-0.1579383255579411;-0.7453067624231091;2.1972499184405;-0.7203768747937104;0.0800668373535516;1.9968990056535616;201;1.256637061435917
420;-0.6900564043277663;0.3206444522550899;-1.0504308370232422;0.2464108474999597;-0.1473258508023617;0.5946394178332481;4;0.7735450151108508
421;0.2016833149557904;-0.212179810147266;0.5600731383394661;-1.3632123769365894;-1.2687563082708015;2.9292169565030584;244;0.8423132823754246
422;1.7502415583885549;1.660065021187133;-1.9807963634449048;1.6751777372613557;-1.2964643864501169;2.448006079423251;308;1.256637061435917
423;-0.8926223685311827;1.1131138514222707;-2.289422143589872;-2.1546676396340017;0.0697029752808312;-2.808375827889809;319;1.2566370614359172
424;-2.495547986623143;-0.8518256773951838;1.3593967312096331;1.5243546913968902;-1.2037535751723047;1.4232444484728002;349;1.2566370614359172
425;-1.9746523976770407;-0.2474716604838698;-0.0847287981313699;-2.929439590721355;1.7899662891701402;3.072243744602225;226;1.256637061435917
426;-0.1680473464345402;-0.9066867287143991;-0.4402640920690184;1.6681871667599204;1.84362056654391;2.8172227090931736;71;1.2566370614359172
427;-1.7776014023589413;-0.664996490895691;2.151471115922743;0.4956765696047857;0.1717656046115072;-1.6831221121122693;208;1.246989176862631
428;1.1583908075667102;0.8561511642077391;-1.2771674639621675;-1.2794879511188366;-1.4796300252969308;-2.8552623450829424;98;1.2566370614359172
429;-0.975463477241821;1.5426260600725723;0.1433193508863174;0.3832294474029329;-2.0801986579897407;2.6423455194254317;49;1.256637061435917
430;-1.7807533588646631;0.7355421347981236;-1.1079641637509603;-1.4669570101805036;-2.2603279962899814;-1.53858769714798;127;1.256637061435917
431;-0.4805650291351501;0.5777061466818589;-2.249103410793896;0.0524969653312438;0.9338255602629638;-2.354767261677164;378;1.2566370614359177
432;1.0205991389725997;1.1759528498904008;-1.785908301302994;-2.609335644161887;0.0072344913260146;2.189839628517176;151;1.2566370614359172
433;-1.2463194825634931;0.9050606787491524;-1.5019860176392132;2.978010207108579;-0.8742812944078807;2.1829519180447745;352;1.2566370614359177
434;2.448642715786545;1.3450376914183948;-0.8219471319158859;1.3030783468315663;-0.6089728127867577;-3.1544008583666208;162;1.2566370614359177
435;2.624575312910053;1.6332345324465096;-1.8105730147285264;0.1441132857310259;-1.607720359873005;2.7728646033188524;308;1.256637061435917
436;1.420945982652947;-1.6426692696539689;2.3682054035917037;1.2393673535276812;-1.6027629105829682;-0.4723981201972365;329;1.2566370614359177
437;-1.2888659526935162;1.341105497790119;-1.1166705598974052;-0.3730155982747103;-2.845697098437658;2.3774604648442086;49;0.9990850475869124
438;3.065671531425518;-1.288170489964601;1.7130154289388004;-3.0580322505579987;-0.8012862530174759;-1.7866255666988835;391;1.2566370614359177
439;0.0014426434142095;-1.4899791716058974;1.0033274820129192;1.338511074514018;-1.3086245822551033;0.681489531953429;296;1.256637061435917
440;-2.227420575556185;1.2798862438116232;-0.3266656814669879;-1.6844976649705048;-0.443146402320807;0.2971778592353344;177;1.2566370614359172
441;-0.0264932751300785;-0.2656820169194884;-0.1376446889978393;0.7669482624477262;1.0908945900711804;1.0160205839084204;4;1.1785320727103707
442;-1.6969923977985713;0.251580977034527;-0.4947614961629252;1.028601968042549;1.3693101623261827;-3.196305195868456;406;1.2566370614359172
443;0.9796943224218656;-1.3560536889265018;0.899312780696673;1.3426244624457724;-1.8908874603718249;1.1858289855946629;439;1.2566370614359177
444;-3.0900789571058564;0.3525316746676575;0.8677754221200933;-3.016190797614396;-1.747730805066675;1.3703972878943456;273;1.2566370614359172
445;0.0091856908582028;-0.466922526986832;-1.859446700131796;2.6632637253697027;0.6302549708628111;2.6874200324774336;351;1.2566370614359172
446;2.844362355479445;-0.5587255805736983;-1.3199853976304834;-1.3389194937088291;-1.9009649675408289;3.0721060044238517;122;1.256637061435917
447;0.6271231148150339;1.2061859894062326;1.18834014352311;-1.9893147192300504;-2.8488436714785434;-3.0502278943570573;265;1.2566370614359172
448;1.805501805758036;-0.4821676801401404;2.61408905634613;-0.2571872558151122;-2.198941555808833;2.426035175409571;334;1.2502359099411464
449;-0.8165877841865954;-0.7456254271961784;1.077185315591004;-0.6400865054751893;0.3257530693853191;-1.6280072245188972;279;1.164945952843701
450;-3.193614635006595;1.2767700929915415;-0.2344051459930761;-0.8137752556373545;-2.698994703796425;1.077280934299365;183;1.256637061435917
451;2.4131388048796483;1.1297603633011477;-2.382505041929865;0.322983830056389;-3.077110590263924;-0.2323700941499537;263;1.256637061435917
452;1.6586014010760846;-0.730955649193175;-0.3135191881889181;1.3043658164095642;2.7924911005765223;-3.232125229848714;301;1.2566370614359177
453;-3.169107350150243;-0.534459355042299;0.8987015176435733;1.4016356671982015;1.0900922313335126;-0.2797931672358994;121;1.256637061435917
454;0.2716226083438475;-0.3390619306759672;-2.2879117633970294;-2.48148947336779;-1.1086051040046605;-1.0071854863408518;133;1.2566370614359172
455;2.0070317556195767;0.3896511666954334;-0.9052074440711616;-1.05461258481279;1.2959504482458335;2.572309390250809;202;1.2202214640396545
456;-1.2558150147178793;-0.2200483912708992;0.6856458447076751;-0.1998395331564972;-2.832924429437567;-0.31805424181919;75;1.2566370614359172
457;-0.4925602854728378;-0.3997523571233366;1.712496656357227;-0.6912909380438061;1.9777633710632776;-2.380650944072054;216;1.2566370614359172
458;-1.0086958914173367;0.1883729782668272;1.95578590392924;-0.9207355796731416;-0.9014502234416472;-2.562945485122129;135;1.1191452310578245
459;-1.869416931292221;0.4378725463751062;-0.6896076546864661;3.0059461074096445;-0.8160769598259275;0.4921264373920256;212;1.2566370614359177
460;2.5246359944285643;-0.5346573158391608;2.480408876155084;-2.471467576812356;-2.596444456220353;-1.171809067236347;181;1.2566370614359177
461;-1.1641241358741827;-0.4325289969499545;0.1937451319165118;-2.477301577607077;-0.4332581779708209;-1.389185245919205;129;1.2565395226842002
462;0.2473462278863279;0.2176599107010362;2.3535141285254197;-0.3736715183927881;3.0503043911708483;-1.0920820303382976;144;0.8563651890188971
463;-1.7078678654232449;-0.5890359040661691;2.465085601727132;-1.9704544656314755;-1.851133029743644;1.0925640127385896;194;1.256637061435917
464;-2.735756408720026;-0.0082474780756027;1.4689456768456906;2.877496345814217;0.888268195436118;2.180353062094137;175;1.256637061435917
465;-1.769293117273534;0.6869959366966839;1.050424158682276;-3.1156183520540783;2.022377325392918;-2.6051071502443226;401;1.256637061435917
466;-2.376896302111693;0.2239584211315705;-0.478786230422745;0.0579478034904067;0.2754532957295373;-0.4571329394879114;86;1.2566370614359172
467;2.1818547542709794;-1.0621715969784802;0.7391074057091581;2.713956551466713;1.6480474876511866;-1.1225934895684966;94;1.2045481936621554
468;0.305327430714403;1.0022078296947083;-0.606536512455177;2.752729209740852;1.253097833478627;-1.1352793365920906;53;1.256637061435917
469;2.5917781680211998;-0.9619124730560316;2.6107817031854066;-1.230082195825171;-0.1290931685298694;-1.89827627156583;199;1.2566370614359177
470;1.3219794614979308;-0.4483275973626073;0.5512110650804838;-1.6032645670540182;0.121600534899544;-0.4897451980616216;15;1.2566370614359172
471;-0.297733032221304;0.0112588431308252;-0.4613631301702289;1.9173219386108096;-0.1397292221842804;-0.501918535498975;84;1.2566370614359177
472;-0.1137786968700446;1.1120780055158708;0.0094961864393405;-0.1022884532045169;-2.454229748660944;-1.5107895929454789;239;1.2566370614359172
473;-2.2377779312981305;0.389232074254101;-0.9066992737452226;0.775492024233373;-2.317520088602017;3.0413388783579425;294;1.2566370614359177
474;2.5682744021590853;1.5061493434649105;-0.7678951670060179;-0.2192478782653354;-1.0411562009571371;2.912910633481594;435;1.2566370614359172
475;-0.2876525355405487;1.378728834544782;-0.0359435860003375;-1.8048221619312328;0.2225640392114307;2.155667171407468;40;1.2566370614359172
476;-1.3941603305998551;0.0821890958691205;-0.7777424485093254;-0.7052732851084971;-2.022866520721656;-2.0457522765083684;430;1.2566370614359177
477;3.2103241489858148;0.0564484767925942;-0.9218893640634346;0.2450072352778322;-1.658604625626398;1.0800745744257008;198;1.2566370614359172
478;-1.4908826279440237;1.113368862534387;-1.356751846797478;2.704338588885689;1.4880171327220082;-2.756235475954058;406;1.256637061435917
479;-0.3016444022952181;0.3836514697333839;0.2296600987906202;1.3557123701422589;0.3181969311187456;0.9596563158564272;441;1.2566370614359172
480;-3.2221437083889826;0.2932341225281664;0.1736051947125197;-0.3457933985191229;0.1745854556223302;0.053845095846097;466;1.2566370614359172
481;0.4409617428269677;-1.3255123249871956;2.1454602341302795;2.4441987345653176;-0.4759998642082769;2.1450882760219327;224;1.2566370614359172
482;3.0105712467451395;-0.2090817983695774;0.3699971751945174;-2.897138477693582;0.1189253487933795;-1.5749382397079803;153;1.2566370614359172
483;0.3001240224470931;0.3679898912357782;0.6626580810000237;-0.954961310867806;1.7188137051154904;3.0543550577760303;178;1.2566370614359172
484;-2.345627698802081;-0.4529693404109586;1.4916227494432746;-0.5721953946418937;2.3111175549826566;0.1919014013167352;388;1.2566370614359172
485;-1.5892947320919024;0.4306803687726543;-2.305888191951497;-2.7938430960810203;0.4178533334829643;-1.47057888229997;319;1.2566370614359172
486;3.242305918260887;1.3202697089346038;-0.9093106577780222;1.8930002366866692;-1.1479905677559747;-2.6044539424712645;434;1.2566370614359172
487;0.5513836991955985;-0.3044072542115523;1.6360120983538566;-0.1912610321449767;2.560388039493474;0.5690343604321235;46;0.7513939684840296
488;2.164705802201828;0.1995065677139126;0.9147224795736242;-1.858069040503521;-0.0713682192123422;2.22647545428523;182;1.2223790254257385
489;-1.8018320177480127;0.8426038938295992;-1.8978514616722373;1.369556939411272;-0.9246299409662916;-1.058886201601014;147;1.256637061435917
490;-3.12483341601188;-0.8524518934344905;-0.2749962883340018;-0.8075742972252942;0.47642366283321;0.7090400072472369;285;1.2566370614359172
491;-2.314217826065258;0.6138455772302708;-2.690761471283791;-0.2070915745957686;-1.7498731848785114;-0.9186804045305612;118;1.256637061435917
492;-0.0876782541715574;1.6472468461485232;-0.2801585837135379;-0.3715352338516404;-0.2927520226650424;-1.1306390774969104;26;1.2566370614359172
493;2.749932428888148;1.1057527081706058;-0.1760454851498371;-0.4775826768124589;-2.9061623395106237;-2.6196956477382605;220;1.2566370614359177
494;2.9596906762738278;-1.3559036020042354;1.46219274450886;-1.229955363320166;0.2268074602811761;-1.5652762581184567;199;1.2566370614359177
495;1.6468883056543415;-1.3620871627034885;1.888671886557175;-0.351260624222845;0.4654660369917852;-2.081534357985736;149;1.2566370614359172
496;0.8125945840401226;0.0655398250231944;2.3351598714139787;2.5675440688530853;-1.026493036534366;2.357900572978603;298;1.2566370614359177
497;2.154269225798804;0.0765997123964387;2.5777036585299906;-1.5523992093923296;0.8454102128158411;-0.8759378812948725;248;1.2566370614359177
498;2.014135732507801;-1.5447619838805249;2.3539460230740405;1.034877056967863;-2.593364831450224;-0.9132665941077016;436;1.256637061435917
499;-2.4477942271824533;1.5847536929743935;0.968652135822904;-3.4195919027897137;-0.6236257674425968;1.5907228621477532;273;1.0101258670026707
500;2.4226034654971387;0.7320290044162501;0.1888461643399797;-0.2964918864621331;-1.673843636402775;-2.4734839189595936;220;1.2566370614359172
501;-2.151458675017894;-1.2066561924393346;-1.5948536745423736;-2.851665705387042;-0.1215865202372125;1.4852378589138748;359;1.2566370614359172
502;-2.207546050330312;-0.2782401630252071;0.3316492187969135;-1.2048786989833815;-2.041568824074665;0.2065545468197071;365;1.1881861580587103
503;0.1901571356746236;-0.9959831098096612;-0.4306508966121314;1.4409036280775591;-2.5099961846439385;-3.050196849645987;174;1.2566370614359172
504;-3.0064169510387737;0.0196028166015943;1.644463863530722;-1.035009612749386;3.104452859697414;-0.0366407444123774;484;1.256637061435917
505;2.094353613088802;0.7763685417942031;1.1881067131067866;-1.8318529525210767;-0.4195532300773923;-1.682843997210465;56;1.2566370614359177
506;0.4629222185964697;-0.1379382139755584;-1.8657129472033287;2.418565848195457;-0.5265727017657904;-0.8559665389245418;277;0.9125265232425344
507;1.7372207366883952;0.6152779967302024;-0.9993831390639168;2.280963047471381;0.4427161090306297;-2.566740951079655;323;1.2566370614359172
508;-2.1706826824042578;-0.7643689495751811;2.4382948945060003;-0.002423053331293;1.833224798506084;0.2403892448574795;484;1.256637061435917
509;1.9553604308140464;0.2818392454984059;-1.5189340868717796;-1.3325041676773155;3.09369327713062;-0.5940890303715652;338;1.256637061435917
510;-2.614057858626764;1.3795239814339668;0.3827436785070345;-0.6286534488660327;-0.3565486664761096;-2.973507687129662;203;1.2566370614359172
511;-1.2670451648869925;-1.562486970109954;1.4679015562315083;-1.497531674220209;-2.195863827149579;-0.1309706768076195;384;0.962088217918412
512;0.3068804260719079;-0.7868073860950611;0.3785765325518552;2.8280408219127358;1.140747510873184;-2.5191421340164384;360;1.2566370614359172
513;2.9625414058408754;0.2816488198629671;-2.7353274489537616;0.9499434435976988;-1.9318010738022895;2.238546462781748;313;1.256637061435917
514;-1.439896701439256;0.8737751491897074;0.0580939071175338;-3.2966207590465384;0.9250156497353884;1.8758574945457864;226;1.2566370614359172
515;-0.975522663609464;0.4073658209218411;-1.119665044605684;-2.3212895521781096;-1.9668677530321024;-1.4555177188052486;430;1.2566370614359177
516;3.1986605714005174;-0.9121346449688948;1.4342428283711894;2.857373126763034;1.8423897568516103;2.284487529911856;140;1.2566370614359172
517;-1.3009512696194123;1.005480345990137;1.241363632409375;-2.94246213871088;1.0541469134253474;3.239816366721051;226;1.256637061435917
518;-0.3062999044838861;0.2688458310186282;-1.481324033228292;-0.3878153295127486;2.571810030190485;0.4536428184565144;146;1.2566370614359172
519;1.6675262714038082;-0.3174544578345749;-2.0091603958214272;-0.3679941065726603;0.3779556555784965;-0.0751319616570107;371;1.2310901627043986
520;-1.880511860773727;1.032273110058088;-1.949035784802011;-1.8064607723203292;-2.312468885131134;2.860522396841252;348;1.2566370614359177
521;-2.6271673761137446;-1.2232548733212625;0.0395163706003385;0.3863935188440507;0.7805327810954836;-2.0390627298670574;386;1.2566370614359177
522;0.3037638845025243;-0.0629718902224684;0.3656862483718524;-2.58083529896904;-0.2412100055741273;3.3078945717478785;244;1.256637061435917
523;-2.0617655543387627;-0.0100578575593755;-2.4040509133627825;0.4728995109700022;-1.8945300218674197;-1.6674344614625964;491;1.256637061435917
524;-1.683253615604566;-1.588824165670429;1.6896562601982992;0.2348448664003683;1.742893421962777;0.0482757951296697;508;1.2566370614359172
525;-3.027210183638479;-0.4380249832885631;0.5139723988322941;-2.8931831541649857;1.3105329048157324;-2.461919709789028;401;1.2566370614359177
526;1.8442940359083797;-0.8843968346922315;2.213045197375979;-2.851656950261388;-0.4841160408618226;3.1047679748832766;267;1.256637061435917
527;-0.0036846230214968;1.5250721821912754;-1.8431245647141208;-0.2385285442814511;1.63344819659886;2.6311351708979114;281;1.2566370614359177
528;-2.1620104013793453;-0.2335145271870909;-0.8335145713796621;-0.0960890545600787;-2.0548880877058773;-2.7631314357937224;476;1.2566370614359172
529;1.6078820189306482;-1.3363572010781402;-1.401730187817943;-0.1414369220630558;1.0806841722606693;2.151947587788449;404;1.256637061435917
530;1.4232880487080708;-0.9408887113340694;1.1827300057361312;-0.915480761962332;2.953874568968738;2.369939972560489;307;1.2566370614359177
531;2.537757178123415;-0.9240073700322946;-0.2045899151416;0.2382287326494006;-3.054909460369635;3.109899880060425;213;1.256637061435917
532;2.9250426891644774;0.1538171638058277;0.7773286772338636;-1.0794727879098789;-3.1155954836091064;3.1029609990070384;219;1.2566370614359177
533;1.3039864731702793;0.7933001410117784;-1.0372695148326356;-0.0282107819025438;2.7324212232103515;2.908931788569176;204;1.2566370614359172
534;-0.263721328242828;-0.1087812262294474;1.8202041913184408;0.8420051868040238;-0.3399772218518939;0.0911942942914883;123;1.2363107012962604
535;2.917397517374469;-0.7132713288126793;1.937068846393565;2.383413739199325;-0.0679060486321342;1.5741903169835103;278;1.256637061435917
536;2.432918024265676;0.4659779496294802;-0.2516898664119361;0.6719746893606172;-1.6150831977613416;0.6633020415997141;477;1.256637061435917
537;-1.1022076755323806;0.6603749276377588;1.6402662157770034;-3.0386372073167536;-1.612033986844028;-0.7133253602702839;76;1.2566370614359172
538;-2.1067989698933647;-0.3769086044059361;-1.551527369571606;2.832021303293552;-0.8177098444927321;0.1992782693100883;459;1.2566370614359172
539;1.1339670823820425;-1.037847770739588;-1.579051587585958;1.35266565323469;-0.6182683766626127;-1.7712888642849116;370;1.2566370614359172
540;0.7311734275583062;1.1662966124126526;1.3983164397607883;1.4830433939695007;-0.5289947837589412;-2.739268771389788;88;1.2566370614359172
541;3.1069268176969542;1.0070191201009218;-0.4248708069349585;-0.2973932479024642;-0.2339956166807449;-2.992755509621496;95;1.2566370614359177
542;1.2391587790533785;-1.1113251312256045;-0.9921191181364633;-0.6150962763877023;-2.025362075404128;1.552444582244344;191;1.2566370614359177
543;-3.1693670173283603;-0.3692680197520426;0.105825478786523;-1.3381881716340684;-0.2156994100130161;-3.0452148832981565;214;1.2566370614359172
544;0.2005160704050087;-1.6097998196816767;-1.6853908737456316;1.735190121223603;-0.6815963501762591;-1.8074851681278432;539;1.1667962783118515
545;-1.167033765309852;1.2521327634767072;-1.9098837604501524;-1.523106251440994;-2.090256500486292;-2.048947370783594;430;1.2566370614359172
546;-1.5107597188494957;0.6795024400637458;-2.2769726187911075;-0.5380323424453751;2.0447384068375523;0.9718493950971544;252;1.2566370614359172
547;0.7143481834362183;0.8774014995495271;1.8467981661080344;-0.4151989689581503;2.052764910841794;-0.8983281364881367;144;1.2566370614359172
548;1.9203294724390407;0.6912719342446141;-0.1187219578124202;0.1953081820402801;1.859351262910781;-1.6008988953270264;157;1.0626710983111654
549;0.4142777805887107;0.7770723104847153;1.830796512506066;1.8833557779541867;2.5016864073336658;-0.0865237522691163;158;1.2566370614359172
550;-3.0118294592475223;-0.2685410948587524;-1.1739626531457903;-2.701192757681531;1.8387055176671268;-1.0094643032645592;97;1.2566370614359172
551;-2.842256146977145;-0.0391371669408145;1.564609596759904;-2.158425843094584;-2.193086132036102;-2.520279346787473;233;1.2566370614359172
552;2.686139135453451;-1.719788951758663;0.2909455726102187;-0.7998745137935177;1.9575120184267552;1.7836180449989172;350;1.2566370614359172
553;1.4416993336088513;1.1095522023092486;-1.7661479860550404;2.742128791746548;1.0058049422176054;-2.927054156307182;507;1.256637061435917
554;-1.2547939417040297;0.3999385739811549;0.6495194371732039;-0.6005575654307318;2.5400014851977466;-2.031369441174693;105;1.256637061435917
555;2.434386833875881;1.0168365225266711;-1.294708837399956;-0.1605461787266176;-1.0731241647794971;2.6281135640884936;435;1.0400948793700002
556;-1.7808327314277306;1.1422432869987704;-1.3055009214620523;0.7704502829162359;1.6009214387075787;-3.231570768676359;442;1.256637061435917
557;-2.0860681529998764;1.1516528090892917;1.1660345472688964;-1.9839148387414591;0.939002693832592;3.2999512649447915;517;1.256637061435917
558;2.73622954271864;-0.0716245817018554;1.1080326418526567;2.490081919517283;0.5458166185700405;-2.4038089995644008;276;1.256637061435917
559;-2.3408675944663244;1.0297545138025035;0.8707401069946843;0.5614657962542808;-0.3358895270498809;-0.1794163322279236;119;1.2566370614359172
560;-1.4677727086563888;-1.8022669950951629;1.5299481053877293;0.2723184850921907;1.3547804501819989;8.673617379884035e-18;524;0.5214048913875003
