Komment314/test_diploma/benchmarking/path_finding_for_benckmarking/pre_rrt_star_results/3_3_tree.csv
id;joint_1;joint_2;joint_3;joint_4;joint_5;joint_6;parent_id;cost
0;0.0;0.0;0.0;0.0;0.0;0.0;-1;0.0
1;0.4170226826451706;0.2549093423265989;0.7558006984260374;0.4577889477176807;0.633987693548644;0.3968679900967909;0;1.2566370614359172
2;0.1609375205045792;-0.0218385917755465;-0.5805820007272113;-0.3114532710390916;0.634348203197863;-0.8463348344879097;0;1.2566370614359172
3;0.942158127129578;-0.0601449934467329;-0.0226820913749714;-1.006162478208238;0.7254872999338645;-1.252763378287551;2;1.2566370614359172
4;-0.6585474687550766;-0.1742402954921299;0.2107880521250767;-0.6411518217744564;-0.0373869031375572;0.8112873800249749;0;1.2566370614359172
5;0.5285137635582108;0.8722455671787227;-0.6655860779452858;-0.2066616890564134;-0.2308326137326849;0.0;0;1.256637061435917
6;1.3795879882673905;-0.2770525915921856;0.011010710964434;-0.5277670208086662;-0.0021931864380539;-2.015145569704377;3;1.2566370614359177
7;-0.3353116407154847;-0.3037015460578341;1.2595068089838808;-1.194023046102574;-0.2174729468962798;0.9526609398358704;4;1.2566370614359172
8;1.2644850880111704;0.4685770189336273;-0.66402008569002;-0.956238420754787;-0.7291518650708757;0.25366279117233;5;1.2566370614359172
9;-1.5619007460342276;0.3016307972849072;0.1651195485138763;-0.8889127707130676;0.6389702511228073;0.6859631465253198;4;1.2566370614359172
10;1.9282883639887929;-0.2591507095969542;0.0281394799570549;0.4945298927132625;-0.4240044934950535;-2.248458603188834;6;1.256637061435917
11;-0.1643771627381521;-0.0882916564612057;1.765392316842875;-1.394636404400899;-1.1996727929299156;0.4600817241366081;7;1.2566370614359172
12;1.198714870130372;0.3793731455895404;-0.9868266705483328;-0.3600873328109123;-0.7221485970962012;1.3059005945930893;8;1.256637061435917
13;0.7520074632925425;1.0567767184250556;-0.6789575837302773;1.0067543939626216;-0.0805723832096189;0.0;5;1.2566370614359177
14;0.563084373377537;0.0556800386437726;1.177477517571008;1.3451274139620066;0.0212064536065014;0.8180907693035578;1;1.2566370614359172
15;1.7510091544355455;-0.4424508912097885;0.6977064565545489;0.3100583968727045;-1.2247591248757317;-1.6235168612240298;10;1.2566370614359172
16;-0.4608935735397194;-0.6910334821642311;1.7299061987503055;-1.595921179649506;-0.7929103105873548;-0.4994423617946388;11;1.2566370614359172
17;-1.0344879712396184;-0.9492299060507364;1.249702608390157;-2.003393797151176;-1.6518974704251734;-0.2781452429269873;16;1.256637061435917
18;0.2352357866938823;0.8725715321524337;-1.166303196237097;1.350819661787959;-1.0337903463872762;-0.116794896772272;13;1.2566370614359177
19;-0.990255417511369;-0.9275958678795736;0.8073354184023831;-0.2031842368903946;0.4225623602489108;0.4340285405690185;4;1.2566370614359172
20;-0.9029445079024084;-0.001336794194452;1.9134045942750677;-0.7268541427048307;-1.8633968921896416;0.8031901173810349;11;1.2566370614359177
21;-0.016392618590163;-0.0739546787712981;1.3212693628301748;-0.7950809037049871;-2.269882830006664;1.3202773959838947;20;1.2566370614359168
22;0.6506487967585491;0.363425707665977;-1.739102609974321;2.0740922140195366;-0.5128611425958136;0.0405254010256316;18;1.2566370614359172
23;0.8428509850857957;0.5031905043659014;0.431209534606686;1.8310537195177083;0.679744758718126;0.5462659100857205;14;1.2566370614359172
24;0.866921558177223;0.5285525303239462;-1.535242193845123;-1.0706823925328226;-0.0552719858944318;1.7490327123928364;12;1.256637061435917
25;-0.2398697185948747;1.0814324075211752;-1.0698890171924516;-0.5943049896905884;-0.9898920088658196;0.2346593995683997;5;1.2566370614359172
26;-0.9294965319975472;1.1658511484464469;-1.3716719956630177;-0.3788518835767253;-1.3003662640960327;-0.6940697150831943;25;1.2566370614359172
27;0.8840727236310716;-0.9844926699409569;0.1545349481023413;0.1082212670802339;0.5496295790876926;-2.3369237366178948;6;1.2566370614359172
28;0.9944501145734428;-0.5426979838273064;-1.718493587283245;2.617442362500276;-0.2519360160993484;0.566016767700771;22;1.256637061435917
29;-2.2264746481923683;-0.1525896792169735;1.0223929958491396;-0.5941394674320813;0.748907243055809;0.99783938069916;9;1.256637061435917
30;0.7794536924254571;0.2331064750915218;1.5210933662077435;-1.6353524186235584;-1.8292552310871744;0.1935802441611031;11;1.256637061435917
31;-2.517462557558272;-0.2916529829341387;0.8363767484048876;-1.1333330873689582;1.6573548456535612;1.5675018137039582;29;1.256637061435917
32;-0.0713971547852568;0.6259213786622189;-1.2798748719610842;-0.5796271163919257;1.3722831748209472;-0.8369236657757729;2;1.2566370614359172
33;0.8721296738517792;0.571135749891526;-0.3358635116231508;2.343189747560809;0.0827376748463137;-0.0591769679000542;23;1.2566370614359177
34;1.475008985820564;-0.1465706985261518;1.5402036306993212;1.11493798329293;0.5515632531885247;0.327388107084022;14;1.2566370614359172
35;-2.6732121823946837;-0.8485725604054135;0.6283116871220517;-0.7696129576681324;0.0286623439507798;0.5615752743928122;29;1.2566370614359172
36;0.6200550537468871;0.2267234467549057;-2.138396172059441;2.2432997395259395;0.1350069080292998;-0.9350327328101876;22;1.2566370614359172
37;1.1602937405559577;1.0175885698369216;-0.7275224310255602;2.5911530398188245;1.1223930642931397;-0.0273615292439103;33;1.2566370614359172
38;1.933765292834492;0.4246740099687922;-0.5748134087301924;-0.2885973911015905;-1.625079709129923;1.521852161351022;12;1.2566370614359177
39;1.607831455673863;0.1970995480381066;0.6536601537857613;-1.1924907198196335;1.454470777590746;-1.0376656962741253;3;1.256637061435917
40;-0.5993746323288979;0.6293540045179982;-1.4713763968395055;0.035205127786437;2.006592282539339;-0.1417077728230743;32;1.256637061435917
41;-1.914810506917573;0.6045153343387291;1.1883796268163294;-0.3792696762382644;0.2756973732863181;1.7795976527959707;29;1.2566370614359172
42;-1.0935744896357102;-0.70745611333832;2.120949461668162;-0.6277764844052627;-0.6354028071519204;-0.7515420677168829;16;1.2566370614359172
43;1.306599788259927;1.3120938372951336;-1.196310169025539;-0.5349461355733488;-1.3447749374103952;0.0923223319841377;8;1.2566370614359172
44;-1.5077555708878212;1.3009774127193825;-1.487989281450364;-1.0563283974112012;-0.8571089844668479;-1.4407375978162884;26;1.256637061435917
45;0.2755848720740725;0.6521909078479033;-0.2568139781460489;2.125338259074228;-1.347872216024933;-0.1737503154186337;18;1.2566370614359172
46;-1.3384132228902703;0.0783772107224569;-1.707954942244978;0.5157913736326841;1.9390941612996395;0.520028348542908;40;1.2566370614359172
47;1.7385415652833274;-0.2992552066835834;-0.7128829022646808;-1.5883950249129066;0.7585412222651077;-1.5197314849183643;3;1.2566370614359172
48;0.7133653748074761;-1.0500857706500968;-1.6571563307314885;2.1642126413627576;-0.8131400225168097;1.4136937881781275;28;1.256637061435917
49;1.0402390377442965;1.247522774129976;-1.3818459445719695;-1.7223030120914906;-1.5796542244545315;0.0244174215882449;43;1.2566370614359177
50;0.9267514824891268;-0.6815988648353221;1.7130762822661725;-0.8619910339649632;-2.231076238504354;1.721386948005365;21;1.2566370614359172
51;-2.0282270999180567;1.0527728390775966;-0.941782351284182;-1.408533103313396;-1.7078955578717812;-1.123858090180967;44;1.2566370614359172
52;-2.6661309665720987;-0.7758960646348974;-0.281325244717287;-0.970006110725942;-0.5055626642416285;1.2102751777245253;35;1.2566370614359172
53;1.8248922937560168;-0.9001549584143208;1.7999013413414895;-0.997946981852577;-1.881789761717231;0.9619862844852274;50;1.256637061435917
54;0.3190401031952569;-0.2644143857436009;-2.014938615666625;2.5255986674052515;-0.5991974771220558;-1.7181801015215867;36;1.2566370614359172
55;-0.1302257917064238;0.4045451514109948;-0.9611248258925588;-1.3563936010689597;-0.0337795742773042;1.3518520656533686;24;1.256637061435917
56;0.3887026492997776;1.125633530810041;-1.807851416000812;-0.374239101540944;1.3468583737236182;-1.7291919837382568;32;1.2566370614359172
57;-2.815203433314229;1.2748594534229925;-1.6942968039146875;-0.9795735229507048;-2.094622513602221;-1.0207056336617448;51;1.2566370614359177
58;2.3488197310170347;0.3672816155006265;1.967567560396259;1.1057638292911758;-0.0436927412251257;0.2069991842972035;34;1.2566370614359172
59;-0.6885138084907266;0.6931012776540608;-0.6769246279239977;2.581619546954606;-1.458615703881659;0.327275719953315;45;1.256637061435917
60;-2.117661294655299;0.761174990701186;-0.4742055698354902;-1.504928367907136;0.5023292606232193;0.1837645126715617;9;1.256637061435917
61;1.1630253501381866;-0.4844865506304643;-1.3193892015611286;2.12998776334752;0.4797761345313186;1.1995742853495774;28;1.168546223941618
62;2.3931443901915874;0.4120004058804505;2.0695459721299945;1.7989611638181096;-0.0152491519050031;-0.8338855738397997;58;1.256637061435917
63;-0.1834458532707231;-0.6800789515970228;0.7804902069073956;-0.2766505587430805;-3.0493508298703578;1.442999871428116;21;1.256637061435917
64;-1.5208765001265918;-0.1567920398726414;-0.7091651062591948;-1.7000722758239175;-0.0177183679442889;0.0549837709399985;60;1.256637061435917
65;2.240261049474232;-0.078851167860022;2.2913560925678564;1.7440576474840013;1.075064627059845;-1.105602077988482;62;1.256637061435917
66;-0.5956645219708204;0.8546783796156714;-1.2242602829863358;-2.2436989002298824;0.2945314871367726;1.7940561516412292;55;1.256637061435917
67;0.603213286942618;0.7276314526142752;-2.0911053066658867;-1.418608006868518;-2.01790550522964;-0.5504865070006195;49;1.2566370614359177
68;2.251469725132844;0.5814739876867686;-0.7030371152011723;0.7174401307285906;-0.4771551742173228;-2.673790765057124;10;1.2566370614359172
69;2.297610280630306;-0.1192337328073169;2.582805546021348;0.6120677852064231;1.4605704357273062;-1.3490326791348504;65;1.256637061435917
70;-2.201377594615521;1.1624138959276304;-1.1505001127251435;-0.6094151847738825;-0.545042507254634;-0.6235414773212133;44;1.2566370614359172
71;2.1106542432652367;-0.3006837026641775;-0.6975543149848151;2.540237743295972;0.4451190634384879;1.5015145333735282;61;1.256637061435917
72;0.7339678919165222;-1.4204980495269193;-0.7749065649327692;2.5317773897812064;0.3134955624507981;1.0168630336397846;61;1.2566370614359172
73;1.42905733009579;-0.0919837899847674;-1.3078336682536835;-0.5239303189234047;-1.517726367048215;0.1328807906798225;8;1.256637061435917
74;-1.9238890052376567;0.1376795925241985;-1.0407202058478848;0.8624783430396882;2.5319317437419464;1.0821560854533954;46;1.256637061435917
75;-1.799407157092419;1.2690219589628131;-0.1803342424645085;-1.582783980856166;-2.031249303985585;-1.9986667665286184;51;1.2566370614359172
76;2.09469301005133;-0.8407926770890185;0.1820424584443284;-2.012864037525869;0.9634682522570536;-1.1509909403877254;47;1.2566370614359172
77;1.447871061043429;0.4265894374453129;1.5109446392623171;-1.4984448834209765;0.6583703642453551;-1.234040999179901;39;1.2566370614359172
78;0.7835149608022777;0.4289298054197114;-0.3432560693413703;0.2793390312229625;-1.1523748055363068;0.2953959893609371;5;1.24022038831141
79;-0.5457366187901594;0.4786366266701984;1.4180651150054064;-1.9576628794770683;0.2724231368445606;1.2256450270641868;7;1.2566370614359177
80;-1.2472095141340096;0.7529529912276607;-1.4889057552149252;2.208811145700896;-1.1751479922808257;0.9475661248526238;59;1.2566370614359172
81;-3.1034248786627403;-0.8603299491241274;-0.6573731305856856;0.0213167803337207;-0.9811038969772252;1.035606614622447;52;1.2566370614359172
82;-2.4731297596011306;0.9768030999821976;0.4422480875993344;-0.7574860692993619;0.3204531854479024;2.433092212293332;41;1.2566370614359172
83;1.5532446319090951;-0.4934024793381444;1.5646598674945995;1.4673116628568676;1.3805691901267232;1.127830136607582;34;1.2566370614359172
84;-2.5055884629684004;1.2844985948241756;-0.2166735018738095;-1.7546066783008027;-2.194565912964693;-0.4795226107600099;51;1.2566370614359172
85;-1.8158359697031756;0.1164412051404348;-0.9533540881997074;-1.6099899282232897;-2.0627484882045177;-0.4233793797941638;51;1.2566370614359172
86;-1.4408905569621038;0.4992705919321023;0.0558078711883082;2.8026949524834937;-1.3526514261459328;0.9424959402527696;59;1.2566370614359177
87;-0.0380936352579755;-1.041729560206458;0.730440396766577;0.1690890754926126;1.1723949040000252;-2.2893714150646134;27;1.2566370614359172
88;-0.561676263528981;-0.034636459251154;-1.917327919737959;-2.5671242555182627;0.5485963937693532;2.1650075413077787;66;1.2566370614359177
89;2.022767419597685;-0.600955565506499;-1.4550214493197966;2.620817700040148;1.0814466720257048;2.2058489740395064;71;1.256637061435917
90;-0.2777628915146261;1.201385871662768;-2.016383218211941;-2.8557369545873112;0.7169612170776228;1.3728994453476608;66;1.2566370614359168
91;-1.822332780162964;0.3990023133542539;-1.418308610988546;-1.2629784587348156;-2.3964402398340923;0.6019517191339648;85;1.2566370614359172
92;0.4145831317822017;1.2039771473504208;-1.5899049873359046;-2.6900813682710023;-1.8145962083998008;0.4126363316273117;49;1.2566370614359168
93;1.5517221805327674;0.123081186850492;0.957140415193775;1.7241354655557055;2.099139077668943;0.6301342035322776;83;1.2566370614359172
94;2.560786580960711;0.3447531341747018;0.8030315552766647;2.0534596046335176;1.8818190969215416;1.206636922013675;93;1.256637061435917
95;2.5204002517793835;-0.0782891289422933;-0.797921076054344;0.5385306662362588;-1.6054778377532206;1.0241352516533966;38;1.256637061435917
96;2.0255016958778995;0.3946438351024699;-1.359521553549272;-0.220971489632903;-0.2881322104644641;2.0466449077561024;12;1.2566370614359177
97;2.510059068385917;0.7303141708977184;-0.5847783217634257;1.9014835126805352;-0.5950861852198508;-2.9192765277122;68;1.2566370614359177
98;-0.3765683022885316;-0.7654133464176711;1.8361952308226188;-2.3325798021978112;-0.7451064779574946;-1.5045518571575114;16;1.256637061435917
99;2.431389280921671;-0.3269795046025098;-1.4414661416219452;-1.1208337513549202;-0.3155017116346255;2.3231148571077367;96;1.2566370614359172
100;-0.1515968045016241;0.7613232199683253;-2.1821030449939185;0.5260016958180854;1.621547772905951;0.5416244547695832;40;1.2566370614359177
101;-0.8706113993591592;-0.2530736937143861;0.4423751601706127;0.0696028850029855;1.585303065150972;-2.262903156723372;87;1.2566370614359172
102;1.9058143085908896;-0.9266500925482506;1.0705672962200343;1.2641621479546896;-1.24623860684979;-2.144019176409845;15;1.2566370614359172
103;-2.2001377905864263;0.9363947154692444;-0.3222789577861047;0.1223739536606729;0.2278369327968613;2.801529748525292;82;1.2566370614359172
104;-1.6253105281291484;-0.1630155913022531;0.583602695097765;2.579372481512328;-1.2517411518992934;1.8187834525859656;86;1.2566370614359177
105;1.2244335511592102;-0.6639344921513413;-0.4642006849330592;-2.3917671382489205;0.2281526742171234;-1.0800986117901294;47;1.256637061435917
106;2.656738212865436;-0.4700722299557576;-0.711224141814619;1.2309953271035967;-2.487767163562039;1.4004284178265372;95;1.2566370614359177
107;2.2332262564421703;-1.1965656260086002;1.8604595810011235;-0.1739277737202964;-2.5711062360150665;0.5536865934155228;53;1.2566370614359172
108;1.3747942671320192;-1.0654590229838314;0.1605315836823897;0.5782850914192706;1.560913972904454;-2.6337089061015235;27;1.2566370614359177
109;-0.0602152386405205;1.139659047108965;1.5218753344275688;-1.4955772646452152;-1.7809426794673056;0.0192718486163536;30;1.256637061435917
110;-1.7001697100162807;-1.1772883982347004;1.6596441975088467;-2.015765237814504;-2.0467692453603705;-1.1498475850728815;17;1.2566370614359172
111;-2.963555310178977;1.3592879287760498;0.8162773350819068;-0.672006354957781;-0.6823956222664377;2.2345614877520656;82;1.2566370614359172
112;-1.1993191021510492;-0.0231193880627085;-2.0050529153838923;1.600440584777603;-0.6218012476731674;0.7691295125767764;80;1.2566370614359172
113;-2.281926346631106;-0.7704656610355944;1.4623619251509523;-0.9507344664472398;1.3636028959602668;0.2937742653632365;29;1.256637061435917
114;-2.319387144340764;-0.7081665938303774;-0.4567416490992435;-2.3565101805041824;-0.0966267533812969;-0.314676476829491;64;1.2566370614359177
115;-1.9068462343801469;0.2810289622915431;-1.2271006078712978;0.6062295996730171;0.1239649208441742;2.7993856202154497;103;1.2566370614359172
116;-2.4304564474872725;0.2623833531566395;-1.5166365923920269;-0.4789166481005933;0.1888443738012689;-0.4594413206548489;70;1.2566370614359172
117;-0.786335652818049;1.5406054790041697;-1.3660449055129689;-0.9160886391271192;-1.0373680801520175;-2.407297183993748;44;1.2566370614359172
118;0.3711516402341208;-0.8675512526125883;2.0692864783869087;-1.6789761307437383;-2.0165294832933647;2.3502641749661453;50;1.2566370614359172
119;-2.355616633654425;0.8459300966160151;-1.9008328867943551;-0.8026930089390026;-2.519314462846012;1.3989524378362037;91;1.2566370614359177
120;0.5197497368390869;-0.0114270442002411;1.8054883865394076;-2.4291263961482663;-1.596806613532701;2.4752622080747595;118;1.2566370614359177
121;-2.687509700359564;-0.9737328427386518;1.6547474980437715;-1.1502903650448408;2.1652468967721465;-0.5148377743907452;113;1.256637061435917
122;-1.9590443047068555;-1.3259115140971338;1.336806663876453;-0.1196197327413065;2.0199720169756232;0.1233995364431286;113;1.2566370614359177
123;2.8670799274348338;0.8355684388300444;1.5503261477445358;0.9844944758010126;-0.3221676974982679;1.115242307189122;58;1.256637061435917
124;1.925847345061592;-0.9539245622224092;1.0779071189937524;1.6046033216635651;2.010193982653927;0.3688711677656013;83;1.2566370614359177
125;-2.9716433388064667;0.6013183049548363;-0.8332769702383022;0.3556070801212351;0.2601647881838014;-0.4057782642279053;116;1.2566370614359177
126;-1.8985508330125904;-1.4053993027673477;1.3292951904581662;1.0911571117411034;2.0218162030975875;-0.1977212276298969;122;1.2566370614359172
127;1.6785028346081945;0.7145699073335818;1.7970963187191278;2.172390713533461;-0.5968850893738613;-1.485726844394575;62;1.256637061435917
128;2.917850516087918;0.2420527904517015;-1.0424131659380087;1.887715471471136;0.4474970570702182;1.7986498277998757;71;1.2566370614359177
129;1.1368363021507726;0.6683787097092704;-0.5226036805029534;2.742743437905924;-1.6554961657199505;0.3653738059883988;45;1.2566370614359177
130;1.7312691818945052;0.9256869239816408;-0.6828837298823149;1.7145537808129907;-1.5099179310244826;-3.149424274464593;97;1.256637061435917
131;0.9515854864277428;0.0833877737616926;-2.01577521073062;-0.0135070726771165;1.320592643281668;-1.6847666745431948;56;1.256637061435917
132;-1.4489749591898795;0.654825897233003;-0.702857552393758;2.8672426217862927;-1.477334614702784;-0.6302038268961461;59;1.2566370614359172
133;0.1737341884337582;1.2958927041243298;-1.8842403358260815;-1.5639771406625478;1.0755066345044193;-1.6343582148199336;56;1.2566370614359172
134;-1.4262797587445768;-0.5577989174303651;1.4108831170014318;2.532452477032246;-1.0065625268331708;1.0206840596850106;104;1.2566370614359172
135;-3.0472440765321576;1.4711328854922658;0.439500479108003;0.1235042426161516;-1.2093636459731731;1.5224306064118929;111;1.2566370614359172
136;2.0908622468503406;-0.2354982629452967;-1.1409528869728578;-2.186092823426823;0.0781269470637634;-2.188679717284216;47;1.2566370614359172
137;1.1623410566110683;0.1758141808060638;-0.4635590062013169;0.1667309652091006;-0.3056665240811491;2.2067743442927026;12;1.256637061435917
138;0.0230412087128803;0.0900697178667515;1.5124421416699247;1.5439007385531929;1.0506731760257175;1.091574896632538;14;1.2566370614359172
139;-2.364290219445452;-0.7490549395484098;0.9441074963002904;0.1912819948753368;-0.628442249495919;0.4238522971012637;35;1.2566370614359172
140;-2.4332639629639945;1.111550612887587;-2.216377905824196;-1.6288437998943992;-2.7859038828345937;-0.5363517683685148;57;1.2566370614359172
141;1.8669860648202892;0.539638780232842;-1.9200181114683252;-2.361088107498767;-0.4548365222707606;-2.269690151651095;136;1.256637061435917
142;-1.2478258566894544;1.1576604196751334;0.8276836754397311;2.097355878679455;-1.474048112812348;0.961282601753237;86;1.2566370614359172
143;2.425964896554508;-0.2686214969416022;1.228168714736449;2.03114808462144;-0.5230314519498344;-0.5254313239983874;62;1.2566370614359172
144;1.964727551605281;-1.4592051994894173;0.7312128722771074;1.2166157239321886;1.411571884071771;0.767710385256906;124;1.022239017000234
145;1.685945990986799;0.2179598923774801;-2.322652325035336;-1.883189700307885;-0.1603515133322959;-1.4882513378560018;141;1.1064004939219672
146;1.5489955047300032;-0.8933608199095643;-1.1778337258169589;-0.2111978812076522;-2.389416889082636;-0.0862092946978347;73;1.2566370614359177
147;0.6187811019180858;-0.5899045737425835;0.3962133082027622;-1.4962408743215994;0.4238190171836437;-1.3554002215295144;3;0.9499506186546998
148;0.0677703039867455;0.0075786391306088;0.7954282470162239;-1.9482840995609283;0.5890451212446018;-2.081707528908641;147;1.2566370614359177
149;2.1574021875225755;-0.4388329765494784;0.5674098136394204;1.5564293600348194;2.7212826594182267;-0.3322881450162113;124;1.2566370614359172
150;1.9824834960437547;0.5700243767499114;0.2874752963708816;-1.001785629692952;2.1448946848480683;-0.2298571347704741;39;1.256637061435917
151;1.780212773825989;-0.2869067797944082;1.4665055380100107;-2.109465601751447;0.3382076860196393;-1.6825511419740231;77;1.139523807007866
152;2.1740384802629755;-0.7012225176964604;-2.12044855158179;-1.7228800326017777;-0.9866815243396532;2.637583071628985;99;1.2566370614359172
153;1.4234755649526376;-0.3794846359124962;2.0620887234024794;0.2286598822731789;0.8530066320614612;0.9385436318727952;34;1.2566370614359172
154;0.6518534085362656;1.18136073346964;-2.069701017728097;2.435618736586516;0.197846554569363;-1.7231563129577716;36;1.2566370614359172
155;-1.6362035036434035;0.842482583372042;1.4502931778537564;0.0374584602478197;1.3488704014045567;1.553931895420751;41;1.2566370614359172
156;3.300534144280031;0.5077869154102455;2.1250355321492327;0.0405785211628622;-0.3157760183166136;1.365251025981027;123;1.2566370614359172
157;1.547533538486066;0.7604634106486072;-2.161017068694569;0.3552239345407882;1.9213781165783717;-2.1823109112129333;131;1.256637061435917
158;-2.480970274890241;0.4280766329965328;-1.0569080318350972;-2.22281737535759;1.1635272479833307;-0.0262336026098435;60;1.256637061435917
159;-1.9342256877190167;0.8115008391295313;0.6028978004262174;-0.5445726326146408;1.1017202013634602;-0.1240898995169028;9;1.2566370614359172
160;-1.7437436611325243;0.1624550909330069;-0.8862514474035982;2.448156388883092;-0.6339159821546476;-1.203961201199601;132;1.2566370614359172
161;-2.5107415120107315;-0.3199687517263916;1.7266125980991909;-0.1551929498672825;-1.2172287119013665;-0.1188678393530551;139;1.2566370614359177
162;2.632015292662885;-0.3180606288163584;-1.380369199867033;-2.3912361241512934;-0.6132914555861922;2.935481468735374;152;1.2566370614359177
163;0.7305173705162391;-0.7354506551467092;2.4543030449107723;0.3621787462360893;0.6995518802986963;1.8200344805034323;153;1.2566370614359172
164;-1.4869388160109247;0.5711243377300859;-1.5904876339067675;1.1372573095400147;2.867032071627147;1.9249472541471504;74;1.2566370614359172
165;-1.177680182002069;-0.8297195262197908;1.2353445141625072;0.1972850504678264;2.183190119324056;-2.6498824707167263;101;1.256637061435917
166;-1.8710410398764143;-0.7387606205822428;1.5452784343820245;-1.6864871935200294;-2.3550441862141094;-2.2180685751517024;110;1.2566370614359172
167;-2.3323197480318125;-1.2269853063406069;1.1665427554795669;-0.8393446107538693;-2.182334943241829;-2.704972632616259;166;1.256637061435917
168;1.0339173982315046;0.6471711382140327;0.1287690090779185;1.326903727419135;-1.9081074863109413;-2.931116014022064;130;1.2566370614359172
169;0.0347450190509502;-1.1256137809462832;-1.4120451821712774;1.75786189242287;-1.4222789165828111;2.132481683187093;48;1.2566370614359172
170;-0.911440498896312;0.0593354176479402;0.8229461784551824;-2.351352497807464;1.0532581264329006;-2.570470313055784;148;1.256637061435917
171;-0.6064826351684109;0.8492379440894258;-1.503428918520279;-0.722760601766487;1.358709229145314;-0.2327197972032178;32;0.8785766516808778
172;2.583843600045687;0.0630331806955795;-1.3589297580974855;1.5821589459669534;1.3183673152567297;2.4940385777439213;128;1.2566370614359172
173;0.4947264049816807;0.2895360339058741;-2.5122169001356367;0.110320258575462;2.4145360287465745;0.7096222988003749;100;1.2566370614359172
174;-2.7050175407146444;-1.4893546762750236;2.017493628735958;1.685887789203897;1.8645540529741809;0.0661851871782729;126;1.256637061435917
175;2.4007860401220085;-1.3362660401050646;1.516976677188337;-1.182647272117218;-1.5877634022145315;0.0364171846310113;53;1.256637061435917
176;-1.055897643234244;-1.3239912673194714;1.2825032452821827;1.6787857073116983;2.4663724086608343;0.3655886030359442;126;1.2566370614359172
177;-2.885665197873762;-0.8002309473204234;-0.7831312298609111;-1.462433047534341;0.0384997103308343;2.0705378333709694;52;1.256637061435917
178;0.3393777520608291;-0.7472374525822537;1.7499028272422086;0.7474759972866697;1.3717746974214893;2.394047041581942;163;1.2566370614359177
179;1.8764417625777543;0.037983816321118;-1.8708085164068884;0.2693825483976309;2.7953135260552875;-1.8763264790173413;157;1.256637061435917
180;-1.226261291048817;-1.140172988354731;1.6120444024430496;2.109700609025225;-0.7021926178005085;0.0782702906422307;134;1.2566370614359172
181;2.664638843103208;0.4983610929163761;-0.9651860034736162;1.1943881547493502;2.354907595705013;2.436746711860317;172;1.256637061435917
182;-0.1592372803414496;-1.4047852290221212;0.87325674165;0.9041768969338996;2.467532303790111;0.332326337074866;176;1.256637061435917
183;0.4619000877102134;-0.185589651580454;-0.2541653273195217;0.7436066385978702;-2.0405299136600363;-3.163564865459558;168;1.256637061435917
184;0.0005877413122056;0.7285927859251964;-2.254774609114473;2.62232441789396;0.9512330434999572;-2.282878094900904;154;1.2566370614359172
185;3.0892172805823077;0.0643166746269564;-1.464937984522625;0.9560119243113;-2.7804364525036167;0.7862856676214512;106;1.2566370614359172
186;-1.7740708089899664;0.3235299702442945;-0.4726873572229761;-0.0794997035871308;2.8854195734905552;0.6494746251104613;74;1.2566370614359172
187;-3.171878592106148;0.8831683622850723;-2.3510850183213106;-0.2625179128185603;-1.5044994699366785;-1.0893562791629696;57;1.2566370614359177
188;-2.879809190423371;-0.0997943736419086;0.3067733711642154;-2.498947090428109;-0.3468786301040874;0.1639440564345703;114;1.2566370614359172
189;-1.0154743864849365;-0.1515427585586012;-1.6909158498453456;2.163723038923606;0.2633470263879021;0.1952056705565867;112;1.2566370614359172
190;-2.5320889694641138;-0.1467467390836009;1.4943132945927753;0.7475177100941148;-0.0098294190128973;-0.015918881946979;139;1.2566370614359172
191;-0.1492009963869817;-0.8475682086643017;1.1286092284417055;-2.50440660929992;-1.4949833567177775;-2.158901652975492;98;1.256637061435917
192;0.5790781227617751;0.8268250936581217;-1.3558487328947453;-0.8163057469947957;-1.6955394898112568;-1.299769317547698;67;1.2566370614359172
193;1.5038002909891282;-0.2924504994363333;2.220414299806634;-1.944665415866572;0.2521760070499724;-2.63110959484398;151;1.2566370614359172
194;2.143296873088673;-0.2667301485623513;-1.7496792571985156;-3.1430065920390047;-1.3782955444782938;2.7099239783162923;162;1.2566370614359177
195;-0.4215854641664023;0.9162311679227044;-1.7480972475637513;1.1648178688667217;2.709677529964445;2.4490649786260668;164;1.2566370614359172
196;-2.2989711081321884;-0.2491123415752631;-1.3960768611515186;0.2448687280048728;-0.660840581216962;-0.6590810505045341;116;1.2566370614359172
197;-1.4926608230161236;0.60485569276465;1.5586240882701063;0.3950836850150868;2.1229624562494678;2.4275541060801435;155;1.2566370614359172
198;2.423231555841594;-0.2478963310628815;-1.2945493730776845;1.716653813591842;-0.8645637284932528;-2.983672116194804;97;1.2566370614359172
199;-2.1407149221311097;1.046454150865824;-0.2589357542816056;-2.4068594003552137;0.7587538351605565;0.9398377842545106;60;1.256637061435917
200;-2.2557243919125827;1.2360200817238591;1.0006176645674945;-0.4603144610904783;0.3936258733785065;-0.9171098191391538;159;1.2566370614359172
201;1.5664909817115338;-0.0938760065199909;2.142154429815887;2.6266913016462694;-1.1315627640402226;-2.0349726119508493;127;1.2566370614359177
202;1.5767907389279885;-1.3085123121913202;0.7811096761511056;-1.4753442101831908;-1.4169519037504577;0.5294180665725127;175;1.2566370614359172
203;-0.5669945566923174;1.3783098500350577;1.554106950758511;-1.0517734566194863;-2.071127617652506;1.0108106656946327;109;1.256637061435917
204;1.37528216362483;-1.2545446905992457;0.2949486723801106;-0.0518667565035236;1.0216354469029587;-1.3385309442455058;27;1.256637061435917
205;0.3518924986863743;0.0047369259719725;1.6312301514600698;-2.4015864186634186;0.7892593087036726;1.423611376119512;79;1.2566370614359177
206;-2.2795291044478176;-0.2169400683102562;-1.3300214598908655;2.5833309257951225;0.253323313323092;-1.5857103717243644;160;1.2566370614359172
207;2.2620385744774687;0.4746279533884081;-1.4352806236153652;1.294273628739795;-1.8881662642180284;1.4106340009980536;95;1.2566370614359172
208;-0.4078934583466733;1.1697975191984271;1.2067612715595128;1.7035831011425122;0.7329582401418826;1.1795400043446294;138;1.2566370614359177
209;-0.6463805368394666;0.0430009465654904;-2.404555685818744;0.7843387202885514;-1.1836201510957711;1.1265627951114567;112;1.256637061435917
210;-1.6854667244242187;1.4577460341384192;0.6813022008053586;-1.8718048099285989;-1.1922770881304197;-1.9719698295994224;75;1.2566370614359172
211;-0.4471402251941336;-0.620357777790262;-1.644019773857094;2.013919068843382;-0.7645306996717265;-2.3805069369656318;54;1.2566370614359172
212;-1.860323560773042;-1.1720248378875069;1.0630657514588848;1.5830989571973486;2.0924793399308608;1.2092929689157517;176;1.2566370614359177
213;0.5907216717775307;-1.5998169198964254;-1.3460916737950444;2.272923612451903;-1.1002752642265226;0.3788677415558542;48;1.256637061435917
214;-1.2048397022146369;1.4288893727688965;0.2803789926526335;1.6041885279565609;-0.5974050241039026;1.3999900134770635;142;1.2566370614359172
215;-1.2509339860665103;1.1310663716308382;-1.3325607270293591;-1.8390929986449869;1.0741928782907684;2.332629735132329;66;1.2566370614359172
216;2.355400993259046;1.0012100353018645;-1.3104484098576428;-1.2381957415937983;-0.1014174157174603;2.2208999959193823;96;1.2566370614359168
217;-0.8905570430563692;-0.3680184548702146;1.4152467496056893;-1.1684374316734607;-2.4735095452180413;2.054313548641792;21;1.256637061435917
218;-1.656660631688362;-1.0984564230319565;2.215496758196486;2.7761108522490723;-0.4051135747987173;1.4271781701943895;134;1.2566370614359172
219;-0.0508537619830275;-0.6583127086911307;-0.5585317798828004;-1.49833613759516;0.1541741168053655;0.8768630974356753;55;1.256637061435917
220;-1.4620947941192248;-0.3316563287994817;-1.5318090959912354;1.876156697524792;1.3606448231033106;0.0077111293827657;189;1.2566370614359172
221;-1.0155505446925952;0.0214772697884906;2.0481540430739216;-2.3980076939324264;-0.4364264836787102;1.462358998366476;79;1.2566370614359177
222;-0.1354287942220607;0.5264691403527493;-0.7054990720108978;-1.9153664078037849;-0.958704073011206;1.927146530066956;55;1.2566370614359172
223;-2.351236320743652;0.1514110506789993;1.099569958974561;3.125988595535201;-1.514628538163228;1.2538204774760595;104;1.256637061435917
224;-2.4422860925700056;0.7107326324381752;0.482872228319802;-0.9475618211834422;-2.287542102895725;-0.7903150375624054;84;1.256637061435917
225;2.298394727044328;0.4996126058458489;-0.3595098860752733;1.7306864726112847;-2.2146295268602403;-2.460572580898152;130;1.2566370614359172
226;-0.3280522646334776;-0.2520450024808265;-1.358099143756566;1.0455693185357002;2.89461983443406;2.5197518990209136;195;1.256637061435917
227;0.0189501624609439;0.9140238663814498;0.6682323925754168;1.3014229022874968;-2.329850680957384;-2.840393915602619;168;1.2566370614359172
228;-3.0358775211986924;0.6178302571428499;1.412479810809204;-0.9208420843482452;-1.3864905081833114;2.567758880426215;111;1.2566370614359172
229;-1.4600573244793136;-1.2099493350101145;0.8220769165820458;-0.0609330854557772;-2.3916754948161048;-2.482261921388108;167;1.2566370614359177
230;1.518473660699298;-0.3613218745415448;0.0536526987313592;-1.1980983017775897;2.144508604798512;0.4051341373250955;150;1.2566370614359172
231;-0.8945937129727526;-0.5374244693118976;0.1127179756496178;3.034803804655988;-1.828704182689121;1.899375719120688;104;1.2011080856102352
232;0.7319187034972692;0.0164206182917974;1.5095359954398253;-2.0782199024127337;1.425996088555478;2.3774306362036577;205;1.2566370614359172
233;-2.706498543847827;0.8160256027840849;-1.7118890936023647;0.905768917356128;0.6402658854694021;3.048706934969264;115;1.256637061435917
234;-0.1710622521876277;-1.2536273095095836;-0.5198351330252948;-2.211660116435389;0.7379125457861606;1.4762027894083976;219;1.2566370614359172
235;-1.710159484391154;-0.5025574958878152;-1.2884707380019833;1.7910283355042296;2.4029148105743543;0.0;220;1.1151636123279494
