Komment314/test_diploma/benchmarking/path_finding_for_benckmarking/pre_rrt_star_results/3_5_tree.csv
id;joint_1;joint_2;joint_3;joint_4;joint_5;joint_6;parent_id;cost
0;0.0;0.0;0.0;0.0;0.0;0.0;-1;0.0
1;0.0190046732505611;0.2897060554274395;0.6871561937625185;0.2008071083894031;0.3629005411090346;0.9223025511590404;0;1.2566370614359172
2;0.3664821600766816;0.2694164829219075;-0.7757239931887107;0.4606580917225976;0.7339315403896236;-0.1401184934010735;0;1.2566370614359177
3;-1.0465944692320186;0.1255040919956415;-0.2107861430772411;-0.6412210186573717;0.0020301395891706;0.1114725512916467;0;1.2566370614359172
4;-1.8212321874151007;-0.2740472029341589;-0.3327991127004709;-0.1940151664047593;-0.7686380553651274;0.2145364475063069;3;1.256637061435917
5;1.2779790871333048;0.6324600932569019;-0.2462210004154453;0.4018754863705552;0.3944946280795876;-0.6064479495253602;2;1.2566370614359172
6;-0.5087697056200419;0.5646927815715844;-1.2673335359384;0.7253135983204881;0.9089243105329932;-0.7594228078756736;2;1.2566370614359172
7;-0.3884644849037585;0.0960202947399698;1.1261904223619872;1.2679310087858602;0.3146397105035557;1.1266498902271431;1;1.2566370614359177
8;-0.1450198126297969;-0.2789202977944544;0.0839969184712221;0.0826133754727411;-0.5784895217904842;-1.063850951334971;0;1.256637061435917
9;-0.8214107409549662;-0.0919047162250118;0.2712283649444573;1.9222704922101024;0.7455636604865644;1.2341799043574824;7;1.256637061435917
10;-0.7627293260746909;0.9039093770249932;-1.5143657862560136;1.13278315772987;0.5468367960433402;-1.77991757710787;6;1.2566370614359177
11;0.6547137847340602;0.0025643705739209;-1.1577247663660764;1.2361722099829715;-0.0217524995941395;0.1861391934687245;2;1.256637061435917
12;1.5590116332047717;0.4147223463512529;-0.6548846232736721;-0.6053253668881163;0.7207853090234982;-1.0124313997691965;5;1.2566370614359172
13;-1.5875983353601988;-0.1319586928152221;0.1204563685162572;1.731366856611895;1.4771960837184346;1.863486314302139;9;1.2566370614359172
14;0.3847188741550381;0.2182953803456419;0.7356505391355721;1.4555747612846075;0.4495939973956907;1.998675556762309;7;1.2566370614359172
15;-0.5970872411908454;-0.7791189365114846;0.6496268297867884;0.1294923234443883;0.4204924892798412;0.0;0;1.2566370614359172
16;-1.7025088391133172;-0.1041847846153253;-0.5807787337587655;1.646809006168825;0.8587604972428354;2.623549207421691;13;1.2136781652070638
17;-0.0762069095432647;-0.3458473427397796;0.7010336252548498;-0.8075715758485369;-0.4814415106000915;-1.6862177223347758;8;1.2566370614359172
18;0.9806932878541909;-0.1950659757280857;-1.0707508794594247;1.541937910937404;-1.1318752736665718;-0.1306992820078512;11;1.2566370614359172
19;0.5117421499015475;-0.0858989782516179;-0.5149313803967837;0.4001733905604511;-0.9727202028491024;-1.7678153671209136;8;1.256637061435917
20;-1.1509455766052314;-0.5694137458110572;0.2401508376206624;-1.576797663878857;-0.0590004164685806;0.0570280764131647;3;1.256637061435917
21;0.385901760611608;-0.6446652412743181;1.1951041015893489;-1.567539106886392;0.158569724367949;-1.8984192302344836;17;1.2566370614359177
22;-1.7542590989748266;-0.5416013062553605;1.2394949408747278;1.9343194933360224;1.221216362235213;1.7066707975009248;13;1.2566370614359172
23;-1.4371668841714815;-0.0311209763701524;0.6171772594092291;-2.1285738698935184;0.740622430425035;0.4055282343932276;20;1.2566370614359172
24;0.5107503542190208;0.1417758624146914;0.639820128733324;-0.7815960111442892;-0.5271700512235322;0.0;0;1.2566370614359172
25;1.3169709996084444;0.2324843808977996;-1.4967812283639272;1.2648936837950484;0.6437395051199096;0.9134802816488352;11;1.2566370614359172
26;-1.444069895425065;-0.4795919076052855;0.7113919375515236;0.8735306647489665;0.4671886753665555;-0.4609252986024704;15;1.2566370614359172
27;-1.653368396583759;-0.3248570464538703;-0.5562118035093775;1.7548766365285744;1.9658566933910169;0.946764157836715;13;1.2566370614359172
28;0.9200949735644248;0.2496707779008935;-0.5574384938249926;1.2747394105301155;-2.1355643783470564;-0.3188409991552329;18;1.2566370614359172
29;-0.6451814724686428;1.0241220245526623;-0.7006507914720641;1.8993959365108053;0.718134235655284;-2.30116422459562;10;1.2566370614359172
30;-0.7080787916639599;0.6371909543805427;-0.6788093598469873;-1.2600307980865428;-0.7720071817167269;0.1516639154205586;3;1.256637061435917
31;-1.387348208715424;0.3774226574863341;-1.5744658804451264;0.4222888156422507;1.0880735821891452;-2.1122550556366417;10;1.256637061435917
32;0.3941140225327624;0.4880768076499705;-0.7138675832471342;-0.3187853252254494;-1.7035560044995737;-2.148937274443947;19;1.256637061435917
33;-2.081207352942582;0.3700985032546237;-1.9153500848902263;0.8199328137780942;0.3369099652754062;-1.6032629344374194;31;1.2566370614359172
34;-0.6862688634748627;0.4864840936565313;0.7385779856110811;-0.2193771450717181;0.8147901168821265;1.7344608793277756;1;1.2566370614359172
35;0.9732812636447932;-0.4557886728582996;1.6529832879445967;-1.5094717593334772;-0.7949957160944826;-2.174345760493335;21;1.2566370614359172
36;-0.8990592404304497;-0.5338117811122095;0.7108827183152954;-0.6995222549123181;-1.3937531162200358;-1.836670337790372;17;1.2566370614359172
37;1.6012860758024707;0.2657407579643768;-0.2124994742396218;0.7942041033145572;-1.917609917701692;0.5281866783844651;28;1.2566370614359177
38;1.4391628110936308;-0.5166226311364699;0.3340397465629003;0.7159631899942372;-1.1637215604708937;0.7881594905173988;37;1.256637061435917
39;0.3289516351394727;-0.5792250927884038;1.1891400721473018;0.0031282246405816;0.9579896910551297;1.2101087238316433;1;1.2566370614359177
40;-0.9312563935066948;-0.0431942896445685;-2.186839222365924;0.5831608486356001;1.1627504988969106;-2.090289471371133;31;0.8898755024102403
41;-1.7947007500196075;-0.1502137197548625;1.2191380360627613;1.1735386346188166;0.0462437022969029;-1.3679529522368838;26;1.2566370614359172
42;-1.1677943731033538;0.530189659926869;0.669371359564107;1.928845736880435;0.6548913629356061;0.9782737771371092;7;1.2566370614359172
43;-0.5617893475694758;0.016863197017488;1.2601339592711918;1.1836681247006269;1.4842885004041917;0.739726185078142;7;1.2566370614359172
44;2.073596922441981;-0.6873003504560262;1.1580545980669634;0.6498724074942405;-1.694432752864456;1.2153319871710082;38;1.2566370614359177
45;-2.077643585785467;-0.3206500134944722;1.3551680623035176;2.60275875737797;0.6901926830596476;0.879892571183472;22;1.2566370614359177
46;1.1519989234701944;0.8490680593329;-1.0192177661288184;2.009629806174041;0.3227566945378178;0.3786749258144795;25;1.2566370614359177
47;0.6550822531822051;-0.2186085869587536;2.00501317282146;-2.0557726314689644;0.7574710698921217;-2.167020782810286;21;1.2566370614359177
48;-1.076683178060874;-0.4760132450794165;1.3208683053737569;1.8202546960676365;-0.6275007147948869;-1.6416679288800395;41;1.256637061435917
49;-1.1314640010004575;-0.0905865841907914;-1.609535797205145;1.9314343268666427;0.9735448682514604;2.9403006326484267;16;1.2566370614359172
50;-1.0174324144854658;-0.1212478753553414;-1.3038333189843134;1.4328660889640783;0.5940864053397161;-0.2606255542406853;6;1.2566370614359172
51;1.185071140616223;-0.6505705814885634;1.4102840353514536;0.9641155706758804;-2.203780178263947;1.820729632422852;44;1.2566370614359172
52;-1.747766680442659;-0.026146030470125;-1.4266480435352615;-0.2960902100980958;1.8083840049866529;-2.5914229810971414;31;1.256637061435917
53;2.788443431622925;-1.3921770921848633;1.4402418201191227;0.8208856381855042;-1.053909623184632;0.9870012655410844;44;1.2566370614359177
54;-1.598871532508047;-0.2171951237255192;-0.2207253228055615;-1.0014900974667162;-1.5301889147611905;-1.943724085763604;36;1.2566370614359172
55;1.738735264527394;0.1517914235597917;1.0294559221930268;1.2833841510083814;-2.645532136002994;2.252818378627998;51;1.2566370614359172
56;2.3128609102707425;-0.2721423112176696;-0.6703738644376273;1.0042599318646257;-1.7863339162954102;1.2440595484953365;37;1.256637061435917
57;-0.5706001287448761;-0.1571363068697529;0.7959652171977711;-2.283174897487342;1.2319415959395128;1.1232034848078385;23;1.2566370614359172
58;-0.9892899149993644;0.6819341217446846;-1.8199502050986751;-0.8762400244218029;1.7680542354956452;-2.493518380393495;52;1.256637061435917
59;-0.0268226737483069;-0.025857267234047;2.2653142131614388;-1.8911635156797264;1.7484411274538818;-2.1777378700835213;47;1.2566370614359172
60;-2.4911906087950357;0.9218829475571128;-1.55787174498798;0.5233026353903976;1.3159534654628302;-2.0695554750261693;31;1.256637061435917
61;-1.9181984092789703;-0.4116901844258491;1.8673854718277467;2.892015656206377;-0.251861053515296;1.438394277900244;45;1.256637061435917
62;1.5043132333404112;0.2318388228033426;-1.0445039568341214;0.7276102425738369;-1.155205902557774;1.4818818109310523;56;1.2566370614359172
63;-0.6031076475926931;0.1648073451144771;1.2933521638628207;-1.6831548419352886;1.514690595730233;-2.587691762591789;59;1.256637061435917
64;-1.9295636645343823;-0.3468065480187649;0.3032928776645491;-0.0924849945532025;-1.943113019841958;-2.36985625842762;54;1.2566370614359172
65;1.337292475662184;1.0717643704431783;-0.8640778501148496;2.281604324250791;1.4895725247364011;0.1896996811861553;46;1.2566370614359172
66;1.4649724927566736;-0.4638570302039683;-1.4735618509153787;-0.0816868035991617;-0.6658196787739641;1.6045399902991218;62;1.2566370614359172
67;0.2329701829733943;-1.145411538790899;1.1197410177487277;0.6176388321716691;0.6764091858017911;-0.4808153356695735;15;1.2566370614359172
68;-2.2591291432396985;-1.0049995989708829;1.2007361423447116;0.4082424607995871;0.177851848071995;-1.5395527921233887;41;1.256637061435917
69;1.8701129131565164;0.4498839815062713;-0.4042100667351833;2.2328225343677874;0.3228525320397234;-0.3112900012535169;46;1.2566370614359172
70;-1.461592242276203;0.7894097109384319;-1.5637187233502996;-0.9211311661966194;-0.8101902821959102;0.4496708663454226;30;1.2566370614359177
71;-1.7740200595915376;0.3652042832745867;-0.2749214112436405;-1.9222804466294108;-2.081454717842212;-1.7100906985925952;54;1.256637061435917
72;1.8141187131140704;0.4955502145441514;-0.011567125164239;1.5956466836337728;-3.1566847322724003;2.3658231678666155;55;1.2566370614359172
73;0.2203306744376906;-0.0331250498207014;1.5533478693635163;0.9695173472509874;-2.3294466315248465;1.340224632191069;51;1.256637061435917
74;-0.2489740648829672;-1.094853470272359;1.0924391203709678;-2.215106955810179;0.8675023990853864;-1.6961071093961215;21;1.2566370614359177
75;1.4120380503167025;-0.2344967551679325;-1.3309666628956802;-0.7533233896006261;-1.5169418899166285;2.177157143038025;66;1.2566370614359172
76;1.4495038174587187;-0.5819203090188373;1.7388576241240512;-2.343833382193855;-1.3914235609516477;-1.647867175615208;35;1.2566370614359172
77;-2.2129866761332315;0.4052215140654719;0.5418339625746823;-0.4986537298418247;-1.3746249903883714;-2.99291995032459;64;1.2566370614359177
78;1.3486850822347232;-0.502712428782946;-0.7753555432651149;0.658406856096;-0.3943228722781657;-2.2534912264224154;19;1.2566370614359172
79;-0.0183248128069676;-0.6093127406265844;1.4481782592468195;2.3597888257723296;-0.971033038080234;-1.7678668224768357;48;1.2566370614359172
80;0.383101052288002;0.2605778874349381;-1.5782493824022858;0.2884473240149916;-2.333256304111571;-2.2707970611497275;32;1.2566370614359177
81;-1.4674720548293012;0.4135187331771168;-2.2539024029687478;-0.9894588590993336;-1.4960993862764789;1.1470334840176108;70;1.2566370614359172
82;-0.8625147277332921;-1.0461403876983266;0.5174973730383099;-2.8389052480001444;1.4410780768911151;-1.4204580859808675;74;1.2261561376226968
83;2.8338944314869767;-1.384906299760449;1.4346295781109943;-0.3523386779940837;-1.1641715330557751;1.42102150039117;53;1.2566370614359177
84;-1.994179860098704;0.6477198993502012;-2.237746097180356;-0.1268029554170548;-0.0848997327613659;-2.165684531925962;33;1.256637061435917
85;1.4530182449790363;0.3597099979832038;0.5718929351041625;1.8843145246038977;0.8569241473055129;-0.117460175515015;69;1.2566370614359172
86;0.3834079389833915;-0.0651483294572728;-0.5243142581173063;-0.0998515155819575;0.7203770582777975;0.7899822017904222;0;1.2566370614359172
87;1.620247944885449;-0.0712963046716256;-0.1329936287660438;2.4706709309337547;-0.1253467957168238;-1.2673561379457596;69;1.256637061435917
88;-2.547202521630389;0.3015831157896244;0.6298514746957706;1.146052028084182;0.6126950591842792;-1.7419530894331858;41;1.2566370614359177
89;1.5357771347412787;1.0654327490037945;-0.8026541288843674;0.1264462241865008;-2.1617217799863995;0.2425920365611571;37;1.2566370614359172
90;-1.3657419037392935;0.7084602703333638;-1.0348606593919982;-2.5387159987622017;-1.5198704298215535;-1.857547863950107;71;1.2566370614359172
91;-1.5486201945632805;0.050946668733933;0.934075460517898;2.203133593475182;-0.5017985310359513;-2.517293083811909;48;1.2566370614359177
92;-1.975033865491871;-0.3540454482073362;-0.1332522855077991;-0.1719828870779669;-1.4758519154795668;1.2188402995527472;4;1.2566370614359177
93;-1.938191026983971;-0.9757397463553054;1.3410375638725822;0.9724736196499068;1.3572169260219664;2.3413951648432523;22;1.2566370614359172
94;-0.032417490076252;-1.131569011692374;1.7852433597105783;0.0699635960450895;1.8219070955437688;1.4032560165178456;39;1.256637061435917
95;1.017171493490965;0.3069933945092052;1.0324308592775824;-1.3394241951942802;-1.4382474531507194;0.0;24;1.2566370614359172
96;-0.0073527790444255;-1.4190621014837743;1.151980116625746;-0.0184950888574323;-0.3350436530071017;-0.6140608891575664;67;1.2566370614359172
97;-0.6674043772145145;-0.4456083964079187;1.954248189829843;1.1923689360376992;2.016268194178481;-0.0278866933910773;43;1.2566370614359172
98;-1.519048761022782;-0.5979965165309981;1.7604127724543488;-0.8923877779709521;-1.5964032821340803;-1.9408455939619624;36;1.256637061435917
99;-1.01160087941536;1.4613278589856609;-0.1383730192705496;-1.2217891051037906;-0.9714544821169552;-0.5371730159024107;30;1.2566370614359172
100;1.2894052846059532;-0.795487037949806;2.254006056267808;-1.189869014364063;0.8799089011903849;-2.0358541098077607;47;1.2566370614359172
101;1.0649640259393598;-0.7787819229726037;1.58985027683549;-0.8637899565492537;1.166621727983115;1.4149413590212123;39;1.256637061435917
102;3.102811175886309;-1.4801192735888935;1.0643163238845523;0.984741457461706;0.0874722090599454;1.02767807789255;53;1.256637061435917
103;-1.2637592305235572;0.8014657661354614;-2.109164243541385;-0.8672254205403752;-0.7698077875166923;2.054637612633761;81;1.2566370614359172
104;-1.2188341970251693;-0.8800918148328897;1.7640782726159672;3.088691200430436;-1.1380987394106898;1.6277495852430972;61;1.256637061435917
105;-0.8593792316711537;0.2187821370393451;1.1838680224356186;-2.691183450253108;0.6808775839751946;1.9798349964233848;57;1.256637061435917
106;-0.0990552993261493;0.1021141789652925;-1.9922837734992995;1.0261613052472585;-2.692621746153015;-1.5803180290132013;80;1.2566370614359177
107;-1.2594560983038965;-1.3257069176753662;1.6528816065567855;0.610910990629016;1.8588146884272727;-0.0096853108518921;97;1.2566370614359172
108;-0.9689912720632756;0.5365013294589278;-1.1587345324817993;-1.9656463644591733;-0.2268287761464528;0.8412159355345225;30;1.2566370614359172
109;-2.3837919976571373;-1.019955322275698;-0.1396423081665979;-0.0702712678849158;-2.774676863465233;-2.547340338721972;64;1.2566370614359177
110;2.496220258730535;1.0521665390687038;-0.3321127454077743;2.451143975383377;-0.2361228162092067;0.3662543157832986;69;1.2566370614359172
111;1.4123834022527155;-0.6746218807752072;1.7454709024369637;-0.5826485199911282;2.2441823791654247;0.9869321029218036;101;1.2566370614359177
112;0.8403737670924585;-0.7815119782487681;1.935021279511957;2.796349332352267;-0.4778069105099619;-2.1436961193805875;79;1.256637061435917
113;-1.2223375026422931;-0.675273810772624;1.0489588058239074;1.6399920240710535;0.6296569178789676;-1.991602054693096;41;1.2566370614359172
114;1.8143995764879863;-0.2190862331540192;-1.7708587759375578;-1.669897597384722;-1.0502406995265463;2.584073684406963;75;1.256637061435917
115;-1.0652517304807831;0.6458612426844903;-0.7042587287426048;2.038339488301538;1.966578760825199;1.1774862739517624;27;1.2015313173063964
116;-0.2337575282933126;-0.5490727790504543;-1.996902567438653;2.4883566331702585;0.6528889341859302;2.944109066182616;49;1.2566370614359172
117;0.1176515607837205;0.6237439087046356;1.428598413990675;0.987957840048192;2.309822980982259;0.7080624618825213;43;1.256637061435917
118;-1.6657400808752043;1.1610809540743323;-1.1993405294741573;1.6965191553207355;1.24884675575692;0.9017822049643456;115;1.256637061435917
119;0.2408960841778705;0.2937886102862829;0.9660561609403404;2.4146597403731738;-1.224900405380947;-2.3975079945703177;79;1.2566370614359172
120;-2.5768757224915277;-0.6884672137014486;-0.1894393429606139;0.5115676903606717;-0.6973396155937263;-0.3448497767539719;4;1.2566370614359172
121;-1.756167157465102;0.1394112476491011;-2.364643806908483;-1.99580837839349;-0.901231622381986;0.9426166104113584;81;1.256637061435917
122;-1.4786623691438108;-0.3969344228020665;0.6231838033663274;-0.7004676439655243;-0.9170042679241394;1.6276314316162646;92;1.2566370614359172
123;0.3419113656145049;0.740261477457517;-1.483660382729284;0.4628654552441622;1.6897384508177844;-1.0745529367543314;275;1.0139168798508766
124;2.073958286919143;0.0157065924374002;-1.2446473759890204;-0.5054284305217612;-2.521365615856642;2.2021898843490426;75;1.256637061435917
125;2.805270511263343;-0.8293011916530004;1.375699319494356;0.112314300950476;-2.380300462717983;1.6810290631754337;44;1.2566370614359172
126;-2.277969524329978;-0.6368736956019763;0.0709959541479454;-2.094444167412605;-2.4530625974906126;-1.5267337277279671;71;1.2566370614359172
127;-0.2480040945071588;0.92741834873116;1.226485248223758;0.00204271275471;2.583151562316439;1.2234531845639338;117;1.256637061435917
128;-2.7162009161961;-0.4430915184576014;0.2347530719839179;-2.141582155557175;-1.3086594747648714;-1.422611067822102;126;1.2566370614359172
129;1.855651018842244;0.0706665810406435;-1.3524709963406158;-0.0202658743062391;0.7101985550613193;-1.467819629394939;12;1.114800956020772
130;-1.8907360139280491;-0.6785936420449684;0.0454853993391816;-1.0600149059948911;-2.099122073259469;0.7112131429824577;92;1.2566370614359177
131;1.5443596011817056;-0.8454232000433602;0.9852793202655404;-2.0560704877393507;-2.3126525748441136;-1.6846730363159828;76;1.256637061435917
132;2.065143310474145;-0.3624459125169668;0.945487825866301;-1.533413705532201;-1.8438532388203124;-2.446334168036342;131;1.2566370614359172
133;0.3261712910584393;-0.0040877337876347;-0.9236387509087728;-1.0326317345498333;-2.394593405321484;-1.600137470012977;32;1.2566370614359172
134;2.8905929829672767;-0.256885886891237;-1.6000768087006274;-1.7360407370300026;-0.7505766412558765;3.12829395151161;114;1.2566370614359177
135;-1.2681882057130287;0.0759205562189832;2.2321109066555547;-1.3436440198636797;-1.6038655111603408;-1.1434407692323985;98;1.2566370614359172
136;1.0625866050818302;-1.1434334320076107;1.089506292804588;0.0285646125494891;-1.1296741124677707;0.7935954515548909;38;1.2566370614359172
137;-1.8553946873892933;0.074931573766251;0.7857272471455238;-1.4434844301987189;-2.479496778685315;1.1240032327190936;130;1.256637061435917
138;-1.6710613465550896;0.3286755635274562;0.9060019401014708;-1.2650790350042995;-1.238703801101819;2.3441136535872245;122;1.2566370614359177
139;-2.958766238441378;-1.2318933724432914;-0.4186701917899416;-1.4257859698354285;-2.721496442541632;-1.5784122877638134;126;1.256637061435917
140;-1.694136690516756;0.5820756202801587;-1.4944313065395831;-0.2492648817037317;0.7758194943518021;-1.1697890458423346;279;1.0733646073865928
141;2.1973996737782096;-0.3857647310552872;1.0306669361049865;-0.8541688464200075;-2.8050275175232118;-2.035705214173587;132;1.2566370614359172
142;0.999334803824887;0.1248033207315474;2.005701693628492;1.130333430935417;2.682376087394631;0.461658664344704;117;1.2566370614359168
143;-1.2491130421581034;-0.6441551670962181;1.391317402709344;-1.7307313254319432;1.2151741507000842;-0.0248094827670866;23;1.2566370614359172
144;2.0578609945680566;-0.1690005812384779;0.8761846354808401;2.2352880124921466;1.1087763278495395;-0.9265100669924266;85;1.2566370614359177
145;2.1591469492949167;0.2487065579842804;-1.91863701445056;-0.9484934170240286;0.8665899227844781;-1.966538087006226;129;1.2566370614359172
146;0.6065706026141762;-0.8574994863010756;2.418850599257321;0.0733891500629258;1.7113299101200403;2.229100816987844;94;1.2566370614359172
147;-1.6482415791200764;-0.2972623668941098;1.8496701984439912;2.0384199440709025;1.295164284419139;-1.8817559191918851;113;1.2566370614359172
148;2.366906185973332;0.1460618467588162;0.3182058225017971;2.16872129508004;1.9789206123097207;-1.4845789524615782;144;1.256637061435917
149;-1.6123481343326174;1.11570798718147;-2.2615976876729675;-1.0982157719110783;0.2872028362602326;-1.802839790017705;84;1.256637061435917
150;-0.5240748407795894;0.6266473841665622;0.6453008392674044;-1.8501950351752123;0.2395085798451113;2.2865247285770667;105;1.2509853752388789
151;-2.2365041407279045;0.7675272514008633;-1.3988532656092296;2.231022455577983;0.5957008205710852;0.3132400630993876;118;1.2566370614359172
152;-2.0667157569486787;0.2177945258336341;-1.2752813254106794;2.656073751278377;-0.373109211542071;-0.0237629526797694;151;1.2566370614359172
153;-1.552303851018436;-0.3680200489434683;-1.3485362086400408;-2.7577320737729423;-1.0371601809059348;-1.7791138758198828;90;1.256637061435917
154;2.6178793398649067;0.14574168709203;1.6080445875526892;-1.381991407848398;-1.2544856290856734;-1.9923511336674744;132;1.2566370614359177
155;-2.1486655621830795;-0.1253572512531208;1.3444254827898638;1.531884920253611;2.10605096276476;-2.241997524781397;147;1.2566370614359177
156;-0.863030236051711;0.9636564709341722;-2.021085851380706;1.4413577476631712;-2.9320082411440245;-1.429651709255657;106;1.2566370614359177
157;-0.8374986027165074;-1.0568601366186992;0.4628225772897143;1.9983984636824388;1.531476612552048;-2.003348762744911;113;1.256637061435917
158;-1.419659297030868;0.7061964816508118;-2.198805577788602;-0.2805601506300127;-2.2482714278344447;1.794995335362651;81;1.256637061435917
159;0.2545341105594869;0.1289360919330879;1.6356764453552772;-1.2177469093540398;-0.2996774998722861;0.5287861672433934;24;1.256637061435917
160;-1.325867030190054;-0.2084416160606365;1.5014351449751335;-3.104551981942395;-0.0340076094864247;1.350372970043075;105;1.2566370614359172
161;2.411526634740109;-0.9450835756070052;-1.0195857048706574;1.4512488209093115;-1.2317514357712085;1.9420868613842452;56;1.2566370614359177
162;-2.924805930642671;0.5527337828447701;-1.9843790793737952;-0.7875460330901087;0.357236996144056;-2.077433122774741;84;1.256637061435917
163;-2.8467392338208786;-0.6069997380955655;0.6224820504213933;0.9537653274550444;-0.8164427602294234;0.4493370913698697;120;1.2566370614359172
164;1.999435765277156;0.9597054032441014;-1.843944392922396;0.768874791239786;-1.5266099327553355;1.641418315041295;62;1.2566370614359172
165;2.368625751005656;-0.4373854107780288;1.86023090837936;-0.5193434610725052;-2.10968940176228;2.4075876244436096;125;1.256637061435917
166;1.673678850097542;-0.5156389413530513;-1.9747837528576808;-1.0519543536308236;0.7082219509268334;-2.815240832572147;145;1.2566370614359172
167;-0.3488471143565983;-0.243406468399021;1.266760940262893;-0.8874890431769819;2.3550766409133894;-2.499318087525398;63;1.256637061435917
168;1.7441738671573146;-0.0095351405434047;2.00753275506838;-0.9348686593364196;1.505425211080213;-2.5232522348095374;100;1.2566370614359172
169;-1.898695877328329;0.6086950898950376;0.3110276860876425;-2.219071816212073;-2.231510447554153;0.4884046699968898;137;1.256637061435917
170;-0.5205185275186465;-0.5505380780642685;-1.80311089597066;2.941976130521757;-0.2981388029695718;2.353242694445747;116;1.2566370614359172
171;-0.4210966665179642;1.005833060254263;-1.543228034645238;-2.49307545338303;-0.0637758015418966;1.619722815581799;108;1.256637061435917
172;-0.9867956434240618;1.142929071226186;-1.7275606926494256;-3.306237673074889;-1.856080584133469;-1.9756091632084525;90;1.2362289440131016
173;-0.7877521793866851;0.6354021453217431;-1.6112483697403444;1.434521284395654;2.4505591385951893;1.4613131089894418;115;1.2566370614359172
174;2.795923220300642;0.9250886264244738;-1.5521301976685733;-0.8581538750564562;0.4487691390968211;-2.5982795653650306;145;1.2566370614359177
175;-1.8041049588555167;0.1766650298162219;-0.1261244923575594;2.0206008316109383;2.6667689301472337;0.1997511771717499;27;1.256637061435917
176;-2.3625966593532186;0.9316748261393965;-0.0251750313189415;-0.155929245136499;-2.103343957036565;-2.4364939773722103;77;1.2566370614359172
177;2.6301568909027915;0.9582320974075108;1.008114465256401;-1.8491441104520128;-1.0595571711884813;-1.4421689854895143;154;1.2566370614359177
178;2.8110475293386106;1.0602167481379097;-0.4119239475450631;2.2000334048631074;0.84188503481279;-0.5365527285623815;69;1.2566370614359172
179;-1.1938280625000688;1.237988914418407;-1.281185095126735;-2.4129107091018;0.648985315824968;0.6079554973721321;108;1.2566370614359172
180;-1.067029696547817;0.4407436520584382;-1.6713621387799655;3.0701779424046403;-0.689631414503702;-0.342368626098824;152;1.2566370614359172
181;1.3077792454153483;-0.9939918788955442;2.0004646908805515;-0.8624367730567624;-2.0401658353977243;2.366131929564425;165;1.2566370614359177
182;-2.557355293439721;-0.2016012057986881;1.2930690890068353;2.6040696687805824;1.7956926450899342;-2.639183082963886;155;1.2566370614359172
183;0.3031721513513028;-1.3359735810758624;1.4436389848236142;2.8574678001224383;-1.450994392114105;-1.0825402132747897;79;1.2566370614359172
184;-1.430164485680833;0.0499356050117844;-1.9230494706942205;-1.7012641723982194;-2.074185373537233;1.8507651678784571;81;1.256637061435917
185;-1.3122558329534264;-0.9366445635915278;1.2176081068063247;2.078188574845094;0.4970463322200993;2.532570950874229;22;1.256637061435917
186;-1.407913362108808;1.1922398410924493;-2.0902690331100686;-1.1613617050765677;-0.6420455444885521;-2.59948433656474;149;1.2566370614359177
187;-1.2341463723499255;-0.0735417247483732;-2.055545294066376;-2.3446033665423656;-1.7740097962939991;-1.3575566339061411;153;1.2566370614359172
188;1.9386117643559908;-0.3079076801172962;-2.279704702448357;1.740004432563501;0.4424970456711643;1.0600339128474778;25;1.256637061435917
189;-2.2973467419060523;0.1402617574495477;-0.7909218854857056;1.0867830026583951;2.553264315783079;1.2655233963572885;27;1.2566370614359172
190;-1.41187347485601;1.003320888634311;0.8639502496746849;-3.019861365000237;0.5782204144127334;2.6412506866169987;105;1.2566370614359172
191;-1.017765890881067;1.083193147787084;-0.0249516098708609;-2.129309339831621;-2.505658837784233;-1.2557633635975227;71;1.2566370614359172
192;-2.5114982898929834;-0.8122526595796696;-0.2569475137141583;1.9469516549811945;1.312554624946352;2.773319959222926;16;1.2566370614359172
193;1.0198406948007532;-0.1743761148667764;-0.8942578783765087;2.89465230842174;-0.7223301176202099;-1.5712472995937508;87;1.256637061435917
194;-1.6432162327540347;0.4228950164438015;0.5353357329501258;-2.6352206176989466;-0.2477052034966135;0.1049132415801255;23;1.2566370614359177
195;2.3645836043347144;-0.7880000939778556;1.4956725248021014;-0.2341562411858579;2.6899760585793686;1.5132578173220677;111;1.2566370614359172
196;-2.002235042805117;-0.0948442680443633;2.096054914777464;-2.3722473582828005;-0.3004935486014461;1.7349521816368756;160;1.2566370614359172
197;2.276238922051375;-0.7720920029769679;-0.914874832035204;0.6004722836477184;0.0999684129198439;-2.8691772683109367;78;1.256637061435917
198;0.9755459749014244;-0.5938875075248987;-1.3900305656778218;0.6203011625217524;-0.6418333127717197;2.511375442195474;66;1.2566370614359172
199;2.0140950070918238;-0.4991511318615131;0.8303392016108475;-0.9198565234679386;-2.280591250281365;1.9611186234524196;165;1.256637061435917
200;2.4315241843156974;-0.1186175434449646;1.194769536574641;-1.202438705695262;2.5428983303932995;1.7904531752182504;195;1.2566370614359172
201;3.0321564072402047;0.6874307460858651;-1.4005401047960933;-0.7819457601071308;1.5964518515494022;-2.945966890374018;174;1.2566370614359172
202;-1.2152807205058085;0.8828158895877507;0.3533077361680596;2.742720616746079;0.7817294947574953;1.7993462753643934;42;1.2566370614359172
203;-0.03191107873487;-0.4275265722962384;0.625796099987328;2.149680240592025;1.6679568499032833;-2.6860136218696358;157;1.2566370614359172
204;-0.6634677598453045;1.02627410693184;-1.3247407285111816;-2.867912790648047;1.4316940192097116;1.2648227534201155;179;1.2566370614359172
205;-2.2876459913222043;-0.7881226710336738;0.9992772275439884;-2.114865336519621;0.9222322970334448;0.0836587366684604;23;1.2566370614359172
206;-2.422387933226964;0.1882977528691589;-0.1831535847544404;0.538805285491765;-2.204886313860215;1.0051260638371264;92;1.256637061435917
207;-2.032297567937773;-0.1078107036789673;-0.9740482721065588;0.257775604627072;2.5425041248796587;2.1178386974090277;189;1.2566370614359172
208;-2.9429722704639416;0.9958742889918962;-2.171506643099848;-1.835338962355732;0.2346494071475216;-2.5617044469127688;162;1.256637061435917
209;2.997698868701093;1.043846354510227;-1.5019446398435832;2.516247213608279;0.5720941408762865;-0.964462278549095;178;1.2566370614359172
210;0.608384986861894;-0.5816882548845046;-1.4167638355793155;-0.8187156510307743;0.6509713732184214;-2.549047241005901;166;1.256637061435917
211;0.188622824381625;-0.0742626314607702;0.4132341629764287;-2.216836939210499;0.2855029399052683;-2.3056516835558765;21;1.2566370614359172
212;1.9368680774781624;-0.1961338545352395;0.6426329652448127;1.7669046375578308;2.530786407386939;-2.3247221417127566;148;1.2566370614359172
213;-1.338338640667316;0.0937052230131392;-0.504257183671541;0.2332592861948793;-2.650321880037041;0.9929866144448084;206;1.2566370614359172
214;-0.9718569788043304;0.6203756929737402;2.053350869565548;-0.9496107150401948;1.5778287196541223;-2.928201195455716;63;1.2566370614359177
215;3.2578349319305016;-1.5777619122419109;0.1188339085382868;1.008894072388013;0.4237043017125509;1.7611614708107473;102;1.2566370614359172
216;1.3270350286047836;-0.6548706838115901;2.296870883312328;-1.3447898380432466;2.26869055283565;-2.916123744347897;168;1.2566370614359177
217;-1.3251261151123104;-0.105423942544613;2.645002243440832;-1.6050922253648776;-1.429194595671506;-2.2092983555357484;135;1.2006350385978335
218;2.6616388021645228;0.1007008400429644;-0.8044773190839783;-2.470312118833286;-1.1053731114769425;2.810748876454824;134;1.2566370614359172
219;-2.471023292021859;0.0707433530994764;1.0094902239832664;-0.91886019230385;-2.9413974120303643;1.9373100187878445;137;1.256637061435917
220;-2.708094216544472;-1.1156779772961511;0.3521034601396486;1.7984639063198309;0.4878515580452519;2.160708358323859;192;1.2566370614359172
221;0.1480025898630964;0.9491189539346938;-1.4718831462837505;2.196185920273418;0.641647581840364;-2.806769247368439;29;1.2566370614359172
222;0.8312101543124649;0.4848763807484384;-1.074174181772303;2.230072380360552;1.2506980754885706;-2.2013109541295584;221;1.2566370614359172
223;1.6816531686246927;-0.726876350315919;-1.5031416260979895;2.0997538739136066;0.9217850577828404;1.6727225507294574;188;1.2566370614359172
224;0.7597833422802854;-0.6546267417573051;-0.7057995134769876;-0.3491815809919692;1.071064205417796;-0.1437787991086893;86;1.2566370614359172
225;-1.3524802852409177;-0.1325176652570158;2.187830688915444;-0.116249066219976;1.7589038394423833;-3.277557081853129;214;1.2566370614359172
226;2.329698449280499;0.8478736766087587;0.063334750504847;-2.2881851023620943;-1.4537264440361417;2.755368590775623;218;1.2566370614359177
227;-3.1460946145656608;-1.0172182286101596;-1.4733705268203656;-1.1444264150540686;-2.9664919326200465;-2.074779672222489;139;1.2566370614359172
228;-0.4803568982768271;1.4942459916015027;0.7526842466744832;2.7117109279569225;0.1371801490221335;2.0981268855370176;202;1.2566370614359177
229;2.5743486279102976;-0.5433342224315832;2.1482758994352764;0.6959363837138096;2.28142167236328;1.6451434055694922;195;1.2566370614359172
230;1.3419436264865483;-1.1853613455220318;0.9992940639577892;-1.6329234256192813;-2.434506337105653;1.6516598023046116;199;1.256637061435917
231;-0.166182113355085;-0.7422559087061503;0.1416174018574041;-1.5348702706965942;-0.1425561734179154;-2.839455332384873;211;1.2566370614359172
232;0.5307260605863701;-0.4494477551162439;-0.1162521700309912;-2.9889995227335477;0.9306000096640082;-2.1365447904550288;211;1.2566370614359172
233;2.4407210350182127;0.7852594175703729;1.1092999075953212;-2.316851396293289;-0.0321363148578072;-0.9638918715524764;177;1.2566370614359172
234;2.0652597596245568;-1.0108833083677518;0.1102010322624791;-0.3426414913904656;-2.9177281036735008;-2.257703805074214;141;1.2566370614359172
235;2.431234468947565;0.3940675739310492;-1.2138692234862978;3.0050688451769894;-0.4309394682011292;0.2264740329009407;110;1.256637061435917
236;-1.8639315467254425;0.8878000570477691;-1.7669295023674334;-3.1422420499965598;-2.236235760825066;-2.7317282487402488;172;1.2566370614359172
237;-1.3555980355096673;-0.9314717632429476;2.096900622240723;-0.0162812679386192;-2.240046008524252;-1.5585470520813078;98;1.2566370614359177
238;-0.526279502322163;0.5277289483792833;0.3532299839733113;0.3990934620203478;-0.965887406388868;-1.7423577951509956;8;1.2566370614359172
239;1.9465646720574843;-0.9126964292716456;2.0258995453467192;-1.0685787059921985;0.3684911825473125;-1.1384978817283118;100;1.2566370614359172
240;-2.622492268124757;-0.0777188181463839;0.0195990745673114;-0.0657908989786568;-0.6015419569033331;1.752244212431772;92;1.2566370614359172
241;-2.439497453207131;0.0403649798657569;-1.4620292406147906;1.5437700276977788;1.121579653630932;3.0220419383164128;16;1.2566370614359172
242;2.033262536519168;1.058657721253736;1.3563749588623284;-2.966119925907254;0.561794967650375;-1.67312918787951;233;1.2566370614359172
243;-2.3885761140131256;0.4210573478747491;-0.3007742377581994;-2.8621218254976064;-0.183311966816703;0.6234317508056706;194;1.2566370614359177
244;2.3998719360894847;-1.4374614286971357;-0.0108853775912466;-0.1593022093605671;-2.504451068336078;-1.2251683897648131;234;1.2566370614359172
245;1.3852246226672316;-1.045537035161519;-0.6332226461055984;2.635311582080478;0.3365009919494468;1.7325862375784706;223;1.2566370614359172
246;2.821474177531325;-0.158457966666443;0.1024799448991656;0.0156026267812003;-2.6909258098235704;-2.575209318820631;234;1.256637061435917
247;-1.949934370208734;0.0052694746632389;-1.9820013592557648;0.2886198287810703;-1.9365984095830289;2.376834138962042;158;1.2566370614359177
248;-2.6200290729525277;0.4839437867170008;-2.355203630822407;1.499972623460592;-0.3321762084718909;-1.1882382157383131;33;1.2566370614359172
249;-1.3088522157675302;0.7668698289748239;-2.0002326087230173;-0.2444445667498902;-1.0709743956082058;-0.4662121296727876;70;1.256637061435917
250;0.9569451711556568;-0.5483152703260562;1.149352203199438;-2.3596175153865677;-2.3224051086036663;2.33130438659665;230;1.2566370614359177
251;-2.107384257922561;1.2937627833347605;-0.2104521926877112;1.848138133488056;0.8626114861009246;1.366988091147616;118;1.2566370614359172
252;0.0193102861597202;-0.575970492179419;-0.2515773409637253;-3.1573244534262987;0.2310458255075353;-1.2615817248937415;232;1.2566370614359172
253;3.1006025889122832;0.047487347665581;1.1270888635901852;-2.597240948904867;0.0624563007154309;-1.6790861813613185;263;1.2523016011820431
254;3.074099985544113;0.3551030206380309;1.156194594031231;-0.7161417361520765;-0.5612484902250913;-2.438518508099024;154;1.256637061435917
255;0.5858567711731545;-0.5267647862420641;-2.175657840971139;1.334583582088372;-1.0648711320357698;-0.3426237074239235;18;1.2566370614359172
256;-0.3776356965921035;0.8859879301749797;-0.4141347633326272;-1.2525451225507274;0.3204308510508425;2.352077259621664;150;1.2566370614359177
257;2.5340281286813493;0.3424071026665218;1.6301872763230123;-0.6895012619875185;2.286317730195242;-2.661149699433879;168;1.256637061435917
258;2.446330589826673;-0.0284326722738;-2.463681971414862;-1.0643782995594018;-0.0776848209197436;-1.4999568988652416;145;1.256637061435917
259;1.7243108504038478;-0.3373231236966987;0.4892538766686867;-1.9315456693690545;-2.766199525035581;1.1472526487666892;230;1.2566370614359172
260;0.0674827511190071;1.364905603714133;-1.3581248329261555;0.0013437961484636;1.7776741423232052;-0.1379894026926373;123;1.2566370614359172
261;-2.2511600776039296;-0.4345666975768786;2.3428452993155173;0.2303583147578464;-2.813581189282643;-1.2758312634383946;237;1.2566370614359172
262;-1.5063926104662355;0.8301113016038884;-1.400978905214737;2.4331553794023844;0.5642654907765816;-2.329051836885634;29;1.2566370614359172
263;2.9773470533479505;-0.1506668490646676;1.3962365661633256;-2.1593002560575787;-0.6718423386808092;-2.521923804823226;154;1.2190435425616652
264;-2.474210917928259;-0.673631014494027;-0.7024474577796234;-0.640158590696846;2.86713933820622;2.397581128829412;207;1.2566370614359172
265;-1.436369988691658;-0.4377594083628217;-0.0117058697308894;0.3733331462868833;-2.0487588282464317;-1.3697300206713927;64;1.256637061435917
266;-1.6340312179007594;-0.2529286747563518;1.3152966870815093;0.6340001702717368;0.1295141493255139;0.315067096172879;26;1.1071249305014537
267;1.203553388573697;0.1353446739189334;-0.2798085646852499;2.763939859277652;-1.2313908470099886;-2.463257867721272;193;1.2566370614359172
268;-2.272647594595125;-1.5220318288025698;1.484711966361229;0.3095296492733983;2.461148128727666;0.1695321860154851;107;1.256637061435917
269;0.3375189009487153;-1.1989033870866732;-0.164484488806539;-0.132126967734386;0.4333568299856922;-0.7419318074262705;224;1.256637061435917
270;-1.0720571441407327;1.0042854651355266;-0.8963249273262903;3.054989045573121;-1.0658602379166338;-1.0628341315654366;180;1.2566370614359177
271;-1.937090362863026;1.1264002168758058;0.1281906845986944;0.8810834959828077;-1.7472631158704233;1.205321270131944;206;1.256637061435917
272;-1.9945974803320143;0.7504655004696897;-2.2154806533392835;2.020893708385433;0.9883439403317272;3.274767432954821;241;1.2566370614359172
273;-2.76954082318157;1.1746257298189684;0.0041834910100152;2.171182775444989;1.4289911469358367;2.17648145870372;251;1.2566370614359177
274;1.3208820997751447;-1.131509942522732;0.0599221327157844;2.83858762744272;-0.0458595415102513;-1.6148941339431064;87;1.2301841065244747
275;0.4196162558438791;0.2711618957240355;-1.4645254043041724;0.0006127712581274;1.3311231202421372;-0.3968462707675291;2;1.054259120972174
276;2.0587265146857545;-1.070818620409301;1.664799458150371;-1.5629003370907797;1.163825205833611;1.5240599320888293;101;1.2566370614359177
277;2.105827189867764;-1.1728121639838756;-0.6234410114973767;2.834843755794741;0.6264514239376984;-1.8205414011527477;274;1.2566370614359172
278;2.004577155935397;0.1075266745623999;-1.77162424802292;-0.7970563764757137;-0.0874285835585794;1.4422036228825528;66;1.256637061435917
279;-0.9809596456391108;0.1175795667825547;-1.162796932834639;-0.1835469183782673;0.6089274350289936;-0.635391879547837;6;1.168422313630915
280;-2.7928506372662154;0.0472274668300021;1.3221350473651028;-1.9903200927583249;-2.7476262979021304;0.9217916613027606;137;1.256637061435917
281;0.0499953395601116;-0.830022420599953;1.247477337111807;-2.717288298612349;1.5532709319939118;0.6275704903775565;57;1.2566370614359172
282;0.5492495720084969;0.6798986114603236;-1.712440282170995;-1.627333999522595;-2.5748045708410854;-1.8307470109988453;133;1.2566370614359172
283;-2.939465682523079;-1.396277879477427;2.389171831240017;-0.1432828846894702;2.626393581160398;0.4308430896827618;268;1.2566370614359172
284;0.3341499615687683;0.9301386736366728;0.0208676729786111;1.5989573114091802;-2.6911397297046564;-0.1621586800665805;28;1.256637061435917
285;-1.3930489945740967;1.58481066224372;-0.0267167115883525;2.5589002551792945;1.589472871697995;2.272717815343744;202;1.2566370614359177
286;1.0936353171578177;0.8908380581841402;-1.4868542108622005;-0.696075179556364;0.0360787614025876;1.2713244071415015;278;1.2566370614359172
287;1.8002607995442692;0.951149098846861;-2.2140748845427844;1.4528596255943926;-2.490995980871519;1.708653295514751;164;1.256637061435917
288;1.1640812791822128;-1.2720112804310015;0.6993469220262332;1.0400432012980882;-2.383163063226745;2.167570944572499;51;1.0248428250280384
289;-2.57014698107672;0.6715456586355737;-0.2481847753164349;1.8909375479684736;2.8779422985732994;1.500127255152359;189;1.2076280142158964
290;-2.1845075369917746;-0.672410934892452;-1.18280613198017;-0.0152939589239788;0.9294088054336432;-2.836030805529456;52;1.2566370614359172
291;-2.96607762150424;-0.6715821975694047;0.357144323375421;-0.4754942111204139;0.0004571938076538;2.4335778452931303;240;1.2566370614359172
292;1.4366495047788883;0.4879123775341839;-1.736816727323458;0.5930217613307838;-2.880347629856959;-2.25426580008951;80;1.2566370614359177
293;-1.4638227858299018;0.7232914704527091;-1.0221585966372737;2.316406846164311;-0.5087038848391486;-2.8365118950817325;262;1.2566370614359177
294;-1.7178153555682203;-1.349521576909494;1.2296466480286283;1.9263670585388188;-1.1747401991787791;-1.9349547370655884;48;1.2566370614359172
295;3.3323605356318358;-1.2846390294361725;1.7568922060927692;1.3084229726820449;0.4487770810108953;0.543754565414442;102;1.019833166135547
296;-2.621272110688737;0.6730762963949454;-0.8650664836549682;0.9650056778577372;1.1721960017343258;2.349824453071136;241;1.2566370614359172
297;2.244851273977638;0.3390761886202385;1.727381373545661;-2.326548340692918;-0.3407612168442882;-0.0342014888552779;233;1.256637061435917
298;-1.6759294373911695;0.7995085707726192;-1.908167425440447;-2.442880506952062;-1.135941476599842;0.1218625389515879;121;1.2566370614359172
299;1.3936643772389976;-0.5186654806655692;1.1844251656746547;-0.8252181195912525;2.786668020180594;0.0453584714703302;111;1.256637061435917
300;-1.647277676378692;0.1374078680854724;-1.297514582209611;-3.4259137559086934;-1.5397651689937075;-3.159768057747128;236;1.2566370614359172
301;-2.5607928121828696;0.1133139130506608;-1.4989866050005758;-0.1259473282210944;-1.3199606484094957;3.016289968850715;247;1.256637061435917
302;1.1971724443132286;0.7018969428165733;-1.5305702735397415;-0.8710430368546067;1.2609023128935473;1.270657407989205;286;1.2566370614359172
303;2.377640485123283;-0.537470739250441;-1.516612699399928;-1.6843414081400354;0.0565065100246217;1.0537247119326318;278;1.2566370614359172
304;-3.053981618439816;-0.1631644260290805;1.931946783883951;-1.1454647228822663;-2.1435213800502617;1.048633549050569;280;1.2566370614359172
305;2.7482303542768864;-1.4561182597083568;1.0469639871771732;1.9921937501198304;0.5449106639999902;1.5055085193930209;102;1.2566370614359177
306;-0.3802050896100717;1.1894900947031777;0.4057460562568874;-2.7584031778209464;-1.7468848986269556;-1.3217668527857338;191;1.2566370614359172
307;1.627102477319358;-0.1983450789303836;1.5817284018922808;-1.295365705917486;0.6923876123422628;-0.5264387322012392;239;1.1578426462035931
308;2.1185517784730603;0.1622362911751757;0.4586065929448057;2.461052987894193;-0.6761794098837267;-2.0565282511737046;87;1.2566370614359177
309;-0.4692990142184668;0.5334691981481302;-0.2635576607950741;-1.669628282085551;0.4176286565920123;-2.3503270635896283;211;1.2566370614359172
310;2.844374598371394;1.5250206550336227;0.6781784398817812;-0.84176695724801;-0.8376699964027969;-1.2444373973364449;177;1.2566370614359172
311;0.1477304151558473;-0.853047442184583;-0.9846305511643164;-3.332527459606166;-0.4635525716279777;-1.9213872286262217;252;1.2566370614359172
312;0.2781566257302926;0.7987478100783847;-2.1012632101588826;-2.7060246301582023;0.4894676238124539;2.239777925968196;171;1.2566370614359177
313;0.3571560765906956;-0.8892961974502872;-0.8268049071748007;1.2423493442208278;-0.2085641594691392;-2.5150591125920023;78;1.256637061435917
314;2.126454053935652;-0.1029177267697302;1.093999581715539;-1.253689128822674;-2.18881427871524;2.313657702002755;165;1.1454140494575096
315;1.1603913633190808;-1.329158160848847;0.0159423971563177;-0.9320213997927757;-3.1087020046301466;-2.7737722213263587;234;1.2566370614359172
316;-1.3234792852572763;0.999446552150816;-0.3597056634529039;-2.704540631375889;-2.162036997613737;1.124946981392111;169;1.2566370614359172
317;0.6080677305090119;-0.5136407507816602;2.009769904247961;-1.3478018693982965;2.8737505848425204;0.0365109413424394;299;1.2566370614359172
318;-2.2715725734295806;-0.4585100763138748;2.506820343767055;-0.5905749528218103;1.230685968692982;-3.127952762671616;225;1.2566370614359172
319;-3.14629632211968;-0.7767810928335495;0.6833202815462369;-2.306954397410336;-0.9932078524970676;-2.3997168287656483;128;1.2566370614359172
320;-2.270871988482138;0.0516068384463463;2.1360691996308803;3.140548105282113;1.1373805508348118;-2.605767612016557;182;1.2566370614359177
321;-1.5706331725194649;0.159085221996976;-1.4766314262628883;3.3371589891243256;-0.6624153190878552;0.837326475344515;152;1.2566370614359172
322;-2.213526873228382;-1.1608759598403653;-0.9956499488637424;-1.115206849562162;1.9326295696630116;2.695617770395636;264;1.256637061435917
323;-1.9492631355051109;1.3781641051155498;-0.7735089435785731;2.616345621601356;-1.094605588751012;-0.3834645701312766;270;1.2566370614359172
324;0.4098582165533381;-0.1823049631091883;-0.0494747234522269;-0.7424105836486053;-1.3279767778281693;-1.022593288738905;8;1.2566370614359172
325;2.266508641224379;1.2778519917183502;-2.328123637999425;1.611508970176854;-0.8824696388742943;1.858703639608584;164;1.2566370614359177
326;2.7596041235897517;0.929841503366585;-2.1123599981853496;-1.916315258470985;0.1226906461565495;-2.792971402004777;174;1.256637061435917
327;-1.724769493547191;0.6383866787676793;-2.0396710995211667;2.544481435014937;1.46828875687474;-1.8219910567660675;262;1.2566370614359177
328;2.4899420028932067;-0.8750944739071947;-1.4949882807144088;0.4000000116863063;0.888494362576057;-2.145047259299993;197;1.2566370614359172
329;-3.2223033688628244;1.2256895820491691;-1.9861557330797623;-1.319666474428545;0.9926784582277416;-1.4851314273354506;162;1.256637061435917
330;-0.0665992002865066;0.8028900526115363;-0.4195128719771672;-1.7750338606539768;-1.5144359024369205;0.6581431533368474;30;1.2566370614359172
331;-0.8661838805604725;0.2365627651412706;2.002885151965519;2.572720819803914;0.9860632833437962;-1.3544443300456566;147;1.2566370614359172
332;0.1800422989103016;-0.6238450567172663;-0.5988083151147001;0.1065591254417858;-0.8741169951444046;2.5500265917183;198;1.2566370614359177
333;0.4358457058545428;-0.2293344355443347;-1.685155361806473;3.302466121490468;-0.6858554812817168;1.8363852546610837;170;1.2566370614359172
334;2.0892838145819823;0.3893407008710423;1.596625006163122;-0.637187233064779;2.543869751253478;-0.0356338409770747;299;1.2566370614359172
335;2.6306378723852912;-0.5998733166207153;-0.2214105041161218;2.201610112526667;-0.3474010769305591;-0.8809161434236787;87;1.256637061435917
336;2.9353629032034405;-1.0503183554197597;0.7252982460736824;1.0349599736795216;-2.787739222889238;1.4107308018939109;125;1.2566370614359177
337;0.0652504754046371;-1.32812580212094;-0.8111757168199303;0.4964980410972009;-0.2230277501262101;-0.2478786595240435;269;1.2566370614359177
338;-2.643829403789128;0.8874367073404911;-1.7691291101905096;-2.862932833463708;-0.5109959440064094;-0.0977791538049423;298;1.2566370614359172
339;-2.324588727466792;-0.3482694719307535;0.0591962836637823;1.1659240992977469;1.7675071265042406;1.7552317637854342;13;1.0047004778963298
340;0.3394579168296986;0.657467110151652;1.0723666602481527;-0.7887974350228418;2.420722352402902;-2.9912135587667708;167;1.2566370614359177
341;1.4198522036227317;0.7629841161423314;-0.9587030699718204;-1.8023810368816255;-2.4810865390192487;-1.3760600405654588;282;1.2566370614359177
342;2.537183206511875;0.1262475960162362;1.1418458587614304;-1.514358723057011;2.924270791358305;-2.2066713854215445;257;1.2566370614359172
343;0.3230967619380113;-0.5283196200637427;-0.2852565964416709;3.1125323062548147;-0.0644956849919441;-1.2287444591430838;193;1.256637061435917
344;-1.6149154415797735;1.1853508139516948;-1.8597545195927283;-0.1626853568149789;-1.9496797681513447;2.0268566175219;158;0.7344934013483899
345;0.9695366536843956;0.8368945919048901;-0.3851073272171198;0.4670888357083487;-1.2013176514259678;2.131694567295168;62;1.2566370614359172
346;-1.537568703529137;-0.9018344810554568;2.215990846817067;0.0952209132548131;0.2999906531459109;0.1803167844165125;266;1.2566370614359172
347;-2.748396055894403;-0.3790077099420144;-1.462802365291462;-3.2573366528661847;-1.744468503067662;-3.208226528113221;300;1.2566370614359177
348;1.1995205648202438;-1.235688451248936;1.874465876523544;-2.999253931759925;-1.000466045362096;-2.346736848638225;76;1.256637061435917
349;1.412751582924066;0.0270296108909063;-2.7491771127438542;-1.0857966825779957;-0.2126393742982786;1.032641529623711;278;1.2566370614359172
350;1.3539511145260332;0.3064694115515506;-0.632918132024183;-2.271775562611611;-1.6496266652081553;-0.785640268889598;341;1.2566370614359177
351;-0.979036002202302;1.3284741641131326;-0.2031841791669967;1.4751174163325314;0.8561754189032897;-2.0858406790683257;29;0.8348616427005261
352;-3.2656815859111785;-0.2226525859902728;1.138129192810865;-2.652836198375094;-0.0697641794635548;-2.680059257943626;319;1.2566370614359177
353;-2.2235582287349764;0.941743505396527;-1.4460755246648331;0.5930633978787566;2.827291104676708;0.8374545384601213;189;1.2566370614359172
354;-0.2520407490488961;0.0095395686996417;-1.5879097170479366;-1.6078085161187878;-0.1997157684687479;1.530023292118052;108;1.2566370614359172
355;1.4307968352950078;0.1773866147338149;-1.0514093588405289;-0.3548432542541917;2.1039484302644453;1.4772030690449531;302;1.2566370614359177
356;-0.0104024083831996;1.17345758959213;-2.1134466094899462;-1.4571427563056711;-2.70970529659846;-2.733164076715141;282;1.256637061435917
357;-1.6930602979233431;-1.2708229505458546;-1.7406945222276442;-2.715900994520679;-0.4646136466817736;-1.7981067634060115;153;1.1482916451081673
358;0.5578432638478533;0.1555834802571855;-1.1776491115554153;3.103279975892228;-1.4562516276822266;-2.228120201925324;193;1.1900730431563866
359;-2.859788162304655;0.9667545641561434;-0.8920800316467437;-0.1508529011269334;2.61017231636568;0.3214510614411969;353;1.2566370614359172
360;0.8201434633607104;0.2926887822110112;-2.103674793015338;2.5154634148042287;-1.4199850382757648;-1.6922374647839264;358;1.2566370614359177
361;-1.0225497058343218;1.1133602724115668;-1.8909514515576848;2.7645052999392514;-1.327168348546155;0.4169972565420425;180;1.2566370614359172
362;-1.989930229531311;0.8884166523929193;-2.06119417152036;1.9207207224225653;-3.17403647170534;-1.3130460692865251;156;1.256637061435917
363;2.684994465371604;1.2452708259054863;0.0097361869358167;-1.769831297059616;-2.1553689769957183;2.0265948033019185;226;1.2566370614359172
364;1.9087971866599007;-0.1011107564803425;-0.9709138287383854;0.5034719102120374;1.414349624611811;1.7103567047006782;355;1.2566370614359172
365;-2.2504825147478478;0.8062337347705605;-0.3371694723924974;2.729562075534234;-1.6533196058451027;-1.187160898831655;323;1.256637061435917
366;-0.1466739159465581;-0.0380945529626631;1.7015804532713636;-0.6496969854608117;1.2233707952418449;0.6615727190093101;39;1.2566370614359172
367;0.9293703388452724;0.0506770862464318;-1.6408989923141433;-0.0420290586112234;2.2663321062545485;2.393682016444332;355;1.256637061435917
368;2.1509713268722352;-0.6939312362934222;0.2569263061633288;1.4045187874271488;1.5338870676590886;-0.7251709184632394;144;1.2566370614359172
369;3.1544914329889067;-1.5488187392669517;-1.0383399166129683;1.6366410330874288;-0.8616001593862803;1.241437230902532;161;1.2566370614359177
370;-2.537711615747893;-0.5432250387221254;-1.7383397299787229;-2.6659684192889204;-1.3330160182009134;-2.913533905600016;347;0.867830271701414
371;-1.4888292483260144;0.9561136122205772;1.3749295532982873;2.6136628271774702;-1.0789451351313668;-2.271834806548503;91;1.256637061435917
372;-1.0524671059264;0.5153692779465207;1.5874681649087623;-1.3019026463767345;-2.590929381231517;1.3793608372672768;137;1.2566370614359172
373;2.62418667843618;-0.7485353800669063;1.9643418593851307;-0.3317154006048944;2.3063710608676518;-2.2859424295282347;257;1.2566370614359172
374;2.7263955095083903;-1.3710895374684284;0.1707937317057543;1.6980864067819166;1.6398860156206978;-0.9128967824661552;368;0.9642270994499345
375;-1.3357965757274417;0.0079203330147064;-0.0691300231498696;0.5062006836599643;-0.4331884380855219;-1.7189533577337328;238;1.1830869705176383
376;-1.92307821650485;0.6324684073685257;-0.688311408689714;0.0185211038318731;2.1881227674463366;0.8463884553568308;353;1.2242796270898295
377;2.3338948030485613;-0.7774906084951547;-0.565262002316851;-2.756584110623816;-0.3576910007050033;2.8586675064873788;218;1.2566370614359172
378;0.1244003969420912;-1.1478884165485042;1.7636390560471078;-2.0515047109387474;-2.5507182232095467;2.285378040283649;250;1.2566370614359172
379;2.9982104562969507;-1.1483570570058113;0.948771344864784;-1.4485046493071017;-1.32204308234735;1.60437885193096;83;1.2566370614359172
380;-1.8513393898137664;1.2224112903381643;0.3745850325792729;1.3190331319190467;3.086448630964811;1.4754772783714707;289;1.2566370614359177
381;1.5890169537827803;-1.4633075533667756;1.7799380434920968;-3.301617648652781;-0.0395395032974373;-2.5206599644542105;348;1.121385879451919
382;-0.7124003348575254;0.8941670298077564;1.0340572435394495;-1.4840927249775684;-2.9959912500889074;1.353916087769021;372;0.8736776128017791
383;2.691605158313786;0.6222736411592038;0.8314920793936422;1.406223388057019;-2.806661764017261;1.6448872687364735;55;1.256637061435917
384;-1.629651976824669;-0.6151504011528165;2.126983222003482;2.0448005399047275;-1.4823756270373054;1.6123478153612083;104;1.256637061435917
385;-0.831702962587132;-0.0101936830796494;0.905698518162456;1.0470499065356969;2.076508175465601;-0.5161016222917127;97;1.2566370614359172
386;0.1533669271481843;0.9723702805808856;-1.9078348458820396;-1.706925268007597;-1.6470314761114495;-1.1737864051909708;282;1.2566370614359177
387;1.757421301987953;-1.1056746412856204;1.364355325043452;-2.3418603530839586;-0.7536028606231577;-0.8336596985559418;76;1.2566370614359172
388;0.3800947706219521;-1.592787927729818;2.4374301036580577;-2.699476703957288;-0.404259660099586;-2.2129426981536064;348;1.2566370614359172
389;-0.3502187222324004;1.3156487548271083;-1.8750415445146635;-2.662090901653947;0.8429260217192257;-0.0316222431195273;179;1.2566370614359172
390;2.576227845391412;-0.0547703293489759;1.0553693043368328;3.301656754845158;-0.2722844503941758;-1.7455525550623412;308;1.2566370614359172
391;-3.0753453936729955;0.0028960926237646;-1.9042167937774512;-1.1624846777703004;-3.13627332332676;-2.639330552389492;227;1.2566370614359172
392;-2.041106398206043;0.9297165263498396;-1.7145677355818556;1.040461317478752;1.814129993953485;2.5428401562148317;296;1.256637061435917
393;2.0415533878204144;-0.6017139353213095;0.7229781359117662;0.4392750642979638;-2.461757217241053;2.289711453420077;125;1.243035616224298
394;1.1346261225753556;0.6960848058270536;-0.2587150665075102;-0.036899559678774;2.616864937388449;1.956615232386821;355;1.2566370614359172
395;2.3347966292013207;0.8434563130432577;0.937651308090648;-2.723982183858979;-0.9973980699502424;2.1099949970106167;226;1.2566370614359177
396;-0.3749818968874683;-0.3362121366619162;1.5371550459362968;-1.6831199434091224;3.1772437059811454;-2.932608521974834;167;1.256637061435917
397;1.483231705124464;0.0185210652133851;0.0483982516737549;0.4993367540753255;2.7025786261204257;2.7371941320289848;394;1.256637061435917
398;-2.8596219386558808;0.8759038182263019;-1.7707733532174632;1.0133139754670302;2.294066072666025;-2.5158048430447857;60;1.2566370614359172
399;-2.289915384490312;0.3428797832174324;1.836305296432308;0.9141736335476528;2.8575901372978336;-1.8526196160962969;155;1.2566370614359172
400;-0.0697233821864071;-0.082203101565863;1.0487524713986176;0.7314879976102892;-2.312629102043344;2.0224396733078804;73;0.9292549109306876
401;1.0028595556990452;0.2644399565914989;-0.7717424703466053;0.3122146748939262;0.0095264211487805;0.2064631100466853;86;1.252665624988833
402;-2.670874089755805;0.9480484290648632;-1.661605817519857;-0.8574576991697971;0.872868491682325;-2.465255165801245;162;0.8637748810902427
403;-0.1399181874241106;-0.3587334649185315;2.140168275748504;3.1924193006925403;-1.1983627513540636;-2.108536489513797;79;1.1905600503314613
404;-3.3414930218257832;-0.0328527538600411;0.9586166223440268;-1.0535178062540564;-2.9113209331208822;2.085353495837042;219;0.9011059681863208
405;-2.4714708450418104;-1.5183631910333306;-1.1196453612107464;-2.9419990802125207;-0.4741122725084918;-1.1088862435413434;357;1.2566370614359172
406;-0.8778333442781936;-0.1738436324384601;1.2312518603698286;-3.0899856141952133;1.0791110196759306;-1.0820892843146896;82;1.2566370614359172
407;-2.855445056191037;0.4256786913831697;-0.656512900121039;0.2380677108733391;2.049407108540886;-0.5532751856246175;359;1.2566370614359172
408;-2.8245499876124835;-0.0882469089644111;-0.5512893770699596;0.1680583761831137;0.1837891041795921;0.018754171837669;120;1.256637061435917
409;-1.1410168233583888;0.4321358106723802;-0.9825404741854714;1.1961545231909734;-0.8635087917073089;-2.7485345579230613;293;1.2566370614359172
410;3.227873231452019;-1.6484020204672658;1.8729461914132863;-0.7272941277568342;-1.49633824677813;0.4885850064403643;83;1.2398124347709445
411;2.272425332809769;0.3309185333928368;-1.2658588237648518;-2.0579866495893566;-2.749415896666623;-2.0347675365411333;341;1.2566370614359172
412;-0.4069452895994165;-0.4453593317410918;1.2870775073510183;-0.2686310328704935;1.8575529307832592;-0.12983108611019;366;1.2566370614359172
413;-1.5269813178340734;-0.564973626758246;1.914737306698539;1.613580396099254;2.786510181639465;0.2039822478062638;97;1.256637061435917
414;-2.1257703686728724;1.4501817278470563;0.1803415379438342;1.0987074278443978;-1.8649341211878825;0.0328129588526069;271;1.2566370614359172
415;-2.3716604013525657;-0.0586602766482393;-2.5412288934284346;-2.3499120487892435;-0.0557420139641712;1.4808062257461374;121;1.2566370614359172
416;-0.3888401324258766;0.954107236415537;1.3834185249633042;-3.2450432125454274;0.4562003682354001;1.4505148666593075;105;1.1997294428673342
417;2.038954096951068;-1.1141167383074322;-1.3228190100591493;2.1677668468551734;0.3248851182399378;2.100831344257197;223;0.9242985225241072
418;2.3009387332620888;-0.9042333878113188;2.429469099543057;1.3914136910862014;1.5147746095304535;2.1180382208338995;229;1.2566370614359172
419;1.5627026729452531;-1.1308687374790938;-0.2270896090925572;2.772672579800782;-0.6479960024880066;2.3549288497454857;245;1.256637061435917
420;-1.3969958072551216;0.5550077020940212;-0.8715869115994878;0.4707678992027537;-1.1497591305166812;-3.482527458331703;409;1.1134648730555683
421;1.3791688266332454;0.4502011114098281;-0.8948906770412592;1.6572495745970155;-0.0293584203546007;1.1581352278353114;25;1.0394235831563388
422;-2.9379511822490567;-1.011862789817421;-1.1579250252199245;1.1018801919408818;-0.9284249470705342;-0.4107491029788238;120;1.2566370614359172
423;2.098721544941688;0.0275197940887765;0.7777436127532833;1.6186456996536631;0.0863295156194122;-2.466011575938224;308;1.2566370614359172
424;-0.9486645729842482;0.0983430036474966;0.5702169110366293;-0.8856928068160795;-0.6897136464792661;-2.124614168560034;17;1.1033005503551123
425;2.842066163781088;0.003212213541109;2.0432006543237176;1.3770953002935522;1.289927601028933;2.5546616507927173;418;1.2275507893289397
426;-0.4370269149742384;-0.5934669795064468;-0.4262638560198807;-1.9830263981665284;-1.0189315829864547;-3.2779467872893258;231;1.256637061435917
427;-2.6173317281992534;-0.2621096802173218;0.7603681928984196;2.5699584587068385;-0.1149310895712204;-2.360490754149556;91;1.2566370614359177
428;-3.1979640499806816;-0.5865121022436182;-0.8225049667633122;-0.2634445006517039;2.435862914769724;-0.4590876827385831;407;1.2566370614359172
429;-0.9234312132713997;0.6846505809102683;-2.2048524879135654;-1.8420801398825457;1.0856388713666432;-0.1425411937736559;389;1.256637061435917
430;1.8165259372631644;-0.6820878503108104;1.426268166438745;-2.465053768496441;0.7869038036439193;2.1211497398211585;276;1.256637061435917
431;-0.6070331090299638;0.5057869600770586;0.3398896253659127;1.570663108441454;0.1466184056308848;0.1014079895070079;42;1.2566370614359172
432;0.491519925847227;-0.6398403029965304;0.7020392950867969;-0.2988675661407555;2.130642499797344;-2.4973963064571434;167;1.256637061435917
433;-1.6237901997263735;0.4497329100159949;-2.27651634554861;0.3080568851556569;2.4237341863665174;1.0463127056119277;353;1.2566370614359172
434;-1.685689978658906;-1.7587891254784855;1.3512331306091692;0.4075559815904943;2.268005449461407;-2.4286128663675302e-17;268;0.7028828341234572
