Komment314/test_diploma/benchmarking/path_finding_for_benckmarking/pre_rrt_star_results/4_1_tree.csv
id;joint_1;joint_2;joint_3;joint_4;joint_5;joint_6;parent_id;cost
0;0.0;0.0;0.0;0.0;0.0;0.0;-1;0.0
1;-0.8463918609646568;-0.0030459389798335;0.2592049967752448;0.3208605016019705;0.7685397214655864;0.319305885963429;0;1.2566370614359172
2;0.6880474919819326;0.1907890051421157;0.5628998987606246;-0.7536889041339947;-0.4294457453848257;0.0;0;1.2566370614359172
3;0.5583266325877814;-0.5134577458449764;0.8014419453472719;-0.8407643228842678;0.4246544398219992;0.5218947725603797;2;1.256637061435917
4;0.7149429921874253;0.0281186575158411;0.9584031475201767;-0.2600930023080613;-0.8082522246443582;-1.00419002755376;2;1.256637061435917
5;-0.8443677573393036;-1.0776352299517944;0.840951795727616;0.450195142753822;0.5989274327276938;0.1181458826748143;1;1.2566370614359177
6;0.1808031322770676;0.0304814038305321;0.127238324882519;-1.0462262138172704;0.0456027723316233;-0.4358044710554782;0;1.156028944384302
7;1.4114719911156417;0.2623876091472403;0.5589492529018523;-0.6874955180996003;-1.188306267769099;0.6858577649492832;2;1.2566370614359172
8;-0.994374546849399;-0.245898417463147;-0.516910615481051;1.053357014894888;1.346660578775678;0.1607808364729935;1;1.256637061435917
9;-1.4591298441592702;0.0777593691444676;-1.191874110773411;0.2347233203332468;1.69260684639291;0.274663183822153;8;1.256637061435917
10;-0.1689658177694195;0.0348863159837657;-1.0588024022899478;1.1535481959342588;1.8131318561277432;-0.3848533208453908;8;1.2566370614359172
11;0.6555724396848438;0.2221243906678634;0.2064018584226634;0.618867861180339;0.8212326581475755;0.0;0;1.2566370614359172
12;-1.4806145512995992;0.3315037942856353;0.6684655190506101;-0.2180515169490026;0.9852850580153149;1.0676880606995482;1;1.2566370614359172
13;-0.4221095896946234;0.3042537420298659;-0.3341774941565528;-0.2542374041019239;1.1834220715053745;0.9899178590504056;1;1.2566370614359172
14;-1.8748390511795416;0.3535529624341159;-1.5991122151372206;0.1729669849107753;0.637543706609632;0.492483076699896;9;1.2566370614359177
15;-0.0625569153190718;0.4379800599595342;-1.1628365590990195;1.7993867704392832;1.293323188073936;-1.2258037722607404;10;1.2566370614359177
16;-2.2775522682482574;0.3768745687336048;-1.0856405549410686;-0.0574636586505923;-0.3487976444539181;0.1364013676533564;14;1.2566370614359177
17;1.3270373689482118;0.0461180713835153;0.3790387537520255;0.4633121556442869;1.6537975027813674;0.59171617591692;11;1.2566370614359177
18;0.1540390243517294;0.414267001020762;-1.3201221270717711;1.833729602747928;1.6294869383538702;0.4904835693872799;10;1.256637061435917
19;-0.3122855565199972;-0.5295860339047079;0.4697924849225294;-1.7206270678291222;-0.602781408160702;-0.2632854739043373;6;1.2566370614359177
20;-0.0002978434578779;-0.2471829646528286;-0.8512042631321104;2.1668677820937345;0.4239973564473497;-1.5692098853395196;15;1.2566370614359172
21;-2.0608589651656435;0.2893482092495284;-0.7856669203048104;0.3834963846691798;1.713832306519074;-0.7176576843612816;9;1.256637061435917
22;0.6388575127266396;-0.3021017374155668;0.9412153732300352;-0.4635452260744662;0.0290815790686691;-1.8535933881427047;4;1.2566370614359172
23;-2.2652856092025826;1.052989874438232;-0.2302388238964563;0.6082346185652378;2.382758967194138;-1.102010825565425;21;1.256637061435917
24;1.1563285431521333;-1.1082642240237868;0.2068110960546063;-0.558232269363785;-0.3041908490889537;-1.8991641261201544;22;1.256637061435917
25;1.8509056315577368;-0.2432759199094667;0.0025921668516246;-1.0566000957429855;-0.0699892592762733;-1.9588998783644844;24;1.2566370614359172
26;-0.4234369294806636;0.4169710141789894;-0.150303132391527;2.263798338866784;0.435575024093857;-2.246112788389928;20;1.2566370614359172
27;-2.155476134492149;0.1126365824186269;-1.4184141847065437;0.5541487737424204;-0.9287176288799384;0.9569482364353914;16;1.256637061435917
28;1.0860973823393874;-0.0930933296360389;0.8241419342752063;-0.5728711334565264;-1.6743823519419851;1.6993495028959311;7;1.2566370614359177
29;-2.3358519794285915;0.4613502739778761;-0.949769167508532;-0.9312816088196776;-1.218879023526864;-0.0354743226115727;16;1.256637061435917
30;1.0314631487053831;0.944470822889704;-1.4926341115479136;1.401837792257873;1.676049569566702;1.0469802163406572;18;1.256637061435917
31;2.233196620592942;0.1348189650110243;0.6039550210552616;-1.9849842925983063;0.0422295413121769;-2.1910786958340904;25;1.256637061435917
32;-2.73554760213226;-0.536247182138037;-0.1803956232763763;0.1617885385242371;1.857384114326881;-0.7964571987534244;21;1.2566370614359172
33;0.2082030571527779;-0.8172531353445054;-0.0495840700883132;2.1716716537587635;0.2785853325890629;-2.30875123735798;20;1.2566370614359172
34;-0.0243596173442073;0.0707931912492311;0.4748726066772701;0.947549595885193;-0.4532173262701774;0.4947438359633648;0;1.256637061435917
35;0.4570387473740531;-0.1868199230312263;1.2512768976800446;-1.6460586992013884;0.694395021229973;1.2557712628938698;3;1.2566370614359177
36;1.0511548931927663;-0.3887622826209493;1.4746515417012662;-0.818511871677305;0.4255833080887625;-2.76675735901543;22;1.2566370614359172
37;1.1482972375038076;-0.5365128761312206;-1.145497396961741;2.262359625360792;0.1645244110936582;-1.454750738179946;20;1.2566370614359172
38;1.0846890065871144;0.0844665723926872;-1.310581603865869;1.868434259703288;1.7543390492434074;1.808368277542175;30;1.2566370614359172
39;0.3016840858944096;-0.8520714051973338;-0.5978193850484524;0.1475204538694021;-0.3363703975329483;-0.5194250582628601;0;1.2566370614359172
40;1.5772139229060227;1.150802427956829;-1.0203709488268042;2.082897610846412;2.0819046625895954;0.4247851203359501;30;1.2566370614359177
41;-2.0649158933126444;0.0245859415397629;-1.8500339892248867;-1.6250096870551178;-1.231584635117504;0.1164152129274194;29;1.2566370614359177
42;0.5441887395539662;-0.6614374007553797;-1.1824225348528878;0.7900661194824461;-0.8640369984085017;0.1520874558716456;39;1.2566370614359172
43;1.1569110365223736;-0.0890944640885182;1.3388516937647974;-1.0213954812541477;0.6735688757996552;-0.2460026705058823;3;1.2294101089997802
44;1.8285872368343676;0.318768137163483;-0.8245860242429213;1.889594009480144;0.8977959900135435;1.7849278591001172;38;1.2566370614359172
45;0.4923995174645167;1.0290983402235911;-0.6068513078474381;-0.2703501697989245;1.554208404269245;1.062835422853993;13;1.2566370614359177
46;1.438557391274954;-0.5923767520004426;0.3777091963766217;0.0517312433214226;-0.9280230327127718;-2.564683064126513;24;1.2566370614359172
47;1.573521908409798;0.1267245951498724;-1.2383800125627409;1.412745606451398;0.5772371596690868;-1.6948210734379907;37;1.2566370614359172
48;1.914909582555191;0.1547042088153139;0.9577582782712072;-2.140094619224713;-1.0922114771973923;-2.3941606003714093;31;1.2566370614359172
49;-0.8053742453170621;-1.089653471639947;0.8123466449625389;-2.395027921840974;-1.2511655886530273;-0.0907664767531969;19;1.256637061435917
50;-0.2815712994986174;-0.2327343193246548;1.330917568207664;1.6822765457885902;-0.8143905396036742;0.6280373015078111;34;1.2566370614359172
51;-1.9196527660547045;0.1610390290086001;1.4585138688462935;-1.0685556001744816;1.0819123638756096;1.088983297774571;12;1.256637061435917
52;-1.6005464699053835;0.8642954586488223;0.7572599653984747;-1.5705536176988648;1.410233536060634;0.7267893838311084;51;1.256637061435917
53;1.1784873659382225;-0.069683674710374;-0.166109249968136;-0.2057627299001585;-2.1970858630223544;2.1253399192298823;28;1.2566370614359172
54;1.0673859182855894;-0.65400966049071;1.554611427690524;-2.363487339373864;0.4458442262480142;1.8213272688071245;35;1.2566370614359172
55;1.2147675231040358;-0.7563165444583821;1.848339859068162;-1.1206938388981498;-0.65328746242616;-2.9162646725205983;36;1.2566370614359172
56;0.7939528863818257;-0.1996000581383825;1.8349819292936231;-0.8686967675158197;-0.762100959182728;-2.8328030544473624;55;0.7546558034369435
57;1.6626539751251728;0.2667868516847602;-0.6060907303417318;1.7646557623923522;2.299869218994679;2.446468568706654;38;1.2566370614359172
58;0.843183641968436;-0.7274483224719965;0.3699409517733793;-0.8125571292455588;0.7653105904742878;-2.4587965682922746;22;1.2566370614359172
59;1.4539473166153278;-0.666863044664018;0.2295862624731033;-1.1386887091742046;1.7117324758784356;-2.0337574752528518;58;1.256637061435917
60;2.128582916720481;-0.3342075353102083;0.3170841279705652;2.1100326733903687;2.3785641879915764;2.294406921527532;57;1.2566370614359172
61;2.4397105143858044;0.6003866896896;1.6973576319356911;-1.9871680153352025;-0.7017468150009556;-2.401143388067825;48;1.094053953731183
62;-0.7746717049584011;0.8048801569409847;-1.0375376312198523;2.480330210518636;1.0706800150487883;-0.5866951923020925;15;1.2566370614359172
63;-0.1775475894941135;-0.6566638127866247;0.3350617814395873;-1.5780968965216404;0.4254526679503154;1.4539748684500318;35;1.2566370614359172
64;1.8553428761400728;-0.5037965871420167;-0.7764948399950681;-1.852857022087746;0.1978562876593778;-1.5133630078622589;25;1.256637061435917
65;-0.1467905196837557;-0.4925166165417045;-1.9443851661399156;1.3161068438635175;-0.5034632945461026;0.4450564730662352;42;1.256637061435917
66;-2.527946103543517;-0.0738263462738198;-1.4222456458391424;-2.3225134310974918;-0.8098616765809383;0.8289390067395775;41;1.2566370614359172
67;-2.4884982758731606;1.2065217251358922;1.0500589208888311;-1.101222045851611;2.01483860894317;0.7716093587867827;52;1.2566370614359172
68;-0.9196368878542676;1.0402973146835193;-1.318341372828108;2.1816636920682764;0.2166300527922793;0.1912808954974566;62;1.2566370614359172
69;-1.5569923469235776;0.5498170742940803;-1.2809520371357253;-0.4327694150403325;2.131107022661776;-1.1320194997791737;21;1.2566370614359172
70;0.7776402182803075;0.13818529848561;1.69299277617585;-0.5737214483542364;0.2189705946390478;-0.9995986358976504;43;1.138374659907199
71;-1.5541233785567106;-0.8532868707994604;1.1606978755333104;-1.8296583206903936;-1.971157774078756;-0.0336511825244972;49;1.2566370614359177
72;1.679941470822598;-0.1344232117697561;-0.5872824088497453;-0.9847525210300428;-0.7404652460031457;-1.1013411864834537;25;1.256637061435917
73;0.0783190855954628;0.4126398359513166;-1.958861478151429;1.1463090508682183;2.2956890488398933;-0.9612810868266132;10;1.2566370614359172
74;-2.3049195890176843;1.0460094229716672;-0.5763796598298191;0.6667138060353966;-0.2855306044137212;-0.4491444484601418;16;1.2566370614359172
75;-0.2500129613999644;-0.7104474418888076;0.435885551421375;-1.1454185190836828;1.238178512183316;-2.670974310217216;58;1.2566370614359172
76;2.29458198356475;0.7484089744899733;-1.0000940009673307;0.9305851745450502;0.6131891983787274;2.1668864038052384;44;1.256637061435917
77;-1.4429530731193956;0.3369613784911955;-0.3065140406377293;2.316761215507304;1.603986315217223;-0.847507036360754;62;1.2566370614359172
78;-0.1158797887424704;0.2260319990856686;1.519231476496588;2.3590456728481275;-1.31285594697201;-0.1460881087397947;50;1.2566370614359172
79;2.9278221899157195;0.187415129648732;0.7701247122205537;-1.249893033283782;-0.1115900236089215;-2.8997631684646223;31;1.256637061435917
80;0.2993847682777374;-0.6393133148617228;0.0526676511416439;-2.3507025826487613;-0.6542578744337703;-1.0502530296764818;19;1.2566370614359172
81;0.8860888176095685;-1.1838943286462047;2.2091887180566467;-0.6548382247555763;-1.6180790480171294;-3.017398718762345;55;1.256637061435917
82;1.419186406833587;-0.9074851600711222;1.889855344346134;-1.3753194952253485;1.245433791350384;-2.908293019804737;36;1.256637061435917
83;2.523002716359159;0.7948279749261683;-0.6120204344262279;1.958838472233272;0.4485808976238647;0.9984688633392046;44;1.2566370614359172
84;-1.844863911290764;-0.3734218420456492;-1.9250559873724336;1.1220893484986612;0.5461647901050223;0.6777480726149914;14;1.256637061435917
85;-2.309774919535283;1.2339866520648015;-0.426817699110295;0.3660435501183846;3.154955637998966;-2.024404508171389;23;1.2566370614359177
86;0.4403456701440075;0.2265822633876866;1.903837622884108;-0.7683220568139724;0.7182805364988551;0.7962834542385119;35;1.256637061435917
87;-2.565910821903873;0.2484880377662724;1.4866270233430623;-0.9042505705456289;2.60312421313676;0.4890389543028965;67;1.256637061435917
88;0.6987698230785919;-0.8238877791907647;0.911885215930908;-1.718132325824783;1.6839666314620234;1.379116488942158;35;1.2566370614359172
89;-0.2514468504834543;-1.1342813868868704;-0.082522326380519;-2.9688603176154658;-0.3298014927724325;-1.774863670435058;80;1.256637061435917
90;1.167397652785361;-1.1027710342986652;-1.2107610641594495;0.951035773670192;-1.589626236223333;-0.5133281546316206;42;1.256637061435917
91;0.1810262020355103;0.2873135070257486;-2.2803686351520644;0.5695967659515451;-0.7717922876907091;0.7934459721570173;65;1.2566370614359172
92;-2.784054669799753;-0.6976880035396031;0.6181200907097999;-0.2922636595681674;1.182922566973419;-1.298484595228916;32;1.2566370614359177
93;0.4764628723664571;0.7669730153126546;-2.111136833958137;0.6556353086006519;1.3269309906150983;1.4693051852083594;30;1.2566370614359177
94;-0.7806023821722241;-0.6466724761566138;1.3197037370709723;2.3533274995379005;-0.5730310776150614;1.4343067121829356;50;1.2566370614359172
95;1.5828250086660858;0.8886155751313837;-0.7310526632043869;1.8371078867031896;0.6421736800014538;0.6087881783524505;83;1.0540618789127578
96;-1.5348341957666345;1.09301190472805;0.8529708568698803;-2.220407362678626;1.593873803041756;1.7550467330522703;52;1.2566370614359172
97;-2.1578362213708253;-0.5578610177648847;-1.436538286538197;1.6427230847001202;1.2574955905778344;1.334609312723362;84;1.256637061435917
98;1.9296916533516015;0.3183144710272398;1.157678989643717;-2.6786608724318617;-0.8368134945403026;-1.3185678116350663;48;1.256637061435917
99;-2.147313887057499;1.1937411319323448;-0.091589028207931;-2.285311376773819;1.53283337802353;2.297012704020088;96;1.2566370614359172
100;0.6323188353434517;-1.462739293487907;1.3414394970046215;-1.9062581257514333;-0.2315481037920558;1.671498955036068;54;1.2566370614359172
101;-1.4179649582371343;0.7360242580145431;-0.3724619795363499;-2.5379408581819365;1.2260995592030903;3.072180558269189;99;1.2566370614359177
102;2.1503430347001498;0.2187324872795857;-0.1137215278933643;1.122989519894312;2.6109228164283027;3.213325481467564;57;1.2566370614359177
103;1.3795925762793453;-1.0313767030853978;-1.2768894669016324;0.9577829693921532;-0.741588773056614;0.9841544816960248;42;1.2566370614359172
104;0.9025562952201566;0.9726474105272128;-1.862302115954951;0.1262393061878914;-1.0583987008702778;0.4255332354416805;91;1.2566370614359172
105;1.7961746259629487;-1.1363993538312385;0.8992328705440704;-1.0762083410163044;-0.5183933163744652;-1.2865367619143435;24;1.2566370614359172
106;0.853223924463464;-1.221505781160178;0.0582812379315682;1.8757330191286328;1.2033434108875063;-2.521524543343239;33;1.2566370614359177
107;0.2969713267076059;-0.2594473434415628;1.1792064656432049;0.7097758639562046;-1.0500279184010632;-1.5275321498688714;4;1.256637061435917
108;1.6630273977708834;-0.0379165865339585;-1.2104621834456215;-0.0655412811102323;-1.955848264316012;2.5434521415354667;53;1.2566370614359172
109;1.2507673144669005;-1.3374263587737332;0.6911015490803084;2.466779467823558;1.048236262930681;-1.7254072788274886;106;1.2566370614359172
110;0.6826512568741826;1.022543389774855;-1.1404737054353875;-1.3569155364875576;1.444497805396502;1.3187346953241983;45;1.2566370614359177
111;0.1097974993166682;0.6236289434319578;0.4993361321456856;1.069372329281619;1.3209161339553706;0.7626350190319787;11;1.2566370614359172
112;-0.6152233217077553;-0.0432784365897787;0.7055120778913444;-2.2219688614452213;-1.812395069367989;0.2121147265570254;49;1.2566370614359172
113;2.49236757948809;0.7503849482615097;0.8135160339744599;-2.0434360366993376;-1.5124264178177451;-1.006420322557563;98;1.2566370614359177
114;-0.9575326271545892;0.9882749585195206;1.272238152823313;2.6753362514840457;-1.4930148805190733;-0.456314157212222;78;1.2566370614359172
115;-2.101904729643813;1.243635390385764;-1.3382819631100875;0.6138149287582645;-0.4882518339069047;-1.3842788453267951;74;1.2566370614359172
116;0.8441245338027559;-1.4035235924639493;1.168482620760116;-2.1763875222700717;-1.4242338226919773;1.744883933438348;100;1.2566370614359172
117;-2.5009504579763595;0.065819416416733;0.3000008526846722;-2.408634051135278;1.5603210898641535;2.409101028211263;99;1.2566370614359172
118;2.2056271052862355;-0.0143897343980985;-1.7139655840416963;-0.7872378935801321;-1.329915845736057;2.886986246560625;108;1.256637061435917
119;0.111230882446023;-0.9085396386940408;0.6254910606263302;0.967996564127508;-1.2626344941321368;-2.3670773529339733;107;1.256637061435917
120;1.2532288162588587;0.2366026766243048;-1.296647577042438;-2.0362623268167868;1.5012252678039106;0.9356487994486304;110;1.2566370614359172
121;-2.854892001581244;-1.1637078996574723;-0.7645950192231524;0.2131421748199944;2.691896557129154;-0.4347259185366603;32;1.2566370614359177
122;1.8621600374255;-1.434402092208532;0.8538408525899065;2.789195239568382;0.0164188050397208;-1.6962855957169996;109;1.256637061435917
123;0.7498223968055473;-0.7022095444832703;1.3966455035973622;-2.8271072146671394;-1.612372178146574;2.4982178283786363;116;1.2566370614359177
124;0.6189106073279834;-0.6285240673676387;-1.1245713024130477;1.4381387350521893;2.0295752674359098;2.5555780793955862;38;1.256637061435917
125;-2.0662037838165315;0.4036130958767812;-1.9750215418656392;0.1953262437617899;-1.575251259880526;1.750628730157358;27;1.2566370614359172
126;2.5617831235547155;1.3778492085470122;-1.4071061692821052;2.1988358760042006;2.6105033848726578;0.0845094505265678;40;1.256637061435917
127;0.8732529374441278;-1.5387989567719234;2.236731523923243;-1.716782802506688;-0.9903228493284998;1.9910526503577028;100;1.256637061435917
128;-2.9223644477202666;-0.341007022561453;-0.3258108198819223;-0.0885429240514305;0.7682100686100344;-1.871451984323217;92;1.2566370614359172
129;1.6507696454038725;0.3346869456792165;1.6662420225698062;-2.375510145393378;-0.3039292702914887;-1.005045531628328;98;0.900479917999646
130;-2.0460952236609797;-0.7431414083234926;1.3095641770904016;-1.483210512657532;-2.4270825626759107;-1.0210283711446992;71;1.2566370614359172
131;0.0373516796370713;0.9781251493888944;-1.6090041544722975;-1.2058399634541364;0.8376708327038485;0.5770011889464142;110;1.256637061435917
132;-0.0266086921250804;-1.1020895509667856;0.9025896686386232;-2.744756705039798;-0.5144311269261073;0.4562934551106456;49;1.256637061435917
133;1.2541133950312924;0.1220474233828859;-1.2635385882185846;-1.3854998515901458;-1.3281479423996498;-0.4941030349999383;72;1.2566370614359172
134;0.3095717537376741;1.228958727420387;-0.0982218627415267;-0.7855560591374786;0.098782012762971;-0.3679944881236237;6;1.2566370614359172
135;0.4505219270686362;-0.0903123454529017;0.2310528238512383;1.0845665004877496;-0.8528714150257155;-2.3549842713450992;119;1.0591677925051295
136;-0.9626166099330978;-0.2571621833331573;-0.592992923579784;-2.774740521054376;-0.2993784734800399;-1.8444904903478985;89;1.2566370614359172
137;-2.5672360713097118;-0.5194236053480735;1.382056093604611;-0.295591647188654;1.0824715278543957;0.7833302371013122;51;1.256637061435917
138;-2.709660117267485;-1.1866504059150862;0.1943620801146952;0.1333914615784712;2.342135328429218;-1.6791851970622964;32;1.256637061435917
139;-0.1886411615149871;-0.9552468333694746;0.63512154284516;2.7318803905148803;0.4989548906412379;-2.288819125362457;33;1.0040633600076414
140;-0.0178902524350905;0.3724007714997321;-1.817505676668332;1.1266893701237706;-0.0884635744865611;1.092517004872578;65;1.1866358578503204
141;1.5866723305120614;-0.0452091185654363;-0.0785586913601219;-1.6266752957043755;-0.6913688973610065;-0.1583654198904228;72;1.2566370614359172
142;-1.467519058284792;0.5882294217220776;-0.5814938308838871;-2.286078293306636;-0.6352760345834648;-2.352204073393937;136;1.256637061435917
143;2.159558946954971;-0.949302441714997;1.5922512829721815;2.5013061495627755;0.3411286446687706;-2.4186444747255664;122;1.2566370614359172
144;-1.6026763690227328;0.6387046536721196;-1.797941817012484;0.7091512540218926;2.4703786387215443;0.0589258495750378;9;1.2566370614359177
145;1.0869533162954537;0.2966567122198178;0.4084175513917397;-0.6471182461334661;1.3615012553208146;0.374743525140119;17;1.219361710608449
146;1.2094895310703748;-0.8884387948214565;-0.9586338983521372;-1.179337608729214;-0.3253478300979183;-2.0168656864249983;64;1.256637061435917
147;1.1653847908598454;-0.9705465558096162;-0.672484853598378;-0.4798605967622469;2.059475383121234;-1.846854323139856;59;1.2566370614359172
148;-2.550008826043681;0.7527137350413344;0.0814097341177829;1.1406237532595995;-0.3300792220099985;-1.328794097645568;74;1.2566370614359177
149;-2.3858455963430143;-1.0467138546548005;-0.5029881025598374;-0.5703761731887206;3.281737093602284;0.1266950717745363;121;1.2566370614359172
150;1.476241580373887;-0.4155155303251541;1.2680766490447044;1.0354467572172048;1.2619750433654449;0.861007846702412;17;1.2566370614359177
151;1.4429961732243108;-1.201822040058564;-0.8038222192716447;2.4229844322899554;-0.7797588152387396;-1.5790080947850569;37;1.2566370614359172
152;-2.000246816525026;1.0588316612544162;0.8224924670922387;-0.4951429227686014;2.340201973711335;1.6626509673469634;422;0.7241025628309277
153;2.0925346161865246;-0.1360410573258166;-0.5237892117980523;0.0304825699609652;2.907641061121564;3.200598926478024;102;1.2566370614359172
154;-0.8626080136364037;-0.2961731826421085;1.0519284455153417;2.8519212131359994;1.1490432963471977;-2.571263068279214;139;1.256637061435917
155;0.3093537390538187;-0.1069864533460066;1.1777919457242718;2.7325849787556877;-1.4700771397778265;-1.149373108953107;78;1.2566370614359172
156;0.2136240435985911;0.4071513561788379;-0.036658682685305;2.4475841153336466;0.261685193004768;-0.9890466960386484;20;1.2566370614359172
157;-1.86957350191824;-0.9847862377234776;2.216185080698968;-1.5137932938714205;-2.8908599111375333;-1.6930390585884665;130;1.2566370614359172
158;-2.7521980524004914;-0.1479902317712571;1.5858632666822954;-2.0936097337824275;-2.637951271719428;-1.5036841159110708;130;1.2566370614359177
159;2.3771981223782896;-0.5576202624124922;1.3609198696817957;-0.3955677925796894;-0.6696636371134572;-0.8312851690135505;105;1.2566370614359172
160;-0.3910872380523996;-1.359194547768385;1.562643075970039;1.44797169630302;-1.3560662941114343;-2.446850997099053;119;1.256637061435917
161;1.982098169854792;-0.0348823684252079;0.906215437680354;-1.0903325440417209;2.232092481324641;-1.6216241102585598;59;1.256637061435917
162;2.1102014023382094;-0.4512030922450222;-1.3172451283059647;2.5630940123101533;-1.2767938821747122;-1.7796755956463304;151;1.2566370614359172
163;1.525300762486366;1.401912961594579;-1.4329920935884577;-0.2780712668886335;-1.829870524582331;0.1723253964179556;104;1.2566370614359172
164;2.0332716805788067;-0.1118965277466574;-1.459882980405408;-2.3296750575175063;0.9888576057963568;-1.7850880775782811;64;1.2566370614359172
165;2.1398341464787403;0.0284628565835998;1.1727082562985325;-0.1079090818708461;-1.9833684577505648;1.8437067882014428;28;1.2566370614359177
166;1.518423363774529;0.1355421726096699;-1.6205630427781923;-1.9021693266976445;0.7370182364572411;1.5058200245701254;120;1.0547754016110416
167;0.199276970986105;-1.3590579573438089;-1.1887050117386184;1.1574394204194831;-2.29056378453683;-0.7177631840354894;90;1.2566370614359172
168;0.1514387074453006;-0.0223502507554537;1.2576347925937224;-0.0028748777182653;-2.0884285480914664;1.571681025598782;28;1.2566370614359177
169;2.5135590517522424;0.1991673891019549;-2.353622370712238;-2.3864476143513835;0.810292555235946;-1.138697107171605;164;1.2566370614359172
170;-2.3599241092806267;0.4288006408115462;-0.267474761493701;-0.4062769580356181;-0.8796999000263833;0.8411935913977964;16;1.2566370614359177
171;-1.0078079347136382;-0.5355760711737427;1.123312629376017;2.3258696208119978;-0.9643495021210368;2.584401672707899;94;1.2566370614359177
172;0.7934271358740638;-0.6074603650265479;-1.2048452124273623;1.9775873754248556;1.7258083443887662;0.2021589304502212;18;1.2566370614359172
173;1.4002357407300496;0.3628351960363805;-1.4272606008727755;2.163942633464332;0.0193161477538089;2.2132958647063963;44;1.2566370614359172
174;2.165622906452904;-0.1983478779938965;0.3550958263193858;0.8865081182214699;1.5248623156010062;-0.1955925507261668;17;1.2566370614359172
175;2.25399993874782;-0.7170536915674081;-1.4811299818782473;1.2788253238867424;-0.5199271271204275;0.2617742172583753;103;1.2566370614359177
176;-1.0804558778608366;0.0645917722361159;0.8545830391350535;-1.6605193581665798;-2.3433334850323284;1.06751877931298;112;1.2566370614359172
177;-1.688414031626202;0.4162200761730324;-1.4563469901557973;-2.573736909837948;-1.1265964053392172;1.5141981415837047;66;1.2566370614359177
178;2.1003480108048445;0.1827421247791534;-1.2956020002550113;-1.0000753606499564;-2.4630812481645985;2.094777332146642;108;1.2566370614359172
179;0.368333178626334;-0.183299123404693;1.323151573737208;-1.4509722702801002;-1.6543680536849894;-2.809071089688292;56;1.2566370614359172
180;0.3549556926386625;-0.2591779588595344;-1.4001429294241683;-1.891589769037418;-1.9195536690754609;-0.5218672964430912;133;1.2566370614359172
181;1.352358450810163;1.1071529386825316;-1.5016694004835012;2.1671402952752503;0.8000906608936753;1.7312840593083696;44;1.1816269629789409
182;2.426579105171819;-0.736006133926907;-0.9857244622325996;-1.1420637403915583;-1.90285759584199;3.04537793756197;118;1.2566370614359172
183;2.515189930024392;-1.1564560634080188;0.3882563158933363;2.747442027776873;0.7343453471237983;-2.2806689093784467;122;1.256637061435917
184;-2.199040952142002;-0.0486105881374806;-0.8689405135471928;-2.602245361590142;1.507785222186981;2.919104310924912;101;1.2566370614359172
185;-1.8035353277273392;0.9778217849454764;0.0553672288519463;-2.354309717510695;-0.4454302881579879;-1.4204537756909503;142;1.2566370614359172
186;0.123740189847872;0.1950040402414485;1.8827109584248087;-0.4675806067323985;1.2104029187256131;-1.3432935113262967;70;1.2566370614359172
187;1.782298144825782;-0.2014941626425749;0.9752983869311812;-0.3986596357275077;-2.953463698224539;1.2659238148255607;165;1.2566370614359172
188;0.0705096305091408;-1.283761116130154;-1.085590032857234;1.6514960244075203;-2.290761385622792;0.1656699031966609;167;1.0283138274607049
189;-1.6043756966164378;0.8154306889304255;1.3879475693426877;0.6493423959296355;0.937418400928982;0.9183178128868348;12;1.2426308257219203
190;2.1034607477785;0.4680865183989364;-0.6719858193006981;-0.787466962970768;-0.8449259170894683;3.009372077291634;118;1.2566370614359177
191;1.775582196670861;-1.0786482175440584;1.817549912008716;-0.3571941564114285;0.1548372283022067;-2.3487831774591923;36;1.2566370614359172
192;1.1126757054055694;-0.9218666118889348;1.5660047366522805;2.8229458093459687;-1.4969341731860697;-0.8174313990467799;155;1.2566370614359172
193;-2.702649385697877;1.4074116209015946;0.2160061251620622;0.9380786339880977;2.19983214749696;-0.1424062161648189;23;1.256637061435917
194;-2.072114124961844;1.4718834034591723;1.098018896778759;2.742716176681432;-1.6253407020965502;-0.2314472313413706;114;1.2566370614359168
195;2.4033029962754164;1.016403285928201;-0.0310850542527621;1.7387025972343937;1.066275866852349;0.3304423161984272;83;1.1301220746130003
196;1.7523425351028965;0.9325190921375356;-1.1035074920754302;-0.8949781626593807;-2.373371555113946;1.2150349089388297;178;1.2301274703122
197;0.9678251303193656;0.0186243249947533;-1.6848111074424654;-2.266766472007731;-2.40313098989726;-1.3408380482868083;180;1.2566370614359177
198;2.864021928968511;-0.9126423508277742;-0.0684398157804854;-1.1404019090594313;-1.216247451329214;3.254501709797481;182;1.256637061435917
199;-0.2385225971108668;-1.4263902188491144;0.0570795778089813;-1.324368865672302;0.4260945859075005;1.1545856071494218;63;0.909660954838966
200;-0.5201448096248391;-0.0523436543618897;-1.7365815788490868;2.5813782675006385;2.0053714623653685;0.6726405955756898;18;1.256637061435917
201;2.687906305245255;0.6373506896442793;-1.3753653181949363;-1.4735819362784053;-2.717013002781835;2.950458936193782;178;1.2566370614359177
202;-2.0102848956332298;1.4430133569337449;0.1221516189233221;-1.5073303355107752;0.3183695411358972;-1.298947750422372;185;1.2566370614359177
203;2.035485313341715;0.4597456566551446;-2.2205959960206423;-2.307404153148624;0.7309413420319886;2.101369717079097;166;1.118674274843418
204;2.05448922949108;0.3958928552118115;-1.0260898676738297;-1.2909758249587222;1.9667748556531408;1.1932438899872109;120;1.256637061435917
205;-1.6930974197490536;0.8065387266111018;1.2217254042688606;-1.3257599844680144;-2.5877586565242616;1.656348757495852;176;1.2566370614359172
206;-1.3334881637184923;0.6430512650850841;-1.5247154876182671;-1.7117169713859912;-1.1716158975573991;-2.577921858471365;142;1.256637061435917
207;-2.511374167207308;0.2790568978580759;0.917009699910348;1.3327011065424217;-0.5312412731593786;-0.8164822003855673;148;1.1242304477496097
208;2.6110116972639887;0.5881343680163093;0.6401610869982236;0.0765771584099425;1.4953348273886795;-0.3507987710835833;174;1.2566370614359177
209;0.8898548834294031;0.9105576511626234;-1.576188508011791;-2.0796147425218376;-0.8699463010837181;-0.6817459493937114;133;1.2566370614359172
210;-2.464835134616923;1.432941196850532;-1.14936285311989;1.2581506024894946;-1.4625850355421603;-1.2775199647214732;115;1.2566370614359177
211;-2.8082304591120355;-0.0085728312615441;-2.324173202003406;-2.066702635161856;-0.3971395249255891;1.4975699278191297;66;1.256637061435917
212;2.586999867061939;0.8678275444067046;0.5307013929679374;-2.087264178066808;-1.7361113884553028;-2.532402154779359;48;1.2566370614359177
213;-1.3517763448735134;1.0933214023011009;0.5567566576522218;-1.8422342949102488;-2.5749291390445883;2.475676885355348;205;1.2566370614359168
214;0.0215965743732381;0.1134448608599472;0.5159015680839176;-0.7103774514695421;-2.573071519018713;2.0798449114066764;168;1.2566370614359172
215;-2.8476780813946068;0.5681567695178819;0.8632119431541305;2.2470378638435315;0.2059387941244961;-0.8056521635289701;207;1.256637061435917
216;2.347470142090521;-0.9885868910729196;0.145583374827211;-1.8800117642968888;-0.6717423205122003;2.608569142971748;198;1.2566370614359177
217;0.3847414293646198;-0.7160919952909381;-0.3527283206347117;3.2493037293775986;0.0674656157284042;-1.8188752641107464;33;1.2566370614359172
218;1.012013060935179;-1.5274074494482528;2.399479002128344;-1.838185909950235;-1.694313779589616;-2.963134048963025;81;1.2566370614359177
219;-3.15276937492432;0.4820237274603053;-0.296064661695948;2.496236713740042;0.3730827595627917;-0.5942811926562749;215;1.2566370614359172
220;-2.348826122205684;0.5476879330239607;-1.7636992652511083;-0.9083560046134688;2.724464313732118;-0.7567448297666515;69;1.2566370614359172
221;-0.4801049861993366;-0.7994228468367881;1.4094591599216335;-0.0339757718450565;1.4509686637197003;0.4104656572718839;5;1.256637061435917
222;0.2903280991445802;-0.5368529396279467;-1.4589957826236866;-1.6866034032602766;-2.483870864700408;-1.9869640505233948;197;1.2566370614359177
223;0.8477768039907803;-0.2371274233545125;-0.4981684466334702;-0.3238284604799605;1.849763582820176;-1.6516927678920146;375;0.9891675845717194
224;-1.1627582848040507;0.786087154264553;-1.7676708675395494;0.6096129444911311;-2.108946356657455;1.408315569030956;125;1.256637061435917
225;2.6057220588957164;-0.6860498896150049;1.122017490895745;-2.4243741666087404;-1.5319846912399484;-2.700511612932113;48;1.2566370614359172
226;-1.979453484097455;0.2929730993534472;1.6008582317937194;-0.4659173802206888;2.4358529890949905;2.276090851869781;152;1.256637061435917
227;-2.336796394644294;1.3949352296149016;-2.103921605585761;0.2043866438023207;-0.4955680807586909;-0.5198820276460516;115;1.2566370614359172
228;-1.8828234768518293;0.4363447418241761;-1.7566002154646447;0.8474908744310666;-0.6477280871488728;-2.174465300796172;115;1.2566370614359172
229;1.6808933614896593;-1.207424821583599;-0.5343246337481308;2.401576799567354;1.4219351350860956;-2.988885208462791;106;1.2566370614359172
230;0.0026412796748342;0.4036886370138282;1.8892401130463203;0.8576040105972909;-0.8757676647045308;0.9406868318123583;50;1.2566370614359172
231;0.2322991523927593;-0.8337830257484089;1.8462220097176016;-0.0506258983639698;-2.3696203856022438;0.8742634873425355;168;1.256637061435917
232;0.3926044749454777;-0.3237518354443125;1.9355303570805416;1.6902725008322228;-1.165790808252376;0.0035464416859096;50;1.158399199611717
233;-1.5559744054486218;0.7767664033862963;1.4057648500297113;-1.293678847991643;-2.860698452853047;1.9361553776462812;205;0.4553863264247398
234;1.899721931961461;-1.2463740231863345;2.0555245385241347;-2.435842630898303;1.3780666213275858;-3.1605420652655853;82;1.2566370614359172
235;2.3125429598494214;0.018393393382555;-1.2703694103211904;0.8269112401237642;1.1710916725702265;-2.2643476589408325;47;1.256637061435917
236;1.1243398259532955;1.5217357821586317;-1.7268040922246364;-2.5695936030236277;0.0722261433196351;-0.6690355144406642;209;1.2566370614359172
237;-2.118492091135758;0.6934947703001375;0.4006802455003393;2.7841893261899897;1.7279718729063465;-1.35905611936139;77;1.2566370614359177
238;-3.1082366782446287;1.594380785657165;-0.1103752475310159;1.1966286106187776;1.1836665052543551;0.2743823158252393;193;1.2566370614359172
239;-1.2349874718972953;-1.3278502910841754;1.171168820532147;2.4905200915608616;0.3522980624009835;1.326839355463132;94;1.2566370614359172
240;-3.183984395989752;0.3107074326063764;-0.3033629448990903;1.077864552127179;-0.1775524740898254;-2.226897081060008;148;1.256637061435917
241;-2.519594369616991;0.0394385136899687;-1.1353385043239717;0.3600750443213788;-2.2075400493388773;2.0807070094717344;125;1.2566370614359177
242;2.7360047596575185;1.2316036024144432;-2.181099617575044;-2.6173421585798446;0.1990215252598119;2.4361596489468047;203;1.256637061435917
243;-1.804187293253745;-0.6644454944189088;1.424061619826769;2.832507815176626;1.1472595267299597;1.2802749645987863;239;1.2566370614359172
244;-2.215071055065576;-1.0088334298733586;0.5430781247850581;-1.5757475543774566;-1.2298202510756395;-0.3837711395046024;71;1.2566370614359172
245;1.4009202842538238;-1.629726462615242;0.3494288531430669;0.1110903682856254;0.108167300392039;-2.3215118751538504;24;1.071679741600116
246;-1.76787067293384;-0.6637514898375256;1.669252368254535;1.832490961922547;-1.4547396828772827;3.0350203266464915;171;1.2566370614359172
247;2.943960672089511;-1.278091365403666;-0.0167777522332046;-0.236735306717399;-0.7144613707249334;2.647771166985042;198;1.2566370614359172
248;2.642680312555917;0.1894506334645699;0.0182829694254383;-0.1283201585385616;2.2985553406428383;2.507428236791442;153;1.2566370614359177
249;-2.175249866670468;-0.0137497250288406;-1.6262803933448535;1.2563311680876028;-1.6591204492536047;-2.4642761524597105;228;1.2566370614359172
250;-2.105105806106534;0.3992678799828523;-1.8564438741062692;0.2088561744895635;2.666982307029575;1.0473593256626246;144;1.2566370614359172
251;1.2549976942997512;1.2101107188296318;-1.9910832166075616;0.0197377574122204;-2.156259134810224;-0.8087961117242769;163;1.2566370614359172
252;1.728346256510437;-0.7480558186348157;0.1986918471643153;-0.8467515887607029;-0.9282056709716322;3.4019155537577146;198;1.2566370614359172
253;2.998088059553528;1.1120807904163352;-0.6282490063604849;1.1314619751963058;1.559290281569126;-0.1673569163660936;195;1.2566370614359177
254;1.6846097811303806;0.2628150374367552;1.612825438752998;-2.396432752988144;-0.1380657509285276;1.7109699048889946;54;1.256637061435917
255;-0.2245488754435805;-0.0324505404848479;-1.4516073525770956;-2.390771916222745;-1.0084430647864626;-0.1902773367995877;180;1.2566370614359172
256;2.069309422804602;0.0643102566176203;1.6964982080824629;-0.3689269295038702;2.511444111770307;-2.2035875741946693;161;1.2566370614359172
257;1.930323950992342;0.2620774306367321;1.376274221032596;-1.863778354676885;-1.115523999606328;2.183895789448033;254;1.2566370614359172
258;2.0615644029094065;-0.784553767704918;-1.3347231101393229;2.086451521755813;-1.0826807852189435;1.0014784021608405;175;1.256637061435917
259;-2.242399482477904;-0.5160837983428757;-0.9699655315209748;0.9423230601653488;-2.4726146290585103;-2.8264432986652626;249;1.2566370614359177
260;-1.7820905421060218;1.632691521813657;-0.368314504158524;0.7463839861095528;1.6658598895111978;-1.5227863917501814;23;1.1395955329632153
261;1.5612349155684953;-0.1952884393667084;-0.9529870035952864;-1.0574485616497742;2.372781042061249;-2.4044962212897323;147;1.2566370614359177
262;2.770412677267673;-0.7253991199960144;1.0845999165830769;-1.9728917669531263;-2.365639510100465;-1.894131706568256;225;1.2566370614359177
263;-2.1785804956878785;-0.4675011677707897;-1.67809558270397;0.2457826051231128;-0.8810636861922869;2.2354594855596592;125;1.2566370614359172
264;2.607974595069908;-0.9818626960111904;1.0073721803999456;-1.76461663527303;0.1838046254389038;2.7611219581335917;216;1.256637061435917
265;-3.0706943550785177;-0.278257206059153;-1.5113677768549618;0.2782747163138239;0.7848879394506922;-1.7582319666574653;128;1.2566370614359172
266;2.0008923693097604;0.4585069102248292;0.6037607319356224;1.634392845180861;2.2145172058589924;-0.041473526138171;174;1.2566370614359172
267;0.1095216814499102;-0.7962107106682456;1.334152488477409;0.478989901347888;-2.680497129350473;2.196121437237628;168;1.2566370614359172
268;1.3907916468275063;-0.6554357540348095;0.2368829592281263;0.747784803921203;-2.380472120623627;1.8326421934942732;53;1.2566370614359177
269;-2.0288260914882104;-0.385409428881694;1.0649895291971931;-2.7018136205010737;1.0003169041152369;1.999392360044592;117;1.2566370614359177
270;-0.2817926749559274;-1.2505188057264125;-1.3567795438601646;0.4295257402243881;0.0432214191144234;-1.048852854352381;39;1.2566370614359172
271;-2.205534285680615;-0.7153670785412474;1.4202230171911627;0.837336495269293;-2.0005388006946543;3.221241673578912;246;1.2566370614359177
272;-1.0321684303786154;0.1695954472085875;1.6830543451131483;-1.3625843535081597;-2.2408591313565864;2.6219171565332324;501;1.1038357354069166
273;0.0498478543696525;0.2158832946057619;-0.6782584433414041;-1.7726267377453269;-1.963565488972072;-2.245857130155964;222;1.2566370614359172
274;2.150472875745572;-0.541436696075654;-0.5920745424903422;-0.0837232982945592;-1.1094899700512022;-2.285470823195951;46;1.256637061435917
275;2.305602100343856;0.3013082901095807;-1.6907941362855987;2.9158231273173865;0.3559187394944043;2.126190223037018;173;1.256637061435917
276;-2.4525874120249567;0.7310536977171392;0.9213730298363804;-1.8698120696307652;1.62183415883061;1.587916225486686;96;1.0628240750020073
277;-2.289846927929565;0.8289404749829858;0.7966179128823688;2.696790280317456;2.061179082816404;-2.479768576130403;237;1.2566370614359172
278;-0.797342495783911;1.3125326200315288;-0.3639936869035164;-0.6182116586839412;0.1214661388387395;-0.8657289277566652;134;1.256637061435917
279;-2.1297961922552706;0.1174440657627847;1.574275592713424;-2.6838900359367965;-2.1828604302600185;-2.255764217412888;158;1.2566370614359172
280;-1.0516876252632676;-0.4577724746650237;-0.2719851558829996;-1.9472814229968505;-2.216659500728717;0.0622930093230293;112;1.2566370614359177
281;-2.1671088833554597;-1.372959577582551;1.0855155005012231;0.5237212555938352;2.823943193811629;-1.946417622864958;138;1.256637061435917
282;2.0153384490868027;0.7770740464195025;-1.965510069394074;1.4168081551702147;1.454405192315283;-2.3255391037361823;235;1.2566370614359177
283;1.2071471389480262;-0.7540251861876366;2.130377913361307;-0.482237930546478;-2.7180226575449926;0.3904979167229612;231;1.256637061435917
284;1.530656409483396;-0.4271302740035296;-0.7046773638309967;-1.204247232616238;2.520904795954385;1.6509348037480107;204;1.256637061435917
285;2.9458080232681527;-1.072515998985521;1.413835037696857;-1.204552016140381;-2.656152736077683;-1.0911725687693428;262;1.2566370614359168
286;0.2486198309453577;0.6527054446871446;1.2405825724921058;-2.253643837287779;1.3710184114238098;1.1941098030162698;35;1.2566370614359177
287;-3.1624389650242475;1.4722394700306578;-0.0913492257029135;1.598019399413513;1.8191343188517564;1.2723725053286523;238;1.256637061435917
288;-2.023924393110564;-0.5505749597197089;2.0578140456050877;-1.02499781391698;-2.149781187261852;-2.4370639181563174;157;1.2566370614359172
289;2.53640620062886;-1.1419321935824018;1.791022029140756;0.3045087630119828;-1.3955309663418918;-0.7293507382015365;159;1.2566370614359172
290;1.802511889887329;1.2729211320483125;-1.3855160793164016;-0.6102827145642491;-1.02427501938246;2.491567149306788;190;1.2566370614359172
291;1.199263358991096;-0.4674762744456022;0.8970412592319474;-3.381185283708528;-1.1981335730899203;3.268827514355656;123;1.256637061435917
292;0.6990707749938809;0.6376818408134662;0.4696198341492787;-3.021483293108801;0.9596505242500752;1.0430454787025598;286;1.256637061435917
293;-1.9353961316415813;-0.3840424950103944;-1.8613381817244543;-1.3280285242254508;2.912733299997803;-0.1919553436443302;220;1.2566370614359172
294;-0.5003750036752299;1.01582970943672;-2.449626081749078;1.3977727926933383;3.0334594271193165;-1.1402302166890128;73;1.2566370614359172
295;2.9558154557941383;-0.708207137620305;0.5125256860937711;2.9000796574908096;1.6600665376138477;-2.817658579528228;183;1.2566370614359172
296;-1.79374704690552;-0.8132041403076076;1.6110076151122787;2.442291884347593;-0.9799616425660336;2.279163407816934;171;1.0196039979746672
297;2.3986833797150027;0.7797353580466144;-0.8251063015537786;1.849616041938598;0.2695645752634233;-1.819355555329487;47;1.256637061435917
298;1.311551844671269;-0.8462763321030989;-1.4283103380323936;0.9828857001862435;2.186819219899383;0.2440076073009776;172;1.256637061435917
299;-2.600840696173905;-0.208069182591352;-0.1796533174658394;2.8745838518583144;2.0196207212133466;-1.680990430897304;237;1.2566370614359172
300;-1.6858812885030094;1.2478381155151723;0.3262577088226975;2.271620257056133;2.6311009274725348;-1.386988169691616;237;1.2566370614359172
301;2.6988053923146422;-0.4771146078994088;0.8028977785452838;-0.5253034501153386;-0.999831482936086;-1.8471559808011908;159;1.2566370614359172
302;2.294154109019511;0.1686495015008055;1.0277818714246834;2.379319749571617;1.5659040288799695;2.047760740068538;60;1.2566370614359172
303;-1.036759822619271;0.6916855232714727;-1.97578690850482;-1.0512706208247122;-0.2733881611526172;-2.7834840863642225;206;1.2566370614359177
304;0.78032237985219;1.2522081177355384;-1.1316401565364016;-1.043410414341022;1.5723781335874103;1.502537445273993;45;1.0951579943051375
305;2.4115595592325865;-1.1727318813087717;0.67929114484878;3.247157089580314;0.9568544973364624;-1.1924567004831383;183;1.2566370614359172
306;0.6695945670323533;-1.4985097213107688;1.576281438089284;2.666965918532364;1.542360414121852;-2.10966027411017;109;1.256637061435917
307;1.8039767437758671;-0.640925631792765;-1.4395909393329638;0.5113188146580832;-2.558127574659551;3.2125127911322995;108;1.2566370614359172
308;0.898904949183664;0.2004638319182882;-1.7359614072787952;-2.2420294548678705;-0.2919453086093483;1.5652435046469;166;1.256637061435917
309;1.3442188939297193;0.6200271854255276;-1.458275177054369;-2.55496734274649;0.8093748492720119;2.754841135100878;203;1.2566370614359177
310;-1.1957082164744248;-0.4109780136581605;-1.3285981466888608;-2.69763741280726;1.2264456760600124;2.542788949455446;184;1.2566370614359172
311;1.3531371115111983;-1.3501561977655037;-1.8393948905686135;0.4882575727008648;-1.6298030496817142;1.372774341374048;103;1.2566370614359172
312;-1.3989802877733934;-0.5603080010103788;1.6674078078185992;-3.2026780389797;1.4428795284692493;2.584376832141296;269;1.256637061435917
313;-1.9029990043612075;-0.7183794264033253;1.84982387849519;-1.1106339989818323;-1.7890234314367828;0.6099006346619903;71;1.2566370614359172
314;0.6423394223507537;-0.5179166163014468;-1.2190345713142934;-1.6632288376525763;-0.9189247065093936;1.5214977321576637;308;1.2566370614359177
315;-2.1597382980890867;0.3799749186141652;-0.4861172017143048;-0.3476026315352699;-2.0718365570272868;-0.5437143044066148;29;1.256637061435917
316;-1.8864507653676443;0.1219151974339918;2.18563903660754;2.744649368537224;0.5432042441020575;1.3177480852542245;243;1.256637061435917
317;0.3555438565761765;0.4074578036845953;-0.7501216995402293;-1.786364637409172;-1.2346426204336312;-0.9940563422395295;133;1.2537433283447903
318;-0.180442170368361;0.849458503248231;0.8192047945925649;-1.11151235276566;-0.8411375069383422;-0.1667242522265157;2;1.2566370614359177
319;2.194922351083511;0.2776696034971047;2.1067549982211284;-1.4424136254836035;0.252339586055244;1.8203403510020495;254;1.2566370614359177
320;2.844715245103227;0.044571243235572;-1.5970877552471616;0.8802185088472183;0.7146627926237015;2.808655297406629;76;1.2566370614359177
321;1.5025377439666467;-0.4892813963451909;0.4392001972511528;1.3777019971151123;-2.892673446624605;2.748592033785485;268;1.256637061435917
322;0.8608602467216466;-1.3803919072654167;0.9989149769428304;-0.2811305413161282;-2.0973809210158554;1.0744895126906937;231;1.2566370614359172
323;2.5583551466156123;1.3350640450847526;-1.6831217595512669;0.328184741054966;1.1421273895987625;1.929805321941848;76;1.256637061435917
324;-2.42878316556153;-0.3356918587616015;0.6392739500684228;1.5339118163294736;-0.4394843373648206;0.2171314436402519;207;1.256637061435917
325;-0.2606249213085684;-0.2084082098046679;1.478986716861188;-3.105515073294136;-1.2074323889886664;2.755172920504955;123;1.2566370614359172
326;1.3004408609807745;0.8777857283589899;-1.761853412918603;-1.0353400408572924;-0.3779566381979591;3.147995690507676;290;1.2566370614359172
327;0.2433823660115916;-0.074607121786934;1.717688598194975;-2.9198904636891267;1.9714520517357976;1.0596091695129826;286;1.256637061435917
328;-2.383182292402949;-0.9050720005785196;-0.9296236543207914;2.1831625110073194;0.752562817170132;2.1116589008023445;97;1.256637061435917
329;3.128788939086045;0.3039322039956039;-0.975141612141913;1.4133062326138486;0.8682899058995539;-0.6487067496156058;253;1.2566370614359172
330;1.121468576384726;0.460760321411188;-0.4160286595316912;2.754769920090058;-0.3995769916811699;-0.7124084621673238;156;1.2566370614359172
331;0.6632776008530699;0.826892543073147;-2.244536870327968;-0.7753140912244538;-0.0947488551263315;2.2593078348025792;326;1.2566370614359172
332;-1.416111620580315;0.2162948656804107;-1.3500054825922028;0.0312890618055872;-2.307003926517024;-0.7765218217886158;315;1.2566370614359177
333;0.2329232570998908;-1.410480585678204;-1.06206789376276;-3.217301635869042;-0.1173413838441795;-2.2241568937997576;89;1.2566370614359172
334;-1.9463652521092916;0.1648713074222687;0.3462136725838838;-1.1492494255815098;-2.2905522272875523;2.12244595886194;205;1.2566370614359172
335;2.829002432739933;-1.74656522325993;1.8043911637072745;-0.7884825335585832;-3.1240390584276003;-1.8313483354872149;285;1.249164353038563
336;-1.579346071163239;1.0838414897579396;-1.8340848723763676;-2.8485977887398115;-2.076897051567519;1.4994738874252422;177;1.2566370614359172
337;2.776617337606876;1.5531826016832555;-2.06687837398158;-2.9068860670204617;1.2501296100927226;2.9580445946117147;242;1.2566370614359172
338;-2.2486758662300272;-1.2234510286586653;0.5124807195415939;0.42053833056896;3.462573873239694;-2.2175120616877435;281;0.9216088620288552
339;1.819697855679493;-0.5457612120450785;0.9262307488991082;-2.669549402621131;-0.0113091635437703;2.3726168847100486;54;1.2566370614359172
340;-1.316509589212151;0.4750451803353348;1.667129140503906;0.4000992225702188;2.2958147801042346;2.852722939172776;226;1.2566370614359172
341;2.1878412273902894;-0.3828173549656023;2.2243714596727537;-2.7995346478173246;0.1521748388881028;2.2479376471747825;254;1.2566370614359177
342;2.5078482599101464;0.0102026261111491;-2.186485161039601;1.9454327164030345;-1.0576152424300722;1.0496086565861829;258;1.2566370614359177
343;0.9088962767707178;-0.98289080751801;-1.3948813388921173;-0.2506342471574799;-2.8163685100654376;3.320991742317995;307;1.2566370614359172
344;1.953138304896231;-0.1592687615928582;1.825627898514312;-1.9538886758749283;-2.271265843689076;-1.7143937157428943;262;1.2566370614359172
345;0.0262457469011021;0.3673023400720144;-2.059875702834498;-2.9814825872288915;-0.1637592968371594;1.2164964994913436;308;1.2566370614359172
346;-2.319990413059044;-0.0963649928310652;2.0109148151388667;-1.3863929640567578;0.2625113242671734;1.6134107789863554;51;1.2566370614359172
347;0.9849100354426732;0.0405613342530699;-1.6197761606501582;1.1556710533381367;1.474018812509318;2.1230291095850204;38;0.8905655785265085
348;-2.8606424739334813;0.9566108791350056;-2.252855234118075;-0.216062959411749;-1.2411559785750683;2.2836812880745865;125;1.2566370614359172
349;-1.146203424138294;1.307933387838352;0.7061325171519797;-0.7678623082469609;2.8958687698334247;2.2879619527209427;152;1.2566370614359172
350;1.3305031083683845;1.1533223885498358;-2.444630094164419;-1.9567350366358076;-0.4993732056136533;2.732763470171364;326;1.256637061435917
351;-2.7061883403627105;-0.0543573040223174;2.2080011836960742;-1.2078432052976893;-2.092440000265257;-2.303045951472678;288;0.8882305422936204
352;-1.867257938536062;0.3044832583780086;0.3574725916272288;0.333328350032307;-2.6219480092302527;-0.6435121087480586;315;1.256637061435917
353;0.2649784202025;1.1367100153513654;-1.7993400527394765;1.806818404517422;2.359349138131528;1.5262565739451672;30;1.2566370614359172
354;-3.003223178325713;0.216214153993883;-0.7385807616365612;-1.0345040606110052;-1.2069189785277437;1.4708184927846413;170;1.2566370614359172
355;-1.8478000725365384;-0.3628223403861886;0.1187918214005766;-2.609589986662991;-0.7984094157539164;-1.882945260870432;136;1.256637061435917
356;-2.9095368989085038;1.4275693827385831;0.8936716792063777;-2.734412753767404;1.577641030808729;1.9552648755858035;276;1.2566370614359172
357;-1.3801818692151149;-0.3486332222289492;2.5335165518045084;-1.3571977554691566;-1.5811327743242105;-0.0195814279746633;313;1.173774067846834
358;2.904498976911903;-1.3499650628929911;1.2681012890912686;2.910785860231081;0.8769356227230175;-0.2767570676331801;305;1.256637061435917
359;-2.191008737247462;-0.6338736618036379;0.7815172285215284;-1.9352742086886965;-2.151969762603274;2.356461980752373;334;1.2566370614359172
360;-2.460739158517323;-1.3039117715195037;1.150824607680376;-2.976593446514207;1.5543824188315076;1.6005427076781502;269;1.256637061435917
361;2.615644431520362;1.0217870065354198;-1.8847404921518447;-1.6571150346283092;0.9963244874045236;-1.4637019329070091;169;1.2566370614359172
362;0.7827140745169141;-1.2610540888777626;0.1016930592015363;-1.8686544116490549;0.601486507623513;1.8030795692854995;63;1.2566370614359172
363;-1.8539627057262973;1.340432634007868;1.363065237348356;0.298326604467987;0.518673946670256;-0.0522685317777871;189;1.2566370614359177
364;0.8193477630074792;-0.0459201077528488;1.0966801170927096;-0.5875646928903988;0.6455521162417641;1.7861680653800935;35;1.2566370614359172
365;-3.0797228260722997;0.1856963048243777;1.0431840714644298;-3.052349387464273;-1.7314975069329712;-2.480639160831379;279;1.256637061435917
366;-2.5804859956014314;0.1605321055841712;1.5557168122517289;1.3152555069932608;-2.603655454746057;2.9745968074476847;271;1.2566370614359168
367;0.1442766378820156;-0.192198095069038;2.0323440608627714;0.5266597331928329;-2.407918575929305;3.001760689615174;267;1.2566370614359172
368;-2.474361178836606;0.3015490024425779;-1.1706727538468449;2.4336534594333434;0.7912813846420471;-0.2166811016983238;219;1.256637061435917
369;-2.614115655150052;1.0470094507516887;1.2831916581877565;-1.0288145408327;-3.1524648854715966;2.4010613417263245;233;1.256637061435917
370;2.562503460174766;1.0830312579304262;1.1234158071802536;2.273332870475925;1.912638305123944;2.7760653513999225;302;1.2566370614359172
371;-1.728689033148236;0.7886025716089111;-1.3285142294734824;0.3504999506731178;3.2621143746830024;-2.491659991276829;85;1.2566370614359172
372;2.7033249557980343;-0.2328455293040825;2.4092532575503003;-2.2784011846797605;-0.3919283974254952;-2.043696039330382;61;1.256637061435917
373;2.353914574395043;1.4794906566452928;-1.953447349420066;-2.605025187205956;1.6234852466595826;-1.3961989907880406;361;1.256637061435917
374;-2.861773405405005;-1.2840059260504104;-0.2121609072551736;-1.2478992298853129;-1.0949730858195883;0.2400386025005101;244;1.256637061435917
375;1.3193151420709317;-0.8933699375388189;0.0366263138218519;-0.3482112845394814;2.024517659523448;-1.5605285017504886;59;1.026303818590252
376;2.453650266678469;0.0397421074454079;1.6213421940455557;-3.0021993192536955;-0.847330651988517;-0.8987343774012957;98;0.9209596120462394
377;-2.237917863509334;-1.0281660909048274;1.004718904234323;-2.643914239180868;-0.7455842726430614;-2.3250165908983886;355;1.2566370614359172
378;1.607257808791302;-1.1092726077320991;2.1587450993096398;-1.9129367786082911;1.79274075097127;-2.350197214496862;82;1.0239330573508998
379;-1.4103703490914516;-0.0614968696828761;-1.7716273613104276;1.0600214600660691;3.0345408417948923;-2.5515025071102526;371;1.256637061435917
380;-0.8799784030189359;-1.1996042700605505;1.193250498965052;-0.950579594804846;0.7065533674642628;-2.8919192791881048;75;1.2566370614359172
381;-0.5154973707333406;-0.7830995131566357;1.4709879035642932;-1.2445251340429984;-1.0966787506447997;-0.2872161236867172;19;1.2566370614359172
382;0.6793470078621047;-0.4171598487824473;2.185191999335769;-2.142795943657268;0.9435744275950716;-3.0631882839304465;82;1.2566370614359172
383;0.4479029097232403;0.1188500893415611;1.6186720161362127;0.3273979778299984;-1.8298429745678937;-2.2100224971115603;107;1.2566370614359177
384;1.1679878930038972;-1.5962078957789227;-0.8070790487047383;-3.217414933791037;-0.4315765362346447;-2.935868311581184;333;1.256637061435917
385;3.347536627626598;-1.403461919736665;1.1259271165661306;2.332293577410064;1.615127058530942;-0.9697210046562434;358;1.2566370614359172
386;-0.444116344047446;0.2125949111914618;1.5807447415018492;-1.7339459234770906;0.6457195783859668;1.9549718582474027;35;1.2566370614359177
387;0.309529640471417;-1.0135989733986075;-1.3538103216950834;0.8972840415574515;-3.1862968601675514;-0.4558739286799127;167;1.047550414105845
388;-1.949798520386844;1.1156748049696323;-0.2566137420156948;-0.5611881859823321;2.704348083563228;-1.165337822812962;23;1.256637061435917
389;-2.496541293073191;-0.5708959128287057;-1.518859932594126;2.405112531700749;-0.0016156729388097;-0.475041270075388;368;1.2566370614359177
390;-0.0435767597857252;0.771792197873796;0.456512864443324;-2.340488816307703;-2.3203028654851097;-0.2918682651175747;112;1.2566370614359172
391;-1.390313398451862;0.8906679354342778;0.7523550641953667;-1.3861421134726613;-0.9635998763659006;-0.0297473400005967;318;1.2566370614359172
392;1.546114472000447;0.5799078659416359;-1.4479866920913276;-3.0503660794056;0.932205502831948;0.9155788683161056;120;1.256637061435917
393;-2.218147649881568;-0.8909133946381999;0.3882917595470663;-0.8072966244317866;0.7053273472226593;-0.6283970553522805;92;1.1630912813213936
394;-2.7579491735493797;-1.1496807362223125;0.840547283945374;0.225676466088005;0.4934811771810075;1.2667341011184066;137;1.256637061435917
395;0.069096338125898;-0.2002435338602284;-0.6856041431605975;2.313985451869004;2.3949265774922908;2.543935908042887;124;1.2566370614359172
396;-2.198314402807018;-0.0374357959368409;0.1323963131888537;1.173141516916656;-2.508575263649405;-3.106295645141273;259;1.256637061435917
397;1.7490483104147736;0.0136763124773448;0.4048972031396431;-2.362292397524201;-0.11057255855515;2.1852361753805534;339;0.8538864017087815
398;1.1662419341653198;-1.1482471888367891;-1.205238267349472;-2.5141179811137278;-1.3224478102721908;1.664020235231562;314;1.2566370614359177
399;-0.3084914291817783;0.0541381019204458;-0.2967536472429424;2.5707179350099;-0.7095998774141066;-2.161238958049531;26;1.2566370614359177
400;-2.329632663277883;0.5497063017179311;1.153004669500435;0.8636032545037531;-2.603694199103104;-1.268664901501727;352;1.2566370614359177
401;-2.788111420793426;0.961376460282746;1.6261885837061791;-2.221376913379021;-2.315306993066435;-2.702284584650116;279;1.2566370614359177
402;2.2124881244890924;0.680959243082173;-0.7733750065561468;-0.4716262942732595;2.311412974471669;-2.315155732743631;261;1.2566370614359177
403;2.348789533736862;1.5536858964331242;-1.9252326710510168;0.1663391877927142;-2.3603176024321115;0.5682955762535244;163;1.2566370614359177
404;1.034255688937022;-0.9420020000729;1.53484001805419;-2.033815088147201;-2.2871256320198654;-1.5385450195472792;344;1.2566370614359177
405;-1.7160369564518674;0.8303791006254404;-1.4608898078273782;-2.6804788542723887;-0.1355908022245252;-1.8228982324287952;142;1.2566370614359172
406;-2.0019656300598854;0.525588256628091;-0.1110723876887279;0.2284852179383805;-3.029763029694049;-3.089016731188304;396;1.2566370614359172
407;0.2827149840115441;0.1404244002533972;0.1836184551283932;-0.4429107786706903;0.4692090478515501;-2.961566798097706;58;1.2566370614359172
408;1.7479534240092216;0.5233065791604695;0.1252198654835442;2.926137664597509;-1.1834416733565556;-0.2164440515026299;330;1.256637061435917
409;-0.2253173976791088;-0.3953293425798909;1.2504491888815352;0.1398086374173035;2.54672302193041;0.7183059135690799;221;1.256637061435917
410;1.977322636893172;0.2098965723207254;-1.8064565644388608;-2.280460959209085;1.545344502182126;1.7475498865111652;120;1.2270668827719833
411;0.9104351388698656;0.0556760899394282;-1.370894447676624;3.213698079050377;-0.885271112753097;-0.6018378958410769;330;1.256637061435917
412;1.6802354706639735;-1.640798671631889;0.2520738324597337;-3.069346641795173;-0.6909345376595608;-2.6137578206191376;384;1.2566370614359172
413;0.0966388840924025;0.5985817481034152;-0.6937861546955183;0.0391286635338002;1.6165674268611172;0.1135248478176345;13;1.2356336842261038
414;-1.2543107736019783;1.7069353840359796;-0.4648803714450054;-0.9145017759350932;2.7999380928312663;2.2087792610368484;349;1.2566370614359177
415;-2.21385104097884;0.0510322240666447;1.504958641694444;-0.4835213210419046;1.394266139430561;2.8853931634198604;226;1.256637061435917
416;3.246733997348572;0.1188913938833814;1.360551214276282;-0.8462868509553256;-1.4028388525574105;-2.4364480610400787;301;1.2566370614359177
417;1.4451197561467657;-0.5350691136600739;-0.974764605559968;-2.678682847725032;-2.3500097794475727;-0.734136208911081;197;1.2566370614359172
418;-2.201109259495679;0.7612038854165741;-1.1321865758588787;-0.358232456037672;-2.5174170052666485;-0.1219905274305827;315;0.9700302010110688
419;2.771367226059756;-1.101247734065096;-1.42328599905957;1.9322552295223363;0.3104211175063535;0.0518505248817718;175;1.256637061435917
420;3.135873579713121;-1.181948438446396;0.6367007988431836;-1.6123436850834276;0.0397375069174712;1.722331602596249;264;1.256637061435917
421;-2.9882366151185065;0.608377046011697;0.8404571030572423;-1.7040528510855657;-3.1172494323165045;-1.62292924916631;158;1.256637061435917
422;-1.7504933785600183;0.6197099394347143;0.6537224137038518;-0.6821943794051326;1.92005702525732;1.4919860937288607;12;1.1938889274146969
423;2.7046342443287488;-1.505294033388322;0.0520502011143949;-2.9547623290777234;-0.7181324294319674;2.47220578997759;216;1.256637061435917
424;1.077402872037182;-1.5853159519696818;1.2431122722312302;-2.783514470562392;0.155714333101415;1.0105959859257994;100;1.2566370614359177
425;-3.339506822581697;1.0714118544614837;1.7774632157494048;2.095712830068238;0.6534588023957544;-0.6477069201604321;215;1.256637061435917
426;-2.894749016609381;0.5406002824033083;-2.4801060448208365;0.0278058223253681;-2.378575277594754;2.2752518234125323;348;1.256637061435917
427;-1.7044965514652932;-0.1327455492304616;0.9662001432871132;0.8840332644681148;-1.3951443116826;2.577945318045658;271;1.256637061435917
428;-2.189324037934294;0.4531543190132498;-0.4270902559059855;-2.686709658523162;0.2352157232731537;-2.664913422307848;142;1.256637061435917
429;1.463776930839593;-1.3729520336225052;-0.989087823256553;1.6883203921100105;-0.1380097752548804;-2.167780588071796;151;1.1671618524047815
430;-0.6911024041259639;-0.5909886721824585;1.2962657078744495;-2.779377051063282;0.2592305997406117;0.1075401855125667;132;1.256637061435917
431;-0.0836716355247939;0.591942012016821;-2.247635148322228;-1.3482378468458445;-0.6822967040086999;2.800175736047445;331;1.2566370614359172
432;0.5797106104745239;-1.0982139349230304;-0.6860029723695082;-1.1644197627819963;2.9765107478173967;1.5285674553837367;284;1.2566370614359172
433;-1.7945654222601743;0.8060998475017469;1.139878155760013;-1.7355916075057252;-2.453883179790437;-2.9783347091520924;401;1.256637061435917
434;3.041652510560656;1.2748114390400127;-2.004642363992315;-2.099802910528918;-0.5540114781161706;3.187703755208965;242;1.2353739305262712
435;-2.573296396349285;0.5285685646949476;-2.34584014875498;-1.0717507707892682;-1.5802574006082628;2.960076966361385;348;1.2566370614359172
436;2.376501065996481;-0.2844399603139697;2.058905222095744;-2.4936530954951177;-1.2639667773952787;1.7404784954705583;257;1.2566370614359172
437;-2.7140219106158607;-0.3949952168712825;0.4078100027511805;0.6428317525404691;0.4799232988492461;2.070595384557218;394;1.256637061435917
438;0.967928442355499;-0.1038296002588603;0.012324850658641;-2.200135506242062;0.3005425692829981;2.9635402667929407;397;1.2566370614359172
439;1.105790673705997;0.1901352724253512;0.9598856938742976;0.3038861667297499;-2.5593379676080743;-1.792262220975244;383;1.2566370614359177
440;-0.6068780983190561;0.0703413763391148;-1.965473998396423;-1.7948544968795104;-1.377075097431301;2.7431630030303693;431;1.1449283995764896
441;2.8316934261162787;-1.5428908033176243;-1.1313155174264973;0.0334666217643397;-0.2988688480114368;2.555611684544767;247;1.256637061435917
442;2.135974253888687;-0.9335499317129434;-1.2890381066961782;3.1896014523511704;1.738754369615795;-2.9109049338184905;229;1.2566370614359172
443;-1.6040609707249724;-0.9268155240624596;2.35250513892294;-0.8939126970446353;0.3929200916158254;1.6399897866876527;346;1.2566370614359172
444;-2.358848566380308;0.079955034783901;-1.7519496723641863;-1.909773319640676;-1.488705748776849;-2.7168020899681307;206;1.2566370614359172
445;0.5066382386412351;0.2868591147542587;1.237697263724389;0.2394352159200685;3.25336306163368;0.4564503295881255;409;1.256637061435917
446;1.1045430213755427;-1.1326438195628388;-1.3588158551385243;-1.6147654659266912;-2.72938987719648;-2.683920074508273;222;1.256637061435917
447;-1.083867501800756;-0.0592695783526732;0.3765575806861898;1.687110902798529;0.0558305425717826;-2.6483646748915803;26;1.2566370614359172
448;2.2483965830369628;1.177194437625299;-0.8865149625428964;1.9645203992835896;2.784597209397077;-0.9568529438397888;126;1.2566370614359172
449;-2.488234205460393;1.314585603116467;0.8510883000484207;-2.039415123661914;0.9166506677196308;-1.7011967531081047;202;1.2566370614359172
450;0.7103571287848323;0.5317208924562435;-1.906894951408098;-0.1674091123648303;0.7596247176850475;1.4352238770738912;93;1.0733894413650082
451;-2.827365391462129;-0.6037773048849755;-2.126721395039328;1.913143563080704;-0.8116395825719606;-0.0267744116445888;389;1.2566370614359172
452;1.300898733050334;-0.053601894801549;1.3694889455634172;-1.966556916193544;-1.7909030083653974;1.3986818793949969;257;1.2566370614359177
453;2.276306951511052;-1.0749869599978656;-2.096169343384236;1.1939674578651098;0.8036693904414275;-0.2518396344613893;419;1.2566370614359172
454;-0.6413983195390727;0.3971909774584821;0.7438514392483053;2.775695178725479;-1.128367365616084;2.135413204975092;171;1.2566370614359172
455;2.687222782661113;1.0643647548595043;-2.1937385882742064;-0.8573240311484476;-2.137966136375727;3.059963898498716;201;1.256637061435917
456;2.945606732195864;-0.7392213773927654;1.6815161635146567;-0.3710963102303574;-1.8965319508950127;1.9132379225591416;165;1.256637061435917
457;2.551843400218877;-1.602348858587652;-0.1108847861356309;-1.5425403086852223;0.0287861873032951;1.0170428030727665;420;1.2566370614359172
458;2.8768375007007343;0.1236129236281378;0.7248738223195998;-0.1106587487760678;1.3854672020578709;2.939469905805962;248;1.256637061435917
459;0.5457835980350767;1.3905630971798435;-1.9871331593000927;0.0697331886290855;0.4667872129342293;1.843540183775263;450;1.0391559224059086
460;0.0625386858042476;0.930023373246587;-1.598762957589981;-0.9897076824831124;-0.124189424297189;-2.4018072010260867;303;1.2566370614359177
461;-2.944444514725152;0.7582185521674715;-2.0879836922386006;-0.6062386432456468;2.5462572588720134;0.9323077511634436;250;1.2566370614359172
462;-3.0326814164596883;0.1447224977287048;0.0883992323432896;1.4829051612135251;-1.150331048360541;0.6321952613672994;324;1.2566370614359172
463;2.120226938087966;-0.378500191798948;-1.1283216829273144;1.7860184482012502;-0.1204062745555025;0.7036195789294375;175;0.9322427175022676
464;2.2626609617395106;-0.4803659250008558;1.6857552122962314;-1.1180818752420745;-0.7786155962884005;0.1282118770961435;159;1.2566370614359172
465;0.8030886809596898;-1.0367161644416374;-2.1935395542996448;1.0973955101983974;-1.270370856375293;2.116198717083555;311;1.2566370614359172
466;-2.6833335799302915;1.2372663478315822;-2.4164539664249425;-0.4662116717757907;-0.3071932995663479;-1.442555085390981;227;1.2566370614359172
467;-2.376473771190584;0.2485201302613995;1.5593768358159428;1.5054097797789283;-1.037161990146461;2.23720920737565;427;1.2566370614359177
468;0.0150049929788825;-0.9493997015825412;2.461308228216108;-1.4665980254197266;1.503108804100631;-2.974055711011336;382;1.2566370614359172
469;-2.498740317676142;0.993390331094804;-1.496111242712906;-3.4656036815808826;0.0565302845014463;-2.039989033606742;405;1.1579713661327544
470;-0.1431208035164226;-0.3356497519829992;-1.829094267050639;-2.7072331495355546;-1.3374374174236074;2.1544086427114144;440;1.2566370614359172
471;0.8608504504922578;-0.7090550620197482;2.223669083767676;-3.040730185659877;0.1715930374558737;-3.302497149767915;382;1.256637061435917
472;1.0923080965603895;-1.027906466081424;-1.7988565008095143;-1.4318393930602826;-1.2884188587056415;0.7531782829529742;314;1.256637061435917
473;2.7755033478640363;0.7075934401122871;1.132062763477125;-0.232729093024382;-1.9123615090157693;1.0121005454033432;165;1.2566370614359172
474;0.9074163593068436;0.871102558039238;-1.6228931454657105;2.427728184179471;-1.1648530996939348;-0.9952704307361452;411;1.256637061435917
475;0.130574660878622;-0.7666862443665057;-0.9882823605120092;1.6726171148837166;2.066393767792347;3.0114649317371893;124;0.7350537355506845
476;2.1183457900881524;1.6146787731394725;-1.3038106587033456;-0.5209154741068303;-2.053002456239076;-0.0773478516233651;163;0.7646943422939286
477;-0.7323121083863899;1.0827876977098756;1.4494434022493077;0.8175715790319177;1.5492067157847318;3.151729944760171;340;1.2566370614359172
478;-2.044867655261715;0.3729974024097001;-0.4547357863481354;-2.598117611187297;-0.6128925519422566;0.5202472086040589;66;1.256637061435917
479;2.806900915070221;1.0932878181809762;0.4607499125844991;-1.1935423269794354;-2.551207528152592;-2.6416460312233;212;1.2566370614359177
480;0.466807438648987;1.0245127622792665;-2.1659849540116918;1.5680679950366896;1.3830485299930366;-0.97275139036771;73;1.256637061435917
481;-1.3949671675954805;0.3022234929778448;0.3912703504392637;2.366408345139639;2.271805743241022;-0.0473341462938908;77;1.2566370614359177
482;0.0035420913418009;-0.3234789891101449;-0.8273094648699864;3.0475781958286;2.0182600409521134;1.1051797247769664;200;1.2566370614359177
483;0.0372263138959678;-0.9362294314025132;2.3711779326958142;1.5476565291429611;-0.234357412394534;0.0077849358780715;232;1.2566370614359177
484;-0.2395119718926715;1.0360192169300868;-0.4642340263805697;-1.0275661403644;2.811331251521902;2.50251012527978;414;1.2566370614359172
485;-3.309183546432019;0.173066545456122;-1.7199320033397794;-0.5233837463712863;1.1338832810644472;-2.4728041500427835;265;1.256637061435917
486;-2.36798797910406;-1.1517569681709827;1.7349326755470975;1.068010990005191;2.1032017494403954;-2.448803417638812;281;1.256637061435917
487;0.4137733087095649;1.0519514000236083;-1.2997123205176178;3.461038646297085;-0.6430550485973701;-0.1381716753926859;411;1.2566370614359177
488;1.7572916103062166;-1.4149427185361665;-1.3271700931511088;-0.7831971957782518;-3.346148373339586;-2.662355503387544;446;1.256637061435917
489;-1.571779820189283;1.3411827475877645;-1.2231682757613864;-2.7444027297833338;-0.3561132225521363;1.33299728208206;177;1.2566370614359172
490;-1.811418068246986;0.1450307667982495;-2.3316122896304705;-3.0847916311462296;-0.4253431387399825;-1.5150769683316183;405;1.2566370614359177
491;-2.989592560385072;1.1527214725377146;-0.1783951531472195;-2.1475255624146925;-2.909592452030698;-1.552398236350359;421;1.2566370614359172
492;1.36996527213682;-1.2105252743293833;-0.0943544385383359;-2.2899735158694616;-0.9897770298761748;2.297492604203177;216;1.19512589216084
493;-2.540106119264625;-1.0543004612021625;0.1953678010348001;-3.184922682015197;1.5401661727387037;0.8562101864922678;360;1.2566370614359172
494;-3.2660988269698;0.7250271621276888;-0.0375819867814923;1.7404099220032614;-0.3468304127302212;-0.3140531528547701;219;1.143146708096166
495;0.7453623262643222;0.0860037891935119;-1.7504924593693727;1.733653431363332;1.6699349214557644;-1.5758903371180164;15;1.1792701665462866
496;-2.406222928596337;-0.3230895618544548;-2.022321040472072;0.819330816501642;2.676797825511314;-2.03167153929527;379;1.2566370614359172
497;2.6976168965176237;1.214146814723248;-0.8044729134021398;0.6788133004705683;2.055343008316276;-1.1655664711105136;253;1.2566370614359172
498;-1.9411042680295243;-0.4591385720302177;-1.1644713511585436;2.1987771941714307;0.4773471811030021;3.1381608230934765;328;1.2566370614359172
499;-2.7171282260737875;1.242149717448672;-1.9448213098034883;-1.0142593917410323;3.1042840843774444;-1.63590881551293;220;1.2566370614359172
500;2.066533623616902;-0.983775462332793;-1.5489552656777326;-2.0223420632431046;-0.7074536838812688;1.721967844560119;398;1.2566370614359172
501;-0.4574270432921243;-0.1795590231778408;1.0058391830515137;-0.9067829661086152;-2.191828116595018;2.3097673469059754;214;0.8900223330460535
502;-0.4330902935557515;-0.2664193994228609;0.4505531668989905;2.36778293445595;0.7832050228399183;-0.5514702344512318;156;1.256637061435917
503;-0.2071054526381786;-0.5275835968532022;-1.146912773958596;0.4995346558768378;2.237543865188289;-1.1883998148149129;10;1.2566370614359172
504;1.390122707463813;-0.5890968749054175;1.5904602351554595;0.0856461261195838;0.4449765363768363;2.256327072011408;364;1.256637061435917
505;-2.3603815660580647;-0.7602390519579184;-1.7928671230504625;2.887113875029579;0.5164822183067701;1.6006115549787068;328;1.2566370614359172
506;-0.552952976915285;-1.378738150652756;2.5589689271958536;-0.0251667980813377;-2.543824869432479;0.5185442538402503;231;1.256637061435917
507;2.4383101372751352;-0.2312091234157994;-1.9171990044360152;2.544685950056233;-1.7351095451357057;-1.8959181596908208;162;0.8601754350791312
508;-3.0521725460162497;0.5052783752694089;-0.4984551456393273;-1.040081131158658;-0.3053823164139885;-0.154192289540505;29;1.256637061435917
509;-2.053727630991838;1.282418691193744;-2.000565446261239;-0.1113409860573662;-0.938704497247643;0.4800859196722464;227;1.1829877884339215
510;-2.530350039248237;0.7037339756642994;-2.045097188671533;2.689930411121103;1.488091037292463;-0.5303840484283628;368;1.2566370614359177
511;-0.4963624863543701;-0.7275281664641752;1.3120493619096556;2.9126643823685168;-0.9281232994143284;-0.7013569930849697;155;1.2566370614359172
512;-0.0776472436934078;0.4961446225641444;-1.2441364845010727;-0.2066741853675675;0.533301889798758;2.117065199019644;450;1.2566370614359172
513;-1.5696011877549152;1.4290217856195864;0.322410571041995;-0.366698445677375;1.5039398015686285;1.867622021740497;422;1.1005765600900874
514;-0.7256140412493841;0.80016911636521;1.616559422876169;-0.917079018547521;0.0628642161379619;2.33756524421523;386;1.2566370614359177
515;-3.27343137415678;1.070322035550976;-0.8833848465562233;-1.3343853390052682;3.174569262434175;-1.7138239325554985;499;1.2566370614359172
516;-2.448969311981024;1.141076135116315;0.6536888420042087;1.9469064200184305;-0.7220831773917792;-1.8643686955367569;148;1.2566370614359172
517;-0.3503144161674398;-0.260144496360974;1.7715780292954963;2.776414816217311;0.7063636731305261;-3.15545387986751;154;1.150905595089743
518;-2.891635314195159;-0.0769962005269971;-2.239730740176977;1.2163421890842312;2.1336056157351253;-1.9498453999397316;496;0.8960052610957381
519;-2.8489868557318943;1.4459085926955968;-2.0980084319220467;-0.1873925191089561;0.2843212838268316;-0.9123388343890771;227;1.0866061827726117
520;-2.54231857769482;0.906004657238028;-1.3862726865880155;2.4388180202310403;1.2529815262454738;-1.5232064847424165;510;1.2566370614359172
521;2.3997862527647342;-0.9540727107907264;-0.2835428533933524;-2.4574106419768738;-0.3707394352342668;-1.128419259001268;64;1.256637061435917
522;1.2372909885279595;0.3714393902972512;-2.2915827243546945;-1.7742361509098254;-0.1936020617079928;-0.3572619610041457;209;1.2566370614359177
523;2.9483881141247363;1.7378196422677423;-0.4426799273030584;1.695083190967425;1.8000921545456077;0.7129993801887955;253;1.2566370614359172
524;-2.275784814097872;-0.5236732523359855;-1.1935179535730105;1.3915712966567002;-1.3494535306548026;-3.018037936184124;249;0.9371489820708226
525;-2.8749255951492376;0.2718523456996322;2.00557756286652;0.3101721355009245;1.211481906522919;2.461864027597227;415;1.2566370614359177
526;2.2685519571670545;-1.2947442192980891;0.4544108591192553;0.638805544624253;-1.0733673643517658;2.72042412522262;247;1.2566370614359172
527;-0.3663386948595223;1.402962130573249;-1.7490628401071344;-0.8114515367027435;-1.1598623812023272;-2.1907478574996326;460;1.2566370614359172
528;1.9660148952996623;0.6431494085502396;0.5767562982262321;2.503741398474501;0.5576156598635977;0.5178100844548729;195;1.2566370614359172
529;0.3773530143662181;0.7112106699620816;1.2590022621362265;1.3842765157229395;1.667893498538114;-0.0759528562041273;111;1.2566370614359172
530;2.47451885647537;0.6399529410562528;2.4181387473745306;0.2311664778156484;2.241983460438628;-2.564269304833486;256;1.2566370614359172
531;0.8384057751697682;-1.8247853734871349;1.0156110361046984;2.166260129312857;1.7953310917728378;-2.7546390112471046;306;1.0862791295635608
532;2.1341230480914493;-0.8059326517198687;-1.599873471831097;0.2154827024016696;1.252483013252751;-2.8797721279033235;235;1.2566370614359177
533;1.7258318892970328;-0.845146659717599;0.9793142865968564;0.6559135612874739;-0.407645589983722;-1.9051682425416112;46;1.2566370614359177
534;-0.8120050611857318;-0.5134961317759013;0.3096906904448328;2.682708715504515;-1.448108292188964;-2.4399695716782035;399;1.2566370614359172
535;-2.884704278340875;0.3314045551780258;0.4110262789207869;2.5952685374303357;-0.4441519207572942;-2.285319212432064;516;1.2566370614359172
536;-1.7914006820875952;1.1903341214804466;0.2318848622056989;-2.67558572162424;-2.3456968609515627;1.751873073940821;213;1.2566370614359177
537;2.741444826539465;-1.3304034191190524;1.2044837158091013;1.0254218664465151;-2.1428835285504397;-0.4477557892864827;289;1.2566370614359172
538;-1.9916143599611733;-0.3469343277093196;2.284894895020178;1.188292820008395;-0.3939504720673069;2.426400245350417;467;1.2566370614359172
539;2.065438109981733;-0.8528549537699214;-1.463899106438066;1.7290089805797866;-1.5386731366831152;1.3592799891782985;258;0.6964787621690659
540;-2.221419682330117;-0.3733494777742872;-2.139116245204532;-2.122154702189415;-0.243872530426651;-0.1835743730665386;41;1.2566370614359172
541;-2.953079966620391;0.0264387583803729;2.1896335538520137;1.3204706443271217;-1.4001717009118684;2.9808757514113227;467;1.2239431496698712
542;-2.374423652572954;-0.9112263507929532;-0.3952530653122053;1.791673095185562;1.5548674702780785;2.8162960193815123;328;1.256637061435917
543;2.954657848240422;0.4656213775426287;2.067617694922075;-2.790121032908303;0.3750916174788488;2.6917038494205814;341;1.2566370614359172
544;-1.2506379209344791;0.217556402134248;1.6879316959049582;-3.2392922142193847;-1.6255569818092543;3.180828428279278;325;1.256637061435917
545;-0.7682524757269414;0.2262704559738387;-1.6356314594869847;-1.9162425460034185;1.1737698310969351;2.0110836324327246;310;1.2566370614359177
546;-2.103858015140039;1.4766569015621258;0.9723169611020148;-1.7150748377217644;1.6604595395474333;-2.5567549893228665;449;1.256637061435917
547;-2.025277712422934;-0.039408955646866;-1.074758479025857;1.0105168636505204;-2.600687917200637;-0.9240706110752536;332;1.2566370614359172
548;2.5787456947897254;0.8784257951009189;0.9616842803515788;0.255805525291551;-1.481030721864922;2.328365147562017;165;1.2566370614359177
549;3.1717661382568654;0.8433923851491245;1.2528686764401258;-0.0662827797042471;0.8884101730166827;2.2714445717294214;458;1.2566370614359172
550;2.576897355194628;-1.46594007206655;0.8618467027959271;-0.9173697259971564;-2.214332028446844;-0.7480317988484566;285;0.9954865632493703
551;-2.261911377596384;-1.2353511774151409;-1.6854775356503644;2.684478643527318;0.1764844386043656;-1.447182313589149;389;1.2566370614359172
552;-1.7691745800674092;1.657717011104373;-0.4695868944326735;0.3767539522312536;3.240667423521708;-3.0722833814245343;85;1.256637061435917
553;-2.560687640010228;-0.6918931948661848;1.6112830405139018;-1.020959830710221;1.0768939819081913;-1.274041215386198;92;1.256637061435917
554;2.064945259774589;-1.351055557607441;1.519057804482636;3.0014253735627907;1.4914716221578015;-0.8671362221626564;305;1.14419482990173
555;-0.2236383274321071;1.2303772127829302;-2.080447696238974;0.4062299545391588;-2.70899675133772;1.4316027417390047;224;1.256637061435917
556;-2.4166278918450708;0.9687290209146072;2.2774136652564487;-1.071491119059414;2.603973350098509;1.1093538759608017;87;1.256637061435917
557;-0.6806421686560065;0.5538837088535123;1.5021424282939446;-1.9985166790354767;-0.1446151259141143;1.3385493609523704;386;1.119466014422626
558;-0.178743927426436;-1.2491123256089205;-0.5855352476203002;0.8149140331609352;2.574007099204705;-1.9163505240689969;503;1.2566370614359172
559;2.681460428770848;0.2630135065180987;-0.8474503069878597;2.255840504538636;2.4855025212042303;-0.3403997409542615;448;1.2566370614359172
560;-1.6730789162497413;-0.0044170041647143;-0.2427304714889768;-2.385424228978011;-0.879397281463599;0.6806371741899414;478;0.6838149903505129
561;0.38275639695833;0.5907205700910901;-0.4404810242504272;-1.3270456036987677;0.5740621507908479;-0.6456228618936258;6;1.0388026306553702
562;2.8934284647370347;-0.3585842457997074;0.0500797588009976;-2.364582272720388;0.2217377679723274;-0.4143484158979212;521;1.2566370614359172
563;0.0223131546560883;-0.1135650332667554;-0.1452883165715678;-0.9174034891048182;-2.622781315244793;-2.286487169966354;273;1.249389701900098
564;1.8351909993600488;0.2776868732433248;-2.090414375062906;-1.5765704955210311;0.6708743717100424;2.203150716471721;166;0.9684868759552828
565;-0.7317597279065872;-0.6732502914249938;2.4352437789500696;1.2109332191734568;0.3193326497800116;0.7110483563258266;483;1.2566370614359172
566;-0.680907498307214;-0.3883570839390909;2.5121950217503386;-0.3179430636364623;1.620344070845368;-1.411669475157965;186;1.2566370614359172
567;1.7939054226338254;0.9359464539501142;-2.503844928299228;1.7015647644724825;-1.28542900417419;1.067851041307062;342;1.2566370614359172
568;-0.98592546532786;-0.4232934900336065;-0.9984954697437366;-1.719802558076229;-1.2616121101269715;-4.163336342344337e-17;255;1.2199437737823384
