Komment314/test_diploma/benchmarking/path_finding_for_benckmarking/pre_rrt_star_results/4_2_tree.csv
id;joint_1;joint_2;joint_3;joint_4;joint_5;joint_6;parent_id;cost
0;0.0;0.0;0.0;0.0;0.0;0.0;-1;0.0
1;0.3142953046663953;0.1913498468246464;0.5605325418351523;0.6933968613695811;-0.4440003835431504;-0.6720179486883607;0;1.2566370614359172
2;-0.6550762488425226;0.5859214665484935;0.7722568459413701;0.6019067335843069;-0.6055356405556034;-1.3080033798430348;1;1.256637061435917
3;-0.3688103306925435;-0.0586805601409587;0.025613759304177;-0.4278240832576038;0.8438954576291358;0.7374436803731577;0;1.2566370614359177
4;-0.2036549900424616;0.3426914010227089;-1.0773691429931949;0.3555633074217613;-0.1484103829558219;0.3332398164123055;0;1.2566370614359172
5;-1.1459221739197492;0.097776709800416;-0.8658516779620047;0.8923126947344796;0.1634172817916594;0.7818042121127293;4;1.2566370614359172
6;-0.7555867308178393;0.1014197144060037;-1.198244345871343;0.0443279199759695;-1.1992510668602412;0.3097535029933;4;1.2566370614359172
7;-1.3178902228904614;0.7104457297472666;0.4401388438377096;0.8622644516624682;-1.3334737097813398;-1.9532364435832552;2;1.256637061435917
8;-1.7374703459229273;0.0461205801144704;0.1229679665012151;0.6409892015738798;-0.4887189633547636;-2.2672279032653946;7;1.2566370614359172
9;1.0388067730392103;-0.1175885701185613;0.1939121718722247;1.271113221038415;0.1351574703948625;-1.06595497821001;1;1.2566370614359172
10;1.4791425157352514;-0.1337657194283132;0.9020810979214648;1.7126168933567636;0.9554848569975776;-0.9410002023266142;9;1.2566370614359177
11;-0.5547565340753806;0.490641140863079;0.0285496986849888;-0.8561281962940701;0.168694023225373;1.5142682245418764;3;1.2566370614359172
12;1.3440686282997565;0.6449166891835748;-0.0884230789266449;1.8972862493927016;0.1091016960821682;-0.4086476872290769;9;1.256637061435917
13;1.6342027437159723;0.0055552807098113;0.9753630066028444;0.7430295027093057;1.2413414904023772;-1.6540911696577922;10;1.2566370614359172
14;-0.8543961791339065;-0.6336925188895244;0.4760786096978597;0.3188048704423672;-0.3437319568813313;-0.0337434222929227;0;1.2566370614359172
15;-0.3594853048730919;0.4243938125185026;-0.1983847813125602;-2.018683395680616;0.317758814144731;1.8479791488207324;11;1.256637061435917
16;1.1366192919301534;-0.614556832289145;-0.4955680533151065;0.4768926112911242;0.2661584525627069;-1.5123419700869936;9;1.2566370614359172
17;0.5990036455630975;-0.1482684239154059;0.3274245381285776;0.3826944510717205;-1.3643360928860997;-1.292376029097511;1;1.256637061435917
18;-1.5671806852523271;-1.0695780816932372;0.9127320561583484;1.109422096073643;-0.5954177626360972;0.0108789214595057;14;1.2566370614359172
19;-0.6213164561450992;-0.5209879809377513;-0.1307486142734558;-1.3336466751311518;0.3139837983434597;0.3180642781688897;3;1.256637061435917
20;-1.2569704226528755;0.0257598609175338;-0.3863376185574209;-2.220593039592281;0.4616024523542734;0.2695186613722184;19;1.2566370614359172
21;-1.6121988896390411;0.2213599992440996;-0.7856040337168766;-0.3038352053980573;-1.903751300061261;0.5174948660905369;6;1.256637061435917
22;0.4715533827889264;-0.6798008637319142;0.0583058222954255;0.962146654073552;-2.032727282366648;-1.944625888557224;17;1.2566370614359172
23;-0.6976196599374959;-0.8727474230159924;0.6689951735011432;-0.0372510326753302;1.1874733736705312;0.3856148362202031;3;1.2566370614359172
24;-1.4515133914290173;0.6429925617712517;1.1732433720654687;1.183818912827021;-0.450225790310077;-0.6614476250115822;2;1.2566370614359172
25;-0.238005582359795;-0.028175739464426;0.6569015964696117;-2.525456974474502;-0.2820335902925687;1.7408576980913086;15;1.2566370614359177
26;2.061296362890962;0.1522486567751678;0.7248941601426232;0.0435419035958059;0.7645576356427768;-2.4260163017352143;13;1.2566370614359172
27;-2.274236657290288;-0.148814370004362;-0.5495736088270745;0.8659689516728168;-0.78760992537753;-1.4543594448423764;8;1.2566370614359177
28;2.060817329707722;-0.1989922259547649;0.0917129319956819;0.8686370908695493;1.9292805849003216;-1.946361760746527;13;1.256637061435917
29;0.9247922964836688;-0.7349937534882391;-0.6475225010132837;-0.5357302664575533;0.5089776586331584;-2.154451433211888;16;1.2566370614359172
30;-1.6157249847050597;1.2173680508220244;0.6402163146861437;1.763283532913546;0.253310900369958;-0.989171730658738;24;1.2566370614359172
31;-1.6859074000961567;0.1273009463406772;0.2105398511857031;-0.9412581834774664;-1.5697415186738732;0.283649986410596;21;1.2566370614359172
32;-1.019868773767995;1.05714204073072;1.208455800114103;2.38399943342356;0.6809039615343628;-0.4347354964073104;30;1.256637061435917
33;0.7353501784899384;-0.425234819033988;1.1720525352996125;-0.4478216202292236;-1.1024889768293002;-1.182291367919988;17;1.2566370614359172
34;-0.2707558545473854;0.0739168422928405;-1.5838952866935427;0.0984817702383748;-1.190695799343569;1.4013517978605434;6;1.2566370614359172
35;1.248873413004031;0.1560293524911722;0.1710853673155263;0.3099734233503297;-2.267451464464373;-0.8245499992207588;17;1.256637061435917
36;-2.1547326564771265;0.386059788123441;-1.158565085603905;-2.4211110902612534;0.4578774628487765;0.1871353311611097;20;1.2566370614359172
37;-0.0259839683407032;-1.1072247240495314;-0.574083959121946;1.2950693931723385;-2.507337350720941;-2.587193417462148;22;1.2566370614359172
38;-2.051059123508843;-1.2713252476142218;0.5970221237102458;1.961488978395248;-0.829699837452869;-0.6400570340933339;18;1.2566370614359172
39;-1.4462581049275485;0.2602298511387418;0.7209365007612701;-1.0974781537725309;0.0039792663065409;1.9223026031166228;11;1.2566370614359172
40;2.3826541084687705;0.2389751558985824;1.1050445969532627;-0.9487523942155764;1.0521259793019848;-1.9195713022238747;26;1.256637061435917
41;-0.3571277148436265;0.8725215551392868;0.3917952873292633;-0.6754312544173956;0.1590291143601779;-0.2351626021516362;0;1.2566370614359172
42;0.8303965193528261;-0.5095938740212521;0.9831961451009548;0.4098623221019752;-0.9527142795708736;-2.1839089507078526;17;1.2566370614359177
43;-2.3508122225317223;0.6855873706656512;0.8740115884396643;-1.542976830696351;0.1876381515486062;2.054349322895749;39;1.1279251513438984
44;0.545902525148775;-0.0788446618810531;0.9690703015076456;0.4901572353774828;1.7616134006959698;-1.884197983481393;13;1.2566370614359172
45;1.3800857484644364;-1.6131972258088283;-0.7323004596375058;-0.4395744965245046;0.1502388955309579;-1.6383195906086652;29;1.1790047835668456
46;-1.9028680121159776;-0.1873079191089799;1.2965141255681918;-0.5190750589163245;-1.8343027723564005;0.3579109219817981;31;1.2566370614359172
47;-2.1311287698550814;-0.2747343516835352;-1.097933954164648;-1.145403227443709;-2.1583080154987275;0.0780030660988896;21;1.2566370614359172
48;0.5649915948312028;-0.2569191455587494;-1.2733227412844574;1.2758738974246813;-2.448238837562026;-2.705806381764948;37;1.2566370614359177
49;-1.9546933636483623;-0.4919915694876395;-1.682215401389165;-1.8451788121117365;0.7554655631425183;-0.0843061528152145;36;1.2566370614359172
50;1.745638087609004;0.3952201536015577;0.5394746498621142;1.8838838193487235;1.869919219241992;-0.460079458841265;10;1.2566370614359172
51;0.7458230654460793;0.0765903705111818;0.3411101810540339;0.1920593430381005;0.7019100733964968;0.609178033390446;0;1.256637061435917
52;0.6478318058091957;-0.6174571201855175;0.842682336407911;-2.518854868100539;-0.4980082761256433;2.345814840515787;25;1.2566370614359172
53;-2.178068073590074;0.8836321846234868;-0.7368606348205851;0.2827758445147224;-1.3043528965142477;0.8559582087308552;21;1.2566370614359177
54;1.0999856628656992;-0.0915820284668985;0.91010993562332;0.0928057789477135;1.4612986290226182;1.326911015692893;51;1.2566370614359177
55;1.3015190632974805;0.0461700597492675;1.2803626052830808;-1.1891003085706002;-1.36134207518415;-0.5434354790588268;33;1.2566370614359172
56;0.1437658297305923;-0.1367311465113926;1.7863498971623994;0.4825421039931719;1.7787629940489462;-2.747780001021019;44;1.2566370614359172
57;0.5849459277227295;0.2983787838368709;-2.134135997205143;0.5270217848801831;-1.483377964073889;1.8751173174877065;34;1.2566370614359172
58;2.1368870637572046;0.300889541601118;-0.5601994816979508;2.246405891831621;0.010545187164413;-1.1000593373340002;12;1.2566370614359172
59;0.1012272496057068;-0.0020333433367733;1.5541325120583485;-2.17039330823759;0.4327857321980964;1.5948639371292332;25;1.2566370614359172
60;-1.7713706404959284;1.1388600919492646;-0.9232638444270944;1.3480973336488415;-1.6656454530638491;0.6359484947854558;53;1.256637061435917
61;-2.087299536891401;-1.234690473761025;1.4538789841988515;1.689810411685902;-0.8749038457854645;0.7682083854502566;18;1.2566370614359172
62;-2.146579698263821;0.6642214952428285;0.4988119275484663;-1.3274316333374856;-1.7787866569402393;1.1795871877934487;31;1.2566370614359172
63;1.833919765014962;-0.5744611258346286;1.842099662726846;-1.402103019412148;-2.101560427936401;-0.5841938178752314;55;1.256637061435917
64;-2.016637900130187;0.0798460116038624;1.6999766749467755;-1.2386684738470906;-2.054918351761893;-0.5170484762882026;46;1.2566370614359172
65;1.9007355483247612;-0.680735717129128;-0.4845022717593663;0.6114279572177703;2.567029474041305;-1.2276618295640065;28;1.256637061435917
66;1.2564789044771747;0.6739560526962831;-2.098981808799768;-0.1800703365278588;-0.8638750941155736;2.194684195332328;57;1.256637061435917
67;-1.4786529660865662;-1.1175056931671632;1.1329741429659654;0.2147533839830499;1.7452475898936526;0.9507009196167694;23;1.2566370614359172
68;1.6831586898553974;0.6393053180344602;-0.9630310445642056;2.42003569467743;0.5749237589453225;-1.964812643421196;58;1.2566370614359177
69;2.702154965572156;0.6272022260986003;1.000182961591073;-1.7388904827649156;1.0311661813741584;-1.0885585623865124;40;1.2566370614359172
70;-1.7341609159363416;-0.2178127823029227;-2.4868712263391566;-2.25247672624655;0.4485999088554554;-0.8244406129458088;49;1.2566370614359177
71;-1.6495393303721697;1.1405689842832172;-1.6072226411385844;-1.8932953139573607;0.0722396711991963;-0.1678754829581701;36;1.256637061435917
72;0.5500373302279096;-0.0323702301939161;1.741791196690389;-0.2049842739307463;2.2650247836900044;-1.391027207362914;44;1.2566370614359177
73;1.8975262879207917;0.0789277325731075;1.9508572036528;0.9633825482303436;1.2858036284128986;-0.9453651127893584;13;1.2566370614359172
74;-1.615558424849601;-0.0453723515547257;2.236623412753945;-1.1695461973752104;-2.632935581284372;-1.3977986067351182;64;1.2566370614359172
75;-1.835674414831832;-0.0267940495586911;-1.181040865552651;0.9323458089779624;1.155768520009809;0.7354056987682904;5;1.2566370614359172
76;1.472645769706852;-0.635208895749268;1.2402567526874713;2.00712852493106;0.1809042341140637;-0.2153458621405259;10;1.2566370614359172
77;0.3976947675594673;1.0566143086809905;-2.1292523057735933;-1.0100785554835634;-0.9341948754712636;2.174084406290404;66;1.2566370614359172
78;-0.9106677893081752;0.3953989505700888;-1.2078801441210378;1.9443247681316544;0.4671215265164909;1.127150325445658;5;1.2566370614359172
79;1.459636807373721;-0.5980559532744891;0.568261461775345;-1.847559884888132;-1.109258970201663;2.4878069403063914;52;1.256637061435917
80;2.1142416748614967;0.3284023655739912;1.0038291124144894;0.2406278703139883;2.0368892658522992;1.436889736664155;54;1.256637061435917
81;0.9214415512238952;0.1592438839533492;-2.485359977303311;0.2825880053729181;-0.1689432917859915;2.5629718089236184;66;1.165798203535824
82;-2.324179375361872;0.5667978429425786;-1.7011379373443274;1.2022563590823;1.6438896083487908;1.3730054218261536;75;1.256637061435917
83;-2.6715084153839435;0.5861597252963413;1.474970564207931;-1.3350243013121763;1.1579892751348344;2.401376052877648;43;1.2566370614359177
84;-1.7796544031988686;0.0021622945537806;1.3564653247803184;-1.0972796266820035;-0.7849484532285121;2.5347410706288533;39;1.2566370614359177
85;-2.729913200422425;-0.56051303653462;1.7330576132364168;-1.6153948373194404;0.8223992571153429;2.45642094366967;83;1.2566370614359172
86;-2.1858048371196968;0.8873256367331153;0.8845249119810488;-1.9640356952243216;-0.8695940292896402;0.9174683425540768;62;1.225026869355489
87;-2.000703386082608;-0.2551962104932475;-0.4380215212799757;0.5242047564914813;0.3656632138738372;-2.867841377689975;8;1.2566370614359172
88;1.8647183938652856;-0.3224561919399473;0.3542103641036576;-1.5503229315181235;-1.5665518949348414;-0.8528010839585319;55;1.2566370614359172
89;2.861644714468645;0.1050341993206239;0.7098534291090888;-1.1549718293441351;1.8399760326172223;-1.5676925292682695;40;1.0911466777741188
90;-1.9174792082963663;-0.8315752671781941;1.4684348374869982;-0.8935540522613903;-2.349512415769168;-1.7488705054631375;74;1.256637061435917
91;-2.5066330129071503;0.4401017309213398;-1.9049915670361568;-2.854582429598844;0.1492462068745956;0.96949021570053;36;1.2566370614359172
92;-1.825871032645641;0.0209185060766379;0.3677756302816098;-0.1372725714959821;-1.5265561468356896;-0.651897303307768;31;1.2566370614359172
93;1.2612348570624003;-0.2430322048910081;-2.207185955927341;-0.0014119356164665;-1.64635936561117;1.1557407131716508;57;1.256637061435917
94;-1.657862644718619;-1.0929021810164672;1.5954241298693916;1.2569095175246898;1.5029605511785094;0.5173848037683616;67;1.2566370614359172
95;-1.8850209716141708;-0.473164787647539;2.1116035037708025;-0.6243881670781524;-1.3680355491275122;-1.7343086230334663;90;1.2566370614359172
96;2.983293268543048;0.0307507900656196;1.6580882655001796;-0.4305704494026131;2.0396124900466948;-1.2593762480998127;89;1.256637061435917
97;1.555900133580528;-0.7401424042504543;0.2395092931050735;-0.5263659779068552;1.6960517560844668;1.0769905850894057;54;1.2566370614359172
98;0.8303745323714496;-0.3629727102860933;0.665228629735719;0.5121052791460161;-2.331787190057958;0.0949380721571043;35;1.256637061435917
99;0.2468337138048191;1.0778961309648023;0.5046974494115171;-2.2061721926964646;0.3107399739411624;1.3430804111862786;15;1.2566370614359177
100;2.202942361761046;0.0905022052700764;-0.9998367689613454;2.590751912877435;0.6750968634815456;-2.9482979979829023;68;1.2566370614359177
101;1.4999642530893305;1.1779866420433451;-1.7610359751067748;-0.2789616658383065;-1.1947627950411444;1.178647187127943;66;1.2566370614359172
102;1.8877636139651368;0.5192318305428479;0.5378172447468588;-0.4436410024457167;1.8029786480336305;2.3036788570639213;80;1.256637061435917
103;1.4045214744775092;-0.7919272422247454;-0.166678227761996;-1.3855145489097291;-1.548926157821752;-1.773754414905451;88;1.2566370614359172
104;0.5497689633637097;-0.7365413878587522;-2.457281528561107;0.5697094528220006;-2.2607589908727714;1.0935621506633135;93;1.2328079901225732
105;1.306446833937914;0.6080801397568533;-1.8948975410944855;1.4159169648831107;-1.1440331024832489;1.886675935210795;57;1.2566370614359172
106;-0.6010381448354568;-0.7031481100989754;0.8254868390686225;-2.6382544116540148;-0.730194205065028;0.8749684562439649;25;1.2566370614359172
107;2.807934768449231;0.1866769773911452;0.8225612373006661;-2.5520839815616583;1.1498321663719262;-0.2718761986072145;69;1.2566370614359172
108;0.8356769387486919;-0.6136597992534653;2.109772474862493;0.8551267497602475;1.0590032246678145;-2.413924981681577;56;1.256637061435917
109;-2.3224287104498904;0.8538341442427512;0.4882040644284944;2.158521588390984;0.8301843983460317;-0.3292885822402064;30;1.256637061435917
110;-0.8547459227914169;0.6445267067651377;0.2549586290299311;2.0863726815458645;0.6426741034269703;0.1836654040500226;32;1.2566370614359172
111;2.55628209153077;-0.0767604940270361;-1.5887996615175783;2.774507841660693;-0.3442318497936014;-3.029761935317352;100;1.2566370614359177
112;0.982255007371348;0.1481718358917981;-1.6805497262427629;0.96562171543399;0.4414865981648139;2.86035472309344;81;1.2566370614359172
113;2.096006614094187;1.2997908999809418;-2.06888122221086;0.2070351953948501;-0.3268521169853815;1.5319223496203775;101;1.2566370614359177
114;-1.87751372697784;-0.8110330880615892;2.2113030150041046;0.1210741008260473;-1.4202006198263586;-2.6811719590104923;95;1.256637061435917
115;-1.9303905393075251;0.4867053847399294;1.013008289330324;1.7388434989355066;-1.5436911069190218;-2.067948007180067;7;1.2566370614359177
116;2.2418138089962616;1.3734543666533596;-2.228751577138653;1.186579725669824;0.4262759186799543;1.5454428705200989;113;1.2566370614359177
117;1.684631057845054;-0.4873746634926275;-0.371443818971946;-2.074012692099533;-0.8340628342283759;-2.390953605061464;103;1.2566370614359172
118;2.041244400308948;0.0949773288537371;-1.7139228210054034;0.1178051457524642;-2.4075917112676475;1.2952952003064762;93;1.2566370614359172
119;1.2644262126847337;-0.9171700560286152;0.6273324753287034;0.8739414923075199;-2.618879348312121;1.0270419687043333;98;1.2566370614359172
120;-0.572488735048279;-0.2561132024188343;0.0480155506401269;1.876462810490073;1.378542640410522;-0.0611309250570511;110;1.2566370614359177
121;-0.1984369972690751;-0.9427313354843984;-0.9505448997367794;0.2262844319582247;-2.894323868340666;-2.2896100103968497;37;1.2566370614359172
122;1.2790257676285608;0.1271639789081329;-0.2158241135539286;1.2443769966994185;-1.315505309881945;-1.321414913160848;17;1.2566370614359172
123;-0.8701542133114883;1.1085905443401634;0.7997608333822971;2.0717082114131498;0.0837037314110995;1.0520384103495364;110;1.256637061435917
124;-2.323235014763046;0.3823483954509655;-1.3533189503180112;1.588252960138531;-1.016005054501567;-1.7277399194045735;27;1.2566370614359172
125;-2.1837205660701597;-0.9616862196549256;1.1534991459889474;0.5447501555065887;2.3160911379041926;1.739722575866918;67;1.2566370614359177
126;2.4947934096608235;0.8182982078888547;1.2273397560672716;-0.7115327586465476;1.179026088151684;2.73343081995865;102;1.2566370614359168
127;-0.6254280325603438;0.0721165323547076;1.1536389157503475;2.8617260929556783;0.2552693617614152;-0.6369371015826714;32;1.2566370614359177
128;1.1835907034216069;-0.1496347792976756;0.8960102981466389;1.2432418808022243;1.1960087756856552;1.7448775801190397;54;1.2566370614359172
129;-2.613975376252593;0.8182824815076251;1.9657864361527784;-2.428702126969976;0.9055645588159702;2.2557874690729047;83;1.256637061435917
130;-0.6700103564268669;0.8324560443549338;-1.175458178154553;1.411360435319865;1.229561310787536;1.8081681022912384;78;1.256637061435917
131;0.3962874947375407;-1.0570578481330155;-0.5112164662662302;-1.367833936603898;-0.1201568636668024;-1.855606996226451;29;1.2566370614359172
132;-2.683179650244176;-0.1127799441824282;1.4761099066365404;-0.4669485311242598;-1.3625222207150665;2.468835524601721;84;1.256637061435917
133;-1.0562674064568305;1.0645523786987794;-0.0069438236304741;-0.1426660246263751;-1.3913883846044273;-2.368177890030236;7;1.2566370614359177
134;0.3870828495084335;-0.7385368063520568;0.3538412067021657;1.6105971315618577;0.8315620536984725;1.5546468564843738;128;1.256637061435917
135;2.135990400725741;-0.2854714624277003;2.3228276581857967;0.4152938173675689;2.114887196841169;-0.4321965650594732;73;1.256637061435917
136;0.8685731472097111;-0.4788404839233086;-1.9201584988254827;1.6889241665417878;-0.8329066895994192;2.071164968833743;105;1.2566370614359172
137;0.8840055439623392;0.201368979147149;-0.8147495008824341;1.1236063600195394;0.6831964758867206;-0.7284109518303016;9;1.2566370614359177
138;-2.1454138946599195;-0.0319586764474448;1.9467270729367112;0.711123309659541;2.553534373046149;1.737245062230868;125;1.256637061435917
139;1.881521230093488;0.6597674692705957;-0.466654499567313;-0.500219485538141;2.3795003281600438;2.767150122122396;102;1.2566370614359177
140;-1.2634595279456742;0.1040273906820009;1.874518276311303;1.5451279763388652;2.591750763053253;2.0210805813902626;138;1.2566370614359177
141;-0.4282763944980574;0.8747198889428336;-0.3578170775188505;1.60278241330445;1.7871043801101971;2.5173095169689583;130;1.2566370614359172
142;-1.8002739554271645;-0.5807507726129165;-1.381899429292009;-2.6779935258817544;1.3662503000094688;-0.7092742552343292;49;1.2566370614359177
143;-1.170925577850804;0.9018724032504848;-1.7393435346835522;2.3838399715979524;1.4589149587486063;1.8925231532204017;130;1.2566370614359172
144;0.6818929048795821;-1.3452826238717248;0.2965946824966536;2.497573228127284;1.1264928223001731;2.0517336996704576;134;1.2566370614359177
145;-0.0650856592701304;-0.9908598099886408;1.124846959124131;2.854094230897549;1.0527164646943852;2.3292083611764007;144;1.256637061435917
146;0.4782046482222026;-1.1475203179499978;-0.5703325706444559;2.476061359799467;0.5209158102547276;1.435463687098806;144;1.256637061435917
147;-2.4021112720542104;1.266933783828517;-2.2638075848347032;-1.9436386726110515;-0.6716640835817225;-0.0690166149847903;71;1.2566370614359177
148;2.0520763636627883;0.8741360454963676;-0.9492158056852588;0.5827871975234474;2.552740725515857;3.0285169890356847;139;1.256637061435917
149;0.1961686464709601;0.2856745090937638;1.702142621126638;0.4097853802914954;3.010607747267278;-2.037056239039057;72;1.2566370614359172
150;-2.3200692284823137;1.1943334670205514;-1.9531744376800533;1.1090194476324722;-1.590729283343641;-1.7249792900753451;124;1.2566370614359172
151;0.6892848339716849;0.3133186284060267;0.4375130999966264;0.0014854055143913;-0.3653964435763884;-2.453269819393164;42;1.256637061435917
152;2.1854235495724628;-1.441542595461318;0.5030316375151579;-1.066095088072312;1.428683198441938;1.585554505046649;97;1.2566370614359177
153;-1.3168420244443275;1.402118838558993;0.5996501239167441;2.4187674530509318;0.8208788387561069;1.8198445655179587;123;1.256637061435917
154;1.9844222218460572;-0.1556925807426378;2.3296980012550503;0.3767054365280562;0.5137586062700454;-1.60322163961141;73;1.2566370614359172
155;-1.0937788756891715;0.4195481695696049;0.1029560322629917;-1.0685636142539472;-2.6015274716866648;0.0583748842816919;31;1.256637061435917
156;-2.3297921036954565;0.5073552375762834;-0.9268158286659992;0.0178825649155096;-0.5417608209356258;-0.9816145361976298;27;1.256637061435917
157;-1.1805507643388315;-0.1902724293030876;0.5756726171634265;1.8960133893304325;1.5936851848629954;-0.999199017407719;120;1.2566370614359172
158;0.7793597011237784;0.8206418436696546;-2.2467327639727666;2.198562679154205;-0.7430614547713414;1.2874824937978953;105;1.256637061435917
159;2.211415791576602;-0.158383278014616;0.9476364565348432;-2.298751541620313;-1.6535857030165535;2.0672571669090263;79;1.2566370614359172
160;1.993624232838147;-1.2497334083880516;1.3297283109971048;-1.8768392294074316;-1.590992099310946;-1.1750065142496922;63;1.256637061435917
161;1.9362430537883792;0.016728297562386;1.480231779281748;0.6325565885624993;1.3797460070476266;-2.8215512173928348;26;1.219172636539992
162;-2.6575604579686147;0.2072308760976634;1.1921557417668291;1.5396792766681198;2.561491048678925;1.6765427818574954;138;1.2566370614359172
163;0.6439585153360996;-0.1442680383689744;-1.3902559751555446;-0.5235156141010585;1.2817378293824284;-2.202946053505548;29;1.2566370614359177
164;0.9678995474912075;0.0026519431146922;1.58831657222108;-0.7800796994515932;-0.3410638254061462;-0.4905320361673481;33;1.2566370614359172
165;1.1930115953740272;-0.3914948222918687;0.0585702289831978;-2.816407061076009;0.2261704306642109;2.40106732672773;52;1.256637061435917
166;0.7156573206320873;0.6866941232501209;-0.8686583992019234;0.463700489771245;0.7905351795310165;3.2906206498983024;112;1.2566370614359172
167;-0.2861689095260484;1.0353161637789934;-0.2731120996371727;-0.5261193312853143;-2.8342316362553204;0.2990164348747112;155;1.2566370614359172
168;1.7217021382399509;0.6916188523081934;-0.9733752975566496;1.1188606672771588;-1.771666089406584;-1.8379845878993644;122;1.2566370614359177
169;2.4748324022950867;0.1359127016436551;-0.8570153641010397;0.6128871093306858;-2.3629825734417294;-2.127670838704703;168;1.2566370614359177
170;1.0005748873035747;-0.9320744210711512;1.0406980928409395;0.2328119014430043;-2.802965827171002;-0.4016502724133852;98;1.0200178030925462
171;2.203324249633572;0.4423004529315122;-0.0066616736240491;1.24933041656837;0.0370130263871013;0.198010929458306;12;1.256637061435917
172;-2.5457950285846835;0.0756310785263977;0.0598880925186029;0.4710538458271445;1.325398990149929;-2.8407609935193583;87;1.2566370614359177
173;-2.156178291439847;0.920460068623082;-1.27103526154959;1.808172766960237;-1.5072257235316917;1.648692308467546;60;1.2566370614359177
174;-1.3736860359230223;-1.3423549234527876;1.4791146236275552;0.701207462006011;2.5007241178824446;2.5229712188672986;125;1.2566370614359177
175;0.0577209641894122;-1.38156304499884;-1.7584835369079503;0.8964003288067792;-2.112258815956654;1.6448104331665945;104;1.256637061435917
176;1.912116354150116;0.4912644763841124;-1.7373515979144358;-0.7772436954345818;-0.4344598668342307;0.8458205902697751;101;1.2566370614359177
177;0.7866100449020306;-0.8879043730786087;0.7000302492985014;-2.526633542648594;-0.9076689989765464;2.332242225750853;52;0.5299220373751262
178;0.3389176681675756;0.024162153420426;1.823736006450736;0.2286825556966435;1.3092058553818564;0.994934829151228;54;1.2566370614359172
179;1.6984330548122577;-0.9699071633536804;-1.7049003977509292;2.4545119860668385;-0.9332136111794704;1.9886997259661927;136;1.2566370614359172
180;1.0655329669693936;0.7687332562470676;-1.852225548953922;2.9201872080318694;0.7503076860410495;-1.6341380986150609;68;1.2566370614359172
181;1.0457537633017089;0.9644881743491074;-1.1960075419516432;-0.957152140888698;2.5962532664063307;2.7741920908681563;139;1.256637061435917
182;0.8614879296530951;-0.5416835619925173;2.162879927548955;0.175825183792164;1.392700956374404;-2.2661149206520927;56;1.1384229227408746
183;-2.5778524219210897;-0.8702205970963507;1.9459996615809685;-1.447381653148113;-2.490101208865964;-2.515024589128104;90;1.2566370614359177
184;-0.9057818421152246;0.4844489897004898;1.8176983833897855;0.666447161215517;-0.058779090111881;-1.6395611359639874;2;1.256637061435917
185;-0.1741205134079466;-0.0352570042188924;0.5013859657376123;-2.976359669140593;-0.0452760846370926;0.3627867131952885;106;1.2566370614359172
186;-0.0057629429127627;0.0764385751331102;0.0063197632612906;1.520435141454729;2.497680811760136;2.8623753863550947;141;1.2566370614359172
187;-2.276826997002257;-0.8036174025553335;2.469388686880983;-0.9915393752615782;-3.00974075204142;-0.8154956065514575;74;1.2566370614359177
188;2.427639490248048;1.04963284096253;0.0711330219510881;0.2994504195430199;1.82004125370116;1.2360416223622204;80;1.2566370614359172
189;0.8857932464263903;0.4715036985762059;-2.521888752098347;2.1689184178127743;1.3375071396938252;-1.9516725501430217;180;1.2566370614359172
190;2.202650586183568;-0.6294488047596838;0.1221180186207337;-1.5271958044196623;-0.9108247483921952;0.0886415652192157;88;1.256637061435917
191;-1.4808399443486624;-0.3748207885575941;-1.7041200987211949;1.9350310572134957;-0.8261880711163735;-1.8575670921777403;124;1.2566370614359172
192;-1.1474412427019862;0.296498359522831;-2.151363596421961;1.7592229993571795;1.850600492408471;2.59876886598132;143;1.256637061435917
193;-2.820635556723296;-0.7596414194068113;1.2688277099752112;-1.3809249695933186;-1.874735445831591;2.502474530312825;132;1.256637061435917
194;1.0963816798416477;-0.4413747666127859;-0.8872449758594044;2.689732898074172;1.2450592703070231;1.268491915547978;146;1.2566370614359172
195;2.028251099611837;-0.3037892414500829;-1.4560043177641344;-1.2198717145567817;-1.1568829860053689;0.4762695215987582;176;1.2566370614359172
196;-1.756015603675896;-0.3455155153089698;-1.7442738885990896;1.8919787016651923;0.3420282943176456;-1.4910142951344536;191;1.2566370614359177
197;1.9665362963254744;-1.242114687031162;0.241747131509295;-2.202704834128188;-0.0930285288561951;-0.0041648593643536;190;1.2566370614359172
198;0.8773582444963939;0.2723843883967863;-0.8188731180428821;-2.301197186671059;-0.5696170179094769;-2.559702323768124;117;1.2566370614359172
199;1.9985899717198032;-1.0488658161036852;1.8071515116775756;2.3586744679485463;-0.6472314039386716;-0.2407328657180681;76;1.256637061435917
200;-2.529571115063522;1.3500300183506948;-0.5798897456536584;2.45300066972903;-1.0947614846313083;2.086381998805035;173;1.2566370614359172
201;-0.1053434410874902;1.3522970865711093;-0.6439248158800653;-0.770570654218876;0.4221899391521949;-0.364509378433353;41;1.208855544263998
202;-2.0527240881391933;0.3316955801772699;-1.5983615340665007;0.1747294884416134;1.332652463038514;-0.0545844087963403;75;1.2566370614359172
203;0.9154620043331496;-1.0581425490473555;-0.8576479801538563;1.248581767078382;0.4502040857427713;-2.2692957655945425;16;1.2566370614359172
204;2.1166635125374835;-0.7411914904263163;-0.9197987415813754;2.190865963773436;-0.3091123162016042;2.5145446340695874;179;1.2566370614359172
205;2.758696271101964;-0.0099367427546908;-1.5660589728729708;-0.1811100801852598;-2.8233021094438167;-1.764053599833577;169;1.256637061435917
206;-2.0131907984130777;1.3112326668661718;-0.3814562674809968;2.2742400620215344;-0.8473365147778941;3.1719383181332685;200;1.2566370614359177
207;-0.5813391186549621;1.1451616930867543;0.9810541671339428;-1.4850032885645723;0.4504406598026128;-0.8409511057040099;41;1.2566370614359172
208;-2.6218829001513764;0.2460293737347965;0.0692583697386796;-1.806764255019606;-1.1166955221421642;1.7502869582020624;62;1.256637061435917
209;-0.4490941484243773;-0.4890759363892302;0.9783968098277296;0.5379021452823324;1.1096971639240487;-2.7455688980276443;56;1.2566370614359172
210;-1.0707319319760489;0.6337485443710305;-1.938325624936132;2.783208082378861;1.5380748248369538;0.7559262637071996;143;1.2566370614359172
211;-1.9210798461219556;1.103956781889462;0.3482031216599584;2.562557607365957;-1.3716164884430595;1.6410559878700384;200;1.256637061435917
212;-2.663251890499496;0.9627766474547568;0.997181584948754;0.615065357457256;2.2234638428924547;1.6438826245208185;162;1.256637061435917
213;-0.6483883681639419;-0.5090317082962883;-0.4577849162604145;0.4128175021483372;-1.7505356977145752;0.7647422857713608;6;1.256637061435917
214;-0.5299906791606972;1.2957372352611862;-1.4243313321183542;-0.681433934088853;0.3966894032434525;-1.2465425114825246;201;1.2566370614359172
215;1.945430910935928;0.1384238052348878;0.5276906322842386;-2.0803806263367832;-1.214057690468951;-2.799141079818924;117;1.2566370614359177
216;-1.8594528308323837;-0.890978002800607;0.6640339135577769;2.3058423002509887;2.0700801550070094;-1.4730352391650543;157;1.256637061435917
217;-2.2136195060509545;1.0444139429948769;-1.309180269213365;1.3069184037653252;-0.9595365098341072;-0.2157648015426471;60;1.2566370614359172
218;1.982324185494522;-1.2376469368736696;-0.0235108706750286;1.1598428368531235;2.842223741297177;-0.4070973561848153;65;1.256637061435917
219;2.139559811760229;-0.3338130999519679;-1.1212943431333475;-2.7484317604376542;-1.1211190307770111;-2.890029982921883;117;1.2566370614359172
220;1.7277186461739742;-0.0778657797579613;-1.760824639331605;0.7793587672424096;-2.991751948588009;2.1137494799940444;118;1.2566370614359177
221;2.661402290628996;-0.70474344540255;0.525982281984958;-1.267404766650632;-2.394223258471836;-0.7919754080649221;88;1.2566370614359168
222;-2.2175794982122903;-0.7844779722029467;1.814157616511905;2.498145778554409;-1.3525008673160137;0.178151721996075;61;1.2566370614359172
223;-2.2068811565422783;0.9661855496097846;-0.2563410044906448;-2.5163270947906544;-1.0636148239132996;2.2756186655240835;208;1.256637061435917
224;-1.0801187467779685;-0.5782410260813494;-1.4427557522719188;-1.7582386645219792;1.2109222419865056;-1.1413941207245797;142;1.2566370614359168
225;-2.875692042274572;-0.342717159878244;-1.8615155389100135;1.033684999848713;-1.2542388142312162;-1.3732781331834216;124;1.2566370614359177
226;2.244548384688598;-0.0952236989313859;-2.062850505006834;0.9011839525208976;-1.8971837693481837;2.2008237580202024;220;1.2566370614359172
227;-0.6253846693017743;-0.6185263314344351;2.1157991593078265;-2.51946759913072;0.2156451955442949;2.0268777369655213;59;1.256637061435917
228;-1.071585891738287;-1.5208349373177246;2.331065422853178;-0.3219235547962372;-1.8557372251107156;-2.521433824585148;114;1.2566370614359172
229;3.019487038506888;0.0440075939834928;-1.4969311630997533;1.1576235827307573;-2.4013514463984693;-2.8802259907970766;169;1.2566370614359172
230;2.490200394944089;-0.6814147208896942;-0.9050879336360194;-2.085248458172554;-0.5751608090155588;-1.6556912973023117;117;1.256637061435917
231;-1.1340835759552128;-0.9846265235884444;1.2798160464565913;2.257503776471302;1.2767600706526907;-0.5311773507715476;157;1.2566370614359172
232;1.967862755726805;0.398971510866217;1.7630549080381257;1.4237974733851309;0.55172288355439;-3.0224334502877293;161;1.2566370614359172
233;-2.6130104730684263;-0.0996913162179106;0.9832944654734104;-0.0047762120083312;-2.3825019362207898;2.1909637071789314;132;1.2566370614359172
234;3.278154661340822;0.2439759402186992;1.174966243888962;-0.743975331589576;1.5716264457325;-0.3127569725002366;96;1.2566370614359172
235;-2.118601875538479;0.6025043268959445;1.4551159023726126;0.6832488145945693;-2.5442174984185493;1.845316064270432;233;1.2566370614359172
236;-2.9206906707622164;-0.5531404134916955;-0.601817295636434;0.0065073836564807;1.8339784453666643;-2.4789241877923955;172;1.256637061435917
237;0.8030386955673599;-0.8043948069423765;0.0330355566522067;-0.97029130817476;1.4738887599584638;1.9250179953359132;97;1.2566370614359172
238;1.768117898243775;-0.6577526419756727;2.314608273917957;-1.7073417170695475;-1.2718431540377524;0.1661417983922542;63;1.2566370614359177
239;2.236834829401296;-0.8713431877710531;-1.348596145328916;-0.7960286198771198;-3.1889677985928677;-1.8392200037890123;205;1.256637061435917
240;-1.5271042060247513;0.8512460562398344;1.8558749760267328;-0.797482232919535;-0.840278333540042;1.8623855136483596;84;1.2566370614359172
241;1.8095997667316597;-0.9733637726885168;0.0238018740461152;1.3583668152414254;2.5386510814602268;-2.4946277828863206;28;1.256637061435917
242;2.133130197788184;0.412996242572329;0.1110948671177146;-1.867314770842216;-2.2177538189179846;2.272947060753089;159;1.256637061435917
243;0.9508015624048172;1.1292063936810628;1.4168262625542396;0.3706672088629505;3.031932041709045;-2.500445324700014;149;1.2566370614359172
244;-2.028079676974435;0.5967429230738717;0.4359432553551289;-0.5412488466584523;-1.465377969989986;-2.60350795350845;133;1.256637061435917
245;2.5418259133300127;-0.50651877820248;2.265123545289504;2.4803758882951623;-0.4142617874873415;0.6025148113747552;199;1.2566370614359168
246;2.226696098367124;-0.5670294046666952;1.123897847903105;1.740073072810164;0.3769798071370537;-3.2221760121858134;232;1.2566370614359172
247;2.8650428915206083;-0.320374377192974;-0.7511594371002985;2.954760856187958;0.3377293800341047;-0.9671120481033796;58;1.256637061435917
248;1.2216736427915742;-0.9140206326708606;-1.7617833475813418;-0.930539708243839;1.1545573590108378;-2.7799961427791;163;1.256637061435917
249;2.149070917717072;0.2366375431476176;-0.4270277425279771;-2.2701309846665283;-2.536437645109386;1.2757590240458534;242;1.2566370614359172
250;-2.5466007015958927;-0.7475438770758636;-0.6887205426458392;0.9980850731329428;1.5342157632318154;0.3300454417189717;75;1.2566370614359177
251;2.7227429710656947;0.2443327350434966;-0.4285666243527691;-1.2883024821659037;1.7943214987543203;-1.0937966438343838;89;1.2566370614359172
252;-1.0767422660205888;0.3425996073741402;1.2402569470956568;-1.7530804891512866;0.3715622891849256;-1.3532375389235658;207;1.1389648078275096
253;0.8497060681319034;0.4271650383474906;-1.424087171688542;2.767033721084501;-1.0045834311834194;0.694974893566423;158;1.2566370614359172
254;1.344077910059298;-0.0521584986733105;0.0579794180411494;-2.550304753630909;-1.950111055182683;-0.8660411912154252;88;1.2566370614359177
255;-2.894834688642574;-0.8938098919954034;-0.7099464379269236;1.1780926033612862;1.807155407018957;-2.7571132690833404;236;1.2566370614359172
256;2.0514971668733684;0.1699692693721675;1.1944526281316985;-2.0017802707443213;-0.1910149342868982;-3.06281792983757;215;1.256637061435917
257;-2.743398296766985;0.3618871318447054;-1.6530008969751129;1.7355379931937258;-1.8613042583505892;2.452284542122803;173;1.2566370614359172
258;-2.861467194417067;0.0678415190576256;1.208180415119109;0.1788008039870818;1.3924009422668808;-2.5743951727751084;172;1.2566370614359172
259;-1.496896693279647;0.0019964785011441;-2.46368386111781;-2.1986977462163355;-0.4660887093362049;-1.620958773967775;70;1.2566370614359172
260;2.28608773303732;-0.954111776610036;1.5580386482422386;-2.0686075359039067;-1.9150642848290311;2.7354254197471923;159;1.2566370614359172
261;1.230186868918791;-0.8456891191304869;2.2252652583001;-0.4234937957562763;0.7846287556950224;-3.0522137996799805;182;1.256637061435917
262;1.715870479170094;0.8225994890045528;-0.6100453322557053;-2.243207955035671;-1.5427978159415976;2.6198645334695043;242;1.256637061435917
263;2.668829292083415;1.026338875045396;0.1117458832828623;1.128522105835698;-0.319488338454054;1.128404749576669;171;1.2566370614359177
264;0.5417374792446961;-1.2276458895241682;1.6273081020531424;0.0769525901609393;-2.3459972598071306;0.4374079763374316;170;1.256637061435917
265;-1.082682793030423;-1.1441162342015605;1.534488762509219;2.833991589875158;0.4675677366233487;2.426859212451716;145;1.2566370614359172
266;0.7274539733077725;0.4622933946479829;-1.9486632100472356;1.0740145461129185;-3.036328458765654;2.517163575887293;220;1.2566370614359172
267;-1.689449870410086;-0.0012064405127737;0.3844848853482365;2.7729518399694264;1.6516735258833937;-2.0088889281533517;216;1.256637061435917
268;2.8492492389370234;0.3245483788747164;-1.2099615597263416;2.920852042383814;-1.2623747966839214;-2.4602562374821564;111;1.2566370614359177
269;2.615649657827487;1.010587726376941;1.0960573822986155;1.6500681971519768;0.0171020504118792;-2.963012380296965;232;1.256637061435917
270;-2.792955877136682;-0.1411774121224956;-1.6154537880603497;1.023723646645477;1.4297574472359076;2.252259678854329;82;1.2566370614359172
271;3.0888051082708703;0.5469020430080757;0.5652928122034647;-2.2552201126738387;-1.9101674836180047;2.71624800261196;242;1.256637061435917
272;-0.8491703235133781;0.2002723835647094;1.08197919918802;-0.763333268764472;-2.9197132938700614;0.6225799422407923;155;1.256637061435917
273;-2.762281317241069;-0.7310788938563344;-1.597922759843386;1.845086731928564;2.120052695346411;-2.305674345995326;255;1.2566370614359172
274;-1.2028604044779072;0.594116049706111;2.19206398349352;-0.0363341773942613;-0.2577737709181825;2.475741726974697;240;1.2566370614359177
275;2.5157388128345755;0.7869543430182497;-1.6130699349604258;0.8794317369455723;-2.706886535463962;0.8533270932020397;118;1.256637061435917
276;0.583417028220877;-0.3478302964361395;-0.1250497883021741;0.6273749625124417;1.6769549121744864;0.486251886867469;51;1.2566370614359172
277;1.5296331427797574;-0.5144947702281943;-1.551368664896698;-1.684477896771847;-2.869748296770582;-1.7002891473862511;239;1.2566370614359172
278;-0.5704357900197603;1.1767729521477273;-0.1797259928665278;1.107677204004408;-0.4642308058776009;-1.5100555226989212;2;1.2566370614359172
279;-2.9827795055390234;0.8577387515321684;0.687222446082085;-0.5106278723369306;2.4938434986685087;1.471717662369423;212;1.2566370614359172
280;1.9109616938983465;-0.9689326406417116;2.6609358741598834;-0.4356116042802659;2.4716196277452966;-0.122738371445902;135;1.2566370614359177
281;-2.939298627991622;-1.1219386443106525;-0.8888113604405012;1.162714396051742;1.6336591068607442;2.169046843019176;270;1.256637061435917
282;0.2436376083287574;-0.2335189335122428;-1.0971585764096323;1.1210493301581064;-2.979020983571477;2.878199688213225;266;1.2566370614359172
283;2.513882996482093;0.4767540378785752;-0.1572129694796283;-1.725726201655446;2.495638198306522;-0.2425169461299177;251;1.2566370614359172
284;-0.7425869313267874;-1.043471241835736;-2.0823099058427155;-1.7765412713925852;0.8701990322193669;-1.1848996622018184;224;0.9261298066004626
285;-3.1376356795009137;0.506878248981818;1.0445445690642787;-0.3857340790338008;-1.8808475356994223;3.194868984791456;132;1.2566370614359172
286;-1.684739658840094;0.5071027482345929;-1.843790403100131;2.4755008410664807;0.6964777675361158;0.1442189836578035;210;1.2566370614359172
287;2.891206205684464;-0.8547777464354002;1.954293818080032;-2.4690141750731507;-0.9820251597762808;2.61215562015475;260;1.2566370614359177
288;-2.545485828535036;0.5586935009686294;-2.613625884055003;-2.063126214351136;0.9589531770004116;-0.7499707230784187;70;1.256637061435917
289;-1.2934820887151517;0.3521354887261613;1.701509538043792;-1.849810586207916;0.0351302061241945;2.059603715395734;39;1.2566370614359172
290;-1.1411886482047169;1.7146325515037764;0.248828455649428;1.2664471804767174;-1.7233639293904035;-1.5201725240042354;7;1.256637061435917
291;-0.8815494295864889;0.2161108098525193;-0.0876667141019395;-2.709887046074788;0.5612255202199341;2.692909282600903;15;1.256637061435917
292;-0.4110492953800584;0.3898803523910368;1.4208987638986434;-2.6847980442117203;0.4911531122223932;-1.820915922884465;252;1.2566370614359177
293;-2.543859904309424;-0.2185548856852897;-0.3485889595802791;-2.6735145632759307;1.0279140378931446;0.3192233721697275;36;1.256637061435917
294;0.6082055747880624;-0.1530724074644329;0.8592951231479304;-0.8191424380284443;2.855500259306201;-1.153259913036382;72;1.2566370614359177
295;2.4165138027049564;0.6446880567954629;-0.1797191703966483;1.274880505464134;-2.772552998210018;-2.6298361100354333;169;1.2566370614359172
296;-1.8073908999483788;-0.051698873663992;-2.470584082356816;2.329512875631572;1.2353178108552778;3.0642329365978145;192;1.256637061435917
297;-2.9442242354701462;0.6837410631929921;0.497567351161972;-2.828077446752577;-1.1035800084051934;0.8105276996030113;86;1.2566370614359172
298;0.3886681221126987;1.2954712661133874;1.034996709063717;1.0898229093499547;2.3444575864161448;-2.8165130951744914;243;1.256637061435917
299;-0.3952676458630268;0.3452135178333722;-1.2276462367163452;0.3536141012984383;-3.4369866732605985;3.020639490165777;282;1.2566370614359172
300;1.9576890321835327;-0.3550136767071997;-0.0764132518056976;-2.35617937723423;-1.1226575291438052;-3.120476297465929;117;0.9350034324008526
301;-1.2942547123857278;0.8273321873679625;-2.426456235270948;0.2437890591644865;1.1047152907056523;0.0708741534006379;202;1.256637061435917
302;0.7827115276381704;-0.6850555473878873;-2.254274676478506;3.052516662801528;-0.9295736522361968;1.992624633712235;179;1.2566370614359177
303;1.7276569629314082;1.0426095369055035;-2.250422323990123;-0.4285253775625064;0.0090622951451459;2.80667988760478;66;1.256637061435917
304;-2.05115996060385;0.8341075915642409;-0.695520333546721;2.284462783002403;-0.7996625667968953;0.1725438786754164;217;1.2566370614359172
305;1.434288119106272;-1.354912791419663;1.2191686267977169;1.5504648036794046;1.0357455914417846;0.1309942709839876;76;1.256637061435917
306;-1.6854914380156032;0.4761575086762682;-1.8952928572450327;0.4871671687775034;-0.6110220567384436;-0.9898087413548956;156;1.2566370614359172
307;-0.4674299924620511;-0.8362063524965244;1.843984449943459;-1.544018245468421;0.4692122839956413;1.8816291323270864;59;1.2566370614359172
308;0.7999358158012337;-1.457831924730575;-0.1806282575440543;-2.1463402196999493;-1.111769194757643;-1.7789816794229776;103;1.2566370614359172
309;1.6849661860001877;-0.5958939297152474;1.619437243828188;0.69464135862393;0.6888365553694461;1.9618553683349655;128;1.2566370614359172
310;-1.1507883409460156;0.5118119943588929;1.4581648221219832;-1.389980903748729;1.4689612178346487;-1.7549980291833696;252;1.2566370614359168
311;-1.5815511266909237;1.2769123137800753;-2.434584501001249;0.471670735133127;-0.84738129231511;-0.2281109316981862;306;1.256637061435917
312;3.2626824553809106;0.193130073882861;1.3237072105606331;-2.007085415397522;1.0304551618896995;0.4789080446168866;107;1.1545283339669172
313;-1.1135729663625398;1.0155838262531385;0.2563374449572235;-1.7493249566391909;-2.0036380199543418;1.4977574597614367;62;1.256637061435917
314;-1.8008142189938852;1.1785622104505469;1.0259383037496663;-1.5868209352616869;1.116678727432112;2.4357864522496904;43;1.2566370614359172
315;-0.2462901289465375;-0.8856533743851882;2.1576840168490508;-0.4535001872151766;-2.436533341986852;-2.8529007741861347;228;1.2566370614359172
316;0.2660147228555816;1.5132726788526711;-1.9285896964193665;-0.5236203942414341;-0.7533278822677512;3.195671557878963;77;1.2566370614359177
317;-0.718125174693413;-0.7795759435545548;1.2088168768402705;2.6953471655472545;0.0101785898375031;0.2316064086321775;127;1.2566370614359172
318;0.2167096082870694;-0.1893709345873385;2.184972461945524;0.2162130320623066;2.420727505439269;-2.961049957047107;56;0.8339816388006345
319;-0.2471119591998226;0.8295216218151429;-2.230202811087783;2.3204317088516278;2.2855876144557894;0.6901226738971701;210;1.256637061435917
320;-0.331020072196288;-1.485441253046392;0.2089901516237568;-3.12329211578066;-1.063719096529864;1.2381920285344798;106;1.2423334004217097
321;0.0076392229703413;0.1222914524283661;0.2747856069552533;0.3994614250492811;1.812914109872072;0.0077501606577858;276;1.0058808423756749
322;2.582179766841567;1.6969276038676395;-2.510340935344254;1.4910571664056085;1.5155677515125008;1.5355936028766564;116;1.2566370614359177
323;1.1158322653551465;-1.3838505798009384;1.6245951245998702;1.0132333052652511;-3.0503853994764443;1.4000478114777062;119;1.2566370614359172
324;-0.6879413964975505;0.7115721609205226;1.905495121197467;2.891933703768523;-0.4954519628142363;-0.4457761170537361;127;1.2566370614359172
325;2.406943737556181;-0.0208530997239979;-1.448941329211145;1.2584494492036382;-1.9136035257935884;0.5144216309305293;275;1.2566370614359172
326;-1.9525500659525152;1.190724092373487;-2.010079323741861;1.2737696835008216;-2.7779561406942648;-1.7895155176636708;150;1.256637061435917
327;-2.8294542563036256;-0.5349065847813472;0.6261147279368924;-2.1179703538877326;0.7174794063293446;2.174180415504632;85;1.2566370614359177
328;-3.033098449926071;-1.2527263996432407;0.3402253749915607;1.1679664007298531;1.2383186679444051;-2.8253786679228603;255;1.2566370614359172
329;0.8357996403942414;0.9878751350726712;-1.7465025636959246;-0.5528886476766136;3.467898136691898;3.0859611512623766;181;1.16964360019676
330;2.7385969404790838;-0.9501267361732604;-1.108071759719944;3.0626462491113084;1.3349159964746669;-0.7850316264592201;247;1.2566370614359172
331;2.42221233734244;1.1134293899650032;0.0104166531402327;0.7887746794091213;-0.1264927872091408;0.1282068474442836;171;0.8615892654191476
332;-0.8795769901354438;1.1964289562596866;1.022606891686608;1.334809583500325;1.2883366649217378;-0.6237868854310238;32;1.2566370614359172
333;2.9435163456380677;0.7156670480557369;0.5915524709093312;-2.234713083942123;0.3845483986779874;0.925186370490579;312;1.2566370614359172
334;-0.0834926403068002;0.8767718281556129;-1.744065556834805;2.274157787269651;1.8055742858965904;-0.3497087255490977;319;1.2566370614359172
335;1.104434557602303;-0.9199075077985448;0.2742705396875888;-0.9959152536841734;-2.6083285948164683;-1.838164416088395;103;1.256637061435917
336;-0.6669912537818916;-1.07670855000821;-2.0260230392229204;0.3289145152253869;-3.0034893956781152;-2.6927730593033705;121;1.2566370614359177
337;-2.5454446062978744;1.3128923754795698;0.5515107577374276;1.3399745120932751;-0.4319833750708816;-0.7679347854959764;30;1.2566370614359177
338;3.321734898435685;1.0890970244479692;1.4531584761959873;-2.4678866759474167;1.3428951222911178;1.1468740436647504;312;1.2566370614359172
339;-2.057497805952196;-1.0057660743952814;1.7343038665518833;0.7717538908699989;-2.298152347957956;-2.3860281198429325;114;1.2566370614359172
340;0.3257925699565864;-0.7366741052520012;-1.5025944851590314;-0.7718507715121355;2.2845554616682024;-2.419807051464622;163;1.256637061435917
341;-3.1818206381307275;-0.0650004942191588;0.94519291748675;-0.952034266802213;1.9961665135657536;1.0486327236530648;279;1.2566370614359172
342;0.75453131665822;-0.9599731491328368;1.824264452141066;-2.2369215214059563;-0.7595268412459723;2.9280973034707087;52;1.256637061435917
343;0.3943393182239332;0.8257039479216418;1.652485759790559;-2.403184805178016;1.1287495671196142;2.1046110255553647;59;1.2566370614359172
344;0.5913301313182424;-0.1349375706862224;-0.1093058179464658;2.7854774026587146;1.1400254179644234;0.4908239730746413;194;1.2566370614359172
345;1.5278941577315264;0.3172475470954173;-0.6828604085577394;-1.4757461675726598;2.730369679880009;-0.6756754359930991;283;1.2566370614359172
346;-1.5006115919355074;-0.7717738316703964;1.4202082523212465;0.0593131826736891;2.6386619963074653;0.2062080643635157;67;1.2566370614359172
347;-0.5218827522324708;0.400213981207758;0.0476877811111174;-2.132509108520925;-2.9306109039898702;0.1498473803503757;155;1.2566370614359177
348;2.43482846860024;1.052151711216573;1.7728397271779897;0.6182811576597145;-0.0517080803963475;-3.0947665664107893;269;1.2566370614359177
349;2.0064598343635764;-1.1086337873659229;-0.0585717454074532;-3.0547718228285854;-0.1634106911154721;2.6628592825333626;165;1.2111295608331254
350;-2.0703507963092957;0.5047462364793398;2.5367116198793145;-1.2584351184666154;1.391171059644798;2.554948017073785;83;1.2566370614359177
351;-2.0958704862820285;-0.8695992122808971;0.6126407493734167;0.975245066096299;-1.0986865163985255;-0.0669268751167178;18;0.8287918328507711
352;-2.740002311888857;1.2360982194168086;-1.462376194957799;0.2362737280537036;1.1522992478879124;-0.53835524852654;202;1.2566370614359172
353;-0.7157369100353084;0.4947082467092501;1.096489280389146;-0.8432659379711068;1.1463419861965618;-1.96967716925749;310;0.8771767432050381
354;-3.31096919935945;-0.1942474789688636;-2.4291436419113874;1.8183173633580332;-1.285869832625524;2.5379554613916526;257;1.2566370614359172
355;2.2415271137132304;-0.7052259899128362;-1.727987537075056;-0.0951221737744876;-2.878078200824417;2.4916910325609183;220;1.256637061435917
356;1.670115407127159;-1.0670748927909264;1.412406150039324;2.757328844878474;-1.049703718573996;-1.2378168227086253;199;1.256637061435917
357;-0.4393030804854746;0.1847205483883867;1.9118024412288763;0.4526993798401718;-0.8840877390229656;2.8200420346067725;274;1.2566370614359172
358;0.4577110648337008;-1.474207071856176;-1.558815982954326;0.055726957342502;-1.5230998655639798;2.207708816029605;175;1.2566370614359172
359;-2.179796542047073;-1.5319889994463347;2.1721346737220784;0.7082301037160148;1.6247380301612488;0.855643665652288;94;1.1081990750122592
360;-2.615655361619274;0.4427369486099986;1.742814799157839;-0.2131703008670539;1.899183322409475;-1.7486452036733302;258;1.2566370614359172
361;-2.150400888584498;0.2207891913060355;-1.635491207137031;2.706646990745156;-1.2012108266231607;1.4123984130426732;173;1.2566370614359172
362;-2.595567750596319;0.5518330671774164;2.245106626721832;-0.6896183277960742;-2.638734829842745;-1.5756405513344955;74;1.2566370614359172
363;3.087026225611429;-0.0518061109516878;-0.096138233706082;-1.279602150748575;2.384426040120921;-2.304007616354809;89;1.2566370614359172
364;1.1934434736975783;-0.919253430999285;0.9694339027512152;1.1192084863367442;-2.345413608446573;-2.1638936066211847;22;1.2566370614359177
365;-0.0768987089445177;1.1316832047056329;0.3265577068784693;1.4975821769213944;-1.329579409537161;-1.535574070698548;278;1.184668903281039
366;-0.1877115233593613;0.0502990869983586;1.847731237963424;-1.1522525564573358;-2.362921873163865;-3.184493889568686;315;1.256637061435917
367;-2.3910700598792234;0.4609013545480577;1.251491533806271;-0.6053968227827592;2.9239768822316607;2.0414046283653318;279;1.1595424580147762
368;-2.607473924800616;0.3948984209689698;2.267332603434358;0.4082821622200537;2.0190973262070577;2.5758788483995816;138;1.2566370614359172
369;2.7670678056900626;-0.1562815262255234;-0.6825707054321933;-0.0918625163171021;-1.7992452881723304;-2.878307239224365;169;1.2566370614359177
370;2.465265040701212;0.7673876146264468;1.7788996704528306;-1.4430026518742158;-0.7198630614028716;-3.405648875543744;256;1.2566370614359172
371;-0.3278214594029288;-0.2098030469876324;-0.6092473073851049;-0.7521845172381536;-1.7962252616115553;0.6970837897473663;213;1.256637061435917
372;-0.5370430413520826;-0.0110820530931801;-1.189728937802247;-0.7807503710704653;2.568265549224741;-2.7799627379383307;340;1.2566370614359177
373;1.2163983248686203;-0.4734994547024368;1.883628854657098;0.9937443324947728;-2.7289774934358664;-0.5666994796838682;170;1.2566370614359172
374;2.468707944589504;-1.5457468669359742;0.1177608098199557;0.6342257656713881;2.008586628243286;-2.5486077942478413;241;1.256637061435917
375;0.9764636226150084;-0.6814300610544298;0.2429490603280873;-0.5283419066857035;2.610564896676895;-0.3888407834773313;294;1.234322954328141
376;2.0867581948093834;-0.4772614932395933;-2.172828753066616;-2.098307544400864;-0.6853495385542063;0.6706671336703933;195;1.2566370614359172
377;2.4267591634817967;1.6775259242019591;-1.9832371975120295;0.4870573069231992;0.995504217531848;2.3062599489115416;116;1.2566370614359172
378;-1.1372684780507762;0.9140324648769916;1.321012440352771;1.237290879387325;2.393565125515399;-0.9597903134673372;332;1.2566370614359177
379;2.20467708332102;-0.1364242627289522;0.4312339765464313;-1.0512278344476582;-2.516306023680104;2.916790597329601;242;1.2566370614359172
380;-1.9436264548972344;0.5583539663598924;-2.2972518448597525;-2.4274261671995223;-0.0483864086235246;0.4118512349170417;91;1.0086180928436028
381;2.089604608925685;-1.073757221015944;0.326095949976491;2.1898379211385213;2.996138058485288;-1.7884869289320613;241;1.256637061435917
382;-0.7292371388394948;1.595941406371756;-0.3702003010342324;-0.5455049166070882;-2.1808902781565225;-0.49588590865183;167;1.2566370614359172
383;-0.0311654497193012;-0.6140064363218074;-1.4586076627997098;0.6796884024963202;-0.2605106403524476;-0.2759784997305884;4;1.256637061435917
384;-0.6717384355733672;-0.565683819476637;0.2569856241714356;-1.124481688088618;0.1546454127053336;-0.6217531521488634;19;1.0522706158236723
385;-2.3634810924825573;-0.1619314734464138;-2.1273238022665795;2.743405751070478;1.7819759206034926;2.24583257326298;296;1.2566370614359172
386;-2.4061385698751634;0.8811888948762411;1.3234317173180812;2.987001820288543;-1.0733457196821554;1.9131590051830885;211;1.2566370614359177
387;0.2946366347147347;1.040993486687528;1.2396653648971758;-2.452143372994226;1.628309039618579;3.1246335464400983;343;1.2325232006250395
388;2.5962706561522726;0.5881171894665946;0.6427204121243633;-1.3510604765269747;0.9808780379521996;-0.929278695721098;40;1.2364802261498775
389;-0.6423239657295685;1.201154356225557;-2.4537150346685075;2.153577696440649;2.351626296392039;2.511408161261563;192;1.2566370614359177
390;3.099472208837571;0.2344595002967327;-0.1564389792524343;-1.0342285957236226;-2.3851208977869605;3.0384624938871085;379;1.1471160129151494
391;-3.054311102322384;-0.4972292149643247;0.7228102223389963;-1.1653951594908536;1.954682739156326;-0.0824545931558154;341;1.2566370614359172
392;-2.62633531643937;-0.1050482044347793;-0.9195898724031766;1.9404669692193024;2.762571836375514;-1.7702518749453016;273;1.256637061435917
393;-1.7399503257914493;0.1215590499603141;-2.0630453748610287;1.2092575309584674;2.6624898278324687;3.076303692915072;192;1.256637061435917
394;0.0322428042425568;1.3631031243442169;0.4522978602668607;-2.21549933034985;-0.1282578879126452;-0.756952579730591;207;1.2566370614359177
395;3.351220603266808;0.0335680415721514;2.3144250389433254;-1.639818027130428;1.0625715691309736;-0.1756139525796718;312;1.256637061435917
396;0.7253878293871795;-0.1010752720793314;1.445683124123958;-0.4188420337580615;0.0295417610054886;-2.214412468775139;151;1.2566370614359172
397;3.054396709951841;0.8856562635040567;-1.3011590066102223;-0.81276028014695;1.9760220298481828;-0.9007326673253836;251;1.256637061435917
398;1.440016154224709;0.6337126354178603;-0.823398652323466;-1.2745340289664944;-0.2991137261503048;-2.490673865881864;198;1.2566370614359177
399;-2.967777808352718;-0.4509651403347825;0.8727665704697601;-1.897063753853044;-0.8951523895889077;2.784180372951467;193;1.256637061435917
400;0.2079978475719731;0.7755278161150306;-0.6954535031020219;1.2587537139963905;-2.4553083586051;2.5540287581537853;282;1.256637061435917
401;0.5433329185327782;-0.9507372162761644;-0.3172685153155607;-1.9944065612737747;-0.490561874401444;2.177761520756452;177;1.2566370614359177
402;-0.5441792505860306;-0.7920581349810123;1.172048167328976;-0.1277528729009879;2.894002042388475;0.9148594254501716;346;1.2566370614359172
403;-1.1411513361180656;1.0475823659771577;-1.6176150232538615;2.7665393762720907;1.3506590036669466;3.068968132308782;143;1.2566370614359177
404;-1.4145586406454256;0.3649983122577045;0.3130882755687817;-0.9303020425214532;-1.2825819139051011;-0.0362570357416398;31;0.5705852651626324
405;-1.1999474359451443;1.0747443410338344;0.370355807704165;-1.599889372713365;-1.183336992781865;0.6192595506400214;404;1.2004064757102173
406;-2.704575248706413;-0.4284010366601012;-2.030385649668524;2.123669564142928;0.857706843523692;-0.9704027963610936;196;1.2566370614359172
407;-2.2660116273373827;-1.4870406565529382;1.9199077906935584;-1.0520700472030116;-2.331098419224962;2.456633981089684;193;1.2566370614359177
408;1.1907187017648806;-0.6731363580632357;1.3783578431133483;1.9362301352111064;0.8774260750811282;-0.9126755492827244;10;0.811077592856676
409;-1.7175898186048468;0.8321657146637789;-1.7392270375790615;-2.3428732946911164;-0.9126218147817596;-1.9311751431827655;259;1.256637061435917
410;-1.0045668984136285;1.564223004782013;1.476394804917608;-1.884426928532682;0.6589073669507648;2.979254625380793;314;1.256637061435917
411;-0.4889721141744427;-1.4204835597253374;2.273619214456246;0.4467655207827978;2.7952292531415845;2.435779613552172;174;1.2566370614359172
412;1.3674010204656777;0.4574334371030644;-0.0114561658609979;1.858614679226145;-3.045222956565669;-2.6351135353227333;295;1.256637061435917
413;-1.6556689947829375;0.1247640664613525;0.0212611744629251;-1.253567592102084;-2.1932113293999387;-2.6961487894354126;244;1.256637061435917
414;2.190102831635949;1.3133896179093802;-1.274339006921986;-0.017780256247619;-2.591822265963984;0.3404957127090379;275;1.256637061435917
415;-0.2026816544451997;-1.3660948307512075;0.88081986256801;0.9041371688181004;0.788524322877241;1.312075153496299;134;1.2566370614359172
416;-0.8146618333634763;-0.2414398554463163;-0.1931745217678527;1.0503922136620087;-1.0062172123911548;-0.0748436103515233;14;1.2566370614359177
417;-1.822701926724554;0.996140069637076;1.7048645311143649;2.603799075495332;0.9682596223802212;0.3092857435599946;32;1.256637061435917
418;1.1983713132590763;-0.085402993665564;-2.2861818064111694;-2.3740931179961127;-0.0803343832017043;0.2447534878885276;376;1.2566370614359172
419;2.971044907897202;-0.0593083676331749;-2.0049729687213134;-0.8206831158267979;-3.034709905750084;2.4465488526421715;355;1.2566370614359172
420;1.8416481056929972;1.7518641443594658;-1.329327705562091;-0.422536395700389;-1.8285993387803972;-3.4694469519536136e-17;414;1.0858077466717395
