Komment314/test_diploma/benchmarking/path_finding_for_benckmarking/pre_rrt_star_results/4_3_tree.csv
id;joint_1;joint_2;joint_3;joint_4;joint_5;joint_6;parent_id;cost
0;0.0;0.0;0.0;0.0;0.0;0.0;-1;0.0
1;0.8405615812121359;-0.4001626563579722;-0.267850402348031;-0.1118267238814001;-0.5347185839773105;-0.5850553499953939;0;1.2566370614359172
2;0.7949784835713645;0.4214206706098932;-0.4734737930632668;0.4769279190351691;0.425558812338911;0.3698818159673988;0;1.256637061435917
3;-0.0720507588393326;-0.0426883369252079;-0.212224742576344;-0.205666534235052;0.8693580489085263;-0.8538159147893887;0;1.2566370614359172
4;-0.7992050991991734;-0.4089666814074152;0.5458718998433578;-0.2309875852404279;1.4459660442153284;-0.9454400857801404;3;1.256637061435917
5;-1.3312422637637629;0.0880184615323652;0.9148170880438824;-0.9086143916905262;1.163399447559322;-0.3339366882984443;4;1.256637061435917
6;0.2656236065575195;0.3819370450616796;-0.3047834270133919;0.2611816312147105;-1.0527000204133294;-1.062652499001622;1;1.2566370614359172
7;0.029497540940437;0.2143477845967022;-0.1813700757190502;1.1962580855377083;0.6671192284529079;0.9076406334323316;2;1.2566370614359172
8;1.2683765443666606;-0.0221033851720986;0.3062607095149617;-0.7579404310192626;-1.208063188858283;-0.355440888979782;1;1.2566370614359177
9;-2.218438431226625;-0.0623311946058664;1.5812426193237108;-0.8420145066597859;1.557963479299956;0.0724809994828409;5;1.256637061435917
10;0.7323460084985586;-0.0763414832278825;0.0214236639236294;1.7612412796463788;1.027973959017232;0.1934326536652642;7;1.2566370614359177
11;0.0554353986290384;-0.4749525759615484;-0.4451506155893258;-0.7592071067444128;-1.2106644874362575;-0.362164212019299;1;1.2566370614359172
12;1.2326904971836992;1.144403908174003;-0.9018932235282926;-0.0524983626765777;-0.1737108026198472;0.1652341481694751;2;1.2566370614359172
13;1.4172519411090456;-0.4988554777280717;1.0570924924857463;-0.2654224344297776;-0.8710813923382774;-0.9955980479596211;8;1.2566370614359177
14;0.0293389122585131;0.0078822281513232;-0.5539791236296958;-0.9576949228161856;-1.8803806628468105;0.5573820981864019;11;1.2566370614359172
15;-1.3347418303913012;-0.4407064849264416;1.2420123132373486;-0.2043077420023929;1.9658059850619356;-1.6774051432083974;4;1.2566370614359172
16;-0.2192424381803087;0.4877010617921173;0.4219452958567138;1.0741999515515193;-0.042149505084194;1.6563684549954938;7;1.256637061435917
17;-2.688760101327312;0.1621012407394357;2.255700454944863;-1.1170479078159588;0.8223028175948428;0.5581052985147869;9;1.2566370614359177
18;1.0993399294245174;-0.8505903357021797;-0.9838172074695088;0.6949278950257408;-0.2433249367771084;-0.831862233122387;1;1.2566370614359172
19;-0.3731987663035244;-0.8785103982304269;0.1519673978777905;-1.6375601697120674;-0.9354712136584458;-0.1925612116085305;11;1.2566370614359172
20;-0.0284895869099765;0.1624467303810916;1.0259264648146726;-0.3085592866224104;-0.5545913279931;0.3108546633835115;0;1.2566370614359172
21;-0.0707854054540216;0.6140981896670494;-0.4936908870794274;0.8696748444474938;1.4781548952064292;1.647437830755163;7;1.2566370614359172
22;1.914040378468227;-0.1954431483173574;-0.3099231430428176;-0.2125242897203786;-1.7341969176764085;0.0667323409601692;8;1.256637061435917
23;1.8741502100322247;-0.7865553645406468;-0.6131164821932525;0.4187181233046643;0.465738401958481;-1.3400192675653135;18;1.256637061435917
24;0.6015071971964071;-0.4656136498108609;1.1657239242721018;-0.7965445192489752;0.140246489970492;0.5283596169323718;20;1.2566370614359172
25;-2.290284420252315;-0.069275244330504;2.43608936225948;-1.1495842662387332;1.4513945110778443;1.5263323517476064;17;1.2566370614359177
26;-0.9933128117811844;0.7268809824495914;-0.2263755010748533;1.5258031728924608;1.875428645413388;1.4117015399226251;21;1.256637061435917
27;-0.3916211622732137;0.2551670075415421;0.4907158960418624;0.3412997794712422;-1.2478730162650695;-1.736273153847441;6;1.2566370614359177
28;0.7408610414788055;0.1643032418576709;-0.8445002009664542;-1.3002245861257866;-2.647272600264548;0.0489009087850919;14;1.2566370614359172
29;1.1785968615585585;1.2616025878221435;-1.5618716436407207;0.0695496234836926;-1.029646882073841;0.7811734748867567;12;1.256637061435917
30;-1.0443376159210729;0.2590767229658617;-0.1931776878265255;-0.3483586470104996;-1.43616692503545;-2.153752343847748;27;1.2566370614359177
31;-0.6662402094178017;0.3188145428363628;-0.8910732149549254;0.4028582698991363;1.1990190431781802;-1.2482486873622345;3;1.256637061435917
32;1.840440314621301;0.2774299244472654;0.93284528766468;-1.6111240196151675;-1.0681834505655174;-0.5039761802593811;8;1.2566370614359172
33;-0.0679902504400562;0.4515939708146499;-0.7260617820928237;1.4109581847682022;0.8519281248566799;2.5494230938704576;21;1.2566370614359172
34;0.4997807119801934;-0.3141696937015492;1.4827875952646896;-1.5535934023795173;-0.1346510715821706;1.4209021101940174;24;1.256637061435917
35;-0.15108947744363;0.307816352488004;1.2499662769929043;-0.9678662053166311;0.104060648553419;1.896090124751148;34;1.220888076469302
36;-0.734774051256224;0.5483893369632876;0.4362128028741607;-0.3630144022764655;-1.0688142624360624;0.8731663874429125;20;1.2566370614359172
37;1.3358184013474268;0.624178836455542;-0.3756768759366147;2.180260976472049;1.6456207531077105;0.0960922734586311;10;1.2566370614359177
38;2.0128907921734576;-0.0608777365449208;-1.2237637521412696;-0.0517892493664372;0.598794014769982;-1.9891022076696063;23;1.256637061435917
39;-2.834023458467993;0.4014755254040187;2.30352971767665;-1.7073337232592245;-0.2363927248208565;0.3873013779802211;17;1.2566370614359172
40;-0.5587884612139666;-0.2756660553691504;-0.881767659065741;1.5776674606906986;0.657809820806978;0.310291347668794;7;1.2566370614359172
41;2.0933180399964746;0.3327890786087858;-1.2263528021110313;2.524383330636412;1.4105295279367702;-0.0558465315984485;37;1.2566370614359172
42;2.297460173716599;-0.1379211743174918;-1.1891606698122268;-0.1840581980628534;-1.2211519861275055;0.6926182240501231;22;1.2566370614359172
43;2.2273127814363547;-0.6449238321951569;-1.1653822684779178;0.8054801372353988;-1.3384668120698506;1.2615207241807056;42;1.256637061435917
44;0.3318888088604229;0.6206153148306424;0.9588852310590767;-0.0217844671212181;-1.6431847883796775;-2.380348822536738;27;1.2566370614359172
45;-2.069171360283568;-0.1889356200581353;1.980224363585355;-2.36944313453182;-0.1513055034747958;0.6961663835651967;39;1.2566370614359172
46;0.058450416903789;-0.3244284196312208;0.7417809390686769;-2.1283788327685094;0.5219453050317745;1.6923262728390416;34;1.2566370614359177
47;-0.9067555652782746;-0.0671230732966618;-1.1444455198163306;-1.4401895740216708;-2.194051045709001;0.6892808301806019;14;1.2566370614359177
48;1.9943104886472616;-0.7048650057025917;-1.335896994309112;-0.715735315013273;-0.1992225052169094;-2.260843381213558;38;1.256637061435917
49;-2.9563314464915664;-0.8517160993197876;1.8328707127528767;-0.6113026889329052;1.7573672834993876;-0.432707635619394;9;1.2566370614359172
50;-0.3482749314251794;-0.0695580321774731;-1.5170440749419738;0.2068091218867924;2.1436898323686604;-1.3155082086468783;31;1.256637061435917
51;2.347661618175847;-0.9031209291162344;-1.22462914855214;0.9952687172516296;0.3859719809216061;-1.4994599023470805;23;0.9878982290345396
52;1.412761276006648;0.4418325041804019;0.1580883148046827;-1.5090257503897964;-2.6128796439871187;0.0224480455251509;28;1.256637061435917
53;-1.0095941567249862;0.8377520465862673;0.805804533330057;-1.60200849592934;0.5214211538840975;-0.4275502579684335;5;1.2566370614359172
54;-0.9300318214735198;0.7941342774800442;0.2177667971728614;0.997186966903724;-0.900443248321971;2.098777578188995;16;1.2566370614359172
55;2.0544017129348293;0.7088791042788045;-1.3514366730219731;-0.3550042592589966;1.4820160199076993;-1.6783496914656817;38;1.2566370614359172
56;-0.1062063579233792;0.0023153876192038;0.4756388006809749;2.147748782354474;1.6911425302712324;-0.0791251119602965;10;1.2566370614359172
57;-0.023163756374846;0.2465984331388248;1.1837287684187954;1.6806573351492131;0.2540242440597164;2.3247514816361603;16;1.2566370614359172
58;-0.3641941818493395;0.2465245746504351;-1.9264744727048224;1.11712157551429;2.8059270572727213;-1.5255437090055346;50;1.2566370614359172
59;-0.3989138215928115;-0.128418074759653;-0.1563145545737729;-2.202913350834093;0.4169992835225357;2.405341016520607;46;1.2566370614359177
60;-0.321067887908091;-0.717570673150388;1.59048668752835;-0.6616646143196941;2.345715241800846;-1.6801111060055955;15;1.2566370614359177
61;-1.7443872093668993;0.1661833857885391;0.5502292359630256;1.4923248749294664;-0.6327909215109723;2.405875436842251;54;1.2566370614359177
62;1.7350725481597395;1.0307809746981196;-1.928794883088832;2.826124731941694;1.7168001784804463;-0.5900091687905544;41;1.2566370614359172
63;1.992326585414428;-0.1651352557303317;1.5055809487089482;-2.0522811228043567;-1.062404707495869;-1.4191396657720354;32;1.2566370614359172
64;0.335749019925635;1.2116677490025176;0.20992718103681;0.191368979766992;1.7946639795991024;1.6851453176571929;21;1.2566370614359172
65;-1.314026868111329;0.1109966598685494;-1.5013475036316892;-1.8272265706496449;-2.0308119576008603;1.7274120781563091;47;1.2566370614359172
66;1.9815336349387915;1.04325248538892;-0.4142181620708759;0.0549448623137599;2.124411358300473;-1.7323200449203282;55;1.256637061435917
67;-2.532002268914541;0.1408129304605426;2.838600684173805;-0.403211373837963;0.73579701947407;2.0217155527706625;25;1.2566370614359172
68;0.2349327817446191;0.5411243111815967;-0.9922918290805616;1.2759006967026982;-1.2739754351477617;-1.0230444466863875;6;1.256637061435917
69;1.596686376682247;-0.6973136598968498;0.5276123909487606;2.103857382029486;0.7702774347393104;0.2735929200130864;10;1.2566370614359177
70;-2.077604688001097;0.0629702462863306;0.0121797106584599;-1.1059975295194853;0.7590358197654565;-0.2689125301816656;5;1.256637061435917
71;-3.069117140904986;-1.0670842249785075;2.0546015106785718;-0.1204999356954057;2.255507870087797;-1.423584382959501;49;1.2566370614359177
72;-0.4766452595162627;-0.9456140819204784;0.5339802897371096;0.4116331604309106;0.0564198567402918;0.0;0;1.2566370614359172
73;-0.4653321166191633;0.9250640261999202;-2.249480903871944;0.8832039452934455;2.8449531369330883;-0.5519327046415723;58;1.256637061435917
74;0.8569806650820815;-0.7318630152072181;0.3268492011190038;-2.205358242952762;-0.0549620562920585;2.2066869604373025;46;1.256637061435917
75;0.3517066680346118;0.2736569588216981;-1.0236842611409973;1.132917291864998;-0.9050283815787242;-1.088980731351368;6;1.1482057440384652
76;2.347927426994176;-1.0939300167991002;-0.4123394082508661;-0.2651808599168381;1.3039960974288536;-1.1175614978122386;23;1.256637061435917
77;0.5938272578030036;0.1051686053052417;2.0165817360294924;-1.832948211698512;-0.0740848172483969;2.4347086879053066;34;1.256637061435917
78;0.90815478551853;0.0032151185422569;0.9273301984297128;2.367659608690635;-0.0424941024207035;2.48879891237761;57;1.2566370614359172
79;0.8058242518647308;0.2654026314407327;0.2100989150346802;0.1715984371601319;2.16277612408561;2.2568540310869385;64;1.2566370614359177
80;0.8401706905317098;-0.2296637599633099;-0.2709043271588336;-0.4197127583187314;2.516064147754475;1.464994941437646;79;1.2566370614359172
81;1.4641765059435097;-1.0196791303790906;0.4107676033749219;-2.3981250530591214;-0.7504504624772697;1.4322798747204697;74;1.2566370614359172
82;-0.7378826707725008;-0.838052098042508;-0.3243560368892595;-1.7461076429895273;-2.181429252395524;1.1251651656239592;47;1.2566370614359172
83;0.3304902245408937;-0.6610294307521397;1.7589279981600936;-0.9554897939715832;-1.132098763478785;1.385091339770239;34;1.2566370614359172
84;-2.4739084602890373;-0.1851070659018119;1.1753083878705872;0.8426295666866961;-0.6500298201512517;2.073602434854409;61;1.256637061435917
85;-1.9687452736544613;-0.2888392232001277;0.429058233677109;-0.4877731193198963;2.3161125683503463;-1.1387484668235963;15;1.2566370614359177
86;-1.392027334051993;0.8960705402678928;-1.0841539903504271;-1.009074804563952;-2.175420097275134;1.4234756047463222;65;1.2566370614359177
87;-0.7961114057253338;-1.1491212450134165;1.101089615270418;0.8816716265972465;0.740871502399264;0.6516438583631115;72;1.2566370614359172
88;-0.367810345954336;0.484817664224109;-1.0830952078942424;-1.969908154213729;-2.029527569801713;1.5094043378969426;47;1.2566370614359177
89;-1.6218279972688614;1.2554035166644029;0.0836090107722802;0.9241830322310932;1.452626069977201;0.8940432669443399;26;1.2566370614359177
90;-0.8180429188202708;0.6653142402580466;0.6346108063119107;1.0740431803692636;-2.067289999119716;-1.7320768863653926;27;1.2566370614359172
91;-0.4602978775783504;-0.2805478199899696;-1.0730288950679303;1.9115526644217;0.1692492949030841;2.3210189945023108;33;1.2566370614359172
92;-2.1471617875379057;0.4673025382425405;1.1204040126301178;2.275214980647468;-1.2219716509177052;2.608573423749092;61;1.2566370614359177
93;1.752292724656093;0.3194871716270714;0.5986523645678956;0.5959669008566134;2.6201939355717303;2.631174169885386;79;1.2566370614359172
94;1.6197562751458876;-0.1092654589270343;0.1927584164681426;-1.441039187793327;-0.0013889235893894;2.13850838151137;74;1.2566370614359172
95;-1.3904643639437682;0.4133280382669667;-2.197825893828029;1.661846607713215;2.4493286743717624;-1.549281040498618;58;1.2566370614359172
96;-0.195351112787285;0.4445383022109413;-0.6998557779131547;-0.4253127312754843;-2.79354349763318;1.003930427974303;14;1.2566370614359172
97;-2.581769519449417;0.3719347767851362;2.4213603338195853;-1.8027304619423663;-1.2490839233522353;-0.2954166774130877;39;1.2566370614359172
98;-2.111967554795993;-0.6487956250631363;0.518840641722188;2.0351171181675034;0.0417263022248465;2.576897240761153;61;1.2566370614359172
99;0.5382951101495138;0.840829697005843;-1.4906281476750485;-2.1187609871802797;-2.2016527341518315;2.152442209267394;88;1.2566370614359172
100;0.4785545382007396;-0.7371817476314579;0.9711489103046688;-2.879948403725956;1.2898479473105828;1.5337609316339291;46;1.2566370614359172
101;-0.1705919150823277;-0.6480493180824309;-1.0319019253765451;-2.671791515309987;0.1584901412458249;1.954051499168047;59;1.2566370614359172
102;-0.9245620944110516;0.6440352444330363;0.6802230130693873;2.6162503950523965;1.6851670747271408;-0.5651724871972675;56;1.2566370614359172
103;-1.731117328702001;0.332061536061409;-0.9351586288805702;-1.5832404522009624;-2.927233836063752;0.3172667520961003;47;1.2566370614359172
104;-1.3753274691930013;0.3128267087120298;1.4204030156186744;0.8684861904234146;-2.6334968193332617;-2.1370582916368246;90;1.256637061435917
105;-0.9075048490621228;-0.1635821834583863;-1.0819843017914703;0.7202156356322098;1.9177348742554168;-2.183632142601029;50;1.2566370614359172
106;0.4560736350055618;0.693815474415471;-1.430339885799473;0.8118480338268224;0.233818458465558;2.643350253582206;33;1.2566370614359172
107;-1.1181333297081548;0.225566213364636;0.5572289934555671;2.8959177076057165;1.397041086570563;-1.6561319875701102;102;1.2566370614359172
108;2.388605179929444;-0.2561643239725651;-0.824208380114656;1.82007269390178;0.3108378689543184;-2.058587753121051;51;1.2566370614359172
109;-0.573938776658995;0.9682818679833431;-0.3770730516448008;-2.496145707526012;-1.8208812053389432;2.205093625494676;88;1.2566370614359172
110;2.3656213536423336;0.0427886212555866;0.2077983610112898;-0.0911018747177111;2.1335410281891583;2.116644090557522;93;1.2566370614359177
111;2.71176304501668;0.2789696950219051;-1.6484006620652247;1.7045028038013648;-0.2198681640500593;-1.5959441867230844;108;1.2566370614359177
112;-0.5066456256354686;1.29092475789186;-2.406432196784645;-0.2927359101223564;2.969659951575676;-0.4085598284331004;73;1.2566370614359172
113;1.5957676093236957;0.0384246625584573;-0.8510800837009836;2.4645448116901205;1.1757915190322787;0.8966484195833735;37;1.2566370614359172
114;-0.5219991183706383;-0.1398504079668416;0.0913265387173936;-0.3580866729824237;-3.1664758389852614;1.6050629322947862;96;1.2566370614359172
115;2.7290955001253603;-0.6556146130092462;1.993511347305876;-2.1409167594751475;-0.3285027619436108;-1.524940681480069;63;1.256637061435917
116;0.1676886943920432;0.7066659753195748;-1.2980431320059092;1.0444466589346009;-2.4410917722999352;-1.2179688398177626;68;1.256637061435917
117;-2.022666634410177;0.6587695295647044;-1.658773593443139;1.6894210405412298;1.6173454760087005;-1.917631001115552;95;1.2566370614359177
118;-1.0527739295910106;-0.366936198394757;1.4440937818599875;1.6688245084681457;-2.1962988742182485;-2.562233066803106;104;1.2566370614359177
119;2.926864949535761;-0.5732154704740973;-0.2719956012361183;-1.1492737905155217;0.9921048334071004;-1.3900161834724605;76;1.2566370614359172
120;-1.0265416633425477;0.4265379800078583;-0.6174292381492562;-2.6206956236150947;-0.1259511605784704;2.847245768818304;59;1.2566370614359177
121;1.0312682990511046;1.0414615078704532;-1.6299097735165855;1.988501415144145;1.824768471298044;-0.9587584296188504;62;1.1975110830528974
122;-1.6850821772995437;-0.6747460185050325;1.4644543078227137;1.1852475069554318;-3.0694433343420666;-1.6727725805785136;104;1.2566370614359172
123;0.3232285965692643;1.2984002439842657;-1.780610992027179;0.8618624927617733;-1.164126551592904;1.1716045200846532;29;1.2566370614359172
124;-0.1829988782365499;0.5162418613965745;1.186621778014881;-0.5230026249847636;-2.0477723669377137;-1.4658222396789533;44;1.2566370614359172
125;-2.6318553124991912;-0.7338957515030304;2.267456221358557;0.1631470230333289;0.9565358567135946;-0.6059196834151307;49;1.256637061435917
126;-0.5729787357517653;1.085483141424927;0.5073186684765176;-1.976233302599658;-0.3291194926730177;-1.039576053259871;53;1.256637061435917
127;-0.562916245014017;-0.5507542883426597;1.2071676461607277;0.3525436272285067;-1.7026581895321211;-1.6337891717237685;27;1.187271323374354
128;-1.3634180918794403;0.1311301379193653;-2.0536691203816515;-1.0703333610868326;-1.196307470328524;1.77154388030982;65;1.2566370614359172
129;-2.712624650775638;-0.5919887576052445;1.4269653187642584;-0.0305268313006865;-1.3640892095599673;2.218462559507628;84;1.2566370614359172
130;1.995646082060245;-0.223799519102633;1.3802194353374502;0.740628379305901;-0.9645517341643536;-1.2045362581947756;13;1.2566370614359172
131;2.0851725837927826;-1.014195062163102;2.3240235951461847;-2.3745975517298943;-0.0318527041388282;-2.410420059017353;115;1.2566370614359168
132;-1.9226542415025307;0.9568135563662268;-2.32819615116735;-0.7525464104684576;-0.5694785619182585;1.895521332279124;128;1.2566370614359172
133;-0.5102493104373531;0.8867014495077772;-0.9682601481445472;-0.8402919752450059;-1.6360707092332492;-2.022371804589087;30;1.2566370614359177
134;-1.6821330214265475;0.7774283490458643;0.3019652866288996;-2.782451262596639;0.1984688726070021;2.6247304043379973;120;1.256637061435917
135;-2.6177264685256625;-0.1148424399468353;1.728627766297402;-2.0882800875262406;-0.7215340450085215;-1.0033473734142349;97;1.256637061435917
136;-0.121908570277163;-1.3442716064598057;0.9026375916433284;-0.117951790679053;-2.324451496434913;-1.8667007256668355;127;1.2566370614359172
137;0.4747692103275061;-0.4976593352321123;0.6808099316500222;-0.2364432631677042;2.823507179548281;0.881961599334771;80;1.256637061435917
138;2.402110801187755;-1.148473421784462;0.0453482117863787;-1.8848900801287227;0.5915567573133353;-0.9770138893508776;119;1.2566370614359177
139;-0.5433743505586386;0.6194619627922956;0.8740772230914514;2.394934796876324;2.06783846381462;-2.196769721973035;107;1.2566370614359172
140;0.3342544404842472;-1.3220658485637935;0.3109514154052422;-0.7002685811670271;-2.113127070795985;-2.6646452899045765;136;1.2566370614359177
141;-1.111288376269585;1.2139592116681268;-0.175919928445123;-2.156771685859905;0.0268364896332652;-1.8437772625237168;126;1.2566370614359172
142;-0.2188852726042854;1.5623965474490302;0.6803752291583894;1.1370460234761353;-1.3113144875430132;2.383027613332896;54;1.256637061435917
143;2.2991561427978717;-0.2505649867678933;-1.722482485062936;2.019668581726342;-0.94239144320905;-2.3042010583431853;111;1.256637061435917
144;0.5486596028508807;0.4675534423483482;1.0146941631588178;2.393754579268156;1.1720933795562694;-0.6388833394444162;56;1.256637061435917
145;2.743824504992749;-0.5076529171166095;0.1304738990396663;0.0757445466367578;1.247301879995003;2.676890968984761;110;1.2566370614359172
146;-2.2630800641399245;1.4671090580803836;-0.9216324099387142;1.1289775187156683;1.3392776484329325;0.6535972348133612;89;1.256637061435917
147;0.3307019773012024;-0.5791625786708523;-0.0897425001274111;1.7955312287677914;2.459897207119948;-0.2033596159019012;56;1.256637061435917
148;0.1211057215140866;0.547908522105017;1.130506845812906;1.227165115323356;-2.4384335025452817;-1.2064860533160209;90;1.2566370614359172
149;-2.624693597228078;-0.2227596458969878;1.7231561220109517;-0.012149562879606;0.5699850711603978;-1.5232049686782403;125;1.256637061435917
150;-0.43220151797628;1.0038290052453325;0.2960843967753732;-2.28814760132144;1.2078436688773595;-0.5555952892987736;53;1.256637061435917
151;-2.2966305701928165;-0.6494188235292729;-0.0236048874997107;-0.7239968862652109;0.4943927393702461;-1.1669243293238654;70;1.2566370614359172
152;0.3561282517671071;-0.341632858083565;-1.5846974553631208;1.2936056028638427;-2.49134057288208;-0.6721474671353203;116;1.2566370614359177
153;0.5451948737302101;1.0081807969872612;-2.1175144517677573;-0.1919125539138448;-0.4296647046606444;0.1879865772813567;29;1.2467443167674055
154;-0.9508449119106;0.98268823210335;1.351421167554223;1.6882799223269929;2.810476813293925;-2.2461767248292803;139;1.2566370614359177
155;-1.809696681655008;0.3007011994800598;0.9808834036023304;3.1356648548201185;0.5431725007740263;-1.2967182251244551;107;1.2566370614359172
156;-2.828187955498644;-0.143906811623484;1.918890819429353;-1.2577933309508769;2.362733647501872;1.9440452485291253;25;1.256637061435917
157;-0.996367192869947;0.5753407233665352;-1.884364287116882;-1.918555204052519;-2.5792832568192074;2.62560475448872;65;1.2566370614359172
158;-2.0606449994683125;-0.5487536501414381;1.3293371127043387;0.1719699181337254;-3.1856921695451543;-1.069686124270634;122;1.2566370614359172
159;0.0928973227265875;-0.5041839938055716;-1.2599074933240644;0.8490495516054841;2.284382467137598;-2.712439582305215;105;1.2566370614359177
160;-0.9061595242299167;0.5181406204634866;-0.8775888649353607;2.719973585758988;0.1102510015223864;2.538318053979307;91;1.2566370614359172
161;-1.070946777584851;-1.0256311594147156;0.8456771186949673;1.1580899069440895;0.5998218811392475;1.803518337867524;87;1.256637061435917
162;1.4561951249109384;0.7626370472048324;1.8780982466930023;-2.357137799203508;0.2402465322425026;2.3325469723759724;77;1.2566370614359172
163;-0.2164678966333042;-0.5510493597377124;-1.1916062084125538;2.642364240985036;-0.5773123842781496;2.9049813914593536;91;1.2566370614359172
164;-2.8630968936032515;1.2250848695027092;-2.1549268631453686;1.1699926202966866;1.4277565895839752;-1.9311484974868716;117;1.2566370614359177
165;-1.195921800511326;1.5853578656622511;0.1020199356022133;-0.2795242268725436;-1.391464573535011;0.611599908622545;36;1.2566370614359172
166;1.2175913588059872;-0.443865502829375;-0.962227804701406;1.2962165558882692;-2.3673374908597693;-1.128645915701579;152;1.1678240789630292
167;2.725310085107905;-1.3438545683102412;0.4196447599454585;-2.982634228495402;0.8731153943452421;-0.8670605023829372;138;1.2566370614359177
168;3.122369246963105;-0.7092633226292835;-0.1398159737684069;-2.7706770754077192;0.2467424854302237;-0.3488814708398996;167;1.2566370614359172
169;1.1285009774256922;-0.8757639065000794;2.0590124494375286;-0.3777771330823871;-1.7122336374116187;1.7536636922013056;83;1.256637061435917
170;-1.81480881984928;0.8391599330840187;-0.5457560564426078;-2.435156786410652;-0.5946271663813203;-2.429633122684498;141;1.2566370614359172
171;2.3521084126339176;-0.0973239376144754;-1.6988298513936466;-1.094171726408031;-1.0922801610546269;-2.3584387063077443;48;1.256637061435917
172;-0.2438168315569155;0.7838643081443228;1.4534256119964288;-1.561316358729416;-2.231642780627229;-2.032150838801936;124;1.2566370614359172
173;-0.8906574551776765;1.1739384675372926;0.3238198167297015;3.111393244645823;1.808585113892005;0.3886451376663788;102;1.2566370614359172
174;-0.6764594128600446;0.6434084204259154;-0.2162196820939554;1.263292283033026;2.4965939516585207;0.8215384980202006;26;0.9542104624676748
175;1.8404851701482228;1.3703852288598588;-0.9449153119719128;2.716122736771921;1.8235676238063148;1.8214596497756478e-17;41;1.1959183063837056
