Komment314/test_diploma/benchmarking/path_finding_for_benckmarking/pre_rrt_star_results/5_1_tree.csv
id;joint_1;joint_2;joint_3;joint_4;joint_5;joint_6;parent_id;cost
0;0.0;0.0;0.0;0.0;0.0;0.0;-1;0.0
1;0.0424806495444231;-0.3126187246335454;-0.1032019331268017;-0.0047242858508593;-0.8675805874692456;0.8463052628724961;0;1.2566370614359172
2;-1.1398269778079455;0.0909859347162347;0.379402391531877;-0.0955318045804135;0.2652091203610051;0.2196459574182019;0;1.256637061435917
3;1.063088318250536;-0.7670122585949957;-0.461657189617118;0.2675737164398724;-1.081015259885768;1.134111577431411;1;1.2566370614359172
4;0.5355004686537764;-0.5122988822685335;0.5049121395548594;-0.7483176085215358;-0.0361238601071962;-0.4622827731053735;0;1.2566370614359172
5;-0.6082044743930346;-0.3539715770554352;-0.8168622920506017;-0.5732558404550971;-1.257502973399832;0.4346539398725497;1;1.2566370614359172
6;-1.2598902229908402;0.032438303937693;-1.006610265872978;-0.0900200133207422;-1.4962259524859731;-0.3891299967151999;5;1.2566370614359172
7;0.9423171427585184;0.0904931141102763;1.06569013869556;-1.5261093977507507;-0.3102687736211458;-0.226292854617106;4;1.256637061435917
8;1.0604968640286354;-0.8066063880133754;0.938644767665716;-0.050703328615924;0.5777777797225051;-0.0557933126292384;4;1.2566370614359177
9;1.5306898110287606;-0.5253554167822749;-1.2276622076733892;0.9574098249349088;-0.6337076894967576;1.3325200251666187;3;1.2566370614359172
10;1.3163390125611767;-0.772089738012731;1.4593015349055896;0.9289525761195486;0.6251302719162758;-0.5844129117821336;8;1.2566370614359172
11;2.1511421743441965;-0.6544687421649573;1.2130323096758358;1.0478407511985512;1.3960405874236372;-0.1379601790515513;10;1.256637061435917
12;1.1905962624267112;-0.5963327012535078;0.8403364700646897;-0.539881812848565;1.4324191989677828;0.6781166008235157;8;1.2566370614359172
13;1.4539373129275783;-0.0468382074558637;0.3503327700209238;-1.487661475941452;1.523071459799488;0.925576190167961;12;1.256637061435917
14;-0.6139545616212192;0.551862428425606;-0.9833247513547104;0.4346527856341008;-1.851365927170757;-1.0892401606727409;6;1.2566370614359172
15;-1.7222836052012007;0.4244270818919187;1.2230194910830408;-0.0267535518256015;-0.0223320512827863;0.793752044002145;2;1.2566370614359177
16;1.4057015615491628;0.3706821400417392;0.055103638419193;-1.5672356992910237;-0.4899492875435192;-0.7065471206484518;7;1.256637061435917
17;1.2065858472305326;-0.7119137020826793;0.4917676792875271;-0.1759270862060845;-1.6060991415864043;1.551345668806909;3;1.2566370614359172
18;1.8419857466540448;-0.3579069467895401;0.9452414010141408;-0.8651862996405661;-2.2091805756189387;1.4761193867103568;17;1.2566370614359177
19;-1.1662734698306747;-0.1563016448016081;-0.3869703928946245;0.7826938603521961;0.6555692776845555;0.1402890133705964;2;1.2566370614359172
20;-0.1063446462038817;0.6099564455095177;-1.1291478825471122;1.5574071158439835;-1.7378154523155485;-1.2420753044967805;14;1.2566370614359177
21;-2.114088511786247;0.4139519756632708;1.521613054666421;0.2706929354428526;0.2402417374338449;-0.2920372394119567;15;1.256637061435917
22;-2.085067547723882;0.1962286413645135;1.592504059945318;-0.280710230645686;-0.4800599480587311;-1.1304795649154205;21;1.2566370614359172
23;1.5699837425485932;-0.6644102417562869;0.0435924342215844;-1.3773081668772873;-2.3466572793410267;2.039207154136575;18;1.2566370614359172
24;0.6820699540207369;-0.413343347936381;1.7199501894334426;1.6386392145378543;0.2242116499540587;-1.1463843575576007;10;1.2566370614359172
25;-2.4090943553745943;0.3114570539813404;1.84400735905676;0.528263821334835;0.9004025421379206;-1.2277241051006842;21;1.2566370614359177
26;-0.9003866159918199;0.6195762067919165;-0.4080383953915563;-0.6954939485771582;0.7317020278642138;0.0080705767992549;50;1.2345958386977718
27;-0.1593591340235896;-1.0816365958764538;0.8003450455376148;-1.5492573826825595;-0.0382707698314527;-0.2540241079479166;4;1.2566370614359172
28;0.3855396030621628;-1.280147278273682;0.1633487698477208;-1.709661080033277;-0.0788093803153192;-1.1538455342122051;27;1.2566370614359172
29;2.003987363921223;-0.1137525959624408;0.4134560917384681;1.3182749880103897;1.9447348284648271;0.3636233536693504;11;1.2566370614359177
30;-1.9983139424472849;0.1636812533384027;-0.7210790003258081;-0.8839032703274534;-1.4728149265330646;-0.9407780706303432;6;1.2566370614359172
31;1.3814344795241198;-1.2233457661381306;0.6288421604118868;0.0977248372255708;-1.346992284580538;2.612567017958216;17;1.2566370614359168
32;-0.6879635069443941;-1.387104227800655;1.0179774280872342;-1.992482725160897;-1.0139773543385544;-0.1511273162090792;27;1.2566370614359172
33;1.3505943834375098;0.1923555744552352;-1.0334302495235843;-1.1824142382286136;-0.2318210762238843;-1.086909820617689;16;1.2566370614359177
34;2.537781160879568;-0.0485902616913077;0.4756725629941783;-0.5003507578523152;-2.1233014030847808;2.275089683761738;18;1.256637061435917
35;-2.1687080534541745;-0.1155487554301968;1.0769323383319076;0.3517873482460621;-0.7670395089641303;1.4012420805726191;15;1.2566370614359172
36;2.1649656278193183;0.3380036692775756;0.6544656215706102;-2.1518807275541967;-0.0010947284729483;-0.954667098783216;16;1.2566370614359172
37;-0.1289561344913433;-0.7937795783504795;0.4757713697518116;-2.345571728606958;0.3519234688809057;-1.7786305207540205;28;1.2566370614359172
38;0.0786117252705622;0.9730986147440516;-1.7084662776313129;1.7066943777423802;-0.7892690236524683;-1.6363072070254814;20;1.256637061435917
39;0.9658159921602736;0.6846623828482548;-1.3013710733023351;2.167846538721279;-0.2197163317813019;-1.558642908046547;38;1.2566370614359177
40;2.1743061721448464;-0.6174290337661092;-1.7598437320507978;1.3261397359100808;-0.0412240554957163;0.7110690180566477;9;1.256637061435917
41;0.913382249556896;-0.5356940293580237;-0.5370513648620168;-1.5045418817976437;-1.690516325630167;2.6287720186578163;23;1.2566370614359172
42;0.7134149041405662;-0.8613475956016046;2.1065694319863875;2.413075790564461;-0.565770469210937;-1.0819778769072954;24;1.256637061435917
43;2.642762502011378;-0.8794603317649761;0.7283862049044134;1.5278270174774669;1.9422953682190427;-0.8612595596538322;11;1.2566370614359172
44;-1.781419958472017;0.0414244173734844;-0.9263717029286362;-0.6238214680383357;1.1731194210035387;0.0094065670323359;26;1.2566370614359172
45;-1.2507161113671832;-0.004095002549229;2.0764565393379573;0.0849017036428793;0.5009034554731473;1.1919134925901276;15;1.2566370614359177
46;1.048665302573955;-0.4293297825178133;1.9107447332235556;2.292613275617271;-1.4777665446996848;-1.7108730286162412;42;1.2566370614359177
47;2.287829704653626;-0.0668476556225387;0.1124687805716409;-1.3674796353676222;2.0694525631326828;0.2087745838501918;13;1.256637061435917
48;3.1663668904294897;0.1543472940990202;1.1808908687578374;-0.6563829258189062;-1.429886901715031;2.649696766310848;34;1.2566370614359172
49;1.4734151394849175;-0.7278642362213759;2.233840901480165;1.5774825525656593;1.2696004560329202;-0.242852198909654;10;1.2566370614359172
50;-0.1732210103256787;0.5047435039068369;-0.5942894046937683;-0.2191362302732457;0.4926671059597501;-0.8065009112056226;0;1.2566370614359172
51;-2.255196730255825;0.0351591264171154;2.186632488573366;0.1612394124717565;-0.9354431711495804;0.8984092906739709;35;1.256637061435917
52;-0.4803887725594373;1.110914508908718;-1.2594907508709452;-0.4784909650022194;1.3236477666558395;0.205210177980845;26;1.2566370614359177
53;0.790431091507123;-0.4795160396023166;0.8470133338408835;-1.01547231881393;0.8454117946274367;-1.202257360507448;4;1.256637061435917
54;0.0155864600302911;0.6044037594493492;-0.9627463779779168;1.9722619112246615;0.3001394262534399;-1.062065568799152;39;1.2566370614359172
55;2.323983066933517;-0.8861020474412695;-0.8061813364069985;-1.7893753222578406;-2.089813592314413;2.099131981515089;23;1.2566370614359177
56;-2.210938133402835;-0.3601406009639255;1.6258028570724683;0.9025689637754868;1.827877686810384;-1.0254873195960317;25;1.2566370614359177
57;0.9625770538469608;-0.3773116771118177;0.8531048956404429;-0.4560045333302769;2.158988954929232;1.6497501195372009;12;1.256637061435917
58;-2.7234790125313637;-0.8879343921821101;0.4422344007908012;0.5044067516662953;-0.3253477521308968;1.632673610413528;35;1.2566370614359177
59;0.871161439561004;0.2571977143846525;-0.5716405191460028;-2.2252628666923284;-1.1913788825689098;2.205802214351513;41;1.256637061435917
60;1.0868856944139187;-0.3777424391012765;-1.4991386156444697;-1.9271977914744447;-1.437403296058548;3.225235305114424;41;1.256637061435917
61;2.464315401659265;-0.505834934410504;1.4783225321074964;-0.0883876264139198;-2.3955201964198447;0.9784792659211234;18;1.2566370614359177
62;-2.584662712743912;-0.3177360195116216;-0.5421773992161392;-0.3854551358806797;-1.5344108964604284;-1.7889047380705376;30;1.2566370614359172
63;0.0923709215842288;0.845226355285616;-0.5432012781097739;-2.591646008329687;-0.5713897983178695;2.533540660779005;59;1.2566370614359177
64;-1.930802744915872;-0.7417498109949292;0.0582991473599871;0.7985729110191864;0.2655097490168432;2.221212914418476;58;1.2566370614359172
65;2.744521617136953;-0.2924982767169759;-0.3809910878226568;-2.718054108713689;-2.0150385689049237;2.0660222349324115;55;1.256637061435917
66;-2.244550388477448;-0.9468060496413992;1.0712683769214273;0.7404072963079855;-1.315394127481736;0.7450061298101767;35;1.256637061435917
67;-1.9268628158349936;-0.051626557530125;1.5369801746563896;0.1471168466799393;2.246748130056206;-1.8312212612706205;56;1.2566370614359172
68;1.0277920534105196;1.091113274346511;-1.1379796380271212;-2.946540359989849;-0.2064926520145759;2.3580345136065546;63;1.2566370614359172
69;-2.393254423047499;-0.4108476379506512;1.9235309425154004;-0.7262795972893605;-0.953495444348034;-1.8942622031858944;22;1.2566370614359172
70;2.181333158504817;-0.4491026401738638;1.2018097517722128;1.5569005170678014;0.1103423419786634;-0.5532052435683384;10;1.2566370614359172
71;-2.681489906490761;-0.6738684627959732;-0.9483487634819496;-0.0943789001432275;-0.4435051306200784;-1.7327358902866603;62;1.256637061435917
72;2.5015280365346046;-0.2313817343919104;0.942085802484931;-2.2382452637040444;-0.7570260812776325;-1.647520834845536;36;1.2566370614359172
73;0.9356821163837322;-0.3253525674869748;1.7986268666962388;-1.614048064740847;1.3465390345818669;-1.063395135038547;53;1.256637061435917
74;-1.7173996989904603;0.0085749105024142;-1.8663300189373495;0.240766783804864;-1.9319278695278528;0.1860901372534854;6;1.2566370614359172
75;-0.3142598101689077;0.9168211473741552;-0.1131002816035354;2.278349905616157;0.6418715006832242;-0.3984660225038731;54;1.2566370614359172
76;0.321012321753965;0.0402133640111037;0.4044907889011527;-1.943296884963305;0.7087775402376837;-2.400619319182688;37;1.256637061435917
77;-1.164808978415629;-0.7649054249569318;0.8275356750901519;-2.0734664843774344;0.881935756434415;-1.6154758157376077;37;1.2566370614359172
78;-3.031851856784588;0.1850093116327437;-0.8436377486512889;0.6132065061811883;-1.339872525855633;-1.770007373329176;62;1.2566370614359172
79;0.6368157561198731;-1.2030559932490723;0.9656924693147276;0.4260052977274317;-2.2254525546165125;1.7581113468475855;17;1.256637061435917
80;-0.2483952885572088;0.7130127483035156;-0.9898493144363728;-0.6020819387306408;-2.259416426635977;-1.5113385232774756;14;1.256637061435917
81;1.8993859978491416;-0.3806381784871004;2.005602835863068;3.036066487190217;-2.016930737114221;-1.6859458008280628;46;1.2566370614359172
82;1.5738971666481114;-0.2380082065171385;-1.2556446785818116;-2.142926021553507;-0.236682099241094;-1.696888360633188;33;1.2566370614359172
83;2.4509606000092754;-0.8816986798101822;-2.374653282777456;0.9652578837069354;0.9202679699090108;0.7192651187069539;40;1.256637061435917
84;1.950243329366921;-0.6098465709496115;1.567511003328408;-1.7059577704377986;-1.6271015798791288;1.7425989251090597;18;1.2566370614359172
85;0.2919924263642924;-0.7410720673786686;-1.1070797158204817;-0.7384253238411702;-2.178344202853273;2.660209484176701;41;1.2566370614359177
86;1.5303993278911148;-0.4684253325230911;1.6529817901795472;-0.941290377250446;1.5890196860433494;1.8693918889483967;57;1.256637061435917
87;2.842729600460825;-0.6677865399760774;-1.2947202423619089;-1.801578719251971;-1.0854323490743911;2.220689416605339;55;1.2566370614359172
88;-2.1003671762810567;0.0933525910347855;0.8906551632526263;1.4255084426924596;2.557423005144265;-1.1484120550434609;56;1.2566370614359172
89;2.6736591090846367;-1.2394409620062918;1.749469833934858;-2.403672282773826;-1.3954655150960282;2.0355961833069776;84;1.2566370614359177
90;-2.648027122392537;0.8392655666212454;2.235947525558585;-0.0834887574279088;-0.6247867806806376;1.569677625879191;51;1.1875753891722896
91;-0.4491931265455644;1.099648092949126;-1.7129652054543096;0.3340837777421566;1.3109087328240163;1.0489859344628416;52;1.2566370614359172
92;-0.4243154225989236;-0.3766713048439342;-1.4358547339673051;0.4828385389537903;-1.2860628328963206;-1.4820835988553271;14;1.256637061435917
93;1.988932189408693;-0.1678351347199144;1.6018595169266936;-2.41556237905807;-0.068637217523135;-0.3884243566830271;36;1.2566370614359172
94;2.147593748072705;0.3532233658747052;0.7493838123606527;1.4179841065723222;1.27401816599249;1.239863719406208;29;1.2566370614359172
95;1.2561007673969131;-0.0477052576493594;1.5803132544675251;2.62553398613499;-0.75578018821983;-2.5165928890760227;46;1.2566370614359172
96;2.689001166863884;0.1725505216035472;0.2540661445529675;-2.5881675313662;0.8044049578835863;-1.481595037708786;36;1.2566370614359177
97;1.4682001127536373;-1.008823213881328;0.4115894961297972;-2.3141099882899345;-2.3225114676425007;2.6999294794097146;23;1.256637061435917
98;-1.547777358482887;0.4910116018260037;1.2035831209961807;0.6293154121639386;-0.4730947666273039;0.7324342862634592;15;0.8201445478632962
99;2.9184811712911656;-1.4840459864992062;1.0438380120396729;-2.997038008548028;-0.7620886425461539;2.4918875690993643;89;1.2566370614359177
100;2.62076069088248;-0.4166593225778292;-1.8415981711642604;1.7503998301751418;0.9198366792888956;1.3776322012727722;83;1.2566370614359172
101;0.5440906105091916;-0.2760832748723374;0.8702894978921074;-1.047843643793975;-1.4930034640573815;1.7356842740476326;17;1.2566370614359172
102;1.3470262534709945;-1.2483733164461752;1.3154703899883955;0.2847634278108144;-3.1387576462990827;1.4478468729818743;79;1.2566370614359177
103;-0.6800654924901578;0.3291039352739565;-0.158750426483767;-2.898114750559942;-0.4424956570313427;1.856963177404512;63;1.2566370614359172
104;2.59941191522141;-1.340965341027271;1.5252122121693872;1.7524364990645491;0.1648112666971451;-0.7159978678038447;70;1.0688782427868369
105;-0.1504488631434457;0.9931599835909296;-2.004979989814849;0.1070432936718599;1.756580806994774;2.1181469318978703;91;1.256637061435917
106;-1.6055829535316597;0.4430319529632406;1.5802855477237712;0.2425834659847358;2.958241201289848;-0.9862258227636104;67;1.2566370614359177
107;-0.8334933382288394;0.5022520034868917;-0.6276989368436859;-1.7758982102992964;0.3931084627336133;-0.4722702400350155;26;1.2566370614359172
108;1.7224641782912014;0.4042293955581724;1.7245963413833074;-1.3056672089342585;0.8928644575065527;1.4716604452060909;86;1.2566370614359172
109;0.8080210431803894;-0.9875518226281568;0.8840511595168512;-1.4474392914689338;-2.137320336010926;3.066281704532214;97;1.2566370614359172
110;-2.6692824603600096;0.2143404022148523;-1.756631783024857;-0.8314812189025571;-1.674332134921824;-1.0439516150652977;30;1.2566370614359172
111;-0.735280635219919;0.0218948507557392;-1.3900402555363058;-0.2690877975757915;-0.7691725256231272;1.307691728062628;5;1.2566370614359172
112;-2.52095336615218;0.4080580859791014;1.927354901865852;0.1677794609273333;-1.1700033430179346;2.529585355032175;90;1.256637061435917
113;0.530190623057519;0.540122773670255;-2.1485088803658967;-0.3084998196308288;1.075026717311298;2.620970242639624;105;1.2566370614359172
114;1.7593886874104618;-0.3301450579723617;2.355581279672002;-1.47131229786782;1.220353275053008;2.64211107565784;86;1.2566370614359172
115;3.0703760733979317;-1.189896841723452;2.179236630900247;1.829874510626053;-0.6616879078567952;-0.2494549405867584;104;1.256637061435917
116;1.7220351691777789;-0.906668803836402;-0.7078553626336277;-2.525578995648237;-0.1917207015276795;-2.5102559782813207;82;1.256637061435917
117;1.0107210161200808;-0.1964450907841686;2.415738468386166;-2.18311413114674;0.7886013738400537;-1.7988755086731787;73;1.256637061435917
118;0.8992404145615409;-1.3989567282211082;-0.5308319305868466;-0.6688053854432412;-2.77225983513584;2.95673964108172;85;1.2566370614359172
119;1.6909062857571997;-0.3796262635069989;1.3887238597517824;-1.4931990059993547;1.4546082893034746;-1.9642411763640808;73;1.2566370614359172
120;-2.5947749316928936;0.5669207791879074;-2.19292860071236;-1.556780993984388;-0.9334552089213932;-1.472856165964345;110;1.2566370614359172
121;2.468287335137929;0.5904204563383493;1.2077433981640715;-2.3155910282671397;-1.30731651318229;-2.370913559699893;72;1.2566370614359172
122;0.24664651464184;1.056113323177756;-1.154016702754734;-1.4891641500483688;-2.123495325153525;-2.1310255296999694;80;1.256637061435917
123;-2.654267149456343;-1.233572898415982;-0.1305324267061599;-0.1314085037820301;0.3846314600194344;1.1652475887105822;58;1.2566370614359177
124;-2.314899872574581;-0.8965240615260177;1.2636367196048273;1.7942298364876574;-0.7469051125576566;0.4273080177826076;66;1.2566370614359177
125;2.0749527437735966;-0.6209231197774667;-1.3067125257154713;1.854399559760275;-0.8855809826237072;1.964581482149452;9;1.2566370614359177
126;-2.348204146288057;0.550836190734285;0.2893978626929363;2.118986901976552;2.406473866936791;-0.4826689069862757;88;1.2566370614359177
127;-0.0985678679210205;0.1960241074166252;-1.939377532740009;-1.1289900370063222;-0.7653189806374769;0.9880131351049064;111;1.2566370614359177
128;-1.1898645149973095;1.2546989297922997;-2.030683746518668;0.8590505700510929;1.91830466526534;0.5380683154790845;91;1.2566370614359172
129;-1.2805085886967904;0.8560226941083073;-0.5553314680386929;-0.5586305183507211;0.5955659599244022;1.1568861285305254;26;1.2566370614359177
130;1.09038452086542;-0.2122313130968972;1.804232072866193;-2.164811530799455;0.6631793771949714;1.520262439892883;108;1.2566370614359177
131;-0.4716560930365691;-0.51693710182429;-0.2495560754141463;-2.2723182190482776;-1.006283411381956;1.53728647626098;103;1.256637061435917
132;-2.045538688185058;0.3232268123834121;-1.8490609240387543;0.5669131288253577;-2.1868353888524235;1.2819040745486194;74;1.2566370614359172
133;-2.142584601581833;-0.2513064468410622;2.3330505646731696;-0.446759435003536;-2.0557547258819464;-1.720957306152326;69;1.2566370614359172
134;-0.8307252384579387;1.323746125596732;-2.0732895446645463;1.9363319418631415;1.6271912384073923;0.9833667924434064;128;1.2566370614359172
135;1.590826792343004;0.8448247996510285;-1.5318164689038525;1.876109942638771;-1.052816430265043;-2.1335995221764903;39;1.256637061435917
136;2.4294392447562;-0.7311294509526831;0.5736693460724065;1.1148046342628106;2.498441963296268;-1.8651539820044316;43;1.2566370614359177
137;-3.129600887404966;0.4034564096947738;-1.1440336640715352;1.510157827350424;-0.5870053873534983;-2.0155565328686693;78;1.256637061435917
138;1.597079439888378;-1.111876102953581;-1.495887335973637;0.9533596134366344;0.4785026095299818;-0.0119208120479245;40;1.256637061435917
139;-0.4548697157617318;1.413994499892306;-1.1473226475484866;1.770855131556751;2.218404029032228;1.42540155133431;134;1.2566370614359177
140;1.2639394364472083;-0.0315430957589237;1.0346348934329637;2.099712217425153;1.5957796259384918;1.2154772839260266;94;1.2566370614359172
141;0.0080409414508799;1.2060356724688786;-0.6340136752170041;-0.9316246507512026;0.2837013571207935;0.3281240654272139;26;1.2566370614359172
142;-2.686547672782553;0.616990297719622;-2.404274303776932;-1.2857738875157976;-0.4669077102628838;-2.5830043925612927;120;1.256637061435917
143;-3.0944506432930425;0.7519658471546923;-0.2783878540118698;2.221883657257145;-0.142309248929394;-2.0683898136201657;137;1.2566370614359172
144;1.1607358773636172;0.0622845157397707;1.2338394575420613;3.033397750505554;0.2838508330839528;-2.953302047410741;95;1.256637061435917
145;-1.2651205652744109;-0.3085248912192365;2.160810348403433;-0.4374091490534821;-2.8750287273846253;-2.044925837491591;133;1.256637061435917
146;2.8258559883393275;-0.3290835892826658;0.7050095631942734;0.6420213504924694;1.5407078296595316;-2.185029954712706;136;1.256637061435917
147;-0.4039159554706244;0.2606286975602402;-1.0854610932192552;-2.5967250490894846;-0.2668579056729647;-0.6040262870093652;107;1.256637061435917
148;-1.3163689798946707;0.2906981412358228;-1.7851595351683112;1.5367177612222551;2.1290156349170046;0.2736411400275986;128;1.2566370614359172
149;0.157529202902047;-1.4014975689574949;0.0724469043902298;-1.303925923361967;-1.0665752271292548;-1.7570507512895124;28;1.256637061435917
150;1.3742054177429526;0.1870763287573817;-1.0535443093763055;2.414529180195754;-0.7016781164869136;1.8110654283449552;125;1.2566370614359177
151;-2.818405393567702;0.0126407940962428;-0.4389003481418727;-0.760473929511513;0.0868356273048609;-2.0561772268780505;71;1.256637061435917
152;0.1576154012325519;-0.4746404521349402;1.0897476621741569;3.0792484316217448;0.5996483106971847;-2.550803828662408;144;1.2566370614359172
153;2.3808627297808136;-1.334544386308191;-0.9260452761249188;-3.0202628154465647;-0.4161690062198591;-1.7232937974303093;116;1.2566370614359172
154;-2.5319781711858957;-0.1365252257819529;2.456101634504038;-1.336119095782737;-2.29197241066333;-0.9776984973877108;133;1.2566370614359172
155;0.1053030497409224;-1.6522270284612326;1.0770785561757048;-0.9339435990553172;-0.6875315534449986;-2.23001807427138;149;1.2566370614359172
156;1.980136086462472;-0.3364554142023306;1.2070197382788646;2.524770463424079;1.6395491242659423;2.087784984530931;140;1.2566370614359177
157;1.22332135880932;-1.0417241720139845;1.9991518348930324;-0.1440211280182748;-0.0229860722054684;-0.0006221370695363;8;1.2566370614359177
158;-0.2451186495444554;-0.2982124544572668;-1.741481119404944;1.8502097012201644;0.1916239486768618;-1.3137665264110232;54;1.2566370614359172
159;2.5206133559980004;-1.1939939769227148;-0.3699349983236529;-2.1238812444289072;-1.7472775690189868;1.0861464008461368;55;1.2566370614359172
160;1.3865090126857045;-0.8944592325991738;1.6133881365086138;2.8464456255025525;-0.6044772523616829;-0.2498425359884169;42;1.2566370614359177
161;-2.2786535266600323;-0.6714944184650526;2.550146737413173;-1.8724141907910936;-1.3630110851698585;-1.2410333354861631;154;1.256637061435917
162;-0.2917869235814535;-0.3794858797216905;0.7085170657612232;3.12647392423952;-0.5032479573904118;-2.615400028388203;152;1.256637061435917
163;-2.287591588377302;0.808773469235811;-0.2744488847102286;1.974153454707464;-0.6050443166434537;-2.8742300906735414;143;1.256637061435917
164;1.3913779457898;-0.4144796223202271;0.716609747182543;0.92666041176241;2.9033391793507684;-1.4390948693322234;136;1.2566370614359177
165;0.2662309248641005;0.3023896595569993;-1.6480665176884275;-1.679706212340231;-1.085307990411244;2.7397663815408464;60;1.2566370614359177
166;1.9429040892363885;-0.9251218530795976;2.5463235360967404;3.1401400723573123;-1.7619129506320712;-2.641213381030373;81;1.256637061435917
167;-2.5013417905904385;0.8356800219993831;1.2673977547838695;1.8367033221941045;1.7533724112972084;-0.5914817654122221;126;1.256637061435917
168;1.8838361260088865;-0.8929040970203139;-1.6977820294874024;1.6489623876209445;1.6965504654679815;1.7959775869016588;100;1.2566370614359172
169;-3.104360680499524;0.6719393400925642;2.4625679789323014;-0.825557759090777;-0.6724145894144365;2.429099920536697;90;1.2566370614359172
170;0.8768169115954398;-0.8055767653700691;-1.6793763399777168;-1.7969408350375624;-0.5372561670134818;-2.314531228977473;82;1.2566370614359172
171;-1.6583023510500714;0.6848048284744295;-1.0797548704976063;-1.25815397537044;-1.540850093591882;0.0176676958592824;30;1.2566370614359172
172;1.1490115291511775;-1.030777781510861;-1.6128383509675082;-2.4812897606275435;-0.5302004940535466;3.301782430065547;60;1.2566370614359172
173;2.009316078305289;-0.9163627603139108;-1.5343351790028537;-2.728116473894964;0.3399755117344618;3.2614149386465847;172;1.2566370614359172
174;-3.1134277895539006;-1.113388770345822;1.0743473792927185;0.8418386672270595;0.2282757074368945;2.3785428540657634;58;1.2566370614359172
175;2.964145712662183;-0.6214244012295123;-2.274874165664328;0.4473061454928137;0.4112425224522518;-0.1237640994970036;83;1.2566370614359172
176;2.3373855611523884;0.6960923127324694;-1.3096553786668603;2.33144299366804;-0.1966591695028801;-2.033717773631263;135;1.256637061435917
177;-1.3997369613959454;-0.1988962168613009;0.0609538462369454;1.1839358720293485;2.821697574974406;-1.5799697103276769;88;1.256637061435917
178;0.0434567449614063;0.3958345563952694;-1.4023755195406138;-0.8188608419844179;1.8880713769629829;0.7870533847936189;52;1.2566370614359172
179;-1.5455660791783703;-0.874361403598043;1.4234279487988069;-0.1318198440188873;-0.7740122366182114;-1.1993910929709155;22;1.2566370614359172
180;1.522173948049979;0.4245479393450729;1.5646101077940695;-2.5853816138251013;1.0353446150885317;2.30410039076524;130;1.256637061435917
181;-2.486459172897561;1.1499546148709154;-0.7687296852385381;-1.8415849588144928;-1.6363079603459627;0.4979676814764943;171;1.256637061435917
182;-1.6377348919830623;-0.4593568958174247;-1.6164224387086708;-0.8640642898253602;1.728483871319095;-0.6727906758205588;44;1.2566370614359172
183;-2.0913998426863207;-0.8180454620470248;1.804125839232012;-1.8007132580899738;-2.605384553139023;-0.551775659457809;154;1.2566370614359172
184;-0.8072085753900418;-0.5076588694675577;-1.7096317249029644;-3.1489576521745457;-0.3490441909348751;-0.9574687439831168;147;1.256637061435917
185;-1.269767112245409;0.598043053016668;-2.3760052062846877;2.4090379996052467;0.9688092461708896;1.3168024701472594;134;1.2566370614359172
186;2.431205520503137;-0.7044574206404952;-1.7024922278026922;0.9692950908670258;2.433123837593402;2.285366131452445;168;1.2566370614359172
187;2.6969482970147065;0.2846912311226694;1.708392946334158;0.1473698035001046;-1.9919768878669923;2.9683992955517584;48;1.2566370614359172
188;-1.5748160922394927;0.0307499904150936;-1.7261287325931325;-1.1631676984435366;2.171882442396868;-1.6910600685069472;182;1.2566370614359172
189;2.21715242754274;0.5205919573322051;-0.5935739706224072;2.0339782223832388;0.4217586834585759;-2.7754601878473983;176;1.2566370614359172
190;1.6232684374418482;-0.8061742162980765;2.28105931819534;1.7135606845201063;-0.6198401118942601;-0.7088894204878589;42;1.221787289339432
191;-2.2846713083024133;-0.3620045942981245;-0.2838862408169196;1.569381200636042;-0.275277660232384;2.774403689098066;64;1.2566370614359172
192;0.4423329460444822;-0.2314325806387461;-1.408342038884943;-1.207765740897354;2.1910220953956108;-0.0981068615067704;178;1.256637061435917
193;1.34763393857528;0.5270348795089186;0.302568283334156;-2.696143283027353;-1.4929304051147918;2.6556864756940364;59;1.256637061435917
194;2.277793708308716;-0.0628538599251871;-2.0910893562402664;-1.8963379709004888;0.2108557631865731;-2.003358103386791;82;1.2566370614359172
195;0.3260694397471086;-1.013357668925546;1.9292308195253325;-1.6329496038968536;1.4015400911055271;-0.2185766384625289;73;1.2566370614359172
196;0.9646386267575392;-0.6451948885198113;2.035704284599783;-1.2093508469446423;-1.9111334694103728;3.12327152647293;109;1.2566370614359177
197;2.9633196424378148;0.8745249174977071;-0.6241211215198262;-2.444381415181345;1.2670905382642992;-1.4098123249573655;96;1.2566370614359177
198;1.7010443069004482;-1.0093005794296137;1.8030863289963213;2.1308804232273184;1.7875533337148355;2.8062374019081333;156;1.2566370614359172
199;-3.0662566066298558;0.8116624891889859;0.0170160895397236;-1.174530055926031;0.7582296073384303;-1.834369515709014;151;1.256637061435917
200;-1.6150919377304451;-1.597173068911976;1.399171333891685;-2.4289480672405688;-2.561933679008639;-0.1220402166733777;183;1.2566370614359172
201;2.410979345379181;0.2525122645991558;0.6932212683217345;0.7360759679164117;2.8167912627445806;-2.45859359176288;136;1.2566370614359172
202;-3.229454209470019;1.149888512299007;-1.9270965589690436;1.674637051948344;-1.0134260043175654;-2.451365756253254;137;1.2566370614359172
203;1.232093473299241;-0.4622717263051999;0.379442031218657;1.519053799788458;1.5775310648401144;2.0065654528314383;140;1.256637061435917
204;2.2529220983869607;0.7646572204326757;0.8363253483107878;-1.587804079440414;0.3543507322568497;1.5676775224520263;108;1.256637061435917
205;1.2361991319042651;-1.530281699494968;-0.5592565698942966;1.242789380720792;-0.0781740577517492;0.0419602626815616;138;1.2566370614359172
206;-2.963938788756761;-0.5714157007860143;0.6657225140628866;1.8777855450403709;2.2106819191965528;-1.2752396459932882;211;1.2380486227416942
207;2.1231578118725545;1.1081510508392398;-1.2710749597157098;2.355608455532753;1.1344914771252663;-2.3822243861070613;189;1.2566370614359172
208;0.6426305471414611;-0.4114817770142625;2.2987829105788835;-1.4527777544645954;-0.0942683980978924;1.4034182111209657;130;1.2566370614359177
209;0.8702023558616403;-1.176450792760892;2.3904085108794035;-1.9227883247806388;-2.5245114466653185;2.5970158916151327;196;1.2566370614359172
210;1.208942681027403;-0.9921089678649284;1.1851035573673403;-2.393949746026371;-0.0540136410338532;1.4385235590009924;130;1.2566370614359177
211;-2.440329852485561;-0.8524917472802795;0.9859124757839224;1.546923981613703;1.87805427932598;-0.349517118628432;56;1.256637061435917
212;0.3052480863627311;0.9731161199581284;-1.5853353406850026;-0.5944729533521602;-1.0250413966409289;1.565669835435182;127;1.2566370614359177
213;-1.865788786340625;0.4019262541224194;-2.6265117680860275;-1.0280019162140976;-0.0449479687859034;-2.116867414947234;142;1.1095347122012749
214;-2.6608853346286785;-0.9099695531444872;0.40305995850404;1.4508845350079924;-0.8695374915247734;2.1450323304816195;58;1.2084751874206194
215;-1.3489285136346416;0.4018775854723833;-0.7468135835195522;0.3912411745468953;-1.2045429935511052;1.4450371300478777;111;1.256637061435917
216;-3.0583210794130773;-0.9949963026158348;-0.1947723045935734;2.222984805834;1.8910161318724616;-1.9302267320992952;206;1.2566370614359172
217;1.732536850908323;0.3377399406664109;1.675138033552286;-2.3553056930890097;-1.1571339829766816;-0.1355090346639077;93;1.2566370614359172
218;-1.0175137518159827;0.9932449644563146;-1.3768719963642668;2.856345700336397;0.6134145178498682;1.5029841886460518;185;1.2566370614359172
219;0.0776281796713701;-0.4320682476574995;2.1236999108941514;-2.670897168950907;0.9707259538532644;1.291426799624855;130;1.256637061435917
220;-2.722902955365593;0.1089334932640653;2.238551779994558;0.2882326046714102;-1.7159410754067728;-2.3902687898790957;133;1.2566370614359172
221;-3.277562974385479;1.0887030954615269;0.0815772332843109;-0.6650513552189221;1.512237344565903;-2.625236426157071;199;1.2566370614359172
222;-2.0680384797453804;0.0165559925677019;0.0398480126500518;0.580869680070033;1.1899403153000236;2.5092551900082016;64;1.2566370614359172
223;1.6128341754184403;-0.788721714946311;1.3682891910385984;-0.2044982436230795;-2.6146345640701685;0.1415256368319535;61;1.256637061435917
224;0.2014754886893482;0.9548705215505452;-1.3017132860102285;-0.7726681236993159;-2.199864735406899;-0.4212226494926595;80;1.2566370614359172
225;2.5379452032722005;-0.1104627434450354;-1.075282173642289;0.1386612368395897;2.779605630183654;2.392692659707084;186;1.2566370614359172
226;0.8765151399949372;0.2876556852966474;-1.6536956124386235;-0.3163087194763963;-2.433458111738559;0.1187414291417837;224;1.256637061435917
227;-0.9982997954164046;1.0988703876255264;1.0221966430162812;0.3131784312716368;2.5413832323322367;-1.5247445101818426;106;1.2566370614359177
228;-3.098182240171474;0.428213962620251;0.9287176452849644;-1.8227176774442324;0.3578744040737307;-1.6948937925501255;199;1.256637061435917
229;1.2531120676395997;-0.5388736662943888;0.6586923197483956;2.8169964534691414;-1.4208255396960674;-2.6143324561242345;95;1.2566370614359177
230;-2.183257939589624;-0.3153675622430274;-1.4102861282870418;-1.323210508818364;-1.1914130463829158;-1.0475106572234127;30;1.0110728104369755
231;3.109076810404088;0.1437636179865856;-2.465566571600019;0.3352220120216229;1.3432969080364416;-0.3582148448264198;175;1.2566370614359177
232;2.958779329412529;0.8955040312616264;0.0770795324070119;-0.9915116264890992;0.6964152471939824;1.6891450279250562;204;1.2566370614359172
233;-2.8454324063273946;-1.2979250655170638;-0.2288250987679674;2.405618017943584;0.8340016792676008;-2.46898015035402;216;1.2566370614359172
234;-1.8843526722822768;0.7344669425180026;-0.2975187387636617;-0.3195825460353875;1.5140532825573632;2.5271533533322588;222;1.2566370614359172
235;-0.3703046360611057;0.9474525120145556;-1.342654524080572;-2.547048618513881;0.1396180906583697;2.077502057638629;63;1.2566370614359172
236;2.021355387859932;0.1569098590634915;1.636191135021472;-2.500131198913838;-1.8736219431172911;-1.562747287851965;121;1.2566370614359172
237;-2.408199029604618;-1.3775570770227914;1.9455524262779624;0.3683090654805708;-0.6094230487082688;-1.020609901614102;179;1.256637061435917
238;2.340832703970136;-1.2385563575457676;-0.7792319025073202;1.7221438161452225;2.089943787754428;1.2990196576721298;168;1.256637061435917
239;-2.9513569417555674;0.1630591802802837;-0.6018690196263128;-0.6602267772626057;0.887573070227192;0.0955755134137165;44;1.2566370614359168
240;1.3322739834447637;-0.0879077759354785;1.8214379909000231;-2.2955124714361648;1.231098257490913;-0.7251617570882475;73;0.8979463313633848
241;2.737132167196233;1.338542220850947;-0.6366746603648209;2.1375029800152263;-0.0501758001642521;-1.330422446549886;176;1.2566370614359172
242;1.4572803039601854;0.0728439232984036;-0.6664169090818046;-1.0926420869777005;0.0695905747412621;-2.2357635838244376;33;1.2566370614359177
243;-2.457718631045678;0.1103179355104162;-1.5915545514753446;1.008662175708582;-2.77049168887564;2.154720080437952;132;1.256637061435917
244;-1.5521597545777128;-0.9069795916381584;2.019148455866085;0.5609243679036483;-2.975737545747117;-1.7106848906408545;145;1.2566370614359172
245;2.733169234648035;1.2091211904698798;-0.3251477127977719;1.0654293785103826;-0.0197517206027685;-0.7691250872884647;241;1.2566370614359172
246;0.7559049190963175;0.9713932710284444;0.0058809648496572;-1.9930787350219188;-2.0563165286195333;3.018745759830443;193;1.2566370614359172
247;-1.452040222197851;-1.085755209105533;1.0978096512226712;1.476987832844121;-1.717050200874427;1.2216344381001514;66;1.2566370614359172
248;-0.5815085679587391;-0.8420327763087069;0.0521861594725963;-1.91181193997726;0.1009928162642343;1.417669828235553;131;1.2566370614359172
249;2.8421004408454107;-0.3256001048654685;-2.4317902429460667;-1.8443875062773525;0.5486436010661638;-1.02418372761821;194;1.2566370614359172
250;-0.3385880447528511;-0.8829361757406018;-0.9204067997596554;-0.6604368109966612;-1.1626957101550506;2.958385106808949;85;1.2566370614359172
251;-0.9966565434790648;1.5569186068235252;-2.2436481620954893;0.10485421599354;0.7700406660954615;0.38294139362547;91;1.2566370614359177
252;2.955376602057534;1.219401919137945;-0.4442759840663136;-1.1052612061662883;-0.2487019808291063;2.2334043114564945;232;1.2566370614359172
253;0.5965492139568621;-1.2802723081108212;1.2813394734339871;2.114480392509764;-0.2790924347152971;-0.0167249802011731;160;1.2566370614359177
254;2.142047184034196;-0.6014953099174072;-0.1375870668889261;1.4111549065299114;0.9074344551986836;2.067778331793772;203;1.2566370614359172
255;2.2838222613717627;0.7092265573251074;-2.5320288778315967;-1.0937628375884596;-0.1079625512795027;-1.7964944621400116;194;1.256637061435917
256;2.0928831186336225;-1.776646226399413;-1.081138771010766;-2.583509374454178;0.3816328387998288;3.0681158702919964;173;1.0062152614624331
257;1.5502741844349102;-1.186106493919192;1.2283085090021706;1.0881385327780082;-1.0742185795560752;2.245744977669248;31;1.2566370614359172
258;0.894094675239045;-0.1562958059630026;0.1778190792327947;1.7425043571624643;2.7928155799197723;-1.9841407177055608;164;1.256637061435917
259;2.309572986078071;-1.032839555335019;0.8841005447447894;0.9692025770498574;-0.714773367094924;-0.8610989303907143;70;1.2566370614359172
260;1.4556687682656038;-1.4673980688832298;1.4538626902379157;-1.0590203017238389;0.3251658272670072;-0.2975726965075251;157;1.2566370614359172
261;1.6850186727431826;-0.3550353596474076;-1.841701545927961;-2.600914285450102;0.7561927201890444;-2.5384935749967887;194;1.2566370614359172
262;-0.3464331410586691;1.0802575466178803;-1.901384495294266;-2.465313381226058;0.935232092414005;2.8579302792888246;235;1.2566370614359172
263;1.9952195065182468;-1.563936219470272;0.1047670125918789;2.052731819069677;2.0184083688659182;-0.7160066915597554;43;1.2566370614359172
264;2.354221750119279;0.1297491324575335;1.5093458693439583;2.818420627947197;0.7435706037729735;2.57915136846496;156;1.2566370614359172
265;2.311580286110314;1.3552954479161408;-0.1140424305420808;2.967931941852559;-0.0987478789867305;-1.9881805137087596;241;1.256637061435917
266;-0.8678200437105256;-1.3364761881220544;1.5926401471795382;-1.732960347403028;0.4383246762028367;-2.1313450496518103;77;1.2566370614359172
267;-2.465990639394064;0.565589999780996;1.7512712004515194;-0.4110573767186344;-1.1532217543968184;0.641287489479456;51;0.977953568238686
268;2.639720067041037;1.48663924389985;0.5220292990109378;0.1980219921133102;-0.0740000441351581;-0.626505511672466;245;1.2566370614359172
269;2.101930768771363;-1.4336819082207286;-0.811931571228743;-1.2939796352268855;-2.1598821934219097;0.5457289109154766;159;1.2566370614359177
270;1.554247156254418;-1.4027316647789367;-1.1634721804493091;-2.351690627137574;-2.0159026360726267;0.4226111140247535;269;1.2566370614359172
271;-1.572665871736638;-0.2028308198908089;-1.0254514035435622;-1.3402570421665332;-2.420678557637944;0.0067981471051069;171;1.256637061435917
272;1.4858233789888229;0.5558002943458293;-1.5447916162734798;-0.0857328698144346;1.3951998615096726;3.0070356051772347;113;1.2566370614359172
273;-0.2104321299907261;-1.1633728528145757;1.3378261851686646;-1.267260805018834;1.2802524083620186;-0.8517617692732166;195;1.0997546729870489
274;0.6090466762083043;0.039737093556535;1.848524600687212;3.261082376140035;-1.4999318825459016;-2.8675782392241747;95;1.2566370614359177
275;2.026743485233184;-1.0702285452460754;2.137652824507435;-0.6321685209328887;-2.8696291943745567;-0.5575631728588251;223;1.2566370614359177
276;-1.7952964979216546;1.0380052708429053;-2.023103939651452;0.5192540892360948;-3.0527320245819984;1.7544164729074525;132;1.256637061435917
277;2.511342933441486;-0.5501779683270414;0.4647041987534175;1.2880679401532065;-1.418277367182442;-0.1310461295707186;259;1.2566370614359177
278;-0.3021946078662618;1.2489026779836094;-1.8969992809009213;-2.1636824352449846;-2.02132264353205;-1.6584738333440854;122;1.2566370614359177
279;2.155111631610391;0.8168744035813156;-2.087658589170178;-0.5280666389604205;0.6640874735425593;3.2023333551286037;272;1.256637061435917
280;3.298440479471121;-1.2694363106794893;-1.3717183989194353;0.6818209635773953;0.7226888488737946;-0.4062139625208229;175;1.2566370614359172
281;2.811742006116876;1.4709050846604754;0.0778607367410676;-1.6671367408878142;1.424032596097207;-1.128790977023329;197;1.2566370614359172
282;-1.1348665888771865;1.678479697149089;-2.5052688881405825;-0.4352564542030519;-0.1197112223545393;1.0101847479045645;251;1.2566370614359172
283;-1.1095919322024717;-0.0934842974727669;-1.785267454954837;-1.6549004847510604;2.982735373362221;-2.357759423192177;188;1.2566370614359172
284;0.7484518294190143;-1.1725081023773882;2.142622868374075;2.664186216685697;1.314232673313538;2.952302462760205;198;1.2566370614359177
285;-0.0002973294731304;0.5481070179713723;0.8149395543294338;-2.149546052290378;-0.2777293127180332;-0.057188621650058;7;1.2566370614359172
286;-2.095617451559315;-0.3820262662833565;-2.136506548779117;-0.2070245327427458;-1.013533415944162;0.5942052725812077;74;1.256637061435917
287;-2.965223223790134;-1.400722248416114;0.2361901171762043;1.2001185002131711;1.9924302104815603;-2.3346856878228266;216;1.2566370614359172
288;-0.2804680937995923;-0.1724957545215258;-0.7715675401010753;1.8398162636115245;0.2556684795671063;-0.7719826478414751;54;0.9118322857881888
289;0.0781050545400488;-1.1385094028409872;-1.3979415765528014;1.3991792469684647;0.7827206972299035;-1.0011630627167356;158;1.2566370614359177
290;1.3176667737755503;-1.309405986035623;1.6821966855517476;-0.720424741067278;1.740857268703402;1.8420472227672644;86;0.9088130285145044
291;0.2305044004283851;-0.1194877234296409;1.9035143904804903;-2.8134656569341314;1.3402876204255267;-1.778824731571764;117;1.2566370614359172
292;3.1945133289447263;1.1217083120567877;-1.2312627576884274;-1.913284941694476;0.0270888760821208;2.6384909113021955;252;1.2566370614359172
293;-2.6040516442547594;0.2767776763481442;-1.1477905399152692;-0.3827702993460282;1.674368645885637;2.841851281237457;234;1.256637061435917
294;2.817849357351704;0.2817198384676448;1.0403421302852671;1.5651196497573057;-2.011069865827485;0.0523030751278676;277;1.2566370614359172
295;-1.1010240397626458;-0.1572156026718544;0.2002020832559179;2.1986165066620864;2.2715471618793366;-1.2104596533818226;177;1.2566370614359172
296;-0.4140009931280524;-0.1560724325741719;-1.30087938034471;-0.865630081977107;2.5127259501978507;-2.4712681964814207;283;1.2566370614359172
297;1.3926750772224497;-0.2506270102897518;-0.0182571085300069;-0.8331310423038951;-0.7753291638106282;-1.0365774628238518;16;1.0587010421820366
298;0.6043460240419863;1.0240175723606626;-1.2854408339787982;1.5937615838765482;2.662343224407093;1.6653931125953227;139;1.2566370614359172
299;-0.1736259249686143;-0.7995297157038708;2.3837405700266743;-1.011919404126519;-2.008512212500095;2.8996174950797844;196;1.2405956652146632
300;-3.2155532434155853;0.5147799364335857;0.0709561982786477;-0.6814129861704653;1.010428783183943;1.053382055754892;239;1.2566370614359177
301;2.4029340392026985;0.3958604685566734;-2.138731084954605;2.6764080952648635;-0.4944797492781831;-1.2658399219331806;176;1.256637061435917
302;2.7733871486501016;0.5713903382654569;-0.1966502259989174;-1.255437347796398;1.430610481871067;1.3365286455498109;232;0.9733373872516944
303;0.0515348568767602;0.6037558849829842;0.1469147414242723;-1.8400383844796644;-0.2130110648532307;-2.9127096007961053;76;1.2566370614359177
304;0.7254810204672946;-0.9917558039747636;2.389067308405308;-1.017617188341155;0.257752169107428;1.6291328632875552;208;0.846146395154682
305;-1.9653612654919208;-0.1498346340878135;-2.22763155531742;-1.0488740551927016;2.121280182069375;0.2294141001087798;182;1.2566370614359172
306;-2.0726558531186297;1.2234183637843556;0.5292492828356211;1.5324999169769729;-1.1089817955322832;-2.3584129033167285;163;1.2566370614359172
307;-2.024115608936099;0.3088329468989526;-2.208905697262961;-0.5552869427901035;-2.541042111453032;-1.3931599224133788;110;1.256637061435917
308;-2.462301551234798;-0.7086566273614368;-0.484440193786481;-0.1354172158881373;-0.4547413166345637;1.0443677862053182;123;1.0755525299735234
309;-0.2936928876547386;0.5145953416623907;0.8291811525181279;2.497683097380803;0.660194121181754;0.2947807146468604;75;1.2566370614359172
310;-0.595785787744993;0.8794471389421974;0.3530113598053475;-0.3740544656255152;0.3405117707874841;-1.3683222839420957;50;1.2566370614359172
311;1.8012147182198246;0.483073108398112;-1.6207625937876746;1.6143006217851337;0.7689129440088869;1.4664766433405314;100;1.2566370614359172
312;-2.634649336002215;1.113560698416305;1.9293520810863052;0.6638547319415018;-1.0908008698189924;1.4491304129270657;90;0.9796124764391028
313;0.0332407642079952;0.9019004490209892;-0.3236679075751597;-1.7813684450373528;0.4221503104716705;-1.2304797102233536;107;1.256637061435917
314;-0.9207676630480768;1.0829671497042423;1.2406292856575076;0.1402549403941982;2.770629520344958;-0.2516429345005435;106;1.256637061435917
315;-0.9929232430180924;-1.535801967554137;1.458348060156743;-1.7692082354349186;-3.1995866857376565;0.4635505276347955;200;1.2566370614359172
316;2.261495390582412;-1.6903813197800053;-0.3533947501416809;2.767482886857095;1.142028003383544;-0.7745016452771605;263;1.2566370614359172
317;2.778629398371536;0.1861700958805886;-2.4284876586986077;1.983510694528552;-1.3975540971541047;-1.385884459975284;301;1.2566370614359172
318;1.9041946198219435;-0.1493600579667875;-1.2890394684063933;-1.1281962745875012;-1.85320020318382;3.165635229801726;60;1.2566370614359177
319;2.8810806749255296;1.275684480904528;-1.4382396029401845;-0.7915056259343054;-0.2094926709070693;1.5387781653384742;252;1.2566370614359177
320;-1.381275923343166;0.7125800008880016;-2.1413873575346227;-0.599796843672448;1.910762356600216;-2.41132154826006;188;1.2566370614359177
321;2.2768814210585075;-1.111598480838159;1.4618783389454322;2.6733657146937158;2.1119436641201763;1.3261800472448817;156;1.2566370614359177
322;-2.339178543473481;-0.6837681027241338;0.3138251412997852;1.3328378924941602;2.130988903418613;0.6398904242141299;211;1.2566370614359172
323;-1.8295343439695315;0.7893680975995738;-1.8299138817087397;0.5072379376175351;1.266514103159085;0.4935202928407068;128;1.1029988230337902
324;1.549166468826875;0.0198715975240689;-2.265569308096421;-2.565941886848409;0.4301424611570464;-1.286074174255604;194;1.256637061435917
325;1.463455217548646;-0.362611439402473;-1.213283999957953;-2.2152111216611163;-2.3695111460715235;1.7259206746109508;55;1.256637061435917
326;0.1321498577154607;0.5507795715691614;-0.8671318590651115;-1.548136782272411;2.1586570603436552;-2.427689421728135;296;1.2566370614359172
327;-1.8595490168918996;0.8921062740833929;-1.4323843598078856;0.8825799006502558;-0.7972653145816586;1.8931254001846105;215;1.2566370614359172
328;-0.0188938545878905;-0.5408956688474087;-1.601288636869106;-0.0803402130127073;-3.0120645239616284;2.924799335444474;85;1.2566370614359172
329;2.1108762406059025;0.3503047203192173;1.6742571545563507;2.891200657375376;2.3072437761121583;2.6281609606696805;156;1.2566370614359177
330;-1.3462351191634054;0.0298040486594083;1.5113726327903647;-0.2277158402059893;-2.310486535629124;-2.86568289366232;145;1.256637061435917
331;1.135391570872669;0.5363923485785554;1.9571961961874629;-2.22211591139274;-2.372193503355258;-1.0923352246059543;236;1.2566370614359172
332;2.352199995044181;-1.0522499668674214;0.6386720339652081;-0.3845456959431224;-1.4006594698492698;2.874745899029161;31;1.129583500535567
333;0.8004312020119563;0.3332168668623131;-2.3646140919243166;-1.2899117901976431;-1.461432516983773;1.2346292858087775;127;1.2566370614359172
334;2.0154539690618187;0.7782650793620475;-1.2088390532160382;-1.4472458998561628;0.6306799618508117;-2.423308003781544;242;1.2566370614359177
335;-2.172429781108824;-1.3606835580143073;-1.0255219448635595;3.0705460360966788;1.0390384863672109;-2.52703457372914;233;1.2566370614359172
336;-2.6386723744917635;-1.240399391741967;1.8655458794464923;-1.9403582034925888;-2.0714227061021373;-0.8223269296086241;183;0.9270795230104084
337;-2.7394390468553844;0.7391422974937526;-0.6241861501468169;1.0526327036472276;-2.229987408672932;-1.378843475422073;78;1.256637061435917
338;2.37698329934581;0.234870210748434;1.7711786700139518;-2.939379265777213;1.66791479388535;1.8098028115705984;180;1.2566370614359177
339;-0.3926274014029433;0.955734213779218;-2.3398350190291364;-0.601973883974966;-0.7166143904740041;2.2193908236044497;212;1.256637061435917
340;-1.7901765653478714;1.0481809740165149;-0.3939320577486609;2.3725222367666543;2.4880196640429397;-1.1773058095783897;126;1.2566370614359177
341;3.080574039442031;0.3901767395382696;-0.4245494651986473;2.513588089693468;-0.2822409218166213;-3.025302823849685;189;1.2566370614359177
342;-2.616118517888328;0.5208595539209757;-0.7686007355816502;-2.4147442953058955;-1.2472132026871283;1.326616093438039;181;1.256637061435917
343;2.466073952610498;0.8929399999611092;1.52973227822025;1.0228920537638846;-2.589729410396548;2.9784119499667;187;1.2566370614359172
344;1.5230275666978237;-0.2642574007520056;2.734850196998868;-0.6351884787413843;-2.6868652764781333;-0.8510387318138598;275;1.1745227062886674
345;-2.1163994830541206;0.8143742709415733;-0.7690404292820638;-2.346298719209946;-1.3025449752616534;2.4381556141106437;342;1.256637061435917
346;-0.9570344444899364;0.4124088285952521;1.803661963165066;-0.9643326092135298;-1.7951879947555502;-3.2233644074837566;330;1.148638128997147
347;0.347391249506691;-1.4190136765736792;-1.4381771630110352;-1.471887072329328;-2.413148983258635;2.016984866987494;85;1.256637061435917
348;-2.642293979579545;1.2472680437015922;-2.1604173881188107;1.199185550197035;1.2834026107695955;0.8407620389830862;323;1.2566370614359172
349;0.1484472396829293;1.483921237783418;-0.1425662430096551;-1.248608394264981;1.3247657215751996;0.5655858622889968;141;1.256637061435917
350;-2.6499266136133377;-0.0215943683823248;-0.9242710916036414;-2.064313810358007;-1.666758958400411;-1.56098500704145;230;1.2566370614359172
351;-0.452461427870492;1.645921146257273;0.4234299316153969;-0.0834323074129978;2.3146234036490405;-0.3043395492939862;314;1.2102880702107286
352;2.38853912426708;0.0732228760354698;-1.171777517338509;3.179222134073085;-0.2357404002126433;-0.7967266475660817;301;1.2566370614359172
353;2.3265907696909864;-0.4094916371442992;1.0942516036850278;1.045375058896151;2.542915405141746;1.0649259014832086;29;1.2566370614359177
354;0.7828674312793991;0.649216742709313;-0.1555923558997648;-0.4096019294487606;1.132172578334554;-0.726129604801608;50;1.256637061435917
355;-2.872981588525225;1.3504695702122975;-0.6170562110859069;-0.1707768118553045;0.9418132040512112;-3.1629623834944627;221;1.2566370614359172
356;-0.4185417261797798;-0.5701523926645649;1.423499729357096;-1.4062772970809383;0.7430400997277181;-2.8809127600314897;266;1.2566370614359177
357;1.3519653409415258;0.0451553345007258;-1.33096299015087;-2.96895539500766;1.0888470953081366;-1.0218611926955514;324;1.256637061435917
358;-0.0766419637957313;-0.380226005148306;0.0379000410704784;-1.791218788587551;-1.5551647478989747;-1.6943018887862134;149;1.2566370614359172
359;2.2541446600184534;0.0226611865234527;-2.493845975855232;-3.132979317647298;0.2756877518742534;-0.4586463948560591;324;1.2566370614359172
360;-0.3514929251782416;0.9727599131217388;1.1084746065077116;-0.2126039088621323;0.7906732126113731;-2.2117166783661464;310;1.2566370614359177
361;0.8336118678892179;-0.5237945985678827;0.4868797444020059;0.7044775105181019;1.5523818958295366;2.7636471141060563;203;1.1880467875708405
362;-1.466512654153842;-1.0999122371906538;1.4152035966885093;0.5718057482035843;-1.5756465037371523;-0.1128419142576508;66;1.256637061435917
363;-2.7686472367581447;-1.17167163017573;1.3362096763229117;-0.2644817936379212;-0.0371255122726607;2.6849927695176063;174;1.2566370614359172
364;1.2033798044661124;1.441097555688855;-1.296260273219988;2.129602377963121;2.5782321472268483;0.7982008435945039;298;1.2566370614359177
365;-0.1876339294009593;-1.4148825486621714;1.857990236071973;2.5112643716862406;0.6210967413262273;2.7087936583286294;284;1.256637061435917
366;2.455519487014071;-1.0453849319798925;1.98938164839611;-1.8405028589357528;1.378136683426186;-2.21724532684822;119;1.256637061435917
367;-2.918510772897704;-0.021360625642123;2.376986242422932;0.2174754781466694;-0.3394215533713851;3.1145470946310567;112;1.256637061435917
368;2.4241320688636123;1.0055996024471412;-1.4394436082827553;2.0140916018981376;2.154789951543446;-2.9226350273779533;207;1.2566370614359177
369;-1.153155868120078;-0.7034873447820208;1.625774789946321;2.6019902162918465;0.5975687692269741;2.9882792503595064;365;1.2566370614359172
370;2.2194317075881287;0.0928369494565349;-1.134967457813218;-1.2686914466855377;1.644262674002755;1.6785733351620593;302;1.2566370614359172
371;-2.127517762847841;1.32745157590127;-0.0816060890166752;-1.830689633782661;-1.310887037592371;-0.4188945086003947;181;1.256637061435917
372;0.3121729202830252;0.4066253233112898;1.1015349394610898;1.513517481298839;0.1296389159353712;-1.748818914361733;24;1.2566370614359172
373;-0.151654292651613;0.3272317596632785;1.780550204324264;0.1528070265055897;2.6414927312361964;-0.5804542547288718;314;1.256637061435917
374;2.4848258324519894;0.91989852213065;1.190880403676023;1.1255398904297866;1.868555510636072;0.5254597868528872;94;1.256637061435917
375;0.370716902999964;-0.8272864359777377;-0.9371400700397592;-0.4203188076777246;2.528468482841774;-2.897847667497518;296;1.256637061435917
376;-2.1296543189047004;1.195199512582326;-0.8877033327403503;0.3735438374838769;-2.1243147411535;-0.7024254094537491;337;1.2566370614359172
377;-2.805864804966844;-1.5262079253805438;0.8110880156479516;1.662502445049622;2.863069674338802;-2.8201497557679627;287;1.2566370614359172
378;-0.64870602699668;0.3459628691537122;1.2880180022928789;2.931702391341784;-0.324487974713239;0.5317672798076766;309;1.256637061435917
379;-1.1868049705744064;0.9198197882897392;-2.668049152203244;-0.63833967171279;-0.5037006631849716;-2.8139240236111336;213;1.256637061435917
380;-0.8928201290503537;-0.4002915546407936;-1.9202359900684367;-2.845920722103487;-0.0710794475301813;0.2030611736373801;184;1.2566370614359172
381;-0.0010567749618688;-0.8394862585797073;-0.7394464039438096;-1.6013143973030697;1.6160739822999295;-0.3808536317241207;192;1.256637061435917
382;-0.062636564457217;-0.8613314910850495;-0.2279007131872472;-1.6778684824873926;-2.44338358982533;-2.383538437697591;358;1.2566370614359177
383;2.712979479316913;-0.2747617264042193;1.6187321940006938;-2.62719226880267;-1.1422353179019444;-3.061900770127476;121;1.2566370614359172
384;2.6671672726745785;0.3519345971758403;0.6230950362565868;-1.1826761060837736;-0.5847348697926718;-1.1685797325021965;36;1.2566370614359172
385;2.480350271021042;1.3292347572871157;-1.670345706318524;-0.6973946303583507;1.157805841234764;-2.502765770327291;334;1.2566370614359177
386;-0.4303101842308563;-0.4556487596115528;-2.07540918804479;2.6838967727520147;0.8700385754484548;-0.8105110094103363;158;1.2566370614359177
387;3.1972830351059653;-0.5617603536502294;-1.5870307972167788;2.289774031788174;-1.5114313989668196;-1.5580789951254317;317;1.2566370614359172
388;-1.8898472127334247;0.255876820965762;-0.3201989994336577;1.4487831152530228;1.7890353229480909;3.007539955538374;222;1.2566370614359172
389;-2.30105995700322;-0.1866239142872792;-0.1234414555615101;-1.14305141760839;-2.096982032030955;0.3085010665933485;271;1.256637061435917
390;-2.059597353664587;-0.6481769381904765;0.8710793390721123;1.0035645022664297;-1.483932754091303;2.738694864194617;214;1.2566370614359177
391;-2.399294367211654;-1.2001175721359023;0.0294478887637757;-0.2231592967475001;-0.7638309761133389;2.3287842948863564;58;1.256637061435917
392;2.4517483292701763;-0.1558048575372803;1.5785574051233433;0.9319506073802234;0.7616142206163237;-1.2338905647457372;70;1.2566370614359172
393;-1.076310881148008;0.8504157224893018;-0.4203164464698712;-2.488511994593799;1.1229067005524904;-1.0339881398670283;107;1.2566370614359172
394;1.3229240753222955;-0.2366785781737129;0.2758979773634205;-2.431969807502078;-0.8123293912640704;2.62969776071984;59;1.237908916259562
395;1.98647662123284;-1.3857780509498825;2.2966418707146925;2.509661277247916;1.2777053892593906;1.319507439671156;321;1.2566370614359172
396;-1.26731854559481;-0.222268364962749;1.0063016494718815;2.9602422256108505;0.1512478468180965;-2.856406289775876;162;1.2566370614359172
397;0.6347206175699973;-1.1525600275516867;1.4181891200600871;1.2410692201315274;-2.803949709277137;2.368718501674718;79;1.256637061435917
398;-3.2101686947524977;0.4613325478420544;-0.6091364185151062;-1.713880618812982;1.2129669534872998;1.1353210401340514;300;1.256637061435917
399;0.629406692771034;-0.6930532752335117;1.615514590594324;0.6395695944978926;1.124572008475072;2.9821362389676014;361;1.256637061435917
400;-1.3311650011901408;-0.4328611735536518;-1.9869021654764825;-0.1465255496656371;2.1000436681903905;-0.9929643394825594;182;0.9936659651858888
401;-1.595382339437402;-0.4714614839030702;-2.360649895105751;2.880814726782968;1.0835516798011673;-0.574361167630909;386;1.2566370614359177
402;0.893739247364613;-1.232173168107371;-0.425760918585594;1.586357748915125;1.2541397824888505;2.344857277200733;203;1.2566370614359172
403;-3.09311392709511;0.3793363269187892;-1.004297527964686;-2.9902787104391337;-1.1068561643270165;-1.3496324073451682;350;1.2566370614359172
404;-0.8191938752011944;-0.4077246053760671;0.1437394075925224;-2.381268813669061;-1.830420550785082;-2.38919531673833;358;1.2124945983320443
405;0.6438467998509427;-0.4008754995142587;0.1045032682461076;-2.936137189290099;1.0191578618377517;-2.7297012116031207;76;1.256637061435917
406;1.054800187999454;0.912371454670176;-1.1156255737310994;-2.0591067270589773;-0.9588423199117728;1.3883825127269065;59;1.2283125187891006
407;-3.218763789457539;1.359122085447657;-0.4601746000545523;-0.8376068416491154;-0.0527115532019767;-3.1967689859366373;355;1.2566370614359172
408;-2.888520746393925;-0.8806922122348717;1.0817712407875684;-1.8671189074384384;-3.2479166927368897;-0.5242633501739478;183;1.256637061435917
409;0.8555526032532161;-1.0372180778774238;-0.5592236036927754;-1.361715995930697;0.9814967668247316;-0.2490573551404016;381;1.1326180520373714
410;-0.1036917468015079;1.20988189107409;-0.7260155210033317;-2.701463210209382;-0.8893521891805862;-0.3585671895471205;147;1.256637061435917
411;-1.861457148596945;-0.5741761394169367;0.8490921440449647;-1.671235456270041;-3.16612119268713;-1.0996975992658002;408;1.2566370614359172
412;-0.3782845890216645;1.111633326671799;1.7478787585186075;-0.1573505755745597;-0.0232807087760673;-1.5154972450395583;360;1.256637061435917
413;-2.971846761404022;-0.1526974900435917;-0.0487511589816604;-2.3879709698719025;-1.6333302685419713;1.9018798738335356;342;1.2566370614359172
414;-0.1540459983010441;-0.7080358755367883;-2.1872303456459377;-2.033126558947805;-0.690780402257975;-2.726447557768791;170;1.2566370614359172
415;-2.798200602567076;0.3754994763520345;-0.0831309722450615;-0.2218480483080555;2.136213113732912;-3.1025050021340124;221;1.2566370614359172
416;0.3501434962342898;1.123320489056509;1.7565893921619684;0.4050109977351191;1.1836351153383111;-2.540737261409724;360;1.2566370614359172
417;-2.548778653346408;-1.2369433369591114;1.9497613449972853;0.9047136567738636;-2.8128914869354893;-2.282949616443564;244;1.256637061435917
418;1.6267404666625906;-1.0671685319661024;0.3439345206388213;0.2143689109425945;2.3133232640296346;-1.117577236509105;164;1.256637061435917
419;-2.714595557826453;1.1108458645951311;-1.2755834129115564;-1.9477070759108108;-1.2412550632945905;2.36324526222924;345;0.933039686303108
420;-2.32390320838638;0.0503372441278768;1.994130668822275;-0.6008384001591234;3.118971195559485;-1.0081625884302396;106;1.2566370614359177
421;-1.2448625735730323;-0.5951394132568999;-1.739609640412664;2.334749044667971;1.4713436293193431;-4.8572257327350605e-17;401;1.1411890336825348
