Komment314/test_diploma/benchmarking/path_finding_for_benckmarking/pre_rrt_star_results/5_3_tree.csv
id;joint_1;joint_2;joint_3;joint_4;joint_5;joint_6;parent_id;cost
0;0.0;0.0;0.0;0.0;0.0;0.0;-1;0.0
1;-0.5322806653507758;-0.2247365759538916;-0.8562230258881515;-0.2973721341181404;0.5515115260549065;0.345824304111355;0;1.2566370614359172
2;0.6503357123212437;-0.2460422185219425;0.4214246968950111;-0.2313017200833018;0.12304990322613;0.9216413904595494;0;1.2566370614359172
3;0.0317192021357646;-0.8066695169922973;0.6684102413944255;-1.069311053060516;0.0992690626131884;0.5776641819395328;2;1.2566370614359172
4;-0.1501298382921815;0.3740849068015828;0.6360945202059617;0.7195167489071499;-0.4553661302943846;-0.5357045035452491;0;1.2566370614359177
5;1.0237457153847362;-1.0650631197293714;0.2456370912495749;-1.4415301128780451;-0.0663682345968647;0.1492567029571475;3;1.256637061435917
6;-0.0454385183922442;-0.4556119062103309;-1.119488012449399;0.2515074933862491;-0.0753407077767672;1.070598053842866;1;1.2566370614359172
7;0.7305113360498062;-0.3828084644969206;0.5984658331918556;-1.961783102001123;0.3077113032355;0.8511057564629977;5;1.256637061435917
8;1.988770257181316;-0.4979008652518757;0.0152320380111288;-1.574859490263581;0.2323231391994843;-0.2583111647513259;5;1.2566370614359177
9;0.1653352632834561;0.0712024685469407;1.341890937855958;0.5326657235887613;-0.8065761230522904;-1.3909649051867523;4;1.2566370614359172
10;0.8728208896121479;-0.5456264507156455;-1.401469488253511;1.0498021507935549;-0.1379987389257519;0.9862191230956638;6;1.256637061435917
11;1.2458025970324016;-0.3286545516737363;0.9111708963658312;-1.839046826790674;-0.6845740109141409;0.0829490795869997;5;1.2566370614359172
12;0.0960505794965613;0.4871557676094886;0.7789924649014389;-2.515435605795967;0.0341388210627844;0.9272347568954076;7;1.2566370614359177
13;1.1627434171098143;-0.2641172764582404;-1.634165017282692;0.6239303232980429;-0.8491815746642651;0.1649157878418947;10;1.2566370614359172
14;-0.075080888669351;-0.624660980185196;-1.4683046838758678;1.6425009509184638;0.1402511051681582;0.495107446106686;10;1.2566370614359172
15;-0.487978834187722;-0.2620324210263097;-0.2840714276283386;-0.4608720400455576;-0.9895720077890352;0.0;0;1.256637061435917
16;-0.0135570014478571;-0.4593762699277716;0.9851347745763964;0.4143203578348761;-0.0160973105039842;1.503803640202331;2;1.2566370614359172
17;1.0580966193277372;0.0566753039358991;0.9876483782197092;0.442521595645348;0.7136776054213844;0.4769598777162902;2;1.2566370614359177
18;0.8358892435832463;-0.9319648856614532;-1.0699932879380851;1.415577599843303;-1.0606789354683674;1.5637210501785967;10;1.2566370614359172
19;0.1024060398360202;-0.3856021320623278;1.583149784773163;0.5452645751163001;0.1765321368631942;-1.9754644867803768;9;1.2566370614359177
20;-0.3640815932444722;0.2111113246715726;-1.4794466245976716;2.1108951945788497;0.8897448820565435;0.369243553619055;14;1.2566370614359172
21;0.7880802910957997;-0.1341636892775564;0.8657211495574704;1.3068722246682454;-0.9610468390852432;-1.937915999907304;9;1.2566370614359177
22;-1.4617255459060845;0.3403051381339165;-1.9613822352863977;2.0786956849050315;0.6988460655138307;0.0727940360073884;20;1.256637061435917
23;1.196873604625146;0.0393773659116032;-1.7469241107432314;1.7513456048247011;0.1256795690952777;1.6576867041330898;10;1.2566370614359172
24;1.4696757576211297;-0.2842933341020123;-1.37846763912475;2.6091428805815298;0.3583630323601403;2.346333954615833;23;1.2566370614359177
25;0.1050942235502767;-0.919188623036322;1.0365983621769763;0.4391382484870478;1.018730460718668;-2.4999982445519544;19;1.256637061435917
26;-0.4712903786708604;-0.9608308823112252;1.1006745648083744;-0.5198775511211641;0.5492679636399072;-2.81775808615233;25;1.2566370614359172
27;-2.037597429101691;0.3498011072164667;-2.231560015153316;1.5568256591626102;1.517507893005645;-0.40873120797861;22;1.2566370614359172
28;0.5847447389629499;-0.9862682909623512;0.1666104916526825;-0.5122746834434995;0.1921514412729724;1.858790675352052;2;1.256637061435917
29;0.1200025839294214;-0.8981643395029532;2.1591978001755625;1.318277447779215;0.3670604399467587;-1.3834967531273124;19;1.2566370614359172
30;-1.703016202398401;0.0764075693912672;-1.0447244305751884;2.435764772804942;1.0789733882321173;-0.5094575853101491;22;1.2566370614359172
31;-1.0258338189426688;-0.404979348681993;0.9990402220965896;-0.9084178408348632;-0.0764053770865356;-2.177533809868785;26;1.256637061435917
32;0.8879563484159942;-1.0530071671816497;0.1726913306403394;0.6623091635442078;1.0706718291668045;-2.88667339586853;25;1.2566370614359172
33;-0.9027135189778022;0.618222856820261;0.6929338814457663;-2.814566966505162;-0.1199752017680717;0.2610578921518459;12;1.2566370614359172
34;-1.2424827936535578;0.4027102366034366;-2.164785666553038;0.9624692957886524;2.245774323692328;-0.1720040436759764;27;1.2566370614359172
35;-0.5970865002393646;-0.473299506534286;0.0998999283840143;-1.3449594159515277;-0.5762960095766342;-2.554007365216088;31;1.2566370614359172
36;-1.761988173807504;-0.8520954733088559;1.3109992126017107;-1.3720736824777373;0.0292840967169866;-1.460710801750959;31;1.256637061435917
37;0.4505801773210938;0.6252637346673393;-1.497614908495291;2.215900495496621;-0.4856287032123461;1.822780189403856;23;1.2566370614359172
38;-2.1458168163602966;0.2713455496908848;-2.2575866783387992;1.4302135900952524;2.1832938904486774;-1.4581553339961688;27;1.2566370614359172
39;-1.76559534155066;-0.9982198785671924;2.0158896536282973;-0.372678535811434;0.1023124279706853;-1.698990092723868;36;1.256637061435917
40;-0.8990680699650796;0.3825040931362046;-0.8981983781879171;-1.0431905654519915;0.4447883716036417;-0.3658396470479046;1;1.2566370614359172
41;-0.8798071585738418;-0.3274990689708818;1.276756736145028;-2.712222301157271;-0.5366782190947679;0.6601281629835555;33;1.256637061435917
42;0.0519590678988174;0.5529190593449387;-0.1358747610960611;-2.68699346128506;0.8248158854298226;1.21233732289401;12;1.256637061435917
43;2.135276399893695;-0.6160261896008612;0.7376743833724952;-2.1546260570279614;-0.2679527184494192;-0.9181527472648487;8;1.2566370614359172
44;-1.2927864864052598;0.9578568503547616;1.0230392052038382;-2.5064748221199715;-0.8796645207378858;0.989487970560428;33;1.2566370614359172
45;1.6377686462558925;-0.5658024751908529;1.0743675509380817;0.8921272248956615;1.0215189912467624;1.2193928405266097;17;1.2566370614359172
46;1.2310432737810737;0.3674889519375108;-1.7269750010069744;-0.3423878489260473;-1.09477643503985;0.5806609832589499;13;1.2566370614359172
47;2.5307090474241845;-0.9277619728404872;0.5456269406180114;-1.6114013683685895;-1.1596800544793004;-1.3636161042637671;43;1.256637061435917
48;-2.152588425289866;0.1480683498383017;1.1731422861528658;-1.8467231847561965;0.1394094350143846;-1.8727984165437963;36;1.256637061435917
49;-1.5019006856831527;-0.0991164620537509;-0.9252424111420422;-0.4287213115484709;-1.2643595628045672;-0.1921339993655168;15;1.2566370614359172
50;-0.9144097988279684;0.2204865104644486;-1.353114071510217;-0.5154203155682769;0.9090512556295672;0.5851029166186776;1;0.907623768206164
51;1.466601123576029;-0.2117156142836849;-0.0308058722116859;1.7540986549180415;-0.8041947406247673;-2.2283589745594266;21;1.2566370614359177
52;-1.336045837217543;0.3996077440676951;-1.981906981324852;-1.4607278538777524;0.6344210046311317;0.6548646453569666;50;1.256637061435917
53;2.3958363312787734;-0.8484307949938231;0.7820331379714279;-1.4588411819763432;0.7163940887575546;-0.9326951984324872;8;1.2566370614359172
54;-0.6236195218285884;0.8125346320491487;-0.7403775519611471;-0.1170795366810974;0.9558425934863534;1.0775413518380033;50;1.1017651400196808
55;-2.142717753104554;-0.123386162501668;-2.030896410922927;0.9968116825968916;0.7124205428116757;-0.9936526146466322;27;1.2566370614359172
56;0.1196021242802448;-0.3515891085225381;2.1835964126266867;2.04676083273033;0.2081467094390072;-0.5326999780383334;29;1.2566370614359177
57;-1.447150689697133;0.6715129612381587;0.5985594075959721;-1.4952432685761523;0.4270915278141585;-2.393428267634027;48;1.256637061435917
58;-2.0726179949227967;-1.1515421994137065;2.613434253114501;-1.1418791027047277;-0.4799797832071167;-1.2823694250434938;39;1.2566370614359172
59;2.2435050483337884;-0.3710940787614356;-0.6796224892243012;2.593997269479944;-0.3374590705739412;2.349203053669637;24;1.2566370614359172
60;1.0970606984130344;1.0445724290973428;-2.09500259665828;-0.8734837181279881;-0.2673090422774143;0.5575542937537709;46;1.2566370614359172
61;1.660401654728994;-0.2111739527313801;0.5550363311163129;-1.983316310726136;0.6350189126153055;1.609724383894178;7;1.2566370614359172
62;1.3062315464053682;0.2321800366432702;-1.8729578643572216;-0.2904061878378425;-1.6973030558323856;1.419794728021766;46;1.0560107190474417
63;-2.249008834109231;-0.4113360319079817;-0.9796769115312044;0.4636949295365761;-1.5975992664101994;-0.30644277718043;49;1.256637061435917
64;-0.732135962397114;-0.1657251126702575;0.9238596989592116;0.981643954877234;-0.3033637728855154;-1.4156968510608603;4;1.256637061435917
65;0.7932371478932377;-0.3547645728051415;1.2845776279450043;0.1557008995093858;1.7361054658233426;-2.1386616059773718;25;1.2566370614359172
66;0.7093039161532555;-0.414995269270678;-0.5897591174051889;2.3854639029896925;-1.302556744640081;-2.2983556304884565;51;1.2566370614359172
67;-0.1806859324381534;0.1072665426138574;-1.6996553225028617;-0.866384990276693;1.2665944366039872;-0.2253679731424239;50;1.256637061435917
68;2.4112652043942573;0.2277938024828999;-0.1533130856120938;-1.2601379516920848;1.0476468707923914;0.0276819822619935;8;1.2566370614359172
69;0.4681539931458715;0.8375928807425851;-1.3977276278118185;2.30166645266169;1.5455829613685783;0.2248612860071183;20;1.2566370614359177
70;-0.6055062118159776;0.5611979804970144;-0.0201674862672348;0.3706566903673701;1.7743002413110909;1.376165551420259;54;1.2566370614359172
71;1.761716914675716;-0.8199652060582417;-0.6006230676553033;1.141888224774066;-1.451287210235098;-2.1662792121783645;51;1.2566370614359172
72;-1.4592902599481898;0.3672016441903267;0.501435398102239;0.9787172432531578;1.5596891519722895;1.0230511220870202;70;1.2566370614359172
73;-0.9860094326993794;-1.463458212184371;1.324300479027771;-2.661530124448682;-0.3762981476061218;0.1632350814287017;41;1.2566370614359172
74;-2.131449399067613;-1.534648411107169;2.5301648117814763;-1.6449683629612162;-0.8562721327336004;-2.295916002495674;58;1.2566370614359172
75;0.3329631475448679;-0.2020687156993666;-0.6565894867162044;-0.234000642383192;-0.4652563598634939;-0.8515344652986728;0;1.2566370614359172
76;2.4330498201961026;-0.7785190297421496;-0.3171280182579439;-2.1628964221216247;-1.392776558608023;-2.0303237087132087;47;1.2566370614359172
77;2.3226140381241;0.3458929571633663;-0.1849543975754261;-1.8444800630948284;-0.9693384885670338;-2.097254143161103;76;1.256637061435917
78;0.705779902487295;0.1698026162246544;-2.3033060757180017;2.40483612119184;1.7892779580820888;-0.2071378306112408;69;1.2566370614359172
79;1.7075888305493847;-0.28193240576084;-1.530303940362228;1.2844530073335747;0.8006939177194032;2.3609002749313874;23;1.2566370614359172
80;0.5841857603821689;-0.6589857786384887;2.181586632118004;0.4918057330401381;-0.8408338522478719;-0.9877353190608884;9;1.256637061435917
81;-1.0960528205924551;0.2449633146831851;1.1122730588431144;1.2339762949115365;2.2578179849874127;1.734802032802219;72;1.2566370614359172
82;1.366555061643732;-0.3481578551003336;1.8650770038979745;0.4213406408214828;1.6897862809099944;-1.221759124417274;65;1.256637061435917
83;-1.296097921557606;-1.3766629956389775;2.3513738089501763;-2.3980967702290075;-0.4277510468214903;-2.5671470480952765;74;1.2566370614359172
84;-0.4641303691833318;0.4822158117498421;0.8896479468834112;-0.4811515070732911;0.3066219643551509;-0.1191232315575074;0;1.2566370614359177
85;-0.4880072212306034;0.96073181132837;-1.5947973069670194;-0.4672955984700779;1.498435298705407;1.7033946515163638;54;1.2566370614359172
86;-2.6079289818250064;0.6819546549596315;-1.4962575686227837;1.3347203033497563;1.771327049439556;-2.120372484309223;38;1.2566370614359177
87;-2.7040631942889983;-0.0330758628115945;-1.7685373639082091;0.8397764016967574;-1.5683712143364152;0.3750182355533915;63;1.2566370614359177
88;1.212554763655239;-0.3798803913441424;-1.8686195259049605;2.009866951505743;-1.4342465789165255;1.5198346559578657;18;1.2566370614359177
89;1.9722276890247183;0.2674886003280963;0.7536970934233056;0.4983141404373844;0.0054286484458566;0.1033340637204958;17;1.2566370614359177
90;0.7972261902330025;0.0716142554258254;1.958253280522712;1.011471544477023;0.5033184765972564;-2.6254444519701257;19;1.2566370614359172
91;-1.6678899842745047;0.1799699408718111;1.6423881308471904;0.4703815125753776;2.4423096732884533;2.326222914694225;81;1.256637061435917
92;-0.2661838271393045;-1.1967313591424595;2.2033322587206112;0.0343185295059256;-1.243326457612033;-1.4294028958588478;80;1.256637061435917
93;-2.3510466846355818;-0.1517783449762493;-1.463579002724813;1.2777210415179834;-2.2090221463108497;1.238266196785184;87;1.256637061435917
94;-0.2489607633405957;0.1924922120623421;-0.3722894160677167;2.7843647975223336;-1.490181762371895;-2.522423312885745;66;1.256637061435917
95;-2.342262912637613;-0.1228415708240995;-2.2354652323322566;0.5829315587154965;-0.852328116615093;1.1771845229058615;87;1.256637061435917
96;-0.4947003260326195;0.2673794607593983;1.9752658439133652;1.7319562770761858;0.4436738851389206;0.2551264808603164;56;1.256637061435917
97;-0.4799683234630343;0.2643263879006331;1.9685284375955536;2.3374784965355797;-0.4704005136698981;0.8688656710381004;96;1.2566370614359172
98;-1.421505118043212;-0.6940756500476427;1.4416634823237875;1.568835200514356;-0.7335108188964473;-1.2519538119427442;64;1.2566370614359172
99;2.6449287544879265;0.8556135109472041;1.1871340023686294;0.2325743687427258;-0.3557991047988642;0.7292321386477139;89;1.2566370614359172
100;1.5894209414264795;0.2084167523740635;1.4392986831678596;0.9115207697856996;2.3227307933433208;-0.5912754076861565;82;1.2566370614359172
101;-2.127306080984624;0.5654809956540887;1.3142145299713834;-1.9843093356479613;-0.9706306595315592;1.5920161737694132;44;1.2566370614359172
102;-0.0061787248585312;0.0876701508099487;-0.2345596857284939;-1.0327393296836718;-1.2618439593518966;-3.039761563885958;35;1.2566370614359172
103;1.123149507068201;-1.2672763274985162;2.4404639764804554;0.1174735884063379;-0.1114794711839093;-0.5640166093105082;80;1.2566370614359172
104;0.1336931989472775;0.3335390954381496;-1.0518294647074238;-0.1440465449901871;1.3918651958921449;1.1739189724308876;54;1.0488532548419367
105;0.9582085159489964;-0.1613237398081067;1.879059932000852;0.7300596507509359;-1.178403780848949;-0.0237148901717327;472;1.047476904297012
106;-1.374812523073964;-0.3079660682574799;-2.114282191079158;0.6962891296038771;2.999845234417488;0.4718432334698429;34;1.2566370614359172
107;1.004651807703221;-1.441938730539937;1.7931958591020505;1.8091316609190635;0.2499568193628605;-1.718509184721263;29;1.2566370614359172
108;-2.661143629135289;-0.0783440055151771;-1.507905188003467;0.3936754848896627;1.714269863383687;-2.4509693876487915;86;1.256637061435917
109;-0.4751131029840945;1.1737559695516528;1.213343909382414;1.942784238025475;0.6674402352882998;0.5418141615871168;96;1.2566370614359172
110;2.1798020151053654;-0.557354081711835;-0.7233750546660489;-2.2346589249262045;-2.126186176924486;-2.900962634741397;76;1.256637061435917
111;-2.6660071796784868;0.0051208719360596;1.0510629903301036;-2.717712644815274;-0.421718917418927;1.334138073022635;317;1.1185682596558475
112;0.2892421742402194;0.546967215254065;-1.384339016128366;-0.8346183143506493;1.823969708062907;-1.0936230676905494;67;1.2566370614359172
113;-1.3753027247888658;0.2331054093232924;0.3288602664909419;-2.342417145516145;1.075068822754284;-2.8075026731417854;57;1.2566370614359172
114;-0.0179295633791561;1.3193763909513032;1.189255235653546;2.4961930960397547;0.7535210407170008;1.558998055858965;216;1.146283381205779
115;-1.2906395362132543;-0.2816532204871669;2.029613707780025;0.8756801435555643;2.5056023529973706;1.3746419830343326;81;1.2149861389161245
116;1.892740178643166;-0.0577774363845902;0.1851695772345678;-2.2195616956705706;-0.084990611408338;0.5187063667130467;8;1.162709925150587
117;-0.5399545200339126;-0.7259767986458325;0.048227354346838;-1.0269369267296586;-1.7993101121350137;-0.5240831161768721;15;1.2566370614359172
118;0.3102764092378274;0.2403502771344484;-2.393558435338265;2.4503021540633174;-0.98190496202317;2.377166445687408;37;1.256637061435917
119;1.305577145534307;-0.6001983627359616;0.9376277067858968;-0.755702717173206;1.7441596556584986;-2.6912111652779998;65;1.2566370614359172
120;-2.067373528799485;0.2695579347031088;-1.4533031904247702;-1.5688696536011038;1.4113250980136582;0.2906024158188318;52;1.2566370614359177
121;1.2699123041074432;0.3337403421638847;-1.2591975063328902;-0.2264973102422983;1.1660832165969215;1.6067765392936777;104;1.2566370614359172
122;1.824420336252522;-0.5129442549608155;1.264056722788976;-2.1541196324821605;1.335547581921367;-1.1350793334432474;53;1.256637061435917
123;1.9793151408772909;-0.2154944778769437;0.5206135600758591;-2.84644033878296;-0.9103939937748744;1.1186868434573995;116;1.2566370614359172
124;1.0439749975931376;0.6489701910851482;-1.0433058945983036;-1.260764909213451;1.0378596095636596;2.150797892136472;121;1.2566370614359172
125;1.4342981239262238;-0.4299518431259853;-1.386828291045049;-1.1921779194163915;-1.8492670261185964;1.6471925369417884;62;1.2566370614359172
126;2.7400220510516737;0.935114551640538;-0.931117664134434;-2.4006146366494048;-0.6380429581194076;-1.8110319309541985;77;1.256637061435917
127;-1.2929806862479791;-0.6053316761090404;1.3206493789863192;1.1314996982606544;-0.5339133754756474;-2.331275387303932;64;1.256637061435917
128;-1.1040396781706874;0.3875642785700209;-1.580966756323738;-2.1012150900648296;-0.289126973032232;0.9730579364377704;52;1.256637061435917
129;-2.0817337968279523;0.0628440668836774;-1.7131677566818628;0.2862777494992451;-0.7625875646800363;0.8818894887989184;95;0.747265170912323
130;-1.540097076752163;0.238098899568421;-1.9127565608239132;-2.300896782625965;-1.13325724160803;1.6830844054911214;128;1.2566370614359177
131;-0.8042266753708014;1.1592229143603114;1.5032919244359546;2.771350502438442;1.4242608381404394;2.1166735024572607;114;1.2566370614359172
132;1.9477671954369589;-0.5758588277712505;-1.2203151891236204;1.1062604111463257;-0.7440423930235804;0.1890364628801348;13;1.0625418465855665
133;2.3050248757552563;0.4597693766677403;0.4742576516075963;0.0212703254257403;-1.184460609444293;0.4696411155447841;99;1.256637061435917
134;-0.9151799320171105;-0.3827521945579835;-0.7221050361803519;-2.429068810774788;0.0171963070970149;1.0784892563791235;128;1.256637061435917
135;1.1621093405846037;0.3757217495937419;1.0671642088473008;-1.5629855774211547;0.9289753774135762;2.28871747423058;61;1.256637061435917
136;0.904899596551887;0.0983646800161079;0.7347000938536096;-2.298319844462549;1.1967283853218946;0.2225918594592869;7;1.2566370614359172
137;2.535943033703783;-0.9608338929085511;-0.3462611025172594;1.553663557215864;-0.996270710073388;-0.0501723189987303;132;1.2566370614359172
138;1.6172277584020904;-1.1995505397948525;1.1488792991730707;1.1139183870588518;0.0681650037352047;1.0159759136855409;45;1.1861973399614083
139;2.7219673691636306;0.4115525680870159;0.3126315615581748;0.5137313759438626;-2.0240135719571595;-0.1857066887612859;133;1.2566370614359177
140;-2.418926222868344;-0.3588670676501778;-1.6958138240054823;0.7480476709905077;2.604170858532652;0.8617399399924575;106;1.256637061435917
141;2.1176068373599453;-0.9195451696146696;-0.6758537142988659;-1.2446971169636964;-1.5325477945856916;2.160972737479306;125;1.2566370614359172
142;-2.8133051626132057;0.1762482735501147;-0.49210993224172;0.3922936418701889;-2.3852512950269937;-0.5349939102612301;63;1.2566370614359177
143;2.2205032498275985;0.58158874911194;0.2841177601365344;-3.118420242096562;-1.0455873663146054;1.9774317126439205;123;1.256637061435917
144;1.6601328567411489;-0.1560536434508156;0.3883859908642835;2.6072513246706777;-0.3511398607180955;-2.883899894146452;51;1.2566370614359177
145;-1.979090628925468;0.9640096984886772;1.4226938791071606;-1.7354514200444435;-2.024742267585349;1.1299615845908422;101;1.2566370614359177
146;-1.3347408567579726;0.4605284131033602;0.7517247299661389;1.4157251666192308;1.991043997781092;-0.0329917685245162;72;1.2566370614359172
147;1.7376065252705908;0.1666510325048428;1.1588140091471792;2.602623632753124;-1.2611121835280985;-3.101536866665405;144;1.2566370614359177
148;0.6838986727339407;0.1776530741875831;-0.92599170966052;0.2718360743427057;0.102474406988982;1.4718905523283512;6;1.0786404537818666
149;-2.244180869399055;-0.2825945286788512;1.816202166173889;-3.0593500953134347;0.3037430601576945;1.0341881947493352;111;1.256637061435917
150;-2.5851604387139604;-0.1131737365057028;0.2996668475629284;-2.759194392838963;0.4152998193429704;1.8742210571911349;111;1.2566370614359172
151;0.0230928787313197;0.5645407764055422;1.3651537316281277;0.5491328777113671;-1.051807064815672;-2.5110410555771137;9;1.2566370614359177
152;1.8820213105599644;0.0131387608386686;-0.6592435406950137;-1.3459469183039336;-2.4598823239641407;-2.3913291660352365;110;1.2566370614359172
153;-0.2251383852480444;-0.4833661226497823;1.268819607793658;0.6375219178268444;-1.0193554641827276;2.1338604354729127;16;1.2566370614359177
154;0.4512510977005907;-0.1515562954677652;2.167586377301004;2.219482929700143;-1.1160144210069596;1.1308663446949796;97;1.2566370614359177
155;2.127002649189259;0.0213393660951132;-2.290629250892305;0.3206442268183531;-1.1852377113224968;1.1940187345629072;62;1.256637061435917
156;-2.184439775269694;-1.5484124478984973;1.7616892906597488;-2.522977446410832;-1.0568511953878077;-2.529762967994004;74;1.2080431985281794
157;0.133247332868943;-1.2722031241054217;-0.0957742429232374;-1.2802652057742403;-0.9986813821150594;-2.986001672055555;35;1.256637061435917
158;3.005933790293329;-0.7577293268738516;1.2711576486890186;-2.442910127208435;-1.31734184020852;-1.649497520561003;47;1.2566370614359172
159;-2.676141306230281;0.8615447902508699;-0.6915730986016788;-0.1660841276152808;-1.9275055660503164;-1.262722585172405;142;1.2566370614359172
160;-1.5857654693009418;0.3571048078303843;-1.9221344307811463;2.103930042386652;1.933262737799057;-2.251368355006146;38;1.2566370614359172
161;2.9949225998952347;-0.2425983539571999;1.213374011753586;0.8203773360773341;-2.425125897959;-0.2879755151867126;139;1.256637061435917
162;1.4691735685784086;0.7717690911404351;-1.3088266543811728;-0.4286381356954269;-2.477764795249106;0.8585838641921351;62;1.256637061435917
163;-1.8439673664127745;-0.5589495234246784;-0.4656421395951559;1.3481098421064912;-2.596187125812034;1.164174272445159;93;1.2566370614359172
164;-2.556525091314125;0.9586042955631384;-1.883513855448105;1.0843131268511192;1.3666396813879198;0.3476047118812514;27;1.2566370614359172
165;0.5878158549754362;-0.0626449850962796;-0.4609231300869946;1.1445460324268495;-1.5919303836225294;1.3760337047516222;18;1.256637061435917
166;-1.7717998116641134;0.8432802659000365;-0.5201560887354667;2.2402665131324624;0.2591579222475449;-0.5381433580399109;30;1.256637061435917
167;2.485290744277445;-0.2544433369767384;-0.5409854579466196;0.8491984501602423;-0.1087064169739276;0.6946802930447669;132;1.2566370614359172
168;-0.2369699365009773;0.5742452942552997;-1.963101324003082;-1.921202455552313;-0.9184942916101146;1.4399009159761855;128;1.256637061435917
169;0.8515925039372789;0.0163167851648458;-1.432338163779015;1.8519395797072595;2.383787768084145;-0.5485992276899039;78;1.256637061435917
170;0.0980702552505395;0.567990226347751;-1.7655010513762432;-0.8299411018683646;1.0333143217215168;-1.9720908936165176;112;1.2566370614359172
171;-1.6322950417958468;0.0103328631647863;-0.2895487113653819;-2.884107103945087;0.4858473206137172;-2.1438578944303845;113;1.2566370614359177
172;2.592434444889995;-0.494363932649221;1.409436709331393;-2.2224472010430403;-2.1044745707407038;-0.842347764475047;158;1.256637061435917
173;-1.8575035642000184;-0.5292234066411234;-1.8608095693012732;-2.1984343663793893;-2.007563356727502;2.017745554546299;130;1.2566370614359168
174;0.801673906566208;0.3072256344648651;1.465490224055306;-3.0438999374018203;-0.0299393319687531;0.3848346842025841;12;1.2566370614359172
175;0.9944937936982822;-0.0701898115323423;-1.2209199730224192;-0.0190191180362391;-0.3388680574803145;-1.104431438442883;75;0.9484891547900812
176;0.3176948988970882;-1.1290574781703036;-1.5003257920655493;1.7013885112937996;-0.4835461711768505;2.3833610116593507;18;1.256637061435917
177;-0.2471636952058621;-0.1981913324743715;1.922336360705644;0.5307559086575391;2.104252405921833;1.8125529895467447;115;1.2566370614359172
178;2.304580840926954;-0.4692828905887402;-1.1507579667222323;1.193746086351717;-2.074492518154266;-1.482367759891646;71;1.2566370614359172
179;-1.6898252617016296;-0.0751215973532651;-2.0435377616929755;-1.7649688376781714;-0.3571503438297067;2.4260155555032576;130;1.256637061435917
180;0.4590424347079214;0.9354701576479754;1.4026607797323671;0.6586024703854589;0.8861289237213764;-2.2529152812235496;90;1.2566370614359168
181;0.4550993654788117;1.0138298591143076;-1.2849632666816315;-0.0689818214471543;-1.5857843031135463;0.7999261911680527;46;1.2566370614359172
182;-0.7598213986425386;1.30634405501973;0.6624642862924385;2.649027543370056;1.04195149639921;2.3618082244414333;216;1.1794106075209905
183;1.0108349200094884;1.0033317297211817;-2.275957486578457;2.6692718241382525;1.448963448614217;-0.9848390622789543;78;1.256637061435917
184;-2.5084585692981234;-0.5796555344304574;-1.4243094921970485;1.6211321438096555;2.415404132158673;1.668430178063619;140;1.2566370614359172
185;0.8440807883892496;-0.0645702825255333;1.3507847940207487;1.537060402450642;1.463686445725597;1.1188680977992926;45;1.2566370614359172
186;-1.0360981626808412;-0.958695266206504;2.666158335573287;-1.2156802913159677;-1.0739031929348026;-1.608868951784145;58;1.2566370614359172
187;-0.7796128219435929;-0.399109508540281;1.013679871605335;1.4606929992092048;2.005789598295413;2.612274779592923;81;1.187249714254013
188;2.4944137763690684;-0.1170056642541748;1.9717882281065409;2.9501192801216938;-1.50623997251511;-2.8114499337013696;147;1.2566370614359172
189;-0.2248628392396914;-0.5913141825417314;1.171217878512269;2.3408831383833;1.4732238992134843;3.001205873230564;187;1.2566370614359177
190;-2.7502231108032262;0.1898923648707897;-1.8905318885140805;1.7968318023439116;0.3272173945720882;-1.5448464573773562;55;1.2566370614359172
191;-0.4934444540451002;0.720212039876919;-1.1712216693812638;2.057296551577827;-1.4207491766259694;-2.7853574279722024;94;1.256637061435917
192;2.1870280015785566;-0.2750234118252821;1.3529570932629034;-2.695751108377628;-1.792467788566841;1.315895354529877;123;1.2566370614359172
193;-0.8418095566911039;0.9767591802552203;0.911668627410836;1.3476714643774248;1.7116157572632185;1.7114901086067258;72;1.2467121800713477
194;1.900515085066239;-0.9910206938132448;0.8851485553370807;1.275215167252619;1.5333002658747938;2.1600363472192066;45;1.2566370614359172
195;0.5174970974326031;0.0552994844625992;1.1433487542622742;1.607319171837975;1.2081965492041389;2.972976156826215;189;1.2566370614359177
196;-2.3675987414673427;1.193051318236822;1.6854200927681116;-2.362479953095241;-0.6733238037856634;2.462851220997436;101;1.2566370614359172
197;2.4237733301592543;0.6313994945619692;-2.286894322409877;1.018302955652716;-0.5522219907507155;1.675100798919238;155;1.2566370614359172
198;1.674361976547565;-0.445632862511924;0.0231789849288705;-1.001899913822109;1.159314821375596;-3.1159121824632487;119;1.2566370614359172
199;2.963902894777865;-1.0006441920364193;1.4009137077108018;2.998725093948366;-1.303413361152014;-2.354831113855974;188;1.2566370614359177
200;0.3908354202513088;0.4823316183866965;0.352119773230515;1.8857427367373305;-1.2380371193397623;-1.3332130203161208;21;1.2566370614359177
201;-2.3560267907825274;1.0889096366144322;-1.2858759151759074;1.225658067860453;1.6637734272326563;-3.2527800259044937;86;1.256637061435917
202;-2.400723414127633;-0.5653636514118747;0.8085679077425052;1.271508609742107;-0.7294144641217158;-2.156934612215026;127;1.256637061435917
203;-2.1137214152630617;1.2728706143582835;-0.2937359183585913;1.1797001686355162;0.5731891806562704;-0.592876874163617;166;1.2566370614359172
204;-0.2287375727601144;-1.3219535585846034;1.8304524961120927;0.4605562555667129;-1.4772546716284454;2.6990814818577067;153;1.2566370614359168
205;-0.3284325982185695;0.1033258827230569;-1.2376791593140062;-2.06955764257813;0.3656306772020813;-0.3407623456771119;40;1.256637061435917
206;0.6966437836263955;0.4908615659355908;-0.9641930978131636;-1.7746105000047177;1.7122866806663106;-1.6745118596140067;112;1.2566370614359172
207;-2.1463508645304765;-0.5453526164528122;-0.5639927747221932;1.984791103369172;0.4443137744395254;-0.1110452963646557;30;1.2566370614359177
208;-0.7163270876121355;0.6089464337447412;-0.3153065547402089;-0.7547763559584607;0.743914026564347;0.1325528482845573;1;1.145955118316872
209;-0.6953590274786667;0.690920499451674;0.2803395741080585;-3.0956242250708077;1.4362503081778948;1.2767502618977906;42;1.1383072024388086
210;-2.459853075858901;-0.897906474231474;0.6493028278692954;2.412161392957322;-0.5442548205175956;-1.8339525273778408;202;1.2566370614359177
211;-1.8659704874003464;-1.2819047625698152;1.9493791555768385;1.7801961137754565;-0.3826101747383283;-0.4706316815151152;98;1.256637061435917
212;-0.0488953347722299;-0.0975373394841582;-2.1926706804105;-1.06610765740936;1.763859167068258;-2.5574681853296117;170;1.2566370614359172
213;0.5046581819836369;-1.34304835795813;0.3678842911205396;0.1823737061633029;0.2612194166941677;0.5198858135405154;2;1.256637061435917
214;-0.9711765239660112;1.067206638934302;-1.911288814543422;1.4075394028700925;2.287441234677768;-2.545736430823028;160;1.2566370614359177
215;-1.1179567303494966;0.912479430595811;-1.6454634631461107;2.632158528740722;-1.8442295054062572;-2.1392558796218206;191;1.2566370614359172
216;-0.3680828683732351;1.0431712660703991;1.071409360287777;1.675695797479921;0.8742431474141099;2.2019534879767004;193;1.1417932472399994
217;-2.4165142554519754;1.195795676165491;-0.0979845312247379;2.3692931907580213;-0.3721624116855407;0.1295173373162542;166;1.2566370614359172
218;-0.2124914138931257;-1.0052787268870973;2.3480812995226814;0.792664812728056;1.3331537452623543;-0.9232478415860156;29;1.2566370614359177
219;0.3332257431117057;0.972213052528046;1.6771055474054506;1.89326901917747;0.8307235350241933;3.414904629539242;195;1.256637061435917
220;-0.9980183253911096;-0.9251713759758894;2.0570914975906898;1.556419217105636;-0.9106662302152256;-1.350583951999067;98;0.8079381418150067
221;-0.8504674660461546;1.044746736638972;0.6591394156209315;0.6678753127991401;-0.7861060307326175;-1.2611628651729314;4;1.2566370614359177
222;1.025719817676569;0.2467426531403966;-2.2053557195886166;-0.901110737508958;0.8555000477512533;1.862036387917825;121;1.2566370614359177
223;1.7983214465602932;0.5937072793521552;-1.1567199168493336;-0.5304738289136608;-2.8662135357098726;-2.773363807419662;152;1.2520383768600467
224;0.8276971067736186;1.030923777951813;-1.5303507207947942;2.281658761671794;1.4036283753618444;-1.8995014700383024;183;1.2566370614359172
225;2.385795828639657;-0.305927456350424;1.053899888440656;-1.4016094251161733;0.511278256545486;2.2741055023990264;61;1.2566370614359172
226;1.159432213864572;-0.7692547729056746;1.3676378291490645;1.0900186689873517;-1.719531440400356;-2.3424516112327467;21;1.256637061435917
227;2.3009119904005035;0.3496496839265913;1.5786868831895893;-2.079119356978307;1.004584202706392;-1.7626700972022125;122;1.2566370614359172
228;-1.9493106694035665;-1.062582926802738;1.2706852827989628;2.4208548770234755;-1.4185251428062573;-2.2092184237224;210;1.2566370614359172
229;1.7770475495573217;-0.1726491042362245;-2.5338930581474166;2.6524748003110683;2.228573669345805;-0.124838633335642;78;1.2566370614359172
230;-1.0141181521295677;0.7777169042160874;-1.1560201559229326;2.6952479183108298;-0.0190190367872164;-1.096751486380232;166;1.256637061435917
231;-2.122504812752366;-0.940546883890478;-1.4947756346710923;-2.708334259902878;-2.083249621985619;1.0482008747926232;173;1.256637061435917
232;-2.583484448925089;-0.7785094082444388;0.1969695892974189;-2.094001809263712;0.9671354055396796;1.2586628350442313;150;1.256637061435917
233;-2.7016851589492394;-0.4925936611282183;0.0016189383609814;3.075241304066989;0.1608735912340919;-1.8338818765993423;210;1.2566370614359172
234;-2.3460927879293414;-0.308166856991258;-2.2982030348563813;-2.501080259996875;0.0215697810538854;1.8395036760513443;179;1.2566370614359172
235;2.759196584520152;-0.2741357676725803;2.014716194505604;-2.7329874243303816;-1.550461924814427;-2.4195790758208813;158;1.2566370614359172
236;0.3900263647344409;-0.8960084696487252;-0.1690048668522452;-1.4351525336429634;-1.7758129232200377;-1.2103626156915677;117;1.2566370614359172
237;-0.8437285488317918;1.2268066242666962;-1.8482404041045488;0.2362080803191676;2.1284810643548377;2.355847514805612;85;1.2566370614359172
238;2.8548778810172197;-0.93681192996549;-0.1200745746858468;-1.970053794221312;1.0384311895602094;-1.3590304893968814;53;1.2566370614359172
239;0.1674689571307795;0.0104086551671197;1.0898110402874015;-1.81361302391333;0.4972529996658532;2.7433187802779324;135;1.256637061435917
240;-2.9538210039580624;-0.8506044072615686;0.0242577580972705;2.819178048708493;1.1836498556010229;-2.358515397862341;233;1.2566370614359172
241;-0.3753771618592836;-1.1871738780961352;0.3765464732534621;1.0838183024016397;-0.3124273279099014;1.6138709820277235;16;1.2566370614359172
242;1.6528840461242078;-0.1147029077499713;1.1176607469471684;0.902165452418426;1.367692267594511;-2.387087556647129;65;1.2566370614359172
243;-2.5304886224840795;0.0342888721440643;0.6110495270903518;-1.4171937382092057;1.078681425724794;1.7818389310247025;232;1.2566370614359172
244;-0.4158829955572023;1.3076106200076545;0.0160952646339506;0.4013632160034832;-0.0435795891654084;-1.7952935858032106;221;1.256637061435917
245;2.6802549255849177;-0.1585127710688168;1.5207246983333482;-1.4899145988052986;0.7554725296485517;2.995499724475794;225;0.9561385478601904
246;-1.941281036607811;1.0468162181441218;-0.2350441476072177;2.8915469624496555;-0.4076441918091394;-0.2924492367794836;166;1.0395174229580986
247;-2.471737550074571;0.8047195364029011;0.2857760017069378;-2.8366481518465827;-0.0369783760807504;2.5904586473924445;150;1.2566370614359172
248;-0.4744587835774864;1.137537729552213;-2.0576475392694107;-1.2412481356256675;-1.1443136237231857;2.266439571612902;168;1.2566370614359177
249;0.1625480995226091;0.0259685562686374;-0.7987246803580396;-0.9475390511844084;0.865422450853017;-1.420259115453301;170;1.2566370614359172
250;0.7201214603965908;-0.542409219543098;0.5101534248325583;-0.4881614680480406;0.9731915144137856;-2.5356881098947133;119;1.1040787207514209
251;2.48040061557417;0.6065809150097413;-1.0554635324563617;-2.235203636618536;-1.668751860549967;-1.26457467867596;126;1.256637061435917
252;2.501824096837088;0.6040014521461519;-0.9164696017353884;3.0660669416280584;0.1646288492741724;2.5240117194571905;59;1.256637061435917
253;2.318977768191985;0.7488764374766789;0.5752029859524028;0.989959667030302;1.1578996813740987;-2.178029200492001;242;1.2566370614359177
254;1.8480764046205067;-0.999932160214186;1.7445925267228808;1.1078228043094804;1.5260137807417766;-2.932066192499744;242;1.256637061435917
255;1.6081838161674082;-0.0720336542328713;-0.4904461776344;1.18471436626046;-2.7028983240685;-1.157754382761048;178;1.2566370614359172
256;-1.208367627778165;0.8949327147734247;0.7005806694731214;1.1592729528233243;2.8610176899246413;2.1666524188911325;81;1.0772607343408822
257;2.1847666986138257;0.8564279423033834;2.304518596207404;-1.4768478649047148;0.4476770208084221;-1.432345200819567;227;1.256637061435917
258;-0.1594076942436466;1.0404622842701312;-1.6826560361636194;1.4745951637606145;0.3892959432436824;0.7601416868044931;20;1.2566370614359172
259;-2.5439538749027104;-1.009944036109155;-1.2155188391891718;0.2138416656099351;0.9628943923358212;-2.5739717073521877;108;1.256637061435917
260;-1.877168459446345;1.296892223649013;-1.8011120965032168;0.4236630701081685;2.7663025903827885;2.6049457172152706;237;1.256637061435917
261;2.4831237105215824;-0.7410717156227619;-1.5800814083735066;1.255558477370534;0.2710236238624759;-0.0993281394724095;132;1.2566370614359172
262;3.0095937403335453;0.3171510810214229;0.9507598300992056;-2.2067987780985354;1.3422715138566008;2.7479100969078307;245;1.2566370614359177
263;2.7640820473515864;-0.1150310614658373;-1.9829524207227616;0.8197023847679938;0.0588084753681906;-0.9425133867237268;261;1.2566370614359177
264;1.5760866180174324;-0.7715909334635341;0.981151630316246;-2.7951098939037085;-1.7422914630300794;2.2151611062952803;192;1.2566370614359172
265;2.873338325288997;0.5889342406331778;1.4559210296269671;1.3119622343678048;0.552836337268882;-2.149957963031123;253;1.2566370614359177
266;2.943398612396397;-0.8014668121805266;1.9259116237198688;2.8631810190727727;-1.7749283017753728;-1.34353328302014;199;1.2566370614359172
267;-2.0808983471272184;1.0567911285962217;-0.1336441752359;-2.244232094813373;0.8486140941567013;-3.16524692658874;113;1.2566370614359172
268;2.5851867181950228;1.3076318589565654;-0.925734510009478;-0.5281569990253361;-2.599904064357149;-2.20239000530585;223;1.256637061435917
269;1.9116718132418735;0.3406525341160659;1.585294910796633;-2.2742918217596126;-2.049497379078823;-0.2244400202010497;172;1.256637061435917
270;2.561099576377365;-0.7486333242191661;-0.0232251584936219;2.202333929688999;-0.2405272296604504;-3.1496591969728125;144;1.256637061435917
271;2.643225799905423;-0.9632383913601472;-0.8207077314813467;-1.5451569330132506;-2.2333890333277298;1.32520058941232;141;1.2566370614359172
272;-1.577251410991523;1.219580816043008;-0.0625158577956307;0.5149213294336066;-1.2484360163960408;-0.7488889385457489;221;1.2566370614359177
273;-2.6416329308131825;-0.9404130228425118;-1.0404814461644136;-2.4312155035321736;-1.968401949171392;0.0415854166856463;231;1.256637061435917
274;-1.1910685101178689;1.2742815577971496;0.0277843629260596;0.5220382787857953;2.963037678746516;2.615000446248035;256;1.1019762864183562
275;2.8542518170648816;0.2955437360179909;-2.024734841565066;1.2388793374298377;0.9387840372791636;-1.613797510311063;263;1.256637061435917
276;0.8022398158317812;-1.1169108179440426;0.6312715252938212;-1.7378064339140713;1.758449282288452;-2.705718457624008;119;1.2566370614359172
277;-1.4911193012424706;0.8003161279211066;-2.185077943604905;0.8192933565382179;1.4136049802943615;2.472603634442164;237;1.2566370614359172
278;-1.4995466804445772;-0.0771876271657146;1.1954561700101878;2.1445264589840187;-0.7739613277098217;-0.3581861259310226;98;1.2566370614359177
279;-2.5780172644192803;-0.701696680098493;-1.0730999921726907;0.0238942500017568;2.5420510741058147;-2.0354664370792785;108;1.2566370614359177
280;-1.6896155150115937;0.7815411524232435;1.203746945870288;1.8749218151628255;0.0784399396572412;-0.2791158795484383;278;1.2566370614359177
281;0.1990911017183596;0.4115196477429163;0.9600019233358452;-2.852817292764008;-0.9557588001108024;1.1959818498871877;12;1.1022936537007677
282;1.0839813092203547;-0.3693075673025415;0.096070795857934;0.7535494960818724;-2.414284393385929;1.6915142342864284;165;1.2566370614359172
283;-2.3163574445705306;-0.9385609329057144;-1.2031602646117656;2.5028703057739228;0.7652068681383785;-0.8957160356623245;207;1.256637061435917
284;0.5224757484656086;-0.2123308005211325;1.595773445705331;0.6312157980589153;-2.4465558921613133;-2.0738471306815622;226;1.2566370614359177
285;-1.0655041022083125;0.6137838587766458;-1.1692487980659183;2.855911691382171;-0.645343038157824;-2.824252055690589;191;1.2566370614359172
286;-2.234132083484889;-0.0410148770756513;-0.2737503471891619;0.0613009286895113;2.103742302401085;-2.473536691448881;279;1.256637061435917
287;2.211902989439465;-1.006057768822194;1.8040367299877564;-2.4108794749793745;0.0925280077806671;-0.6208320202964157;43;1.2566370614359172
288;-0.3409049334500562;1.1450283522996485;-1.9119740004396288;-2.8677561025904548;-1.4134638159655304;1.7544931619970383;168;1.2566370614359177
289;2.7529048927841595;-1.4165461189174653;1.1101121415968307;0.667831044113214;1.9778585852925987;1.9269264055296085;194;1.2566370614359172
290;-1.6762807178763062;0.01753300784893;1.191247374758024;-2.1072819035505543;-0.4530115307027329;1.597186426267642;101;0.8954721342760722
291;3.3451738920110534;0.0397271440588044;0.0255925956814873;-1.8585110860317025;0.7195821303721193;2.9046832731367567;262;1.2566370614359172
292;1.6445687913050753;1.2769801698279313;-2.556148994995061;0.8952346872339672;-0.9436141719945392;2.2357886493201047;197;1.2566370614359172
293;-1.5150163102071592;-0.8211651569265617;0.4780411857080725;1.1600190603858334;-2.7189231928149296;0.4850642919738614;163;1.2566370614359172
294;-1.4850076955559164;0.6796125466826597;1.3326883116100192;-0.8043374627121828;-0.0895282991522205;0.0816546550093456;84;1.2566370614359172
295;0.0205182636351987;1.3490430996571008;-1.672675358827365;0.5029585397461405;-2.191029358492989;1.4588268158758184;181;1.2566370614359172
296;-0.6379187652443813;0.5845746208476179;1.0273425821725788;-0.3361459839117289;1.5298242104802566;-0.0717225721883354;84;1.2566370614359172
297;3.396489712386848;0.8692146959039005;-0.0613232720496127;-0.9732840412458256;1.011664565846507;3.014046676938265;291;1.2566370614359172
298;1.2571780873058638;-0.2957839045222373;0.3083229532641547;-0.4504330668995122;2.6863213551855174;-3.0186915047312626;119;1.2566370614359177
299;0.7194660066313571;0.1124773987321898;-0.4281905082258526;-0.4656209954781785;2.2251907575967125;1.1546451258147707;104;1.256637061435917
300;-2.1261355876900403;-0.4442943525747209;1.6964184303882472;0.9323856151567416;1.6637690255676132;2.72239100885153;91;1.2566370614359172
301;-2.041529518371557;0.7513052984816861;-1.7940536639679716;2.723755397918116;-1.6655970763987291;-1.926359043855029;215;0.9933113495946816
302;0.3300830106184373;-0.1772716322531039;2.616866534881797;2.423015951863545;-1.2542503584281786;1.0324574029155915;154;0.5361108366716569
303;-2.1204423243119224;-0.4570792874863903;0.5194014848144927;-0.736438492709827;0.4553737746171963;-1.1736601644472824;36;1.2566370614359177
304;2.561772841580966;-1.0578021810826963;1.6157416726037197;0.5365526796502866;-2.08018309304695;0.3166061604634794;161;1.256637061435917
305;2.272583570414492;1.0736056732828712;0.8807742582769368;-0.7624391136245324;-1.6376976739152502;0.0044430997760098;133;1.256637061435917
306;-2.6081172565270565;-1.4976112302122924;2.051073781595471;-0.8410439616746386;-0.9366260505111208;-0.5358196440714993;58;1.256637061435917
307;2.4032314681012243;-0.3834797249283704;-0.2320192279300388;1.105278977124323;-0.9728662109956424;1.499629404956578;167;1.2566370614359172
308;-0.6878033348129806;0.5151717931470313;-1.9549073046804477;-0.6784023240448585;1.8070264968623428;-2.3387772212798863;170;1.1884086878159712
309;-0.6065949015961027;-0.0249265392973152;0.9301366621803668;1.8320345169693173;1.1240574819503126;2.1128152243711065;216;1.145632364261743
310;2.8702604935101617;1.1064032087498343;-1.5270201025532348;-1.402219060832468;-0.5486530867174906;-1.3951583237218783;126;1.2566370614359172
311;-2.5917151698524368;1.4871396597612088;-1.418939106325448;1.348864604546058;2.1100752430970062;0.9986584825059704;164;1.2421644824123896
312;3.097579892124465;0.048427802680493;-2.1325319889571723;-0.05708149640666;-0.852678498955666;0.5955910945539749;155;1.2566370614359177
313;-1.8747695027800573;1.007528435491482;-0.2834164684355771;2.367269281471457;0.707651015906713;-1.6643027959642978;166;1.2566370614359172
314;2.026972546444864;-1.1093312118383407;-0.0659295057220635;2.185529915939467;0.8357764930750349;-3.2062835222427863;270;1.2566370614359172
315;1.754259590451126;0.0749317115898871;-1.5464139724149355;0.7779588294985151;1.6994931964997366;2.981360198892945;79;1.2566370614359177
316;-3.334608437591379;-0.6250918367965212;-1.517911060794812;0.5520381076480213;-1.4361386063755903;1.192315093853503;87;1.2566370614359172
317;-2.475046089528944;0.8743855320743623;1.2420810830809774;-2.8247374653642403;-0.8653899309512018;0.8711892940280528;44;1.252267553394759
318;-2.511535984477772;-0.8096175770396505;-1.413574860134641;-0.0724162798046439;-2.4619878308061054;0.0523576707836359;63;1.2566370614359177
319;1.5336497450401767;0.1088596524646161;-0.3517328064147561;2.8744883755245265;-1.097408863340709;2.634117034114809;59;1.256637061435917
320;2.678793581743414;-0.2863379076107449;0.4257162488441584;2.940629949344542;-0.5386671061889329;2.357226400062606;59;1.256637061435917
321;3.1428873062477924;1.0226104027117644;-2.0643453398725917;-1.0571300966903308;0.4953703108018749;-1.3958158997328591;310;1.2566370614359177
322;-2.566286765313168;1.2292801357097909;-0.5579345611523528;1.0998509162881116;2.7379360391598486;1.5594193435614154;311;1.2566370614359177
323;-2.3132178623739983;-0.8837826679114928;1.0976609781722433;2.8882350505896897;1.175402542843777;-2.25540302400105;240;1.2566370614359172
324;1.0983446624960134;0.2144108318575555;-1.457682506219033;-2.376045788976601;0.9749558140537974;-1.2358376184869917;206;1.2566370614359172
325;-2.75234926765262;-0.3669635064049867;2.3511128338531413;-0.3111031014587398;0.0777738222629407;-1.3986560649224602;39;1.2566370614359172
326;2.3044854824985146;0.1754338515053071;1.7047629521332832;-2.6479553290926923;-1.1852511266134385;2.247380633456032;192;1.2566370614359177
327;2.428306720945712;0.5001929377812543;0.5763194579214742;-1.1915127095908846;-1.5153034927546902;-2.587330916076225;77;1.2566370614359172
328;-0.2302779642684154;-0.196755200208521;-0.279624668376686;0.3739961965798971;-1.9301906423126332;1.7644117073991314;165;1.2566370614359172
329;2.339853726991076;-0.9710024435061144;0.4396882384576877;3.101603410771192;0.0034112862990828;1.5353174653611346;320;1.256637061435917
330;-1.6450770294852433;1.6256562130128864;-2.1534578228316823;0.8298732139296612;1.626370071635634;0.0339622661619359;164;1.2566370614359172
331;-0.7260569480169456;0.0382948991646704;0.906434245632188;-2.0020540793540054;-0.7569803850474596;-2.1228964204215908;35;1.2566370614359172
332;1.7603257776085366;0.734152562907266;-2.327594105963234;0.961358246556018;-0.6938458622832435;0.6618201648809855;155;1.2566370614359172
333;0.757170058330299;0.1966949876791775;-0.4782929202075662;1.4985254000525663;-0.0122836009811811;-2.356263033231286;51;1.2566370614359177
334;0.1287984527646475;0.4147678197214847;0.934326534771432;-2.336392956744655;-1.1426031390191629;-1.4555421555013206;331;1.256637061435917
335;1.6589896146205052;-0.4367119518711475;-2.25203409136294;2.2998320621618964;0.6107751628645818;1.59367413495229;23;1.1115759423954543
336;-3.061167411240925;-0.35063635802547;-0.8418780196322855;0.5776179065868005;2.9721885165430164;-2.858489876741055;279;1.2566370614359172
337;1.0095581859292788;0.2083468289726246;-2.729483289034145;1.3732173996434534;-1.3692780298508942;1.3166405419654323;88;1.2566370614359172
338;2.1272075241685084;-0.0726228387873649;0.8515174586831393;1.4831439394175323;0.2571228092400585;-2.137608327657067;265;1.2151439415059608
339;-2.365473605169772;-0.2755064392255107;-0.7736621649509109;0.6309464295322083;-2.291330448325847;2.052233412646957;93;1.2566370614359172
340;-0.981813667164693;1.4580228126422816;-2.2980596822066337;1.546734132912952;1.2152635821533406;-2.8739962032741686;214;1.2566370614359172
341;0.0508724439180508;-0.3008568599867492;-1.9113658270726008;-1.3344883848677171;2.7751622726701264;-1.9625314993624552;212;1.256637061435917
342;2.241191857054454;-0.0831168208296389;2.390809242678234;-2.21540130127271;-1.7887069999920473;2.9447762744796027;326;1.2566370614359177
343;-2.3019209790496924;-1.1282285020755545;0.146724240489328;-1.2340324460158607;-0.1666862125709955;-1.7413874188046157;303;1.2566370614359177
344;-2.5618021453280795;-0.597063788861388;-0.9142893476543066;1.6337752946913349;1.2965686658469375;1.9212441847319417;184;1.256637061435917
345;-0.0753924713618055;-1.1166358196661526;2.1079793173123766;1.2746818548814938;2.254756725894244;1.50344070631105;177;1.2566370614359172
346;-1.958362745842948;1.062802833979584;0.5696120706612848;0.5755683991516896;0.9210809420948872;-1.121552855210504;203;1.2566370614359172
347;-2.711161859045569;1.2263330903503749;0.5510582061814377;2.6248578281495223;-0.7648288115448457;1.0518135477402877;217;1.2566370614359177
348;-2.018705252068452;0.3467695038509522;-0.190321804726338;-2.687284218323128;-0.4441678696854886;-1.508939979356153;171;1.2566370614359172
349;-2.211671513586352;-1.3728524216205602;-1.5967182171075078;2.91213989356974;1.5516101690025792;-1.558097235411232;283;1.256637061435917
350;0.7874446131748782;-0.2588405443877564;-0.9278544216040656;-1.5209188412758547;1.9336651388551225;-1.8241676561059723;206;0.8410608070412651
351;-3.106696077203253;-1.2278075792837992;1.222738109773058;0.6583925640111703;-0.7303537719787133;-1.8495940494710008;202;1.2566370614359177
352;-2.007471392099528;0.6024578246238042;-0.1058269066115821;1.026366388600129;2.740528415074308;2.988586746712952;274;1.256637061435917
353;-1.9959591225666125;-0.2004938213090416;-2.5460349442637424;2.143943040777914;2.2550331358237337;0.1270240184210948;27;1.2566370614359172
354;-2.850214575887425;0.8124418471215611;-1.308810323121491;0.8324770265053245;-2.14475120916651;-1.6107488236037102;159;1.2566370614359177
355;0.7814841479739111;0.3623877614511259;2.193944781881106;-0.2923225782573224;-1.1396037472221976;-0.3810776357139373;105;1.2566370614359177
356;-0.5490152624272597;-0.2305066422288518;1.171902464043088;-0.1265009723947276;-1.694033032417497;2.735515507046088;153;1.2566370614359172
357;1.1228680457515128;-0.3770674736582483;2.191304272111379;0.1554017225017403;0.2120203886830883;-3.257706985491751;90;1.256637061435917
358;-0.9102679045010308;0.7312293063926103;2.068091474297014;1.1437162868732214;2.531817787337375;0.7962719016278497;115;1.2566370614359172
359;0.8257440201918829;0.8866299458674909;-1.2644322826896666;-2.9946394509559706;0.2141385620348958;-1.003242695402719;324;1.2566370614359172
360;-1.3352484194900698;-1.003684209824983;1.7209095181577454;2.608303930859133;0.1457650953684373;-0.9211011664303456;211;1.256637061435917
361;-0.5994886963831376;-1.045679811054683;2.2000430387631256;0.1649666590045292;-2.360559866268604;2.098120019498294;204;1.2566370614359172
362;2.7230539902877564;0.4916644308237901;-2.1821850317040807;0.7031494894647325;1.7946203340716351;-2.306045809846113;275;1.256637061435917
363;-1.0006467254133056;0.5797613245494996;-2.1024071888341886;-2.00823587399263;-0.6117351818020444;-0.0978695033859624;128;1.2566370614359172
364;1.7541075932453816;1.253026827805212;-2.1288573409222016;-1.6025542871622775;-0.410559416150637;1.299687797827555;60;1.2566370614359172
365;3.333462051841024;0.1503050223230746;-2.546087036985135;-0.2537379784626662;-1.1520989623778914;-0.506118113640099;312;1.2566370614359177
366;2.629237535756793;0.9779915398819838;-1.028320097322078;-0.6762010448708076;-2.578245234632812;1.0605565272245936;162;1.256637061435917
367;-2.24259608814436;-1.5257562370314046;1.571539046366897;2.3383708982901896;0.4139711990214632;0.0669203589651817;211;1.2566370614359172
368;-2.52519806984316;-1.5115259862085493;0.9526789096298942;1.5631544364089822;0.4013651167160579;0.7845295695741826;367;1.2566370614359172
369;-0.7011462631535511;1.2670182634891878;0.6648148838962403;2.919647672449824;0.9333938210647303;0.1019615861665237;109;1.2566370614359172
370;1.4113626731442217;-1.205449713423118;-0.2777987923743865;-1.6817942767612355;-0.912877651438574;2.675872477463576;141;1.2566370614359172
371;2.649683276318279;0.1683224037111577;1.066731412282626;2.2624174077069448;-0.9685478720992304;2.919279005526569;320;1.2566370614359172
372;2.159881134474633;-1.021420088161492;0.0182491655152179;1.2496943692756717;-2.98313227266762;-1.3363817976160806;255;1.2566370614359172
373;2.9043406336777515;-0.8079844220115732;0.0132640131439679;2.838748266668201;0.629284287799299;1.0480854656357308;329;1.106915907118424
374;3.4315775394956587;0.1357287807251158;-0.8786207521741451;-1.4990901405318602;0.7495210401749239;2.850530599191805;291;0.983512048457523
375;2.813365606273712;-0.7052566559868823;1.8965222905200507;-1.420161231758413;-2.4167079688315143;-1.554699889867373;172;1.2566370614359172
376;-2.133416277216266;-0.2072099051556232;1.1097771632071995;1.8782148435927144;2.2855947404082837;0.2249257163802801;146;1.2566370614359177
377;1.0957699994042038;-1.021235837355858;-0.2126804759077908;0.4029134181230301;2.7881873542658613;-3.148237434826723;298;1.256637061435917
378;-1.974915392299732;0.791679917306384;-1.9169114995944287;-2.6069547708577434;-0.6490061058736946;2.552239095579257;130;1.256637061435917
379;2.075861505721968;0.3727322857592392;-0.6474298748583815;0.2502594906483598;1.3955999646835848;2.9572672088119583;315;1.1711889438850756
380;-0.4957338680949141;-0.1906649281966752;-2.4771524488148486;-2.3186979727961687;0.0771471704043733;-0.2366624423830112;363;1.2566370614359172
381;-2.2256213549511124;-0.1239807987899616;0.7669504440495145;0.536626513490588;2.0059967439961186;0.4887476081089219;72;1.2566370614359172
382;-2.659474910952313;0.3312386304621475;-0.2391535511235649;-1.6772925296964964;0.5103925038764818;1.1811134293492414;243;1.2566370614359172
383;-2.912876018007501;-0.9384319463605902;-1.5238462029333786;2.4528548441811755;0.9886255805525864;1.471720204113588;344;1.256637061435917
384;2.424549164224042;1.1872290265943055;-2.407300532492812;1.085337633795406;-1.6396509871197384;1.413000612097206;197;1.256637061435917
385;-0.4512391520560248;0.879232567461365;-1.5647582804973172;-0.3214268299030122;-1.0122249218926085;2.9031636210236327;248;1.256637061435917
386;2.161577265159647;0.6880750287929817;-2.35427749933866;1.7117548665551894;1.0209683138367038;-2.3924463200181223;275;1.2566370614359172
387;0.0034255312213162;-0.002101643467292;1.227064087744168;0.2967111784594527;0.4016170912594463;-2.895187708130034;19;1.1144503672402326
388;0.753384753528622;-1.2433250941132112;-0.2945597918827953;0.8906847676207478;-1.891358525814518;-2.347189946239764;71;1.2566370614359172
389;-2.62168074350749;1.2172051386098912;-1.6740277539995034;0.305518194715879;2.279488615140882;-2.91266163917699;201;1.2566370614359177
390;-1.5508208996621151;-0.7011440011379058;1.6168422141153946;-2.482079199764617;-1.0572801240988845;2.1973158968318987;290;1.256637061435917
391;-2.630644894608193;-0.8115160096709747;-0.9035818163248586;0.7218913237798;0.4621983897146962;1.897019410013937;344;1.256637061435917
392;-0.4616778035240079;-0.71875761782024;1.5506640357797736;-0.0304606429696266;1.4877415207521727;-0.6107717420320091;218;1.2566370614359172
393;-3.249923747989845;-1.2190916947539026;0.3371670997055837;1.867256157518809;1.5448361810174722;-1.888245386647553;240;1.256637061435917
394;2.2600646120687915;0.9701338831881416;1.019490704968918;-2.582630563567296;1.16050716266196;-2.538512661119574;227;1.2566370614359172
395;-0.4081571435572492;-0.7882963045137059;-0.9299409168361512;-0.0933496021669703;1.4536132733037588;-0.2748877100130995;1;1.2566370614359172
396;-1.5494543362308653;1.519690079838753;-2.127930315632974;0.4998167593543607;1.3005072651328329;-1.1249116259577887;330;1.2566370614359172
397;-0.7886349437888587;0.0957907544234267;0.3191137037877346;2.148810726132542;2.4036426614857027;3.081224465313362;187;1.2566370614359172
398;-3.045305407465733;0.5232269341806967;0.8711927151012261;-2.1389928945358685;0.1947615239818608;1.0703691983975792;111;1.1086897927113073
399;-2.9776468576796424;0.4406900643590015;-0.7634285483093284;0.0002327786861862;-1.5503972175477323;-2.3285917989267317;159;1.2566370614359172
400;-2.494046863647517;-1.4310238529065704;2.044161234850434;2.818664422457336;1.7539571266124216;-2.362810879056378;323;1.2566370614359172
401;0.9314115280998736;0.8647452127746486;0.0271828282125187;2.275004855214169;-1.4338630138871749;2.464046727367812;319;1.256637061435917
402;-0.9633834649411154;0.1970364993895036;2.0361482304309524;0.3676521515840788;2.0813711157790573;0.1000281443625989;358;1.2566370614359172
403;1.1101394920061642;-1.1234798587840216;1.0178507254409617;-2.1254635841982084;0.6433681174943645;2.067516334521984;61;1.2566370614359177
404;2.6934885890137785;-1.1625151571342518;1.464003700763191;-0.4802921296963799;-1.4122579024659458;0.0982005284556665;304;1.2566370614359172
405;0.3966341849070676;-1.511631803928172;-0.0558808374993637;-1.93048416603926;-0.9626747340380571;2.0909439881354;370;1.2566370614359177
406;0.7254273183175398;-0.6725550520086317;2.0705731344174967;-0.320339897496368;1.287508924293072;-2.792806168618601;65;1.256637061435917
407;2.358305810438271;-0.4606154025572793;2.276101549843491;-2.8388437873975776;-0.6692829959648993;-2.3870951678223085;235;1.0259373516374637
408;2.9760099850829365;-0.1945133160467526;1.8207466601594613;-1.7802924048848396;-2.487222868773587;3.1014744719959744;342;1.2566370614359177
409;-2.445494691705167;-0.9210720888925528;-1.1760295801889658;0.0260661457185548;2.936617548419668;1.4620753047320896;140;1.256637061435917
410;0.1767197938613801;-1.2506793754146208;1.571212772552206;1.482618526583274;1.6791277360785446;3.2111944115644047;189;1.2566370614359172
411;1.630417984216356;-1.3432479905784005;0.8235841708498174;0.246148807356914;-1.8100896774321815;-2.449826531930576;226;1.256637061435917
412;-2.5867482854339108;-1.2847208976021216;1.1056876612662507;2.2809221153104446;0.4868856316642864;1.7734642739340516;368;1.256637061435917
413;-2.791877576731686;0.4658016579589986;-0.9763829753878188;-2.3325665271084737;-0.909277642849889;-1.593371615975138;348;1.2566370614359177
414;-2.664888295866944;-0.7881483754892227;-1.289320957901532;1.1439177714886828;-2.3286478958758847;-0.7201803587192274;63;1.2566370614359177
415;-1.347202831439298;-0.4522698673477745;1.4847413886821934;-2.792732873101628;-1.8949129641950229;3.009813862584602;390;1.256637061435917
416;2.102546294754044;-1.489947420825039;0.7665605252952865;-2.4584969812196555;1.1555228825578432;1.9138724071847293;403;1.2566370614359172
417;1.0669983899305544;1.6949446002918664;-2.5156279009325164;-0.0221400863602569;-0.7068479184768774;2.650008611902141;292;1.256637061435917
418;3.158749696073051;1.3181551429377414;-1.6188375191988067;-0.337276771054584;-0.2970967097051555;-1.7790500161505514;310;1.2170664988059792
419;0.7770299394927294;-0.8717503310457677;1.5931515323122;-1.8617100650316705;-1.4253002286539054;0.3068895500815858;11;1.2566370614359172
420;-0.7685918686070218;-0.2991479215128201;-0.4527279242435814;-0.147154623659957;-1.389071226571404;-3.0535547496784767;102;1.256637061435917
421;1.941771102835519;-0.546642843040216;-0.5067101763507961;-1.605750446735746;-0.8470646636150375;-0.6272231435169959;8;1.2566370614359172
422;-2.868557622921686;0.7940379383836493;1.026548600048104;-0.7397911386036058;1.208560161615941;2.2709658714477703;243;1.2566370614359177
423;1.3641165838106242;0.7445926663561773;-0.3049718108220653;-0.3725750254677469;2.585760143973413;-3.32367109984422;298;1.2566370614359172
424;1.9607671333975236;0.9137344283029536;-2.473105931131204;2.5287143274773065;0.1354246931741156;-2.541306554735574;386;1.2566370614359177
425;-2.9227056563854683;1.0155028707513214;0.5894691834408965;-2.146856267911799;-1.4187692676194954;0.4623254860943757;317;1.256637061435917
426;-2.775116972177605;0.4758285869105626;0.1817107589180792;-0.8276727671461163;0.7959171378273958;-1.3783360205943298;303;1.2566370614359177
427;0.2115461233181018;1.3984465529171406;-0.5963322115824143;2.255377449997464;1.2878740285183004;-1.4776705466399969;224;1.2566370614359172
428;2.653367465401748;-0.3515619618312187;-2.4013722734765497;2.907355671016409;0.2193371469866175;1.3974897191107407;335;1.256637061435917
429;-3.270653662716662;-1.2167031818828082;1.0991278501075543;3.0019154116331026;0.1440676939882801;2.08671243265558;412;1.0990340697755652
430;3.062944540441177;-1.4064387197173889;-0.0871437934848829;-2.6459620083940845;-1.2232947979856177;-2.7181587449349665;76;1.256637061435917
431;0.6455836446835291;1.118675158747194;-0.1377150824028046;-1.11681137073964;2.439830309412964;1.2367983574247756;299;1.2566370614359172
432;-0.9628995912543444;-0.8040214897776512;2.0357311163132903;0.5074921140139256;-0.6824493315720751;1.6718447553836255;153;1.2566370614359172
433;2.6970078271779947;0.8949247747200944;1.7114313212409475;2.446462245043323;-1.0805814241771508;-2.9184443901873744;188;1.2566370614359172
434;0.758302146039868;-0.7343545908166302;-1.758806820334276;1.2789166671162735;2.72258931936865;0.1275683294730442;169;1.2566370614359172
435;-2.0272753986502723;-0.6632022442586569;0.4356945178271423;-1.5515542991638882;1.5158357727434608;2.545499899440024;243;1.2501206115867494
436;1.6630355461024138;-1.0106017866734678;0.5482197312777877;-2.1650890175778974;-1.5037985834169667;0.2585491378339088;11;1.2566370614359177
437;-1.9012556278819972;-1.007559816505906;1.6403890010130433;1.779264156843288;0.3543329174724051;-1.6134944090470325;360;1.239789748182612
438;1.8605169034807625;-0.4059362178155905;-2.5138048670205904;3.0203704936542755;0.3423273644903564;0.4451094908964548;428;1.2566370614359172
439;-1.144711401808886;0.9066073647356828;-1.2950168716995722;-1.2418972739158187;2.08066960119066;2.044091026171809;85;1.2566370614359177
440;-0.4643406687654866;0.1098163757075133;2.28995673959164;2.74827064566679;-1.7844054204194784;1.6422796537731017;302;1.256637061435917
441;-2.744383800248245;-1.1376497283749891;1.2844188829824108;2.97413433443158;0.894133716304395;-2.923582457652227;323;0.9045361577528196
442;1.529878707210142;-0.4069978009494724;0.9306316411400314;1.2321385634383295;-2.914388520951111;2.142344826248703;282;1.2566370614359177
443;1.95028361576542;0.2419593505495679;-1.5763345632905983;-0.2443915215852877;2.374922031632107;2.878825033951159;315;1.2566370614359177
444;-2.343122001637071;-1.1941330975052014;-1.1098326471233584;-1.9292208730124816;-2.4691206116105846;2.245186092271437;173;1.2566370614359172
445;0.9901776875845588;0.2201214753282326;-2.189261809267127;-1.4160953727598828;-1.3182602813974162;0.2927350709363413;46;1.2566370614359177
446;-2.7932362785241263;0.8340460488034007;-1.5777865265762925;-0.992528822787062;-2.2002897729219058;-1.4106177955003516;159;1.2566370614359172
447;1.0513502450152146;-0.6799354836706636;-0.2652809966378304;-1.396779485970415;3.0553041708117017;-3.187385942372635;298;1.2566370614359172
448;-2.499170679961006;1.5863204727083704;0.3797505170045303;0.6431119114999473;2.6921768377096247;0.9617600725658833;322;1.2566370614359172
449;-0.3967744456840771;-0.716942581909537;-2.0097136071603536;-2.681049766262873;-0.4348038209813888;-1.0615768970970725;380;1.2566370614359177
450;3.207722777660641;-1.4931382070113794;0.5469872006129362;0.8188067490993256;1.3056239896209083;2.6579751580830795;495;1.1516854566850738
451;-0.7867156595350083;1.419802304127852;-0.933421429070465;0.4075967402885777;0.0224623324416643;1.074008268814402;54;1.2566370614359172
452;2.629108737875163;1.591157601537424;-1.2897585073795137;-0.1683296451292745;0.539437183598188;-2.401514260222785;418;1.2566370614359177
453;-3.27841261231138;-1.3836913670000843;1.1717301127640525;3.320262713889865;-0.3631473748005531;0.9970756906615972;429;1.2566370614359172
454;2.596726551051192;1.5245777325928416;0.2224203244482304;-0.8287132448646524;-2.822303520801682;-1.9305758678595295;268;1.2566370614359172
455;-1.912784325705724;-0.6773313129607248;2.1023496925752334;-0.0465461093955278;1.1414287730567445;3.0111553901892085;300;1.2566370614359172
456;-1.1683093280073562;-0.1361006104017808;-0.1400911833397113;1.7183486058910278;1.2565778171203337;2.387369711335007;309;1.256637061435917
457;2.1018524340568;0.0836230553655582;1.9878016122089468;-1.6288037787118506;0.9218465968466169;-0.6600504939797459;257;1.2444992234987948
458;-0.5920388469554456;-1.571781239511825;-1.6616127647235484;1.742305704557716;-0.9731630281131096;1.8466073287422136;176;1.256637061435917
459;-2.442511382997084;-0.1020983022214411;2.7729701922316026;0.5863219219442538;0.8379053578551666;3.1700662742616226;455;1.2566370614359172
460;-2.2588635817096305;0.926669719927268;0.2991418783777346;1.711019748974857;-0.0293412251739528;-1.9987801062050368;313;1.2566370614359172
461;2.351640099029042;-0.7223116288184269;1.461443739617034;0.2024644050353866;1.2192313086289777;-1.0306975470605948;82;1.2566370614359172
462;1.9528236467396989;-0.624428451684086;-1.058779283666581;-2.4523252155113515;-0.1317754602869259;-0.4275830629776398;421;1.2566370614359172
463;0.1829478060573711;-0.2297946276714497;1.9680234473218177;0.026564696963496;0.8628103752961993;-1.2163460806847703;19;1.2227750526036087
464;2.7230962325137744;-0.2386136616381651;-0.1016307469432801;2.425443600976095;1.3590919808310051;-3.267170392943116;314;1.2566370614359177
465;2.881720903847315;0.3685665912383946;0.6963911348154944;-0.8929443427161788;-2.298346110258953;0.4772255005710055;305;1.256637061435917
466;3.076041648635784;0.9177210289840086;-2.2287718825775498;1.7545189078176069;0.3473263631436342;-0.9170163897610716;275;1.2566370614359172
467;0.5662673156379117;-0.3465281465989664;-1.6224625764214355;3.073432505278131;1.0015767950171244;2.229577698216733;24;1.2338858690495176
468;2.492124987481395;-0.5542965264187368;2.2713738672915094;0.7559918050763673;1.331406116601738;-0.2849033101548623;461;1.2566370614359172
469;-2.860227726064095;0.5338413237618049;-1.287085162423967;-1.633435097655162;-0.067388811223588;0.92838476916201;382;1.2566370614359177
470;3.482507572319053;0.7637882373763528;-1.312405157496329;0.3190039127590664;-0.9765418637341636;-2.204190028596202;418;1.2566370614359172
471;-0.7561469354495093;0.3647081669443477;1.738734705619713;-0.9972022592338852;2.227344140442692;-0.3670348497049017;296;1.2566370614359177
472;0.4272191824396877;-0.2461382948436283;1.5244437563033182;0.5789611702443591;-0.839240272890517;-0.7615830464033924;9;0.7758515437738741
473;-1.206043102691896;0.8269511404992774;1.561450874157426;-1.646469940751706;-0.3677392221915911;2.1855620829291773;290;1.2566370614359172
474;-0.9436175079769886;0.226473399194742;1.6175202277264682;2.6483174985724114;-1.1932228045308753;-1.1132661045504135;278;1.2566370614359172
475;1.2773426817324718;-0.193013770119952;2.2433998105977486;-0.1990824525578081;-0.4225239457944497;-2.262529093197461;357;1.256637061435917
476;-0.9359316509580644;0.9798587309725884;-0.8581059958488878;0.5426401960669816;-1.9267780077377448;-0.8773378814839752;272;1.2566370614359172
477;-1.883798847589676;-0.0770414007980596;1.9110046543994128;-0.6750914566686192;-0.4331175463467386;-1.0068534082279426;325;1.2566370614359172
478;-0.2570775513059485;0.3078111450936502;-1.7476335497604545;-0.1862779596156342;2.4210733621990164;2.696726048446548;237;1.2566370614359172
479;2.1929650691891336;0.3513949431754306;-0.9567992696926028;-0.8165432523829836;2.711527299923576;-3.007857479520694;423;1.256637061435917
480;-3.3025604734086302;-1.3943899487864526;-0.1686672237595703;1.1557009357454988;0.2275086999577067;1.829531322456869;391;1.256637061435917
481;1.6966810033398432;-0.4577142302514756;-2.142663265564491;0.8313727290692534;3.1619613501837005;-0.1576733343194545;434;1.2566370614359172
482;-2.578291688997342;0.6752159042969433;1.0974679537381855;1.2452155188659446;0.35061466923724;-2.6431470683999083;460;1.256637061435917
483;0.0532377424771031;1.248924525330872;-2.518806420305554;-3.013738996594952;-0.9424430052123038;0.859185033411213;288;1.256637061435917
484;1.600469345438733;-0.058344917798041;-2.48786875175497;1.3814835179738338;-1.9565063763312025;0.8601749219672166;337;1.015846638383781
485;-2.6112230181850986;0.8179453289119408;-0.5536843779376249;-1.19935972544001;-0.4477097433399171;1.1121261272901637;382;1.2203606949745742
486;-2.817996008979766;-1.1643387789974335;-0.0346819271945408;-2.5816149080620123;1.3074080219010031;0.274761256439298;232;1.2566370614359172
487;3.023504297542106;0.0547223139733405;-1.2614685144235187;0.8985215847106351;2.1862581646192325;-1.7974412950635017;362;1.256637061435917
488;2.9608048586639386;0.5283071228616966;-2.490882586345512;0.298734245014049;-1.284102546780672;0.8039675738416832;155;1.0745873813975064
489;3.410929122289688;0.6222091360825706;-1.3739136743657605;-2.46810826125256;1.076669091186472;3.075719778669035;374;1.2566370614359177
490;2.6541504820439883;0.4646597741174842;-2.8835834458860514;2.600469654652215;1.703230963312651;-0.1767200590590638;229;1.256637061435917
491;2.716290807688664;-0.3446080449411564;2.026918244033729;2.570499438875084;-0.8905420312943534;-0.6795792967665151;266;1.2566370614359172
492;-0.1362751788481174;1.469909651856582;-2.4695292934537365;-0.1533043280259455;-2.189773597189584;0.7701432343628596;295;1.2566370614359177
493;-0.6156889929499241;1.4691827475842794;0.4344574264722524;2.055585861012088;2.919340963732753;2.0234545638430763;256;1.256637061435917
494;2.973640669329705;-0.5432360781618784;-0.8167696171659722;-0.6344555469633062;0.6269214930945042;2.78810020497253;374;1.2004358387788925
495;2.253703534118137;-1.1603220986535738;0.1901920108257354;1.2112809039210155;1.1835645034342273;2.5619396215269696;194;0.9614044832642928
496;1.1690370267875605;0.2932322458249428;2.3133728806637617;-2.680257574179351;-0.7351444698268897;0.0757551265140234;174;1.2566370614359177
497;3.137546775249847;-0.4048185438386137;0.2896576521538588;3.1656115800871447;0.1140883518991555;0.0922879176832287;373;1.2566370614359172
498;3.198791977651601;1.0988124240635933;-1.6523222886147364;2.10989602531067;1.220663885619584;-0.3602673355661557;466;1.2566370614359172
499;0.5531513232091091;-0.0211087182092258;0.3938570788105365;-2.9489461822255407;0.7706301173411223;-0.6259879171206246;136;1.2566370614359172
500;-2.8549308143979117;1.1462463902353488;-0.1622246443697196;-1.908671602317664;1.0290953745023863;0.4407155325700139;382;1.256637061435917
501;3.264508955855578;0.2613200972094421;-1.83390815304287;-0.0986428343834072;-1.5530139853867777;1.6721732767714017;488;1.2566370614359172
502;-0.4267378378515285;-1.1799475182139088;-1.432114266445207;-1.62233213951435;2.820329630665768;-1.4490643028845782;341;1.2566370614359172
503;-0.5289774324027465;0.364571729776392;-0.4922176512496128;-1.519524178421035;-0.5055035155282323;-2.2202176790171766;35;1.0973469232617097
504;1.3674816860220067;0.6322745249406381;1.6707253935282385;-2.3029999185027235;-0.7813964199287654;-2.255140518769849e-17;496;0.8470697511871432
