Komment314/test_diploma/benchmarking/path_finding_for_benckmarking/pre_rrt_star_results/5_5_tree.csv
id;joint_1;joint_2;joint_3;joint_4;joint_5;joint_6;parent_id;cost
0;0.0;0.0;0.0;0.0;0.0;0.0;-1;0.0
1;-0.7927891339508448;0.2329244747413091;-0.5552936838177006;0.2504885023031499;-0.4087291447360365;-0.5985091507234387;0;1.2566370614359172
2;0.195440171300611;-0.1721128016003543;0.4876885044943747;-0.1783058104151263;1.037283421142696;-0.4070959247159223;0;1.2566370614359172
3;-1.4810434241198862;0.0745633424558829;-0.0510178608984784;0.3657891742412255;-0.5445462245576269;0.2927426982608926;1;1.2566370614359172
4;-1.9770282725160333;-0.2889687619313293;0.0293831256388279;-0.1888669085080227;-0.3585777008703206;1.2159372405141529;3;1.2566370614359172
5;-2.363001721013674;-0.3967968566083298;-0.1300369740526081;-0.457454847393932;0.7247055020960271;0.831909173443754;4;1.2566370614359172
6;-2.0539920576891344;-0.1144245249504859;-0.0106791818136445;1.069988470366635;-0.1635362219236536;-0.4638666286956622;3;1.2566370614359172
7;-1.1725916520168462;0.8943781952633436;-0.261289702970339;0.1838947822055125;-1.343060980472942;-0.7815847729961668;1;1.2566370614359172
8;0.2904886499471699;0.4637900114054716;0.3546446886925903;0.4763247426826642;-0.5488742918306807;0.7910314594278024;0;1.2566370614359177
9;-2.339552960673897;0.265901788897494;0.2861009132298139;1.3381978610634313;0.9261032443151006;-0.5387979398986881;6;1.2566370614359172
10;-2.717759657553428;0.1313013546191088;-0.556915752835171;1.6340484277936804;1.5352914347297189;-0.0401355157445618;9;1.2566370614359172
11;-2.114190946688185;-0.2991636978774156;0.7494080787729677;0.1698250373589522;-1.2195068675151115;1.630574784791012;4;1.256637061435917
12;-2.7851427565907865;-0.7857624746564814;-0.4139990499379759;-0.1613352444531298;1.7249864546576663;0.5477329351900457;5;1.256637061435917
13;0.1576369926223503;0.2144244810035355;1.0757224905093636;0.3252261919805129;1.265117527587169;-1.2886058377677996;2;1.256637061435917
14;0.3545281018340284;0.992501037595168;-0.5746043963828399;0.2244465149385943;0.2963645663963118;-0.0031325598047661;0;1.2566370614359172
15;0.9034193666785192;0.1320564884837774;1.0954823634030286;0.5596379746587204;1.183660184671789;-0.1835279388623555;2;1.2566370614359172
16;-1.02122967507917;1.1050621439894694;-0.867223810872019;-0.5367233443054219;-1.0290279205032238;-1.5073775393780744;7;1.256637061435917
17;0.7636525493069313;-0.8598673847019883;-0.1940051260357623;-0.611736584508779;0.7578960467123916;-0.1776633981431677;2;1.2566370614359172
18;0.960021700140926;-0.0242888269101337;0.7193773923913123;0.9727595941746424;-0.7121660488981149;1.4885266505306645;8;1.2566370614359172
19;0.5195474017021672;0.2161772740883211;0.6258155778700502;-0.841993147897988;-0.4023393954295055;0.0;0;1.2566370614359172
20;1.406112302333021;-0.8045818801203442;-0.1204780703854266;1.145884588733698;-0.5512269221664342;1.3882681580628449;18;1.2566370614359172
21;1.4708025332653616;-0.4907136654238486;-1.1274937764998043;0.6349266962578001;-0.1118345354141213;1.2976350944540889;20;1.2566370614359172
22;-0.098064590293944;-0.5933719109505228;0.852884216659182;-1.5301146039592006;-0.2709965482451918;0.0;19;1.2566370614359172
23;-1.0190929466049896;-0.1293687462183178;-1.1591159447561652;-0.5799976882742416;-0.8774103519538278;-0.24822897564143;1;1.2566370614359172
24;0.5881615489742774;0.959988554404032;-1.008496760630139;0.8116830212148725;1.2292431543517384;0.3434555200061508;14;1.256637061435917
25;-2.5741817647720446;0.2543773232646004;0.4180112354334098;-0.2483910505126162;-2.1005778444507675;1.641658964396299;11;1.2566370614359172
26;1.2101711556234032;0.9713892527996614;-1.0214378138588711;-0.3494855658755553;0.182559392165151;-0.5549986732564661;14;1.2566370614359172
27;-2.285718765110923;0.7236166298251316;-0.4422855443473329;1.760846412343856;2.279237112720115;-0.7176065489296347;10;1.2566370614359172
28;0.2079257002649725;0.3546923343286795;1.0963825766927626;-1.1537460584712655;-1.0566354391866843;-0.8462362004464669;19;1.256637061435917
29;1.3901012434097428;0.7732301922882899;-1.2926308980944614;-0.6165433118106596;1.1511791581468258;-1.2064624671615487;26;1.2566370614359177
30;1.9604769162892095;-0.7679878159577502;-0.1410037361775158;1.8857149671024176;-0.0487143599043021;2.0739709263895443;20;1.256637061435917
31;1.109115825615091;-0.8879686952630783;-0.5857001945107485;1.1707635854657097;-1.590134590481705;1.8213925091601295;20;1.2566370614359177
32;-0.4246876061470359;-0.2845878205759169;1.448647465681912;0.2683162834958282;0.7660640661060023;-2.062980008635626;13;1.2566370614359172
33;1.2481342718180075;-0.3339782005648739;-0.1208213187861184;1.116321352420572;-2.364567723651328;2.48024158443368;31;1.256637061435917
34;2.0535023351160357;0.7133886360763996;-0.315624028191429;-0.3621873106505153;0.0918597676745023;-1.0979572825435826;26;1.256637061435917
35;1.1353447904290186;1.3020074295429258;-1.0067599789386752;1.540773828660451;2.00843624535664;0.188432945804702;24;1.256637061435917
36;-0.0375516687058884;-0.7391292717903866;0.7405423606008892;-0.3038299043855838;0.2089969712312104;-2.352059047831527;32;1.2566370614359172
37;0.8896807783113898;-0.4347328856242776;1.5551042490099154;0.2143427359863264;1.876526178564033;0.4851673547439594;15;1.2566370614359172
38;-2.430144924550582;-0.1918215678454771;-0.2919734439222478;1.7972565903216218;2.09456619111599;0.9510185903424586;10;1.256637061435917
39;-2.190388565204057;0.1755937243835251;0.6468803602996146;1.316460498864001;-1.36461801069871;1.590650373678832;11;1.2566370614359172
40;0.4767422989904213;1.0327306969987122;1.073585251937026;-0.3690111547103308;-1.422909148446745;-1.3908950862455454;28;1.2566370614359172
41;2.5541475251976697;0.0561124589752541;0.4378477012953776;-0.0510905294176695;0.0785367759048802;-1.5794142051220783;34;1.2566370614359172
42;-1.8415791396188528;0.6180287143771063;-0.1252105942833611;0.3829072069502366;0.9788248697039502;-0.188614493348181;9;1.256637061435917
43;0.7405800911037025;-0.3625887257034783;1.7342193153870666;-1.6749681645081904;-1.259539769768517;-1.0937145400947033;28;1.2566370614359172
44;1.9260956911800435;0.1542567252926279;-1.6445352459618214;-0.2563092421657682;1.6747702507672426;-0.5892383457625527;29;1.2566370614359172
45;-1.3383058702353463;-0.2589092882091273;2.023200554017211;0.0032467414145217;1.2431017304235137;-1.722625872416127;32;1.2566370614359172
46;2.248626291039346;-0.1088645742546379;-0.9749326456661858;1.702699152105981;0.1563180865848445;2.613130156598105;30;1.256637061435917
47;-0.0868981021371167;0.6269390665749552;1.0757496384892011;0.990178412225714;2.1068680200970875;-1.7341006870190483;13;1.2566370614359172
48;1.5259438809362549;-0.4317509361750011;0.9833149516212082;-1.890329442805927;-1.7963367521524436;-0.8504694652674721;43;1.2566370614359172
49;2.1733769658948754;-0.0546473166015325;-0.7879485796305078;-1.1081053578007023;-0.1919758971543571;-0.7590758093428226;34;1.256637061435917
50;2.587947407110325;-0.4379265362264883;0.975983542401178;0.96654815323274;0.0354110455538955;-1.6623674621384634;41;1.2566370614359172
51;-2.782522813185141;-0.2018399053344164;0.986408261905979;0.2443678996358306;-2.4761521536543354;0.8538430419487604;25;1.256637061435917
52;2.629635897580997;-0.1164398536470964;0.930530725284289;1.8779541152574384;-0.6676313377556653;-1.278896853182503;50;1.256637061435917
53;-2.1237232159020505;-0.1509190650127798;-0.2210836400612846;-0.7159988856278559;-2.4171832278778185;0.945512197245996;25;1.2566370614359172
54;-1.3414137697794366;1.1004838860523216;-0.2186283734798025;1.1724169041278991;-1.4418766415560424;-1.5022759214874764;7;1.2566370614359172
55;2.632710412291197;-0.5364773561582613;0.611754744935846;-0.7892842570699085;0.8801361565778018;-1.5156436674282017;41;1.256637061435917
56;1.5599800353018758;-0.4519947057945054;-1.8112233846604089;0.3945975597233147;2.430512994775406;-0.3548379670283474;44;1.2566370614359172
57;-2.71437793001908;0.7562523783621702;0.7774377371586497;2.273111016002674;-1.498697557939614;1.4594840223823775;39;1.2566370614359172
58;0.4672554846516519;0.5288158471991141;1.7657588088317833;-0.7624248791923899;-1.4495847062770233;-2.221874238702878;40;1.2566370614359172
59;1.017867989128089;-0.2633797528583741;2.0253181020128226;0.8705945031367729;2.7822401702444206;0.2376647024771538;37;1.256637061435917
60;-1.8816822099135475;-0.3226886409978078;-1.244611954089713;2.044967915025416;1.713151846513811;-0.0158646831402505;10;1.256637061435917
61;-0.99918492605939;-0.7047634763919349;1.111553107917408;-2.034311436783385;-0.6838625200060297;-0.5129604386500587;22;1.2566370614359177
62;1.043406462913371;-0.8680431770043157;-0.3394054608117525;-1.2801598010158914;0.8655162676723969;0.8329278361045083;17;1.2566370614359172
63;0.3063858589078023;0.9128233867083811;0.4781855689206072;-0.1256747013229423;-1.44429761747856;1.2357835240669182;8;1.2566370614359172
64;2.350902618599071;-0.0364398275878876;0.8710334468742879;1.5164523872523823;0.235726534286734;-2.66646875734248;50;1.2566370614359172
65;2.133231869225294;-1.1717414779520423;1.649083500351694;1.0683726145043144;-0.1161846062716584;-2.2518359507974366;50;1.2566370614359172
66;-1.4269499253586078;0.6411064725708302;-1.279225433223956;-1.174332813978266;-0.7110086753070509;-2.229766288386326;16;1.2566370614359172
67;-0.9213028828638444;0.0759571727621514;2.4678024918266166;-0.901644487261042;1.3656575904150643;-2.2340852631383976;45;1.2566370614359172
68;0.8640190837575462;-1.0159908160536195;2.0606576978378874;-2.653694556570987;-1.3634948333483825;-0.845337398852388;43;1.2566370614359177
69;-1.2512066926613714;1.2819951073257687;-0.6963355374333079;2.101801501675884;-0.8247146657412636;-1.2469246048266818;54;1.2566370614359177
70;-2.2594248280469884;0.2576230822988258;0.4313677718647679;-1.075782648587115;-0.462150717571671;0.7243198182948314;4;1.256637061435917
71;1.4766262405711492;0.199935105089396;0.1895716464822782;1.297203445709746;-2.612825325840196;1.454975402006113;33;1.256637061435917
72;0.3474424540349166;-0.2186201231952616;2.230942533516254;0.3975525050106084;1.3355393848418555;-1.9029474354470852;32;1.2566370614359177
73;-1.873639020615921;0.4061132781961345;-1.798190451359385;-0.5324697959948843;-1.306480812850369;-1.6926593488885908;66;1.256637061435917
74;0.7011349003819536;-0.6575116973689438;-1.299695506872971;-1.7991528138136197;0.7256932806701786;1.2874629724227031;62;1.256637061435917
75;2.634106312740818;-0.3240874758712587;0.1513414298410102;1.280686560177282;-1.1681478707947734;-1.8460105051226927;52;1.2566370614359177
76;3.110934338430717;-0.2699878259030464;0.9482950394658338;-0.5857047484687025;1.7236821372432076;-0.8728776888287195;55;1.2566370614359172
77;-2.041314278842861;0.795611315475667;-1.6144900024249045;-1.2726746164966107;-0.2431019664549293;-1.3149923987347685;66;1.256637061435917
78;2.0312427984973223;0.0300313666375917;-1.631992649702692;0.9447554217398842;-0.8897676448175982;1.4930197150396458;21;1.256637061435917
79;0.0661013707915037;0.0958849754593807;-1.17953124452276;-2.2340001453280403;0.8198259960376906;1.9166449445639604;74;1.2566370614359172
80;1.3876530463174188;-0.4885093178144809;-1.8213013252740908;1.3260220966977925;1.9085251970604469;-0.9935728903122064;56;1.2566370614359177
81;3.009135006841688;-0.0151490998195837;0.7922642087670577;0.8274235199233655;-1.9911179210751675;-2.0685822165166177;75;1.256637061435917
82;2.641799550149533;-1.0004725412249038;0.6466804807592761;-0.7355711828253649;2.206411832563279;-1.564963006087705;76;1.2566370614359172
83;0.1190491944451261;0.7526393480835138;-1.1638815883249398;-1.4329857822048178;0.903051815122604;2.6210677349054987;79;1.256637061435917
84;2.9511522106749366;-0.838243399588109;0.0639245826336608;2.118149496361063;-1.1302317398712436;-2.555826524414225;75;1.2566370614359172
85;-2.4757115558781053;0.0062163511591372;-0.4363631324945592;-1.8099238026702795;-2.261574108524255;0.541385742203661;53;1.256637061435917
86;-2.7149216149789144;-0.5242000808738577;-1.2390977430938963;1.3726292074521504;2.6330808579411107;1.093189494856312;38;1.256637061435917
87;-1.366895642473388;0.0277271883910941;1.2129842326298623;-2.3774533513948697;0.0550972385902884;-0.9959581485472404;61;1.2566370614359172
88;0.7457980358010038;-0.1784827489091472;2.2605904139426576;1.582655272465854;2.1428771960948896;0.9634322483895336;59;1.2566370614359172
89;-2.1759320878069714;-0.9300835574445918;-1.2746655510784808;-0.693576411468755;1.6810675303672704;0.1462181380595812;12;1.2566370614359172
90;0.593325801812429;-0.7423992672190585;1.258898926222292;-0.9308428639624128;0.8643375335681256;-2.6517415385653527;36;1.2566370614359172
91;-2.596551536328354;-0.0354109577952342;0.6582263317017105;2.053074613335456;0.7303158620098747;-1.3957928453004336;9;1.2566370614359177
92;2.209840799767373;-0.2556015384950599;0.1179888578306451;-1.1331630281000424;-0.6404736909638814;-0.0414939706580205;49;1.2566370614359172
93;-0.6936055191434194;1.3842076101353953;0.2333894306442632;2.5615340014413546;-1.232220240580476;-1.3732850361436248;69;1.2566370614359172
94;-1.25491657541971;-1.300205569955619;1.206804678558332;-2.3422428527207533;-1.6739797563710832;-0.2391722348787596;61;1.2566370614359172
95;1.559409619305603;0.163797906314989;-0.6931287473448066;-0.7915613419252128;2.154997327977008;-0.7385695653359403;44;1.2566370614359172
96;-0.0194112896660133;0.10677898677564;1.403398417982487;0.8731621026149241;-0.1760094106642153;-1.9834095573371755;32;1.2566370614359172
97;-2.743773732650286;-0.6267638809562245;0.2791711770820069;-0.5145670439931556;1.1992181214767703;1.8245768958635515;5;1.256637061435917
98;0.8195991471820369;0.7501808517087762;-0.3159723615755624;-1.4386876130867945;1.3880908167441068;2.98728491488763;83;1.2566370614359172
99;-2.2205232124734637;0.196307107457983;0.2214281076821928;2.1338052431797543;2.808181702971197;0.9277650079076132;38;1.0398168625069784
100;0.9138328093151088;-0.2850080810275329;1.9847757803183157;-0.7181197039192778;2.392229272285097;0.9710504260029496;37;1.256637061435917
101;1.8167367589999552;0.4304671555856963;-1.230116535509863;0.4286985043893881;-0.2314043990601431;-0.2417337994024718;26;1.2566370614359172
102;-2.4090764786705208;-0.2656137373552745;0.642985850881828;2.376211661265822;-0.2562504766517979;-0.7531160037756648;91;1.2566370614359172
103;-1.9161941808184104;-1.2114508954849843;1.891262761978888;-1.9083434293224937;-1.5206874291742487;-0.9127604810422212;94;1.2566370614359172
104;-1.9921968051715808;-0.240738086325857;-1.3260076994824543;-0.0242511290525327;-2.117458853653225;-1.7806134326392495;73;1.2566370614359172
105;1.0206278099960375;0.5582549710144363;-1.7552244036143807;0.2500049193649727;2.59198850375595;-0.8212221586717302;56;1.2566370614359172
106;-0.8875717578133914;0.4010558939812045;-1.869498879814804;-1.4435770772591516;0.1562839171417587;-2.469499390589938;66;1.256637061435917
107;1.4477845648017251;-0.3841710566290631;1.4924463726624408;1.285372248414006;-0.9214276663162344;2.1759538309594344;18;1.256637061435917
108;-2.6948706350811205;-0.5926446298484446;1.9911152621744244;-0.3513933827322035;-2.2495535130395607;0.7989717264938752;51;1.256637061435917
109;-3.0632081705320107;-1.0211475779537331;0.1340658641906993;-1.6310494599222043;1.218918471832342;1.593096436861329;97;1.2566370614359172
110;-1.9785540668929265;0.0974914670654843;-0.9514122396236696;0.8274227034518358;-1.0184513083324307;0.5803058820045177;3;1.2566370614359172
111;0.6458630870790912;0.0142804088867384;2.4564334116899182;-0.4892951292810947;1.274742267130656;-1.1317159397251986;72;1.2566370614359172
112;-1.3938746202707282;0.7732293382541928;-0.923185103074437;1.5025550083164017;-0.7112494830095903;1.0595674144917515;110;1.256637061435917
113;-2.262093175877885;0.763892875983295;-0.5806830254090841;-1.6969297112016215;-0.733189143511198;-2.553857276768275;66;1.2566370614359172
114;0.2800170822506478;-0.7250558463179001;1.595244315014597;1.550839778748572;2.34946911081753;1.72308004865291;88;1.2566370614359172
115;2.178224112180565;0.5711706715253769;0.0333375975715652;2.1114450773753006;0.2209753749638213;-2.314105187967584;64;1.2566370614359172
116;-2.835435694948464;-0.9920647205116851;0.6411907164884716;2.691121339186409;-0.6093376785842014;0.0504893670477564;102;1.256637061435917
117;-2.75941614930392;0.1995192665438422;0.9102348953042956;0.1463629044040052;1.119961819210944;2.0586640688125404;97;1.2566370614359172
118;0.5850554213872123;1.048933360674424;0.3813869429134738;-1.2175186205940216;2.153566250007291;2.4272005270279515;98;1.2566370614359172
119;-2.366667483707706;-0.9520996040846608;2.1841537780232683;-0.0486512866773217;1.2227172822511476;-1.6127104016117688;45;1.256637061435917
120;1.2170050576253195;-0.792544331813598;2.231256645464906;-3.0677479066725266;-1.4964609443161183;0.2438756706524044;68;1.256637061435917
121;2.530843251301281;0.7344201383043649;-1.7890960737074462;0.1625868734253612;-1.3325704533727698;1.464225635590218;78;1.2566370614359172
122;-1.2422430065807262;0.8993081568460928;-1.320156559547181;3.009544812892844;-1.0129697794017685;-0.8179531839498926;69;1.2566370614359177
123;1.16493509770005;0.1124700175678613;-0.0320960431488076;2.1428430249428647;-0.1873709852613166;-2.7263692356455898;115;1.2566370614359172
124;1.5978274478111234;-0.205651445719217;-1.153141375279292;-0.7617327338446838;-0.875734985270326;-1.4691539361684105;49;1.256637061435917
125;2.598658665959195;0.3120822531009486;0.2515621882278482;-1.679649259177859;-0.807285739054236;0.831075332678041;92;1.2566370614359172
126;-1.9406782704335648;1.4138390385952018;-1.0481142790709483;1.7872266514551294;-0.2628387911767733;-1.9871763914026117;69;1.2566370614359172
127;-2.161471950275185;-0.9639519947389116;-1.6705175198974351;-0.0747492298504742;1.3014015061873472;-0.7992914524301418;89;1.2566370614359177
128;1.415890195666588;-0.2702152728587378;2.2813893524851823;1.0115657512814011;-1.5408155905002905;1.4801872689370723;107;1.256637061435917
129;-1.7331077331242375;-0.7764728894442213;0.3573253569573505;1.0916717983270328;-0.3720031434105411;-1.390422591858324;6;1.2566370614359177
130;0.7802361569266831;0.3883755258993566;2.126940255187868;0.0169427971532794;3.1800343168223306;-0.2102129514800659;59;1.256637061435917
131;-2.2934169793304595;1.137874227690434;0.9584158241963294;-0.4726296973600706;-1.4887691612549672;1.585881691511843;25;1.2566370614359172
132;0.8549605082842873;-0.2029281348224547;-1.7152713271491216;-2.1219147938574565;-0.1066999914897428;0.6717755082875281;74;1.2566370614359172
133;0.4512381997373929;-0.2637517863643409;0.8440539199105483;-1.970587474112328;0.6375286716412241;-2.8106028401341527;90;1.2566370614359172
134;0.6338351232178079;-0.2813158956796628;-1.3484369943154917;1.0199514905052256;-1.2829932238930215;2.3565278247840675;31;1.256637061435917
135;1.1296463626532451;-0.3420405031807038;1.4351666433096402;2.216747633592606;2.347690665582291;2.2145113683603967;114;1.2566370614359172
136;2.614282307097704;0.0204438885447519;0.7081551456150218;2.418467124932499;0.811339533761977;-3.245296740012189;64;1.256637061435917
137;-3.032390283613436;-0.0702193043974471;-0.2373564314638027;-2.1018071331267514;1.2257225443648;2.153728915922424;109;1.2566370614359172
138;-2.0258977691817845;1.0897903471802046;-2.0503236711516784;0.3967251927920689;-1.7070849625661488;-1.6597736297131336;73;1.2566370614359172
139;-1.833752648205978;1.3217837450593657;-1.748981370756228;1.4502098622630477;-0.8871288069947278;1.6671191084657917;112;1.2566370614359172
140;1.0498668999242258;0.6939395527871149;-0.989074948766057;-1.467404415828924;0.8984374313760015;-1.9661341574461264;29;1.2566370614359177
141;-2.0198716984609053;0.6776350244518017;-0.2176377960545885;1.8127524260565009;-0.3603871595730752;-2.562511351666387;126;1.256637061435917
142;0.0651628794027229;0.3132437549896374;-0.524643389669337;-1.0151406242429086;0.0149392232863561;2.726899939665469;83;1.2566370614359172
143;0.0609068424614893;-0.160663197765414;2.5313060233610383;2.192220944431057;1.598941460230387;1.1217654902447798;88;1.1113893255583267
144;1.6705749764112976;0.552283953358061;-1.2641173338941476;0.3279557266065084;1.3565273034911511;-1.5652092484762825;29;1.0914400241037694
145;1.570278757307502;0.5780179372883841;1.397997298395728;2.7678094170187983;1.9128129733752888;2.424994162297731;135;1.256637061435917
146;-2.801415100296151;0.9790088333145276;0.32912132324363;2.051004459270088;2.1660185724713727;1.3730200387718638;99;1.2566370614359172
147;2.755974958637135;0.5212475210232429;0.9406027848604586;-2.0729024907260114;0.0791948190239771;1.1398881419101274;125;1.2566370614359172
148;-2.9670005074197694;-1.333656433661312;1.951901135583104;-2.2130477025473736;-2.042109598109248;-0.6100959970733505;103;1.2566370614359177
149;2.7072926489974014;-0.3021334732396418;-0.1256069439935866;-2.22609596706658;-1.116952068757107;1.639357838244452;125;1.2566370614359172
150;0.7185742944962921;-0.5791790307222695;0.8519693158491173;2.8312217768171544;2.020903004077938;2.94213352755482;135;1.256637061435917
151;0.9045759238675288;-0.6331009060522858;0.3345261664566989;-2.2421213571313;1.2149681394400098;0.778206445735931;62;1.2566370614359172
152;2.099058368843;0.5023730374021973;0.8435797040133436;1.2306556211326818;0.2207157749637973;-1.4129137977849;50;1.1432516277380431
153;1.2567718092627214;-0.7728370442596868;0.5929480933099608;-1.057189849354622;1.666723653793825;-2.838214278117845;90;1.256637061435917
154;3.312971446680204;-0.943578359451162;0.8611750704185455;0.3054672810517373;-2.094083237026458;-1.4880218377264396;81;1.256637061435917
155;-2.3010185345665986;0.5227755371993889;-0.2835624439235866;-0.4334371458508034;-1.9541993134898108;1.4366798009049808;25;0.8582229129649073
156;0.2743354364641019;0.6987149700384788;-0.8860998666410678;0.8715802225145399;-1.719810355651284;2.1453645630656863;134;1.2493475517343933
157;0.1258905671780174;-0.0159691533090928;2.363440813816726;-1.6701691626589832;-1.8220266136526344;-1.701015282178817;43;1.2566370614359177
158;-2.0601317860328336;0.2109447701327646;-1.2299755165712;-2.186761685274865;-0.7439518296139968;-1.2631224480038254;77;1.256637061435917
159;-2.7693570016217937;0.3015900671227171;-2.1361637938899736;-1.5759963254772391;0.0920098716844306;-1.8882165750018924;77;1.2566370614359177
160;3.249507799170739;-1.3573951941244635;1.3825727152010148;0.2265139186739946;-1.454126496197938;-2.3343261148116654;154;1.2566370614359172
161;2.132881335292428;0.1465388061325826;1.793232004541104;0.3683096324512367;-1.5245176089065366;0.991275423561893;128;1.2566370614359172
162;-2.037422444124913;0.482929306229652;-2.018607235187561;1.0979149932786991;-1.4740452351043498;-0.8450694012805395;138;1.256637061435917
163;-0.2777127669868874;0.4415092839880981;1.4598418950122816;0.2032388678163323;-1.6376021642359255;-1.0199043521792888;40;1.2566370614359177
164;0.4376736819568675;0.8658512775757671;-1.6471801516609088;0.1622623800568122;2.987418378568801;-1.8055740274093688;105;1.2566370614359172
165;-2.36939897333311;1.5266581022713583;-2.370770110388431;1.8512710440649012;-0.188426857896317;2.1303582414775;139;1.256637061435917
166;-1.0811564985145778;0.7679087044778483;-1.7136914126916354;1.2020441792805323;-0.1490932965772894;0.3886805317020468;112;1.2566370614359172
167;2.937172145705325;0.7079461949411949;-1.377899259453999;-0.066462642359692;-2.2031411962288723;0.8055202803524504;121;1.2566370614359172
168;0.8300061011084379;-1.3818132682064088;1.587374386312406;1.3525462819222802;1.6108040352798445;2.2332860184572905;114;1.256637061435917
169;-0.4144468829742797;-0.8298051164120771;2.624736046251087;1.7314676132121316;0.9666437355365004;1.6552459664937773;143;1.256637061435917
170;-2.750267305529311;0.8889708284814059;1.1524891848667118;-1.669300780279101;-0.2269564735513196;0.8339290902845549;70;1.256637061435917
171;2.293040284836774;0.343240169667851;1.0245670766936146;2.535620345187761;1.9066907127103423;1.5259766426157917;145;1.2566370614359172
172;2.251212249474644;0.5307404172896278;-0.5126767368872955;2.669197558238483;0.2176565227972765;2.477213366721801;46;1.2566370614359172
173;-2.320643754064597;0.6046107466167785;1.2406647869602263;2.9793341372773368;-0.8411030173224266;1.9648096024206447;57;1.2566370614359172
174;-1.1984806674697086;1.2367238261243791;0.2448904487884159;-0.1948736884232468;-2.3730772151341166;-0.7561173812766976;7;1.2566370614359177
175;-3.1281443379325204;-0.0437365353158443;-1.2901843778733513;-1.3515667110787717;-1.841876978747611;0.3523744859444482;85;1.2566370614359177
176;0.7642771974218998;0.3090278138827413;0.4547781602327793;-2.769044213052608;1.2745945695038314;0.1648689388573181;151;1.256637061435917
177;1.484136176508476;-0.3869479170560338;2.214669877200449;0.7518333276402442;-2.7564164504001023;1.5862759544317555;128;1.2566370614359172
178;-1.7036092560623717;0.9142175443418696;-1.3170178542774311;-1.7413543931724595;0.8241942694873055;-1.253731342651773;77;1.2566370614359172
179;-2.8347068603420187;0.2584755942020915;-1.4731857756023916;-2.189979563811129;0.6576350426738753;-2.5489435523684723;159;1.2566370614359172
180;0.5487495405594336;-0.1676526470668783;0.233476320958184;-1.1732279313684584;2.1307820926308945;-2.243606852720343;153;1.256637061435917
181;-2.905136456009416;0.0379144726675073;1.3282963629083249;-1.599148182627654;-0.6833220945376953;1.1989820580953665;348;1.0885367891030986
182;-2.471994383033046;1.4199883575070271;1.2146572284917454;2.043880336991462;1.9643075400481296;2.04476688189956;146;1.256637061435917
183;-1.88421199812931;0.6778611053266467;-1.2013453858003018;-0.4618522352985043;-2.071087276661144;2.1609461471295943;155;1.256637061435917
184;-0.0340085072119613;0.5650523479571375;1.24243473901673;0.0798915666327259;-2.005885858281014;-1.023696839829995;40;1.0882599060402636
185;-1.850727785672423;-0.4642778685541134;0.4522026547646668;1.1821029273921528;2.847549235416944;0.7145244304113122;99;1.256637061435917
186;3.008424192194457;0.8483565798994954;-1.8424458928184635;-1.19297775152366;-2.080203630408612;0.5723009350860393;167;1.2566370614359172
187;-2.4984992837402102;0.4089326641065444;1.1769123696907853;-0.2830273412102824;2.18296212104663;2.3445707358969927;117;1.2566370614359177
188;3.257722125894734;0.8174288842161395;-0.811447268337278;-0.8841373131178516;-2.4602362750614533;1.4449265284643191;167;1.2566370614359172
189;2.519482555656629;-0.8389470258308597;-0.0465167105820145;3.097601799843412;-0.6159345119050785;-2.15988235501268;84;1.2566370614359177
190;2.7649700985031034;-0.9972665711045638;0.8361454893791586;-2.5070598174914447;-1.414051895708382;1.6599310423480809;149;1.2566370614359177
191;0.4625770096792251;0.6669440112083173;-2.187795496916776;-2.629378157839538;0.0667088161814217;0.2747546368210418;132;1.2566370614359177
192;1.2417844195245875;-0.7608344958239519;-0.0111035879517595;-0.6109712127129403;2.4159453163788016;-0.4989012693763373;95;1.256637061435917
193;-0.106507406471495;0.6377652354176672;-1.1743083918137844;-0.3917657398925748;2.1814946666364468;-1.5799360072676367;164;1.256637061435917
194;-1.7789453600346723;1.0323061263732405;-1.2917764127741087;1.579581348431419;2.8060533364602493;-0.2760172348932489;27;1.2566370614359172
195;0.1834994925929561;-0.4711747472320532;2.25402904812883;0.496545269900149;0.7569934718144197;-0.8336356739353235;240;1.130268665599961
196;2.05159890856538;1.1503287376471372;-0.7687286129843877;-1.8870872038646176;1.2665994532831983;-1.88158136718914;140;1.2566370614359168
197;2.03698436966819;-0.2414353002884461;1.6426518566424118;1.421279765228288;-1.2720294009532105;2.9703329757236165;107;1.0782032501823688
198;2.559977658695974;-0.2535136912736271;1.6048565570568272;0.2468061210118508;-2.1961941539414105;0.1337874409221729;161;1.256637061435917
199;3.0029766153146724;-0.4892912907073581;1.2267202858806403;2.4884815764178225;1.3969925254443012;1.2446614231211004;171;1.2566370614359172
200;-2.57713479370811;0.0223895288931101;1.1876369114359029;2.462860224659874;1.4022762494763972;-2.2177954161672924;91;1.256637061435917
201;2.5470691216292307;0.4356464424264229;1.4740518513887992;-0.07097297589006;0.6404620013454141;-1.7919377201691369;41;1.2566370614359172
202;0.962635159771609;0.1739982261339547;-0.9748066497300468;-2.074708652562066;-1.0287138200822412;0.5141571920282477;132;1.2566370614359177
203;-0.1996415269387874;-0.9426907043472872;0.8473363217667951;-0.5335938027309984;-0.7614964680855015;-2.870020772832994;36;1.158468231076815
204;1.9232920496906405;-0.931437120791265;2.0153910327762183;1.9143496902677213;-0.4214165799009189;2.1366065074439327;107;1.20260157636575
205;-1.1189118935830111;-1.095717530344775;0.9412586962896295;-2.3253019593240847;-2.6030743404540493;-1.0038981096917456;94;1.2566370614359172
206;-2.809182680739225;0.2889176915296111;-0.7380327394550024;0.988107221279547;2.3616936648788327;1.7538836295189837;86;1.2566370614359172
207;2.828206886564657;0.973843606546985;0.1864086659606889;-2.070480991297536;0.5652816119989563;1.890874848306167;147;1.2566370614359172
208;-2.4428990346373807;0.769796921661626;-1.33244886874212;-0.7580590205870228;-0.7520538842922085;-2.727608609996304;66;1.2142331390020882
209;-0.3746366834102594;0.9964834718126708;-1.8379824960479727;-0.0605467103476279;3.188336169389482;-2.686372767338962;164;1.2566370614359177
210;-2.755498672156916;-1.0354851469244677;-0.5179623985518546;-0.71669733094353;1.933503588810774;-0.6253203132510213;89;1.2566370614359172
211;1.5935898102654944;-0.3026470259783028;2.186499380371228;0.9151345153760178;-0.0070314549460894;-2.708328921563106;65;1.2566370614359172
212;-1.357038968334763;0.2137766477262344;1.991628547423756;0.099522331264903;-1.6270346894803938;-1.2819418809410026;163;1.256637061435917
213;1.0983760278524817;-0.8904645703806539;-1.5738025747884534;1.9358205560657684;2.1886860975296205;-1.9003736198033083;80;1.2566370614359172
214;0.4644506150712991;-1.2988486176943577;1.7007245196532728;-0.7484398453422548;-1.2362010325865511;-2.977236489867557;203;1.2566370614359172
215;-0.0907444008271312;0.206645668773146;-0.7244719128033548;1.9291332294789665;-1.5565892012953335;1.9649813152309767;156;1.2566370614359172
216;-1.478224696937889;-0.5828327542361782;2.3107633187009102;-0.0751217860910135;-1.4193787214519809;-2.150501385545808;212;1.2566370614359177
217;-1.5332179812832936;-0.8601754114789105;1.0419975516473243;1.3186214302892028;0.0453129769292925;-1.326605687580037;129;0.8634057657222973
218;-1.9600030832228703;0.0901777662311163;2.0536107956152145;-0.660449706438988;2.1360119664150257;2.8683090030400185;187;1.256637061435917
219;2.777453032348026;-1.230709609181741;1.232839719307269;-0.067116205566069;-1.6164311649378291;0.0716551148650102;198;1.256637061435917
220;1.9131601094886548;0.2254806432539237;2.1014517915396835;-0.3491123241612102;-1.2224298116099974;1.5966531586375283;161;1.0592177165458785
221;1.3864412694500097;-0.9074458355157586;0.8240867844380206;-1.1668271060175883;3.0579717360987826;-0.6399478271905079;192;1.2169762842801597
222;-2.4013316336336974;-0.6896271817696004;-1.3781044842005286;-2.694642991610454;-0.1659309044465483;-1.068968577811379;158;1.2566370614359172
223;-2.169567009476477;0.6540904112591129;0.6769162410556135;1.8790891528153475;1.467232275470529;-2.85665036673094;200;1.2566370614359172
224;2.1566012346769137;-0.3736564142431532;-0.6059401587192605;-1.1658935131362365;-1.507583494132702;-2.0828926792531925;124;1.2566370614359172
225;-0.4706916219639744;0.9232400243685496;0.2639733506795009;-1.0937472308882947;-0.5230140240218413;2.677786287520768;849;1.0357433507760854
226;-0.84809300626259;0.9387854613726496;-1.7156612388650203;-1.313408666285577;0.8454755278717878;-0.5437186084272609;178;1.2566370614359172
227;1.069989612058016;-0.7985543121889389;1.7886202234823698;-3.2257346055078018;-1.4800889914968425;-1.8819693536354307;68;1.256637061435917
228;0.7083811948946115;-0.2002687944687673;0.4893769518983468;0.4289450761770363;-2.357584488338033;2.202945638891327;33;1.1094960437086996
229;1.054830394013915;-1.0547054745685331;-0.755593866026715;2.265681686274994;2.4701281180410337;-1.0680383867911305;213;1.2566370614359177
230;-0.8909540927015043;0.9228714164588976;-1.3994827854061866;-0.9633024829023648;2.805927197182602;-3.078351974957831;209;1.256637061435917
231;-2.433060148002073;-0.2328950163848788;-0.8910851971498945;-2.5362707050168183;1.053005263280149;2.893678611429851;137;1.256637061435917
232;2.594041701708176;1.6170472878150643;-0.802843327836726;-0.3217859359340121;0.34631458751492;-0.6897995114421756;34;1.2566370614359177
233;1.81369121189639;-0.5271020273347888;1.8753207531038736;1.2528638288985905;-3.0114071701269487;2.5960666999991844;177;1.2566370614359177
234;2.608718715853481;-0.4203620545848945;-0.0007744572035052;-1.403795906478584;1.4495180688343907;-1.700779074782656;55;1.060823188166221
235;2.993819600033852;-0.4793936129060367;1.4203132224256851;0.8698658927039813;-1.6366945247549531;1.198446499179025;161;1.2566370614359177
236;1.2628315378972124;-0.5099019560684755;1.094097061616604;-2.494384807524873;1.3324947467131096;-2.61060287293821;133;1.2566370614359172
237;2.28848689949216;0.1166064247528416;1.0381046123429785;-2.3243104529270395;-2.1337453868362486;-1.4763952139911205;48;1.256637061435917
238;2.007979170557918;-1.157674788959686;1.7717569922847018;-2.558383375640265;-0.9144840297041084;0.3482170345562993;120;1.2566370614359172
239;-2.979118306001545;-1.3255297581457508;-0.7329814897942821;-2.7787204527330385;1.0937877768240267;2.852878642122703;231;1.2566370614359172
240;0.5321188860735011;-0.7948745656171659;1.8737404173519296;0.3912954096101668;1.5553110791668423;-0.3255193245568658;37;1.0727468597034873
241;0.8785560037109543;-0.1991844124159269;-1.6822898066431338;-0.9696538614951272;-0.8471359091542257;-2.328046424471611;124;1.2566370614359172
242;-0.7741024528043166;0.2459323904208927;-0.926294149712576;2.155349487508974;-0.0489325425115553;1.2879597644249137;112;1.2566370614359177
243;-0.9273271201960868;1.4690349278557906;-1.200093168555322;-0.1684800142611892;2.328348868794376;-1.2027160800429244;193;1.2566370614359172
244;-1.5042536112155178;0.3226228733888883;-0.0283480667336009;0.2451787401287101;-2.353081351207712;0.8678355241388729;53;1.2566370614359177
245;0.8460462184499635;0.8209561928699037;-1.1119740297971217;-2.2652571424841064;0.0045496556997718;-1.7001414995268591;140;1.256637061435917
246;0.2583365042924441;1.499639206401273;-0.0820165039589979;-0.3272732530334161;-1.6559278402093764;2.1485920843740858;63;1.2566370614359177
247;-1.969412591120868;-0.4289371630047198;1.5994537069300176;2.4917995153038106;-0.8758961934266216;-0.9699239898399206;102;1.256637061435917
248;2.297282421673504;1.039054757742632;0.2701608175811528;2.2664693027256333;-0.5041850860696011;2.627382544423503;172;1.2566370614359172
249;-0.0600476431398207;-1.3645577157769293;0.9828356404213132;-1.447262668167888;-0.2830734979818453;0.9793192542886664;22;1.256637061435917
250;-0.6666183715322178;1.0300050809448429;1.9767512804070388;-0.8512582763380985;0.7729881885632959;-2.138492322106363;67;1.256637061435917
251;0.8976824352397264;0.4310278357452826;0.63742912178297;2.165417819915174;2.6489662475894344;1.769642955719093;135;1.2566370614359172
252;1.2602161443713913;-0.2704060748714508;-1.1184967106079229;-1.7542581445653311;1.1424259893333455;-2.634237397528279;140;1.2566370614359177
253;1.3782852346292127;0.2200111691263533;1.8684674963297456;-2.5317885166181964;-1.2181111689834472;0.0663658561328543;120;1.2566370614359172
254;-0.7896462073675188;-0.605436461775848;-0.3076981747529143;0.2909768889762339;0.5382686784818513;0.3463572941596159;0;1.256637061435917
255;-1.5104284378483752;-0.0864558667906064;-2.0167318139951838;-1.1171291737689082;-1.7990430097375143;-2.4492212968762432;73;1.2566370614359177
256;-1.6002918008306168;0.2219120279071968;-0.4924459840589155;-2.1793846490436457;-2.010025479723171;1.291938215908777;85;1.2566370614359172
257;1.7311777890311384;-0.4248170738882817;2.5965510034656063;-0.7504387459679756;1.425891789335197;-1.4443611002469836;111;1.2566370614359172
258;0.6461961542273282;-0.0396647987837807;-0.8980371959160807;-2.958655722860545;0.1729500188200554;-1.2065840841521291;245;1.2566370614359172
259;2.772505472810653;0.6707018426253302;-2.1481631297504014;-0.0151772884732844;1.5999069594569906;-1.117084393119936;44;1.256637061435917
260;-2.020695890141432;-0.5153597323919505;-0.2867728867115612;-0.1448072287893982;-1.59947595615218;1.627373339342355;11;1.171551648304603
261;-2.375702639080452;-0.0875406216578856;2.180884578076408;3.141789619286357;-1.2186869513139489;2.174707292500287;173;1.2566370614359172
262;-2.4410526940613195;0.2505254461018511;2.062715929233289;3.206985415912774;-1.237467043079665;-0.7745099628698429;247;1.2566370614359172
263;-2.560254108666294;0.8530189677726198;0.0866490684101837;1.1515129813773493;2.1807004751653944;-2.8670634249443188;223;1.256637061435917
264;-3.0497249306939738;1.08932463240193;-2.166777575158492;-0.2656447565700318;-0.4296741778114931;-2.985089104811081;208;1.2566370614359172
265;-1.1861388889571962;1.4362405307751964;-1.2556980275858338;0.9140223677101298;-0.3611241141874272;2.2494646625743124;139;1.256637061435917
266;1.996334551950868;-0.1167261645318715;0.2942294554282254;-0.5951632042634717;-0.5386410886587751;0.2320170549810112;92;0.6859693915024029
267;-0.5114351483627451;1.4595023279810384;-0.8904899694621907;-1.382565837650401;-0.7821853443934637;-0.8618573571899432;16;1.2566370614359177
268;-1.1674468129977955;0.02902648198169;0.7987755300911729;1.4209428046176005;-1.3708160845442436;0.8998408425624648;39;1.256637061435917
269;3.1351337894809927;0.0246097642701023;-0.3801189520202359;-1.9083773568640208;1.810780862385141;-1.6263272465896574;234;1.0048240223360438
270;-2.042421847105036;-1.3834336361149615;1.7733131236195108;0.0758434339194309;-1.6060506746696372;-1.6276563990645834;216;1.2566370614359177
271;0.8801490786840815;-0.3911632256732072;1.271045320524365;-2.520967475332688;1.020803184869295;1.504486611420237;151;1.2566370614359177
272;1.1269654335758532;0.9496320972353376;-1.4664830340768122;0.6526583874067613;-1.0746134692492335;-0.3713150452052374;101;1.2566370614359172
273;-0.3917514969488927;0.6146425685967035;1.6543405308882309;0.903189894645446;-2.780015542732937;-1.0676761628105869;184;1.2566370614359172
274;0.7157098169078957;0.6193609530834069;1.2168958992441998;-2.544804510580912;0.48210521255804;1.991560987734995;271;1.2566370614359177
275;1.4265303978397768;-0.7512406075713451;0.4300462429426227;1.918510834872488;-1.2770977321470025;1.0023177135452273;20;1.256637061435917
276;1.3337224817595386;-0.5962985519799592;-1.3975384111617584;2.254211953657715;1.5839482116148629;-1.947568325138555;213;0.8014355794823719
277;-1.9637168310977784;0.9538574140545784;-0.6434044632043598;-3.0261268721562438;-1.599658077876719;1.3480866256938369;256;1.2566370614359172
278;-2.2480845324397087;-0.6511636363481004;1.475970779461288;-2.3358653583790963;-1.0075745212035738;1.2527525614682584;181;1.256637061435917
279;2.978944059872899;0.2228455178983813;1.8930016478285752;-0.8774043235377983;0.1627724604528821;-1.250367077937358;201;1.2566370614359172
280;-1.3886069586450849;0.2709079975917769;1.773518511678151;0.0086069010265013;-1.0823542026262416;-2.808531849746937;216;1.256637061435917
281;-0.3925166875816699;0.5981022405110727;-1.2121141651689615;-1.057454092096405;0.8392794956776753;3.285143772918265;83;0.9348773684315638
282;-2.6796598054389844;0.960179015252334;0.5257465221250671;2.910622585951528;-0.6903970596696412;0.816657360116892;57;1.2566370614359172
283;2.512754505159958;-1.2742840046583903;1.5926991427541006;1.0861952918169746;0.0726670676771408;2.062444929648171;204;1.2566370614359177
284;-1.072997191705324;1.1811116586107635;-1.102483997621124;-3.170132739688172;-1.6491594149086088;2.0553126470860037;277;1.2566370614359172
285;-2.265233353330199;-0.2358486356436359;-1.7933917671383028;2.704386568057765;1.7178683105343042;-0.845605335283238;60;1.2566370614359177
286;-0.01499094759883;-0.7799196220760968;1.851818596412429;-0.3924881344162339;2.55197335196672;1.5387246252589837;100;1.256637061435917
287;-2.4121103542759985;-1.2271784954694998;0.64769594496598;-0.2298098222661534;1.0735153201178815;2.7604935717270838;97;1.256637061435917
288;2.450355386892276;-0.7861579756821448;-1.301812406726356;0.1019196017395589;2.9759694775055103;-0.5337810876868478;56;1.256637061435917
289;-2.5631578113615787;-0.9048656958683008;-0.5781647879526277;-0.2661618230545583;-2.3236438311174687;-2.1701935947347604;104;1.256637061435917
290;2.329930278366059;0.1742166474181598;1.6969331835155417;2.51012149234951;-1.2499413306401173;-1.5595011937019043;52;1.2566370614359172
291;-2.296629707147098;-0.4352159720708843;-1.4534545823509253;0.974339860057202;-1.7357626667480972;1.2175033598963938;110;1.2566370614359172
292;-0.7853186008288248;0.0300418129799903;-1.1621457324181603;-2.682222271546548;0.1435522146898502;2.354062201029191;79;1.2566370614359172
293;-2.623694078864528;0.4823772769558057;1.4811757023526333;3.0462064022219097;-0.1049478787270642;2.8965361692767795;173;1.2566370614359172
294;3.334144362800343;1.0293813760135486;-0.090107004513048;-1.1824245554357278;-2.953381013392326;2.267041909061514;188;1.2566370614359168
295;-0.6950240790157123;0.774480166663694;0.7613647422551377;-0.0099944732334577;1.0999419099721706;-0.740913627563385;13;1.2566370614359172
296;-1.3204857140283863;0.532425418651604;-0.4440751615869994;-2.359950822540541;-1.1066835254084018;-2.756781283017256;113;1.2566370614359172
297;-1.3093524232042817;0.6618693411390235;-1.7812897253715398;-2.334958732038598;0.0703628585922497;2.9833723790125863;292;1.2566370614359177
298;2.4029627387932395;-0.8801736962568877;-1.7037839610692775;0.9789228753508852;1.524929151775869;-1.3303930513641182;80;1.2566370614359172
299;3.218572566793028;0.206585064095444;1.728242502057493;0.0413205192442849;1.8357654476637757;-0.3015742692176843;76;1.2566370614359172
300;-0.3777750952198464;1.444123713874338;-1.957967518382695;-3.031101965938788;0.148899044991281;0.0557144525914998;191;1.2566370614359172
301;0.6255481212539;0.6219068764972862;1.35516051426776;-0.9333303756063568;1.6837095001859108;2.808490620045266;118;1.2566370614359177
302;3.1983179699144726;-0.7309913903230231;-0.2469956061772045;0.1186541075495879;-2.521611647998636;-1.2140216323474626;154;1.2566370614359177
303;2.3803418634122986;-1.2733793914566165;-0.4977660070876736;-1.3189248404485494;1.325826599051348;-2.428679385427733;234;1.256637061435917
304;-2.985130457529422;1.2680264636157867;-0.8947936934079483;-2.176265390126729;0.4611096039069207;-2.953874114640493;179;1.2566370614359172
305;2.4268100945876503;1.1138877186284593;0.2035523147316381;-1.314236349126369;0.6785123647953857;2.7927528330422144;207;1.256637061435917
306;-2.854900907740068;0.6280303463349391;1.6546697342809995;-0.7082856532071641;2.673367826177546;1.4759417556878742;187;1.2566370614359177
307;-1.6064933096799066;-0.1950214109587406;2.585040825021891;-0.3136908386581249;1.1734476368688074;3.077209209979902;218;1.2566370614359177
308;1.4555364107320132;-1.252336801858713;0.5888298848008472;1.5206671955215292;-0.6988149066303649;0.1027093949532831;275;1.2566370614359172
309;0.7798801351185373;-0.375698821353658;-0.7839115870687712;-0.8672125460465038;1.7817709074776398;1.0771693509229323;62;1.256637061435917
310;-0.8783400087784496;1.321194403976663;-0.8235366468019132;-2.2996409747006465;-0.4844600284476031;-3.045136414472445;296;1.1981604213945345
311;1.4028666186883394;-0.4332837677523082;2.0088438668494795;2.8738337011319905;-1.5194903701157645;-1.7795043545188394;290;1.2566370614359177
312;1.7361449688792612;1.2872161313306925;-1.9223826286352588;1.037041089322859;2.3254154719701963;0.3477117197300882;35;1.2566370614359172
313;2.590330098629698;-0.4095114175200428;2.4578778393006253;2.478148356776083;-0.4572782723191865;2.7255385361355597;204;1.256637061435917
314;-1.4291497609898915;0.7178904902431599;-0.0699959085415071;-0.4030196683024345;-0.6799745101968631;2.606725449480195;225;1.2566370614359172
315;0.7718473000612349;-1.4816059697148607;0.0364324990289905;0.0461987014727496;1.8028379716207843;-0.3293380113355193;192;1.2566370614359172
316;2.6244225279856903;-0.5941700611428242;2.28840704696836;0.4446057315821367;-3.2686797242701284;2.761120360836697;233;1.2566370614359172
317;2.750080924684482;-0.036107234812343;-1.8602259678257629;2.3297077951069314;0.507664065809319;2.4646100490302723;46;1.2566370614359172
318;-2.373552367122494;-0.5999526086838636;0.9595102108130836;-1.261643742247924;1.2228968823595143;2.756826584070305;287;1.2566370614359172
319;1.598708280368203;-0.9979319760583788;-1.2512413147705013;-0.1763026060013043;-0.7590699141717775;-1.6838870365576557;124;1.0196971562932782
320;1.507421706920746;0.5698219555618141;2.145199077906692;1.900002661266227;2.194895917182613;0.3956508784267369;88;1.2566370614359172
321;0.4361471689276561;-1.110010859429711;0.9816134500643072;0.8858176745981902;2.208663641487156;2.8719700426708865;168;1.2566370614359172
322;-2.330706561057672;0.4821997344311963;0.4283014586030527;-0.3031598360736909;3.04447109972666;2.8371079516480227;187;1.2566370614359172
323;-1.276838591178873;0.9247607999442488;-2.122395137057548;-1.1816736676805943;-1.9455913703900864;-1.5550582959002277;73;1.2566370614359177
324;-1.7552220463791774;1.2258411919801728;-1.2189580827424338;2.078628424348815;-1.2783804494274966;-2.5904773483558965;126;1.2566370614359172
325;-2.7440705510312178;0.5280050571774649;-1.0222170666536523;-2.779221234151077;-1.5117120610426882;-1.098169179604195;158;1.256637061435917
326;-2.951341162866013;-1.608102230430485;-0.4080243371139579;0.2085653397124681;2.5100066537362844;-0.7364010395428603;210;1.256637061435917
327;1.3451645773744618;1.1659188880138434;-2.522180814544699;-2.246610608602776;0.6004967428852377;0.1856150061710915;966;1.0094090987385336
328;1.638788526582383;-0.8958023556019479;-0.1952692175666266;2.7512563186652264;-1.914577061086652;1.1517189558723324;275;1.2566370614359172
329;-2.8477809396041387;-0.7373984514017379;1.8297231248087884;0.4892745363713156;-1.2902610789303797;-1.1384309470182432;270;1.2566370614359172
330;1.678969350611649;-0.5545315844509949;-1.0161995447539365;-2.8874385355220635;0.2678106788485871;-1.6749809764825407;258;1.2566370614359172
331;0.2969219923889737;-0.0455328881697861;-1.9214400400246592;-0.6338134257258498;2.1076102350257533;-2.1519791939251363;193;1.2566370614359172
332;2.019378649274078;-1.0647560499826956;2.2851175402692263;-0.8498608830582459;1.7483366777791929;-0.5085679576246338;257;1.2566370614359172
333;-2.289297170200482;-1.2100051549867108;1.3640438908772834;-0.2481971593750991;0.5050872252135903;2.593024792973893;287;0.9380974184577064
334;1.960092066890465;-1.2892249632659505;0.7998169818875599;1.8670185705761635;-0.2128684543606779;-0.0760973229320569;308;0.8297757369236761
335;-0.1880430879536916;0.396212362762152;0.0616575708674123;2.73653459941388;-1.7664473873309636;-1.4167940953541671;93;1.2566370614359172
336;-2.8611613829938647;-0.1306849320272338;-1.4042848287468988;-0.7533049563385654;1.2383270688438317;-0.3579361859199593;89;1.256637061435917
337;-1.96769966992956;1.2977459990153966;-1.819053278117703;-1.0216511343245904;2.874016881242;-2.7698968811517406;230;1.256637061435917
338;1.2046015463178252;0.911174240348418;-1.66265229205029;-1.087383766712567;1.652457738367811;-2.5503723189891723;140;1.2566370614359172
339;-0.2004371361843441;-1.6522579714620618;2.291229936538256;-0.0566618910107496;-0.8123522114454994;-2.9046995860064526;214;1.2566370614359172
340;1.108912804262108;-0.1165991891719047;2.053030831317296;1.0878403999938635;2.018181790503553;-2.024358856544296;72;1.2566370614359172
341;-2.263585999246546;0.9506005960077284;-1.9673048248983145;2.208627017892173;-1.2074186843668706;0.938314782024546;139;1.256637061435917
342;1.7783938138052018;0.6531186928440723;-2.4057991028126264;0.2289351774394944;-1.0054244520898437;-0.3859579573682384;376;1.2158043561689642
343;2.010473887331101;-0.9426204038303104;1.492403745902529;-0.0489830527097916;-0.532836857888894;-2.5066680213094155;65;1.256637061435917
344;-1.3594326767469993;-0.5220525145350485;1.1164629103328654;-1.8776009549300563;0.994266304702742;3.054013653636348;318;1.2566370614359177
345;-2.9167505150920423;-0.0019965401763447;-1.5303398935200967;0.2682955737485217;2.379170648567979;2.3341851853629665;206;1.2566370614359172
346;-2.9081858096955244;-1.0852397120361927;0.669005849196252;-2.883860800069111;-1.0313802917413195;1.3068159590046864;278;1.2566370614359177
347;3.127461214212397;-1.054731187821673;0.5376266242967633;2.2303023985057746;2.189798233274712;0.9728700346408335;199;1.2566370614359172
348;-2.286651541240229;-0.1490768716462796;1.1525872893314688;-1.6199067686010356;-0.1658103561530828;0.5146575796563414;70;1.055533353770825
349;-0.3547685261655854;-0.0303102705589258;1.4152060708207816;-2.460463773426474;-0.5404346154022507;-1.3818654778899253;87;1.256637061435917
350;0.4008617090698151;0.639814475364202;-0.5929065407962223;0.7559862026201053;0.0434808199525558;-1.054694489769142;14;1.2566370614359172
351;2.415952276774687;-0.071421495049003;-0.5224125697917997;-0.228685928617159;2.905856752306232;0.0539475713810555;288;1.2566370614359172
352;-2.538798894553973;-0.8562818780765316;0.213526935807182;-0.8646939664056876;2.576183246041222;-1.3533637918897294;210;1.2566370614359172
353;-2.4778534100973846;-0.4185697362770115;2.205078664808478;-1.032019410951817;0.7589829168442273;-1.9283367530446736;119;1.256637061435917
354;-2.678162764278836;-1.3905816703151883;0.9858357074006994;0.7712280931340771;1.672452796527295;2.8411825678815066;557;0.9521941443012152
355;3.0141104836191213;-0.0769833342301256;0.5927898784223843;2.2902726411889525;-0.6182458989781803;-0.2096705853083772;52;1.2566370614359172
356;1.2661330617560858;-0.7043579248018463;2.283811223316277;2.695394260065386;-1.0592917295712732;-2.860119443231439;311;1.2566370614359177
357;-0.6058361381919035;-0.2660952195584393;-1.5095684740498885;2.604184036649669;0.3467226423464071;2.056364906860491;242;1.256637061435917
358;2.083726325475239;-0.2162130905833713;-0.2647127464055316;0.6015837898782392;-1.467938458776881;-2.581146984933018;75;1.2566370614359177
359;-1.175164543793876;1.1717185124171012;-0.3949713573839269;-0.0719502413953896;-1.078795452866969;-0.8551714318300011;7;0.4852865107937099
360;2.970882675481996;-0.0514917897048706;-0.4202593542977702;-1.1000262945072845;-1.2407416520996433;-2.9209093698689985;224;1.2566370614359172
361;0.3212937674844025;-0.9737382013918556;1.3366111076674088;1.100835669663533;2.823587334730133;-0.0078429871742935;59;1.2566370614359177
362;1.799632703462682;-0.1443295254366227;-1.503617800994661;-1.595649477088345;0.8423456532123661;1.399166388189829;74;1.2566370614359177
363;-0.812926176265941;0.2768928766365724;-1.489935913458298;-2.336204906820933;1.048656444483859;-0.5056181168933309;226;1.2566370614359172
364;0.9535743530533286;0.5692567340559475;-1.4729851043272624;2.5103687029587105;1.6453122491684136;-1.9154599028433943;942;1.126953503900135
365;-1.9707908141052632;-1.02027763403427;2.428341685513545;-0.2878483093192968;0.240466284408652;2.105820912219141;333;1.2566370614359177
366;0.7848801888605415;0.4352989995921633;1.250811685044584;1.0587774386346127;-2.5749202931206097;2.58456282609358;228;1.256637061435917
367;-3.176637345058821;-0.8660764751612309;0.6108389835733464;0.6427241961502782;-3.1821437955572742;0.4243829168984954;51;1.256637061435917
368;-1.893284320537489;-1.0660594942931754;-1.9762160120776304;-0.7880762480894804;1.468950102094014;-0.4014093831095427;89;0.971788140240884
369;0.8750436087969404;-0.8725858562927641;-0.1838369311407107;-2.909458271996914;0.3494233406355489;0.5379881127166002;151;1.2566370614359172
370;1.7174574211394928;-0.2812609688350879;-2.106946346074458;-2.3055158353766987;0.6543958627441369;2.20563585647954;362;1.256637061435917
371;-1.4193655664209968;0.9994243389251802;-2.375827150293723;-3.207756499504676;-0.1242733579783366;0.1823312067857964;300;1.256637061435917
372;2.117032297828012;-0.4437804016995726;1.9752316848008324;-1.3407299203697882;-0.1974860120306744;-1.4519511727632797;279;1.2566370614359172
373;1.3385509459783045;0.0224328705826846;1.1997889734980436;-1.0057145592860877;2.363890842200696;-3.126393027460563;153;1.2566370614359172
374;-2.9444011805888035;-0.7773135918967314;-0.0771375408617859;0.9150310552887572;0.399492380493858;-0.4257003891734962;6;1.2566370614359172
375;2.81611295931143;0.5254805062556966;-0.3914290686869959;-1.9178110036142324;-0.1242326319914464;-0.868797050184987;49;1.2566370614359177
376;1.8753729508632773;0.720561796993691;-1.2754354951368891;0.426214422634479;-0.9740102258270288;-0.0030756420238735;101;0.8355083558918984
377;0.5805446370779204;1.415926814769109;-2.2913544673882105;-0.6983360672698429;3.303955670353084;-1.8244261908033408;164;1.2566370614359172
378;-0.3422175247276583;1.613669963999767;1.516059262221028;-1.1060997087471705;0.7628304396213879;-1.2133157833316863;250;1.2566370614359172
379;2.5817096816835816;-1.081555810970217;1.6297631249473556;-1.7506079965771475;-0.0147078430402537;-2.2492577249594423;372;1.2566370614359172
380;0.1941280337298427;1.3918632139871645;-2.49740313562549;0.8134415220897588;3.2917526957402257;-1.8655814441852177;164;1.2566370614359177
381;-2.6479519865377696;-0.538244764761895;-0.3665833571863867;3.1022426450834004;-0.9971073641804544;-0.0046411165075865;824;0.7153652972762378
382;0.3867791225957531;-1.337234785040564;-0.6445087644000607;0.7695840509109605;2.356116254493742;0.0126151105867767;315;1.2566370614359177
383;-0.5923020208512473;1.028776373320842;-2.289765682142538;-1.8717639777490664;-1.2508350945325395;-1.8909203662470209;323;1.2566370614359177
384;-2.9241266375940995;0.1552251120845466;2.3647982207753797;-1.5393205159087593;-1.0032715776107408;0.5787150444055755;181;1.256637061435917
385;-0.1262707465048451;0.708623421497848;-1.520472973718788;-2.331328475051172;-1.60568907415653;-1.3160103753137262;383;1.2566370614359177
386;-2.6414140734862688;-1.074600766562992;-0.1314696592313931;2.6561629421714947;-1.0771345981217744;0.8976139222481327;116;1.2566370614359172
387;-3.00807338921872;0.6662375318428553;-2.654140274132548;0.1777702848565289;-1.1096673226109683;-2.276661845088056;264;1.2566370614359172
388;2.00766178915766;-0.8881947682298086;-0.1448295742528051;-0.3091869346108008;2.420623094789515;-2.121938361713506;82;1.2566370614359177
389;-0.2011888655028498;-0.1538119931824602;1.2155369213319882;0.1746494788908013;-0.6305287838471104;1.1332986530572295;8;1.2566370614359177
390;-2.7349974539189907;-1.2078727120239037;-1.0901901845573267;0.405060970001581;1.0179512250825338;0.8948743504044727;12;1.256637061435917
391;-1.5620310379642437;-0.848071063068846;1.9817321134489263;3.049314151037035;-1.397602613957739;1.6663329750292557;261;1.2566370614359172
392;-1.8079915040611825;1.3991705768218223;-1.6537553593541674;-1.3526287514575257;-2.8454357372404635;-1.439386845461926;323;1.2566370614359172
393;-0.2863011224780569;0.9770636865287184;0.4534284736539866;-0.8941186715108472;-2.0923629057887894;2.607864080845561;246;1.2566370614359172
394;-0.6784584325651186;-0.1010171693271563;-2.4098177834814765;-0.2693715067957734;-1.8541261065492576;-2.3467186428685176;255;1.2566370614359172
395;0.3819459693516662;0.6835048878646989;-1.7654658777376042;0.3479702925388278;-2.388578578198047;2.4148501008165217;156;1.2566370614359172
396;-2.080337904794188;-1.1359285013347764;1.0015517491891468;1.7296082048148982;2.1408128614960087;2.9782713062678527;354;1.2566370614359172
397;2.002032549550049;0.8791817803382986;2.188898564822197;-0.6464449135371173;-0.8497490503585535;2.550051637908901;220;1.256637061435917
398;0.2800716588963188;0.3765603261107014;1.0327338700665696;2.839002619184978;1.357182198348443;2.929774279233286;150;1.256637061435917
399;-0.041249946685722;-0.2952404108758084;-1.6566168393247351;2.3764508092999046;1.346561439958086;2.4880666888572804;357;1.2566370614359172
400;-2.890813202085499;1.2031274112068175;-1.8982119602371053;1.045313305942719;-1.993357873624079;-0.6324005701798399;162;1.2566370614359172
401;-1.7587913776699242;-0.6542438953616705;2.3455328150568824;0.0330120012085177;-1.8044230985742784;1.2760225326258827;108;1.2566370614359177
402;-2.9738170499869336;1.1893728813036455;-1.274170452507066;1.1527545208265;-0.3322774493297871;-2.041008586685216;126;1.256637061435917
403;-0.7532578988142945;-0.7827563605169522;2.6300479951060183;2.4165655718829337;0.3582480694682071;2.444294442838708;169;1.2566370614359177
404;-2.788550895524336;-0.097319514342916;0.0684524099204138;-0.615611319882276;-2.903103984733836;-2.156015955924376;289;1.2566370614359177
405;-3.020749029924468;-0.5143343923934394;-0.4768069995219423;-0.1604673430949063;-0.2886439915372474;1.636732102066036;4;1.2566370614359172
406;-2.1681821465791216;-0.2805859360733667;2.4166144937681397;-1.1780848149129324;0.7475897936729101;-0.7459710857559598;353;1.2566370614359172
407;1.218326657071778;1.3831220413029464;-1.2220408648372785;1.650881696360052;-0.5418827608700552;-0.1642581855808356;272;1.2566370614359177
408;-2.088640692437643;1.1036510266692288;0.4628185324986825;-1.3872366608201605;-0.5896293614566549;-2.0761537689612624;113;1.256637061435917
409;-2.071973423090485;0.0126732788656326;-2.058569840684333;-1.6664870447795537;-0.0766477711535509;3.1586995108618674;297;1.2566370614359172
410;-1.7765406471995302;1.283832363819534;1.2701048290818069;2.336086000747079;0.7905863833911303;-2.864047396224472;223;1.252863858348768
411;3.0139785857872865;-1.3720582179885497;1.0946050867690702;-2.6204607055605256;-0.7209002552009562;0.2023450005472833;238;1.2566370614359177
412;-1.5586783734216023;0.8927375995254101;-0.0055968103803779;0.425695176181788;2.823088516496932;2.62249141426255;322;1.2566370614359172
413;-0.0377807603011547;1.0285348815581727;1.79265107709979;1.678573661183681;2.719796626199584;-1.5062239118868457;47;1.2566370614359172
414;1.51644468005777;-0.9404221474164632;-1.8019311485780087;0.4029996415852467;-0.7396111857508456;0.6105715387465132;21;1.256637061435917
415;-2.528254059874528;-0.4320598538620785;-0.2862392572226059;-0.5278557402352071;-0.6866021313442716;2.501863805542231;405;1.152143324144921
416;2.84988123875692;-0.7938477535499249;1.0163868205702478;1.9232242197519889;2.6289121124628694;0.0149052321429682;347;1.256637061435917
417;1.63061463757853;0.7101968368909031;1.6204045685513195;1.396403156060202;-1.49412799681721;2.5004154820849163;197;1.1584490097948668
418;-0.894125202578161;-0.488128753833715;0.9567557901768298;-2.715288752045522;-0.5875657516220197;0.4990687973782115;61;1.2566370614359172
419;1.4654712219713537;-1.625422624925068;0.6775660773618314;1.2387219425737674;-0.3485134013587242;-0.0599898721178773;308;0.6130588597178318
420;2.2250430061202984;-0.0775492715877891;1.5038417185688244;0.3826385334467106;-2.950753233531875;-0.7816240289796964;198;1.2566370614359172
421;-0.0465679545734475;0.4386499160029683;2.3088356310287224;0.5916423620566769;-3.1247391950944863;-1.1897527606777791;273;0.8996042936248227
422;-0.2571283689354113;0.5505661581936593;0.172121233728592;-1.7586277280645024;-1.5530181689198663;2.079675576935085;393;1.2566370614359172
423;0.1326672688378325;-1.452358582752027;-0.1378490614350494;1.1211393426366876;2.4055367537724406;3.021980263356124;321;1.256637061435917
424;2.623653437492091;-0.0840857579116943;-0.3007090843294748;0.7263806526125807;0.0777713429209386;2.767831610384571;46;1.2566370614359172
425;2.482818201457522;0.7155516637961948;0.860229690116038;0.4598774192296526;-2.0853159691094887;-0.0143102935995597;198;1.2566370614359177
426;0.4822327323159998;-1.616715823441822;0.762538419510208;-1.816884069525606;-1.0776047258088637;1.615757994022149;249;1.2566370614359172
427;-2.6243673154250984;-1.6802999772607812;-0.9983092286522632;-3.405174284305474;1.8424081154034933;2.3013798596632222;239;1.256637061435917
428;1.1258320791734189;-1.2115007691799933;0.0192930220017263;0.3985817315394062;2.1351305989723093;-2.4179242059015373;388;1.256637061435917
429;2.618989472644775;0.2379485364098835;-1.1269706160227155;1.0644081677111592;-1.208554056859259;-2.8289210304501955;358;1.2566370614359177
430;1.3085313109108174;1.1260240439184808;1.8451803760495027;2.3386720176207088;-1.2116725774459862;3.033623634420783;417;1.2566370614359172
431;2.039814191755732;-0.0626382692304008;1.45329283681487;-0.9242502406113382;-0.7556198905066501;2.8021079021725126;397;1.2566370614359177
432;1.7241067568634716;-0.405225636953852;1.0528354962101067;-1.8650973560431243;1.6317083200146094;0.6239630959152225;151;1.2566370614359172
433;-1.861991119758436;0.2304574058032363;-1.804065076279146;2.9294770957771554;-1.6186571956232971;1.367107131640165;341;1.2566370614359172
434;1.4704275698498006;-0.0819783659547767;-2.150684962595113;-0.817797277343361;-1.822465625632778;-2.4742141224350704;241;1.2566370614359177
435;2.6651389810870585;-1.44861340674494;1.8423479813791543;-0.1677582567389345;-1.371822375316127;-3.259372715964258;885;1.2269230632066768
436;0.1867109620859677;-1.580287037846879;-0.1444785715627979;0.3427271131079653;2.73443178189353;-0.8629343407613791;382;1.2004366645397202
437;-0.091626218601058;-0.8983639369033111;1.216333708072895;0.6236880690174992;-0.6072149142458579;-3.1273946941874207;203;1.2566370614359177
438;1.9062121794913736;-1.2929445530500263;2.1632503665668747;-1.0649032630237916;-1.035070458345819;-1.4771057277252275;372;1.2566370614359172
439;-1.674237577448557;1.586560876581244;-0.4212321382529038;0.644422371272779;0.1657215591876758;2.770728824022977;265;1.2566370614359177
440;1.9627663335308445;0.9752741259072998;1.5606485790289302;-0.1848181942642333;-1.5846677523574948;-0.3047570366937802;425;1.256637061435917
441;-0.9357171096592956;0.9166288925577356;0.6950400481193743;-0.0901098947675607;3.2718420872607434;3.104319732405513;412;1.2566370614359172
442;1.604772623135434;-0.0157724644641617;-0.7663005855188467;1.917679947207912;0.0533406439614039;-1.8660870003481351;115;1.2566370614359177
443;0.361112686331188;1.104024280841023;-1.8099717166446183;-0.3709713721645204;-3.1485202659036458;2.967567807216123;395;1.2566370614359177
444;2.3473091383202367;0.625088229029252;0.0306467191895671;-0.7588853973100167;1.474435263456871;-1.718603768032493;234;1.2566370614359172
445;-1.1748860952330822;0.2189666022779918;0.2987444373514759;-2.319902466162494;-1.6673401735430406;0.4950710655279523;256;1.2566370614359172
446;0.5775140335004718;-0.843878571812737;1.9815988435815568;2.7970756854899084;1.907183774212628;0.8346594095100173;143;1.256637061435917
447;0.4568602646683941;-0.3106302664248785;-1.566058660255756;0.1202768862241117;-0.7190153465627318;-2.74158679335808;241;1.2566370614359172
448;0.8997914429263422;0.1039339054089585;1.0487504444525113;-1.5366972190994024;1.4041905170135092;-3.3693416107530423;133;1.2109969444252189
449;1.4977699518831815;1.237927509339772;-2.6601257485849445;0.5557774795942753;-1.073067057136284;-1.3770695278778688;342;1.2566370614359177
450;-1.0747776133875997;1.043880778124729;0.3715661982670832;-2.9016092352078173;-1.5114646315507507;-3.123748912260405;296;1.2566370614359172
451;2.151557538292264;-0.6876829319051885;-0.6570710281057673;-0.3743434964593169;2.5292514590145267;1.0277408725905794;351;1.256637061435917
452;2.3600783265960645;-0.8676860952517021;-1.528638528209756;-0.7570044799608537;0.9254966956201114;1.223305315921252;362;1.2566370614359172
453;2.7367312115524856;0.3298313800654424;-0.9705199762302604;-2.6072311385302736;-0.6671800594501214;1.2966428136686394;667;1.2543602240501277
454;-0.3731325059552814;-0.0942777537276243;-2.106948113961084;-2.7130183975576925;-1.0519358266300582;-1.5939721217924827;385;1.256637061435917
455;0.1138646989439454;-0.5366618314983074;-1.1677469651185373;-1.1381643910866253;2.618350346942676;1.5119582583340512;309;1.2566370614359172
456;-0.2543715544300187;1.362886761208598;0.4114655564588981;-1.9652531654804184;-0.8784783419668933;2.502963694022581;422;1.1806900298268566
457;1.610278769946197;-1.4128693310262397;1.867928402902131;3.152579977207985;-1.2759467092801011;-1.1316935343165069;311;1.2566370614359172
458;2.5140997899333577;-1.1771017298829298;1.7710848003350106;-0.1638706239445081;1.0854796504791382;-0.1244138044483822;332;1.2566370614359172
459;2.500105533808993;0.4310999209706022;-0.0760286402341381;0.4248122009721981;1.2993399644984878;-1.9924294458494145;444;1.2566370614359172
460;2.372164924537256;0.9197882080706872;0.4571494210201017;1.9730632599790332;1.8467419560057137;0.910346933398953;171;1.1660597804500803
461;2.3180545615999795;-1.1270065379606564;-0.5213280454103095;1.6853501439336451;-0.951610435182656;2.6417442294690283;30;1.2566370614359172
462;0.2754526783879024;0.1192836959318103;-1.7537297825068;-0.016744648287443;2.24017608594442;-3.2126567862876207;331;1.2566370614359172
463;0.9709190507202988;-0.9350319575167528;-1.1069967222251067;1.7554567137784145;-0.3785102147359329;-1.9247635557603244;442;1.2566370614359172
464;-1.1154209443706804;0.6166495269055146;0.4798593122156455;-0.9277488876227896;-3.061499654084199;-0.4075434706218603;174;1.2566370614359172
465;0.2021322350915401;-0.6862280214914989;0.9934052251798646;-0.717030441192099;2.755792394062353;-2.12601959850194;180;1.256637061435917
466;-2.378423625339018;0.3957736275477722;0.0885748190132489;1.9310436111129483;-0.9505708890398612;2.38717271004504;39;1.2566370614359172
467;-1.933055394657848;1.1004715698932048;-1.5361387979153398;-0.3716530966800921;2.014525186924644;-0.7794937701915123;243;1.2566370614359177
468;0.265967631476425;0.9243325041910376;0.8244337454176087;0.1648153831228899;1.8517635380507032;-2.480235739672556;47;1.2566370614359172
469;-1.5572738303236555;0.1845284252462566;-0.6714558464353592;1.0337113504184088;2.5880247196131534;3.0799491546768967;412;1.2566370614359172
470;2.7863850191637107;-0.776827343112861;0.2861486792062514;1.8953666757859784;0.7680584964978546;-2.9353080445215567;64;1.256637061435917
471;-3.050192606268306;0.6493355818703437;-1.73399021057757;-0.3512596812648144;3.1327098944760605;2.713596332393464;345;1.256637061435917
472;3.1200630603670776;-0.3853762424968856;1.5276818846419538;-3.00761887289846;-1.3961050748874797;2.251143251343085;190;1.256637061435917
473;-2.6206366421906826;-0.584029835955751;-0.8339852093550357;-3.428694063489351;2.2605805003703967;2.336345766762919;1194;1.068178184399444
474;2.682089696989026;1.3822320757619324;-2.295767357970247;-0.5718635372736075;-1.7127046973330848;1.9069057356906325;121;1.2566370614359172
475;1.7085292797173195;0.7223463329225807;-2.3874479807883597;1.535554503111;-1.260302304479187;-0.93039286437273;449;1.256637061435917
476;2.5496567643307078;-0.5397474484948301;0.8717852192836046;-3.0755958565253505;-0.5705378582887137;-0.4232708431484327;411;1.2566370614359172
477;-1.927808097806741;0.5965255193496383;1.4429341228731405;0.339803388664875;1.2945249729471642;1.4436105707763116;117;1.2566370614359177
478;-0.4774183271719248;-0.411926190736459;2.4763118308348697;-0.1676269514360017;-2.0371176281690038;-2.512094234763919;216;1.256637061435917
479;1.1666957081279432;-1.2378946121499212;-0.4489700887858388;0.6614460926060481;2.799868340372126;3.0042174298725204;423;1.2566370614359172
480;1.850934447693052;0.5999497364708096;-0.0378689899601327;0.884631047724608;-2.17844710837786;2.978583726928223;33;1.2566370614359177
481;-0.6652352091000625;1.4387408263467527;0.672271665924611;1.0191558559388445;1.4644711343777357;-1.6374938945842628;47;1.2566370614359172
482;2.775938231891482;-1.273807814384537;1.8543873647101463;1.756663761417785;2.644161137511017;-0.7680939025241421;416;1.2566370614359172
483;-2.31611939339874;-0.1941535797012036;-2.193504624399848;2.109719937470401;1.503984458672071;-1.853248047380557;285;1.2566370614359172
484;1.594148186921194;-0.398798600472405;-0.5349080236598516;2.1108367494304003;2.9852109875362807;-0.3468798487384192;229;1.2566370614359172
485;-0.924641383932452;0.1302370831848577;1.1238589832470716;-1.634341311632984;-1.3760143721023832;2.014068058841414;422;1.256637061435917
486;2.349834189276781;-0.3991558160643808;-2.6034454286657915;-2.705216547358784;0.0353861043282171;1.5925354951159547;370;1.2566370614359172
487;2.5524497726447475;-1.2452846158286606;-0.2755942547162358;1.7369648536355808;1.8463357294640643;1.4081990074306856;347;1.256637061435917
488;-3.078362589108782;-0.4428867313528959;0.6368129946815962;1.6535314151791285;-1.0340841080272745;2.4234822085544168;466;1.2566370614359172
489;2.3701019014527334;0.7529938106532272;0.1937152904935188;-2.080310877760133;-1.8874026710461065;-2.0545586316666573;237;1.2566370614359177
490;-2.91491564292461;-0.5536651077011456;-1.9514691307713183;2.083391629529637;2.516533160179141;-1.9357221891737355;483;1.2566370614359177
491;-2.816806855814629;0.6365019580069857;0.4759659871815628;-0.9288073138535116;0.1498360096226068;-1.8049653960821104;408;1.2566370614359177
492;2.247997522725602;-0.7493038445730288;-0.7219541741515991;-2.594601161940429;-1.7731793680183987;2.135505985773904;149;1.2566370614359177
493;3.238499195897817;0.6876708673569765;1.001096688329444;1.869947293521348;-0.1178943205357194;-2.6594035533809506;64;1.256637061435917
494;-2.7761718497104373;1.4633565168468476;1.094029086711222;1.5727930802552752;2.644724412284403;2.9309330647473675;182;1.256637061435917
495;1.9112072465765544;-0.3928053221442624;-0.70269919101205;-0.7812780712753015;-1.89595287056604;-3.0873182316310803;224;1.1737025608468958
496;-1.3203056342806212;1.0412708742874524;1.4281064036475737;2.702227714113444;-0.5009111271640699;2.3649788561488867;173;1.2566370614359172
497;0.0187169040511597;0.4066468575084911;0.6479850325239613;-2.7469018790522064;-1.2594514266787165;-1.134774966207872;349;1.2566370614359177
498;3.482679246384044;0.2358888267243837;0.7548894286320333;0.7872720195947598;-2.04842488113254;-2.280166519611478;81;0.5816572955986856
499;-1.2013835251102238;-1.2602891733146206;1.753088702225003;3.395206123894224;-0.4139398501469282;1.2926555661043406;391;1.2566370614359172
500;-2.8307930653975304;-1.4371262377695522;1.0374659262345152;-2.087772155531479;0.6486172976972123;1.5471512994452454;109;1.2566370614359172
501;2.75267685871262;-0.8137896665752735;-0.9961137052581296;0.1077220873583712;-0.3176108492001064;2.853673218094216;424;1.2566370614359172
502;0.7050398232475711;-0.6443291669470338;1.9429117308214556;-3.097809506771255;1.736728932475443;-2.566768583152112;236;1.2566370614359172
503;0.9713675774456024;-1.086018554421383;-1.7107303521289268;-1.4657307895758571;2.7624883485630933;1.857104953255621;455;1.2566370614359172
504;-3.062658588840406;0.4095905411765865;-1.959497116463068;-1.0666936302115173;2.143741022730348;-0.5007312139476738;336;1.2566370614359177
505;0.6275171104368362;0.1158576070088192;-2.339734531769879;-2.4659742627254086;-0.7794318204460995;1.353598454528782;132;1.2566370614359172
506;-0.593332048359816;-0.0579295034600731;1.89289028852586;1.9394032527482696;2.785453495935761;-1.4184525571578606;413;1.2566370614359172
507;-2.5731751133008114;-1.2848573675876866;2.0884790032447134;-2.73857979403427;-0.2778004148056026;1.2083725418536957;278;1.2566370614359177
508;-0.7506990106222537;0.5846469241089058;1.3293590116576697;0.3894553065565087;2.797143284778189;-2.218920785488476;47;1.2566370614359172
509;2.458796835364481;-0.2768228968073065;0.5508843446049874;1.1314473652004131;2.142748543210376;-0.266016167017109;416;1.2566370614359172
510;3.1113285995663675;-1.2327540059357052;-0.6596786878703708;1.5277153965463006;0.5232119332824706;-3.354798855982986;470;1.256637061435917
511;-2.3393558538256856;-0.5619414400883092;1.688685494126293;-2.310836700899551;-2.7167054856509414;-0.8461682065544102;583;0.993465454998876
512;0.4104356794734735;1.2872759340115525;-1.2704930558114444;-1.6992073811937782;-2.286317893321212;-1.140165102088889;385;1.2566370614359172
513;1.0514371555817807;-0.4132246522816594;0.5985460453259444;-3.0258816646410818;1.9004452369973792;-0.1418130964080161;176;1.084659889795035
514;2.2391920606055;-1.6138126960918189;1.4861398402028068;-0.855142506394175;2.533104573288715;-2.028795199391636;82;1.2566370614359172
515;2.518788725792909;0.5809339310785813;1.3722900451851008;1.91942190426084;2.802241308956753;1.937137644550537;171;1.2566370614359172
516;2.1669598318682803;0.3620393723342376;0.8466616056337295;-1.1926390334428478;1.3633902857505382;2.571607235130496;305;1.256637061435917
517;0.9198214383583612;-1.1304825583344509;0.997945703280052;-1.5471631712587852;2.7683846542391346;-0.1393816602966813;221;0.8813563740601987
518;-1.0296661367782722;-0.3821653933775797;1.0291029056255396;-2.1544984544902395;0.4574477850665914;0.0297093635391736;87;1.2566370614359177
519;-1.939710758140648;1.747158090363322;-0.0740664059456777;-0.1920550303921741;-0.7889878906172272;2.625256877092788;314;1.1733773062346362
520;1.5247472722542852;-0.8180675863420543;0.4652254655103591;-0.2379872542333351;-2.6463359600362293;2.1555289264225497;228;1.256637061435917
521;0.8574894452360687;0.9211809889390188;-2.1824009437401006;3.0646590892119727;0.8858804435579342;-1.6729555098653786;364;1.2566370614359172
522;-2.1490489720795067;0.9553084155560936;0.7734999308402506;-0.3221247288432531;1.083005581344027;0.0464113570151801;42;1.2566370614359177
523;2.6987568870645067;-0.4510909016352713;-1.5325580937695262;-2.6967625477719395;-0.1329102802186201;-1.9297540899121304;330;1.256637061435917
524;-0.7228298153427112;-0.9548714987272838;2.4724111544286025;0.4039262265340878;0.6057569784261526;-0.1668524753874274;195;1.2566370614359172
525;2.2858108194873243;1.2035893321603597;0.191379423453831;-2.567580359215285;1.1445343279912747;-2.2303886536723714;196;1.256637061435917
526;-3.322984205460782;-1.054946090498669;-1.754496548435695;-3.2166568566563054;1.0156655543313042;3.23536136801555;239;1.2566370614359172
527;0.0856177639621566;-0.0456582821021924;1.0325041390463954;1.6447017180033654;1.648953016555916;1.3280679278074508;114;1.2131018458633345
528;0.1623668767010455;1.0498685500635645;0.3855505157421081;1.6771495504179106;2.3455079413220656;-1.8856395806417563;47;1.1265964671131048
529;-1.821730364206765;1.6174341174421478;0.010050541769184;-0.0925503203894617;-1.9805008657156349;2.959485845971315;519;1.2566370614359172
530;-2.031410848033582;0.9067801198996476;-1.431307849917133;-0.7136426435551714;2.554022479480983;0.2754672834305156;467;1.2566370614359177
531;-3.1885394513305303;0.7044490360719482;-1.3232107715696626;1.8138780391035336;-0.1448317703603747;-2.9483424375825438;402;1.256637061435917
532;-1.115884664058063;1.5319955292279577;0.699596974454358;2.790491256132834;0.0613960409340835;-2.8829898740407627;410;1.2498367917605897
533;-1.2226107056300084;-1.5371127776405322;2.3359974546194757;-1.6780986484509912;-0.9949915445096076;-0.2309502167305438;103;1.2566370614359177
534;2.626012721216872;1.1109812889756534;-1.2491617819261036;1.2889405607282376;-1.2608867638136856;-3.271287572820376;429;1.012920460666879
535;-2.184138314746221;-1.73687543816102;-1.213025720981474;0.4515446966353503;2.867159216988399;-1.1096701189281353;326;1.2566370614359172
536;0.3860877964484352;-0.4222297021753968;2.7292336635733583;-2.2655402253461867;-2.1657324842969587;-0.9151173525938232;157;1.2069758175476724
537;-0.5211918471793632;-1.1610528382976626;-0.1460344110484393;1.785610623798035;1.7591801025352174;2.566590408629093;423;1.2566370614359172
538;-0.1490553958706971;0.8024111245246686;-2.3601292400249183;0.3168910386855053;-1.9497365947842176;2.3895755786892074;395;0.9186471930653964
539;0.291227975417908;1.0494411535884154;0.1262070470862279;-0.2201727079268455;1.0004759984884946;0.6191951512278578;14;1.2566370614359172
540;-2.754412395812672;1.1387521055659042;1.2271085055973914;2.539813444917552;1.4463713177300306;-1.6774068768061516;200;1.2566370614359172
541;2.629210187322304;1.3996575322818077;-1.8056731250675315;0.5233986915812974;2.109679936464889;-1.7170800515722595;259;1.256637061435917
542;0.5106345805124555;-0.8269207199564876;0.214412027369934;1.3179221176448133;-0.498987321841633;-0.4302943859639814;308;1.256637061435917
543;-0.1788065912877717;-0.4248173261930756;2.04598357248488;0.6134108165145243;-0.8267020329307547;1.8978604569649449;389;1.2566370614359172
544;2.318753138914305;0.9605898162271984;1.1837764506472916;-1.7401199613688678;-2.8285603168422133;-1.3327077337437194;237;1.256637061435917
545;-3.149088313876366;0.5782248248066615;-0.013367780388139;3.1172397555399227;0.1846373282582454;1.154095517476424;282;1.2566370614359172
546;2.95759430446998;1.28161053623749;-1.430623316726079;0.914730150632048;-0.8712307117859106;1.900741760253471;121;1.2566370614359172
547;-1.565252634035158;-0.4594769163580089;0.2019656549468482;-1.6430603631003908;-1.0585095100183717;-0.7917999144120215;61;1.2566370614359172
548;-0.7728148472049761;-0.0867296892636541;-1.1533977495943817;1.5980157811729023;-1.9299064658061045;2.736256617329781;215;1.256637061435917
549;1.477567392556579;0.5752170960326323;2.139811736170657;-0.922346336787068;-2.090879278228968;-0.5239492632232079;440;1.256637061435917
550;2.2876433288113818;0.2067299868363723;2.5012655275948474;2.745675557237562;-0.7559464603218378;-0.7658865317195529;290;1.2566370614359172
551;-0.723739004579018;-1.3797789444819917;2.064586101902511;-1.0501378187243038;-0.7331858331921447;-2.47293822090476;339;1.2566370614359172
552;2.036884401428014;-1.1760814744238848;-0.8711889814986504;1.633171301963921;1.0521730868853107;-1.2172195505619232;298;1.256637061435917
553;-2.3531290221016268;1.4034933090559654;1.5153452645456194;-1.202478560733005;-1.50131457753674;2.3995219851138123;131;1.2566370614359172
554;2.7467953998495664;-0.8311848324907178;1.94737591322996;-1.7152375470202792;0.3668985226149159;-0.6950554486813145;372;1.2566370614359177
555;-1.128669603819104;0.3042585157253593;0.4736754192783747;1.0395120029434688;3.1400887586810584;-1.9268975699015352;508;1.2566370614359172
556;1.4640795556602733;0.792765740056554;-1.2499660898326117;1.882202107229726;0.3621310861830984;2.6346290724685404;46;1.2566370614359172
557;-2.710882262860172;-0.928285314766334;0.9117628975450528;0.3387463722421664;1.508480566160475;2.1538172428153177;97;1.193463682191506
558;1.7992622391339497;-0.530383887506381;-1.4243975900661745;-2.450146291720741;-2.2409916607375084;1.363039094236722;492;1.2566370614359172
559;0.3565667321330206;0.7724760348102557;1.0064653186040289;-1.454156035684068;2.314329915723162;-3.357499522162157;448;1.2566370614359172
560;-1.5462733710906846;1.243426493046907;-0.3534942237893692;-2.71424411328613;-2.355500288496668;1.834130539548544;277;1.116675525638178
561;2.8062048480945334;1.138024240581198;-1.240321216645378;-2.2049970520524496;0.1453294785031515;1.1342306857592623;453;1.256637061435917
562;2.8068142997187406;-0.7266464135910451;1.5729808446207283;1.8907610225569835;-1.4624324999676972;-0.91726525607295;52;1.2566370614359172
563;0.6496750405611601;-1.502661809221013;1.281089856195721;-1.7530046890879605;-1.5031327966596946;-1.0749323279396437;43;1.256637061435917
564;0.1408720301887186;-1.1262824871676729;1.6457701457169116;-1.2445387799351602;2.8877376869950213;2.282829622403075;286;1.2566370614359172
565;-0.5343214840356435;0.8773396794084238;0.5959774649553647;-1.517595272198619;-2.7939920640659337;0.4530018635996423;464;1.2566370614359172
566;-3.0929180730386885;0.9110046993389972;-2.060154456286016;2.136212251634779;-0.8823547235358183;2.262336440197895;165;1.2566370614359172
567;2.434431036268819;-0.4271199172579256;0.6337113948608595;0.3581879000538832;-2.913748569452847;0.3844315353903139;198;1.256637061435917
568;0.2030570280745547;-0.0704497397368247;2.00480133131725;-2.787526932134961;0.7582305987941214;0.9218806307003332;271;1.2566370614359177
569;-0.6936937705489141;-0.365037569728597;1.8224220538091596;0.893144547335112;0.645931454195052;-1.494354942417508;32;0.9729956788306684
570;0.2603895000877885;-0.599069638210459;0.6657016517616203;-2.863004166357131;1.2501592974513611;-0.8236717284004896;513;1.256637061435917
571;2.17322908287114;-0.9779659172650222;-1.1658804535433638;-0.2262363358222341;2.2231917320930186;-1.063715821661854;288;1.0427167622846325
572;1.1208991800575074;-0.9921735259860096;2.4772091799116778;0.1888682221258657;-2.3145597687879618;2.2932438662203385;177;1.256637061435917
573;-1.9388625337519247;1.212433759357704;-1.2198882022923812;1.1515434043267234;3.0595498330531337;-1.4022820205344817;194;1.2566370614359177
574;-2.796887407150157;-0.8738142367306007;1.3985946351207532;1.1760082495149229;-2.2183367829741645;-1.336263720381767;329;1.2566370614359172
575;-2.441155790596908;-1.10474310478404;0.2311809123666988;-0.5722641434239302;-2.276624564321198;2.008754549206297;260;1.256637061435917
576;-0.2324734413373211;1.1457010308391815;-1.051075467867144;3.065342002489877;-0.3836651809163964;-0.6528761019960865;122;1.256637061435917
577;-1.258355580821748;1.469922894994075;-0.5479175318899037;2.1922809252984155;-0.7651450179223693;-1.6993683238564024;69;0.5232936577860405
578;-1.7055985308272157;-1.2609694704357022;1.508757860796099;0.6736932724582826;0.5043410056025245;2.1725874826635394;333;1.1793615447332937
579;1.695943971315256;-1.3663646034995134;1.167221775530709;-2.039791453977987;-2.527298304044317;-1.1441845709181768;48;1.2566370614359177
580;2.381987152180193;-1.3872653128376031;0.8756688740850661;-2.795465097428803;-2.316286666377525;-0.5058484858236838;579;1.2566370614359172
581;0.0866481737466585;-1.4462724509197673;-0.086367044530455;-3.245379566903839;-0.3339365173882065;0.7357982302167925;369;1.256637061435917
582;2.364457287461214;-0.9256622818406216;-1.8390848520824528;0.0928000013730905;1.597462607961626;1.7761828130346295;452;1.256637061435917
583;-2.058064998587375;-1.106478608029293;1.7118266382956973;-1.7881701249681692;-2.601255141195765;-1.4156273302692852;103;1.2240453847570243
584;-0.723822665190083;0.5571031484671716;1.5753189882683043;2.37053415429146;-0.3645091598639561;2.1702365170212263;496;0.8822882506139337
585;2.5612048293049976;0.0329112670157157;0.6395519794221034;-0.3429868163429968;2.789381190953876;0.4666947239582042;351;1.2566370614359177
586;2.7618118023455063;0.0330946503857697;0.6532964717825488;-2.552672563365794;0.9080604598921512;2.239772432828641;207;1.2566370614359177
587;-2.031089265291973;-0.8214516419411941;1.3577019462510935;0.6954607710149526;2.2603660948570887;0.582237845133076;185;1.2566370614359172
588;0.4571059987512938;-0.6689317447574225;2.541392468920619;0.5293472271498731;-2.732747482952301;1.049598302397106;177;1.2566370614359172
589;3.103843975911219;-0.423840141683712;-0.3609490672707446;2.655388135679666;-1.7017946469288336;-3.041851197829475;84;1.1077418242466366
590;2.608759425435571;-0.0306164257009624;-0.6394589290010335;1.9053330287994412;0.3921969701096405;-1.202866071996806;442;1.2566370614359177
591;0.4411717578907455;0.3399077175825659;1.8236540310995728;1.5137547103285145;0.2374448199531484;-1.6532471975370493;96;1.064617773138424
592;1.884826412675712;-0.7296188791418532;1.229670078613232;-1.190487424069174;0.1912606208567664;3.1067064574402203;431;1.2566370614359172
593;-3.0379318324302997;0.058189896892974;-1.1817464170987415;0.8621257112401595;1.4513675665398855;2.8094316290926065;345;1.256637061435917
594;1.552413450340657;0.134825291701777;-1.974122709481924;-2.022870391317056;1.16359787111118;2.2493186023391742;362;1.169999625742994
595;-2.324268279703292;-1.2454700657626776;1.9369452502829592;-2.1808441043592603;-0.044506558415819;2.21683431676226;507;1.2120060742675678
596;1.0534711931575167;0.4770061429662599;-1.0665581249374982;0.8889847064481212;0.4099000910485404;1.6554394859366124;21;1.2566370614359172
597;-0.0321212349749256;-1.1358449019070973;2.531578667988834;-1.090970294334051;1.8528605617918168;1.654701677242475;286;1.2566370614359177
598;-0.1699826534532492;1.3721479795817657;-1.6681986924431431;0.6504450640849211;-0.4155839570662994;1.7018702085101636;265;1.2566370614359177
599;-2.948204140340708;1.4767525060562523;-0.0917069034007342;-3.091815765720712;-1.73044237763924;1.2445858837685082;277;1.2566370614359177
600;1.1637127918786483;-0.2048681354356691;-1.02452375848131;-1.4947159213821033;-1.2965240490317729;-3.2021608541389384;495;1.2566370614359177
601;-2.966920056868428;0.3675293687663707;-1.3509731564461225;2.5076787767024022;-0.0474107369112889;-1.9866327024284307;531;1.256637061435917
602;3.172592210191439;0.0238331348952227;-1.4591631633142903;-1.927679912081752;-2.3906577096489685;0.273516725500506;186;1.2566370614359172
603;2.1739412236142632;0.1562653297318637;-1.6083720735557008;-0.9406144972779892;1.2071593249824866;-1.8198445224641224;29;1.256637061435917
604;-2.4706603975206933;0.1946331871921138;-0.049381116484247;-0.4811189244590085;-3.220929945436091;-2.178187965938201;404;0.565480885928619
605;3.159727498883878;1.0863941550022531;0.7972562026011868;-2.7532276498316053;0.9802576898904448;-1.9711252556124692;525;1.1283709423319304
606;-2.7471217633281224;-1.7022255291362167;-0.4330496475761333;-1.0100668629541707;1.9859953253798388;-1.1354113803465196;210;0.89489499194177
607;-3.130704150004369;0.2612758261943141;-2.20450468823465;2.070301750459339;1.6671727542297743;-0.7490815325681885;285;1.2566370614359172
608;2.8024362111391814;1.201368996768068;-1.298602779355297;1.1034533784736358;2.4958953670574595;0.4582317323727591;312;1.2566370614359177
609;-2.236539154577933;-1.3070175521025906;-1.527558260356158;2.136666363485588;2.7399277940192848;-1.3709582092809738;490;1.256637061435917
610;-2.569109864964961;0.21381439644176;1.346362918419398;-2.582144727923275;0.2199963168188658;-1.1069044371941097;87;1.256637061435917
611;2.799779921476768;-0.0100858002509867;1.4447845112761304;1.3847267455511176;-1.3554934339403866;-0.3761323430159082;562;1.0441620458012115
612;-2.6857763228630085;0.2546271814839823;1.5669074825279494;-2.8270890605407315;-2.0352290916326425;-0.6303238401195493;511;1.2566370614359172
613;1.4028055844899143;-0.0948955998747401;-1.0915070124945705;-2.5988501696157296;-1.726230326596032;1.3851009676267787;558;0.8632629176545422
614;2.887663170287636;-1.2994983891631802;-0.9649830502323078;-0.7162827987269802;-1.0879603635334276;2.626492909847132;501;1.2566370614359172
615;2.069232734001699;0.4104194292024221;0.4186017374590878;2.0933703534059678;-3.2563615333842537;1.7433765454111343;71;1.2566370614359172
616;0.3057010368084688;0.1221848211768636;1.5859229497362295;2.195608373308411;3.031792487323035;-2.0048667562696743;506;1.1853844020608248
617;2.287583737447947;0.0699372015037134;2.1754883013477118;-3.1023008778233705;-1.5463649281537366;2.7282267762245924;472;1.2566370614359177
618;-2.8599389433838565;0.4969748557800384;-2.083251240204373;-1.6892010496124017;-2.5249021282181685;0.4255756645862933;175;1.2566370614359177
619;2.192262108980124;0.2185159098582108;-0.0617258076903915;2.6648806758279147;1.3321390377291282;0.704604760889915;460;1.2566370614359172
620;2.454915096613788;-0.4406250673513117;-2.2650830312904224;-0.0359080244156191;2.6223185895347103;1.4806781566567644;582;1.256637061435917
621;1.306883147722834;1.2406953556400189;-2.1709395564966063;-0.1440968533176342;3.2182859227905305;-2.656197099867303;377;1.2566370614359177
622;-2.0776853244876734;1.514628583734218;-2.3541869178330805;-2.2932808000694447;-0.331914906774709;0.2039476158080684;371;1.2566370614359177
623;1.475084195382253;-1.093680702517464;2.3999961067118543;0.8945603343797686;1.6606787956403837;-0.0819109679609167;240;1.2566370614359177
624;3.0710753136163995;-0.9223127162576146;1.870649322026357;-2.4801825794807386;-0.967783860670104;2.668466331187101;472;1.0218287030739095
625;-0.0009615955726276;-0.084724458052187;-1.7661042587409523;1.9271531609249228;-1.017799323553788;2.620597923956025;134;1.2566370614359172
626;2.031692586097921;-0.6743199044100983;1.9774552261001177;-0.3833632229298028;2.578267794845112;1.1477895100932896;100;1.256637061435917
627;-0.7598962669550907;-1.2042625233867152;2.3183020901915112;-0.3651475379128487;0.8864016369463347;-1.7518162366919088;45;1.256637061435917
628;2.979902154906129;0.636202249511351;-0.4939482646522165;-1.8175158220593288;1.3955349929912482;1.415558156797884;207;1.2566370614359172
629;-2.5874767924421613;0.1721561691893068;-1.0823237579855791;-3.077754700270661;-1.531418130152339;0.800001939303993;277;1.2249499661160823
630;0.1086773041065901;0.9045549108859386;1.1288372309492185;-0.9417742596197826;-1.5251491833918664;-2.117574058767494;40;1.0107059819679882
631;1.1534443653599005;-0.5699039484287955;0.8155361745093305;-2.0070768133116506;-2.572272979531475;0.0312549047861875;48;1.256637061435917
632;0.658096664318501;1.4290064945865146;-1.0908054054596623;-1.0698366765493883;1.941900376098948;3.2089312806661217;98;1.2566370614359177
633;0.0215820833900083;-1.3438730987000564;2.147291567508001;-0.344360068085291;-2.767732237720041;1.1679448306656264;588;1.256637061435917
634;-0.6095074156060707;0.5975840661720353;-2.077209798196703;-0.3157905707320088;0.6818339020596402;-1.0467667383207584;226;1.256637061435917
635;1.4669158630357402;0.996053701806164;1.7106919819199868;2.8692424909482317;1.7699585948241745;0.6906567892844655;320;1.2566370614359172
636;-0.2657263735861168;1.265198087687266;-1.320158589034742;-0.6709166782217348;0.8785891361847359;3.2718289954263517;83;1.2000121500842778
637;-0.3500569561302979;-0.4435830540662827;-1.466745170698126;-0.9157381488195018;1.0947893405789633;2.7003190264826147;281;1.256637061435917
638;1.3979682383405398;-0.8394474094115456;-0.9573656925686472;0.8343982145914399;-3.0799580718451263;2.580824238598682;33;1.256637061435917
639;1.349356707412402;-0.8709320317601186;0.5614685906780924;-1.0465267207686717;-3.050453281049047;1.606285921728423;520;1.0777448655689428
640;1.6956313351747252;0.4875066830010073;-0.6874370731827003;0.7220318966150931;-0.0960643283260287;3.2276114203340165;424;1.256637061435917
641;-0.6541089257536241;0.4627677554549561;-2.2744049663879204;-1.6409917421654567;-2.805761566428774;-1.492336314885586;323;1.2566370614359172
642;-3.2408352973300687;-0.8409372198742875;-0.0528385406071047;-2.262432517081698;-0.4961103556793092;1.7705518498252688;346;1.2566370614359172
643;2.769063728393231;-1.2117081361162512;-0.3293415956559018;2.050113802633906;2.5226960972065977;2.3944410316771454;1016;1.1836583239790892
644;0.4740680192048478;0.6270544382565366;-1.3456408490080485;-3.157268831627454;-1.4574958834503626;-2.0069312139845072;385;1.256637061435917
645;-3.137897493294479;-0.6856942785152059;0.1950842077155829;0.0554176968169286;-1.9640782208266008;0.78583881832337;51;1.1354058493363397
646;1.5618963934128245;-1.7150038108005294;-1.0752219616497063;-1.0486254206397378;3.1887189264018465;1.5827517861612332;503;1.256637061435917
647;-2.0944768487165786;0.3293597487141008;-2.410487518625404;-3.3671218488619346;-0.6310858002137674;-0.4429026681150103;371;1.2566370614359177
648;2.5178338490340715;-1.3945328167495947;1.985589557816681;-3.1949449607957026;-1.5901154897398628;3.0408580424875047;624;1.2566370614359172
649;-0.8820007753055139;-0.2661016998789173;-1.8708075810097493;2.4854516801354807;2.095598811325127;2.9906697494328487;399;1.2566370614359172
650;0.1370075982064473;-1.2446363337620572;-1.5877815129056183;2.066409912575208;0.6207658754991727;2.6235859578819003;399;1.256637061435917
651;0.9490934663305758;-0.2504807653714023;-0.8092862940177192;1.498601272843873;-0.3168594998975046;-3.3305020247655697;123;1.256637061435917
652;-2.311188323835152;1.256839871430166;-2.6631901661701303;2.574235712273278;-0.2864974260296875;3.071177623681137;165;1.2566370614359172
653;-0.8862605200026685;0.9570417852847732;0.0925864637709933;-2.048445388382236;-0.9691402130092892;0.4320736953708917;445;1.1116211616964775
654;2.289277249847888;-1.6016462942488014;-0.0055442659760859;-0.7624170835083652;-1.3951776867509644;2.9622666449632797;614;1.2566370614359177
655;0.6190938799696413;-1.6457960571982198;1.5498092391710627;-1.4793031935803636;0.5382135542695383;0.7748433096552177;249;1.2566370614359172
656;1.712414352306132;-1.0738715343570349;-1.323324022876213;2.20575476101469;-0.7607755591390186;2.1327483069043205;461;1.2566370614359172
657;2.633933846024844;-0.5366438380216625;-2.457901884867756;2.713239633391219;-0.3895470424721948;2.4124831255434285;317;1.2554063871110213
658;1.9787061000481247;1.1508801411748055;-1.1451449307542665;2.2658784990625995;1.7686668786577768;-0.3041342284844033;35;1.2566370614359172
659;-0.4827255060398561;1.7351451706656411;1.241316758706652;2.178299424773607;0.0831061332895335;-2.375736765273624;532;1.1696907726813544
660;2.750380921626725;-0.4637492998527689;2.0243172863146564;-0.7839073817723894;-1.5971962266496198;1.3364344783679314;220;1.2566370614359177
661;-2.6227314311945946;0.3282830315063399;2.245241732299623;-2.4963412881790403;-0.9350144166900146;1.0548841968080056;384;1.1324163227917832
662;0.7065540652255138;-0.0174266186634848;0.5819132265286555;-0.2921287900392558;1.7343960394523068;-1.1046819146072373;2;1.1311902636544986
663;-1.275250600561824;0.3014919872820853;-1.555652459361975;-1.5741624723240797;-0.9917492229473034;0.163111255967969;23;1.2566370614359177
664;-2.903249693026525;1.4146111105402543;-2.4727645483215723;0.0129766943120037;-1.673666664332446;-0.4420728073665283;400;1.2566370614359172
665;-1.2007704496230176;-0.4993096849406658;0.9971639053846229;-2.832503379338725;1.4676700005159935;0.2639689008300149;518;1.2566370614359177
666;0.3194581081851651;-0.8535369329338466;0.512211309144482;-2.950614609643532;1.4275166246867983;1.858225718153923;271;1.2566370614359172
667;3.1255643888751607;0.8728170565138814;-0.2494772465082723;-1.8889818767744249;-0.4396982488753333;1.0969873784209885;125;1.0453437709949207
668;3.4086151712075763;0.3208341492159039;1.849122411313076;1.0641330303448158;-0.0560043059499096;-2.451284707871681;839;1.2302680807235968
669;1.6190962823082755;-0.4515606908620425;1.8095366510773072;2.668667441669704;-1.2203932196347207;2.2177562695768565;204;1.2566370614359172
670;2.515224273335472;-1.3810877762207057;0.11741877634567;-0.363482391345612;-3.015098739401371;2.2471573629523167;520;1.256637061435917
671;-1.2568813966610786;0.2255261579601527;1.1477241106786833;-2.399502968089372;1.220458030478435;2.226230833833261;344;1.2566370614359177
672;0.930577751519454;0.4209946364675836;1.484020131868217;2.545234334772658;-1.6555221816063632;2.035569036268344;669;1.2566370614359177
673;1.6797643854412447;-1.4364511515552594;-0.9626739635340044;-0.0989252115264742;1.005551797009838;1.0415832063625967;452;1.2566370614359172
674;1.5577197982917834;0.3361155866916973;1.7455074714130352;-0.0331989289404187;-0.2661614418641108;-2.802529959638585;211;1.256637061435917
675;-0.8784306889872587;-1.8245933706268964;2.153139226011477;-0.7511428070229276;-1.3038871764752975;-2.844988534443261;339;1.1117191938669369
676;3.1417642404002644;-0.5628424307463834;-1.3629874932028496;-1.0719105275426517;1.3014386553538146;2.0025586349738536;452;1.2566370614359172
677;1.5283790237632389;-0.2800467284125559;2.5169762111156944;1.59163169688841;-0.6923398362043849;0.9288594323367352;128;1.1952412108924395
678;0.3869418378176775;1.1003328194398128;-1.3447721354208455;0.6422815037923749;2.23281452560587;-3.2639741319154734;462;1.2566370614359172
679;2.3112422127936183;-1.4944051218251269;2.291590979316611;1.571020178426805;-1.7226757734307094;-0.6769939879399289;562;1.2566370614359177
680;0.4100489363219972;0.349393322157394;1.4257994167335626;-1.8262712207119296;-0.1641886308933008;2.65125721188173;274;1.2566370614359172
681;-0.0483732058035419;0.0721029386117426;0.6540252656119264;3.0171558434042334;-1.1270259930139113;-0.6318898836790348;335;1.2566370614359172
682;2.388673989071009;-1.27625191075382;1.7259199946699155;2.550517768316738;0.917556537535256;0.9291392128132072;199;1.2566370614359172
683;-1.9051305264317804;-0.3844651746513175;-1.884522576170189;0.8435417488329748;-1.9384204744858715;-2.4542903609639364;104;1.256637061435917
684;-0.3671620708064985;-0.6138527287156774;0.6227093779401852;2.2297661794001176;2.1446908895252643;0.7846583333733608;527;1.2566370614359172
685;2.903554133447499;-0.5166251697334249;-1.2237229013105078;-2.511897065079708;-0.2265697542989787;2.0499557488901523;453;1.2566370614359177
686;2.8890954538808487;0.084647053766719;-0.2320281969920717;-1.1202721301003766;-2.802057563426738;2.931603341777456;294;1.2566370614359172
687;2.916594248850231;-0.5621569564930248;-0.6024833134158343;-1.6676047692995422;-0.6366469067302057;-3.110349084493725;360;1.009898464708783
688;2.572190993671267;-1.6943838791802164;0.7705721540126584;-0.6645728643044374;-2.376288859266936;-0.345455055675783;219;1.2566370614359177
689;1.3027765159638822;1.1257280235596934;-1.5799094747124411;-2.7311704145739792;-0.5942927836852384;-1.0051614668647968;245;1.2566370614359172
690;-2.636074502300788;0.0387873070846955;1.6664434614045645;2.8293186201939657;0.6997206131798455;-1.5501676626875391;200;1.1430667013072329
691;-3.1911540589547243;-0.4923625426750169;1.0549078609432885;-0.664282425140106;2.141583001218601;-1.6434812527907745;352;1.2566370614359177
692;0.2015949507151782;0.7539117527586028;-0.3272515950646075;-0.844545446559335;2.756844584522592;2.7985738201936963;118;1.1735502202866313
693;-0.9618053504096044;1.222963031052783;-2.0633153744493598;-2.5548627485062787;1.3275225184118291;-0.0500070838853601;703;1.008162841140282
694;1.557761003578225;-0.5346136967461665;1.3889068720985387;-0.0724474187888315;0.569024362665645;2.979967959923393;592;1.2566370614359172
695;1.420727033046117;-0.4337680795155259;2.3621185623700423;-3.121616616607341;-0.8326234096783818;-2.633034191173267;227;1.256637061435917
696;-0.2232771075168137;-0.3329542329654397;1.9871888667953712;-2.882312745528238;1.2677610950282912;-3.160131776552501;502;1.2566370614359177
697;-1.190398018227659;-0.3605674836381524;1.2498209707423935;-2.730915261376284;-0.1150007111233236;-2.0820797192527425;87;1.2315883279820934
698;1.0954044945579653;-0.2428570780253313;-2.119230423560843;-2.0582443396925663;1.3632739782695722;3.160379102146631;594;1.1152176940205405
699;2.2717985598623915;-1.2073811333684883;-1.200814070128973;2.280990640232706;2.0085782215942283;-2.273144498720794;276;1.2566370614359177
700;1.1085124667594308;0.0397690756252102;-2.3739595038263457;1.519080763697726;-2.1187141740118203;-0.8043747890540265;475;1.2566370614359172
701;1.604612040994666;0.8187342884620648;-0.877484945156571;0.0709744056322085;-0.9978032054332248;2.7940062855068057;882;1.1878445004552327
702;-0.2395423963749681;-0.97400312822606;2.062441888598908;2.266836715104341;-0.3862996906459007;3.0605013648878776;403;1.2566370614359172
703;-0.3772179928397992;1.270404014466004;-1.4785418125016925;-2.78148789014066;0.8810977506071458;0.2324555540601811;300;0.9432324210265186
704;-1.1879654410263116;1.544478449917711;-0.4058332712911854;1.6920856513203395;2.78399015022785;0.1357104642020966;194;1.256637061435917
705;-1.2845951576303924;1.6570889555116686;-1.127316149253916;1.1448768123825972;0.3121865734507291;-2.019527653310861;126;1.113643838529359
706;-2.942460150278202;-0.6051349316202067;0.1427346813607211;0.9506380641741784;0.2768577841474176;-1.5096002553770849;374;1.1265607289522075
707;0.9849447800451632;0.0385697971833676;1.9260664126655596;1.315667176933323;2.67977761507427;2.714634993549112;135;1.2566370614359172
