Komment314/test_diploma/benchmarking/path_finding_for_benckmarking/pre_rrt_star_results/6_1_tree.csv
id;joint_1;joint_2;joint_3;joint_4;joint_5;joint_6;parent_id;cost
0;0.0;0.0;0.0;0.0;0.0;0.0;-1;0.0
1;0.3842582953068963;0.304793244937513;0.6348246408269379;-0.9396177459344486;-0.2295637415329608;0.0;0;1.256637061435917
2;-0.3642572228675;0.6028126322429079;0.6853903552310007;-1.1900649615082917;-0.8470529193404824;-0.6953215688048496;1;1.2566370614359172
3;0.9130720909159962;-0.361866035089212;-0.0802023502101855;-1.4589108612215245;-0.5006270628959318;-0.0255698341324187;1;1.256637061435917
4;-0.8851487371965725;0.1003809440870675;-0.2491539810814908;-0.3238611667115968;-0.0534220791494267;0.7847001995313875;0;1.2566370614359172
5;-1.683571209170795;0.2628896182824349;0.138695270853682;-1.165234966438531;0.0772092804762488;0.98431915158973;4;1.256637061435917
6;1.2826581035464637;0.035413778661172;-0.8462436250288462;-1.664253773725865;-0.5665627725739252;0.7815108116374855;3;1.2566370614359172
7;-2.039547710128737;-0.1004431417764546;-0.2940729708559234;-1.1867475911455252;-0.5131867423853111;0.0988316403604222;5;1.2566370614359172
8;0.6242776337798817;-0.6451362949428394;0.176636372534864;-1.7871784642511883;0.0945332387542762;-0.9676690286038366;3;1.2566370614359172
9;-0.7118166502807373;0.121380955484892;1.4400783964779575;-0.3909707757967003;-0.9791687482812356;-0.6636586613498995;2;1.256637061435917
10;0.7182517766156327;0.0188977371674017;0.390379295416511;-2.3247755836317343;-0.9964449035418254;0.3977463186767139;3;1.256637061435917
11;0.5091901781955044;0.2005401146080926;0.6210303940298487;0.5136190713400967;0.7938277069259863;0.0;0;1.2566370614359172
12;0.8377233318753863;-0.4192590384087303;-1.7782632013766773;-1.154237909532389;-0.5783129214091264;0.9948828907100856;6;1.2566370614359172
13;-0.919318514837389;0.2951685565597161;1.2106439260284965;0.3513878008306308;-1.708171572556722;-1.2725067538723709;9;1.2566370614359172
14;0.1129360906122723;-0.1933124705589862;-1.797329285255864;-0.7417439922478365;-0.0916160683628043;1.7664914271046648;12;1.256637061435917
15;-0.1553813385547343;-0.4353943549371776;1.1328892692250525;1.1271387127729902;1.1014548434882714;-0.0053329216386742;11;1.2566370614359172
16;-0.7478720363609836;-0.5231417839710255;0.1548705318103092;1.5359027462238826;1.412548869102343;-0.0034126781193233;15;1.256637061435917
17;-1.148322694219584;-0.0394759068654419;0.265594512476224;0.1066700373421285;-2.0193014642734504;-1.8765761917325396;13;1.2566370614359177
18;-1.990773653066028;-0.7365647279704932;0.2647647605185178;-1.699119122366324;-1.2851260711624013;0.0615140870668348;7;1.256637061435917
19;-0.1262461237309893;-0.3340698440271773;1.8478873283152584;0.8253587128524218;1.3575648425325386;0.9434217687081232;15;1.2566370614359172
20;1.4195598235715718;-0.5039877892353171;-0.0950991541020353;-1.1390150907925427;-1.5558449907450431;-0.3194544949832866;3;1.2566370614359177
21;-2.6984339133098985;0.5413846903533953;0.2090698211654459;-1.8299586447871927;-0.6823561433329619;0.2926648016833432;7;1.256637061435917
22;-1.6683834790893932;0.2765798368604739;-0.2119177425711963;0.6952757207671686;-2.3354935851958665;-1.1455972662780465;17;1.256637061435917
23;-0.0061274997172801;0.1420985364070806;1.061522244495525;1.4478050378811644;0.6287846762782834;-0.9498035273040832;15;1.256637061435917
24;-1.1966657628240902;1.005851255510991;-0.9050823162195202;0.1835864401537986;-2.048338240545029;-1.141008120608997;22;1.256637061435917
25;1.502706698399583;0.0133850808923991;0.6055621312705803;1.048865109680599;0.3509044782201813;-0.2722609894413585;11;1.2566370614359177
26;-1.4805888425488565;0.7424231684593636;0.4281424061400016;1.1730083112006215;-1.8956471986248609;-0.4416870423462431;22;1.2566370614359172
27;1.2424311142192712;0.4900973598956517;0.4337076942458286;-2.65218777509484;-1.8843696191936876;-0.032203966606639;10;1.256637061435917
28;1.5501053571641488;-0.6414400269426959;0.1760960917349596;1.2275599417223182;0.4285928755964567;-1.234386625868665;25;1.2566370614359172
29;-0.5209651772023622;0.3998856420374518;1.5665691172711174;1.021529023755411;-1.0552556260125203;-1.9107969863704508;13;1.2566370614359172
30;1.86478611312606;-0.6475394112735109;-0.5873567817576575;-0.1811527275529458;-1.9007459907405155;-0.0339223455148258;20;1.2566370614359172
31;1.5601252320347068;-0.0402865159881484;-0.1897612902180612;-1.6289219020144343;0.3776570741763476;-1.2807684201195773;8;1.2566370614359172
32;-0.1897626499353396;-0.3487407181821249;-0.1968281383349006;0.0957830450453025;-1.4999718409406675;-2.1611778957012846;17;1.2566370614359172
33;2.180117306291016;0.3815643385465002;0.3988368086414027;0.5691190290593795;1.1840603119307205;-0.1393877318224129;25;1.2566370614359172
34;1.909158617400546;-1.0077367047207355;0.1733019589321599;0.7441309116343587;1.306473801377927;-1.792649870383155;28;1.2566370614359177
35;0.1898076938872682;-0.7857193510843116;1.446468711287938;1.6319673611750969;0.9875171391684584;1.5148845329440646;19;1.2566370614359172
36;1.1856332487375376;-0.8011785986745811;-2.075613661212567;-0.5070005759053735;-0.0520957312247135;0.2682503493531726;12;1.256637061435917
37;1.7412435223439229;0.510615434784703;-0.733125083494146;-2.1751061498031485;0.2119617213453997;1.2944953744101126;6;1.2566370614359172
38;-0.28898763364958;-0.0232581405562622;-0.6306290973113643;1.9491646195393209;1.9877201827906723;-0.0112273305395518;16;1.2566370614359172
39;0.5072353327712991;0.808360049341875;-0.7894628652096786;2.167147057322447;2.412929586584591;-0.0058114218118652;38;1.256637061435917
40;0.1421652997111382;-0.6091956684585274;0.5398224046516741;-2.035081913941396;0.6030316867937463;-1.912910683911828;8;1.256637061435917
41;2.272103432213579;0.6934664766745917;-0.0584269754593157;-1.628865449236517;-0.2415978743135441;1.8463805164384648;37;1.2566370614359172
42;2.4575193795365413;0.2799173555854393;0.3929879258145001;-2.438520778151684;-0.9516260993087868;1.947758571639512;41;1.256637061435917
43;-1.4050417421859736;1.2063595899181456;-1.6922364848902471;-0.1003841031039072;-1.163627794129349;-1.2530305939870232;24;1.2566370614359172
44;0.3553278608326929;-1.2628569391165985;-0.6593841253005469;0.202607324771132;-1.9701152982931065;-2.160692549012908;32;1.2566370614359172
45;-0.9337942096695796;-0.1182254808022593;0.9238660159680244;1.0048432433825336;0.1927293959875189;-1.4452770274806763;23;1.2566370614359172
46;0.7260415986188045;-1.2352435199672602;2.105159074021788;0.9480341178599344;0.5646451007929902;1.4197031846089596;35;1.256637061435917
47;1.5104700749799478;-0.9565294205865548;-0.4507670616415971;-0.0774729265534442;-2.3356332633639;1.0335929146875644;30;1.2566370614359172
48;1.4931947572235085;-1.2220874779124715;0.9541749769623752;0.0730976217535657;1.853095418340739;-1.828995140861244;34;1.2566370614359172
49;-0.7617879750792467;-1.0198829646375966;0.4741687943903327;2.481848954224157;1.695563677824598;-0.5087128457237399;16;1.2566370614359177
50;-1.6408057234913644;-0.3637242837109796;0.1666262172913633;0.8408206635946789;0.4445396497430723;-2.041328902732776;45;1.2566370614359177
51;-0.6505176177931322;0.8493301256488949;0.5193384458904295;0.9581929798150188;-0.6496381148172874;-2.2192178458009315;29;1.2566370614359172
52;-1.7051623718100613;0.8951233626494411;-1.6484535131010902;-1.1152299772806018;-1.3562697926337304;-1.821586911464872;43;1.2566370614359172
53;-1.0347492756879206;0.6666787296843197;-0.4433074499468505;1.4043299844157218;2.1767668151635107;0.4121998581341002;96;1.1857937411076132
54;0.3800003472921283;-0.4704337981402715;0.930128135194631;-2.1768481950482035;-0.3918876817569726;-2.4968760476033203;40;1.2566370614359172
55;0.7395004341838916;-1.0395547618300027;0.5930863251669558;1.846832314180444;0.6733395377137945;2.097470294410749;35;1.2566370614359172
56;-0.0428075010316634;-0.35803507120174;-2.3120462216959643;-1.0455019667512613;0.986267972529344;1.859822372299381;14;1.2566370614359172
57;-1.5108975081883989;-0.8021134365776836;0.5472804425823851;-2.511597831115107;-0.5545967625209899;0.3278768528307627;18;1.2566370614359172
58;2.5274161433563687;-0.5407531122892748;-0.7170308879054499;-0.8673463817657554;-2.4486004749785524;-0.617731554737877;30;1.256637061435917
59;-3.0070031062989;0.4200277708467113;-0.2129664610938089;-1.2449041749831438;-1.3976864876491772;0.9537951955692968;21;1.256637061435917
60;-0.2784220880900969;-0.5854732056307832;0.4313532297582315;2.2617294033106203;0.3734537762206951;2.3178148529455047;55;1.256637061435917
61;-0.8567852769863591;-0.9049746231591792;0.8005823273360217;1.947574344353572;-0.5769501396300631;2.2525428124494464;60;1.2566370614359172
62;-0.6241022781644785;0.8570108998964787;-0.937716886673138;0.411862497600722;-2.746619629031441;-0.3113199637388606;24;1.2566370614359177
63;2.221119144444591;-0.0563344755225833;-1.0208495585277797;-1.7913817336091866;0.932350628357506;-1.6230846033072648;31;1.256637061435917
64;-0.3169621655837824;-1.0592473744581996;0.9574878862631252;-1.2258835096812797;1.1316195593766687;-1.6738699223577334;40;1.2566370614359177
65;-2.0416726376312884;0.4041347034601308;0.8530603998375108;-1.257563052279216;0.8887150999885303;1.4878727127692826;5;1.2566370614359172
66;-1.2770894104587869;-0.5426746575971944;1.9545662424510395;-0.6286364996353802;-1.2095902756156125;-1.3302595414185268;9;1.256637061435917
67;0.8716608702675281;0.1060998442617858;-1.3252925813696097;1.982146310024246;1.8505753292766889;-0.5675767324376689;39;1.2566370614359177
68;0.3485885788591337;-0.3976208342334048;1.4565951882126509;-1.0062562816168883;0.3539670689603758;0.2534227754204017;1;1.2566370614359172
69;0.7190815861738802;0.3088518260439731;-0.8365306390936302;1.857037171623736;1.3270881184345755;-1.5606369055788538;67;1.2566370614359172
70;0.2490699524239821;-0.9332882700299646;0.0259924342340199;-2.5142192181588965;-0.7584420975367663;-3.028022883244581;54;1.2566370614359172
71;-1.7036712513430694;-0.9766630439932544;1.3685150076677504;1.6154543170985578;-1.0726089543187165;2.6747426685120548;61;1.256637061435917
72;1.1709624307195186;-0.089352133139499;0.9889297048416056;1.4135319164351972;0.6908313306609852;2.478711734197269;55;1.2566370614359172
73;2.850014311404949;0.4219666748867763;1.0544588722487933;0.205059226902915;1.2383849236860702;-0.8899950623585191;33;1.2566370614359172
74;2.840497936776276;1.2051136617903109;0.3351022172552325;-2.950104225319684;-0.9946748592380809;1.3913824852999022;42;1.2566370614359177
75;0.1829803327372017;-0.8117260721543522;1.2702985779797158;0.3068932235368169;2.1577848068910805;1.05564035470132;19;1.2566370614359172
76;1.5777197916944106;0.2117165819046082;-1.7134431144001985;2.2799024870886244;1.058943865585486;-0.1165083819632717;67;1.256637061435917
77;0.941328638342873;-0.1381621507974916;0.9386784581768818;-0.5958251275432787;-0.8144584288179499;0.7210946903706384;1;1.2566370614359172
78;0.575894748945589;0.2128459389269057;0.268583948308453;-3.181150932764562;-1.6463577103422753;-0.8654386785056613;27;1.2566370614359172
79;0.5078954316907458;-0.43080159915891;1.2719787277873722;-3.041309745117437;-1.930090074984466;-1.0964580451173866;78;1.2566370614359177
80;-1.7355184581803025;0.2843167845227589;-0.5969415532730022;0.4527741804830446;-2.26875716720183;-1.1197893125480942;22;0.4655503169224356
81;2.6842870854888967;-0.2993308556708801;0.4523724701860163;0.6861256283375794;0.6272514090104171;0.5918704351108229;33;1.2566370614359177
82;1.5063784517732453;0.8990092704318062;-1.4792694016276926;2.258568428191401;2.6606114711868063;0.1587948051191701;39;1.2566370614359172
83;1.808966262810078;0.2383374071006725;1.2272860099002436;-1.9965015721470565;-1.3398641393038724;2.286319673299707;42;1.256637061435917
84;-2.4371870853231714;0.4255397551652783;-1.3642178107236076;1.075027131205879;-2.060714519642911;-0.9014762774662668;80;1.2566370614359177
85;2.1932524610538606;-0.8494401060872483;1.0486876137210093;1.257862255363792;0.7947088424546237;-2.218380146158476;34;1.2566370614359172
86;-1.9924543589491348;-0.7654896506010909;0.7776173951736549;-1.2439942686957477;-1.8663057832170749;0.9392218477978828;18;1.256637061435917
87;-1.361905234529344;0.792692631246507;1.1201266333487483;-0.1937786925828201;-2.3768590716077944;-1.89152261605338;13;1.256637061435917
88;-1.714444579703592;-0.6708692428363754;0.6026775585347272;-0.2876284660049761;-2.787993512704718;-1.87776582971048;17;1.256637061435917
89;2.2181873456919177;-0.3976714175700415;0.3327129273359546;1.9805852477270327;0.6993659506280551;-2.793168338035551;85;1.256637061435917
90;-0.6763842953041688;-1.4075037421171948;0.568062878025721;2.8120759487540266;0.6321456532489227;-0.9244882498434316;49;1.2566370614359172
91;2.7121366238544264;-0.2156805524779908;0.0141674203285437;1.3412932253581036;1.6126375445081789;-0.2465731694549433;33;1.256637061435917
92;1.4856772061053456;-1.146907642904066;0.7723494188810196;2.1625229301819977;-0.1879169552294378;2.467974976848128;55;1.2566370614359177
93;3.082204171236566;-0.6506682763680177;1.1184617673224726;0.2573105641406226;-0.1908957160427443;0.6128152336901883;81;1.256637061435917
94;-1.6544487818647509;-0.2469043427559939;0.3936004284985934;2.147422610327117;0.9880573113807342;0.2607966979718956;16;1.256637061435917
95;0.1239062450076447;-0.1130962502612393;-0.4578238194311216;-2.075065202869958;0.572671317255813;-0.3917662271239061;8;1.2566370614359172
96;-0.3729297339365101;-0.0607486305340039;-0.6152207656115346;1.5744623263910753;1.5611014887572905;0.4497249188805057;16;1.0845820248839897
97;-0.01477351141323;0.3929816245449113;1.4293081913160928;-2.57424382211125;-0.526067478474581;-1.994187394617082;54;1.2566370614359177
98;-1.2841182819570642;-0.8653215620389558;0.6763628373368232;3.1716118734227923;1.2818415538168553;-1.5184031121914732;90;1.2566370614359172
99;-2.300637838433892;0.3689579286159427;-1.576264331639082;0.6919942936283285;-2.1903496948539445;-2.0628574999361105;84;1.2566370614359172
100;-1.3362239089176873;-0.3150247788702551;0.2053599998319741;-2.832687465282278;-0.6772938705215544;1.3653293841655412;57;1.2566370614359172
101;-0.998848329419536;-0.3117536233133189;-0.0431094014750839;2.278617374713604;0.8584729316991118;3.0420777555148995;60;1.256637061435917
102;2.743614190083244;0.6656682480997188;0.7830083851831553;-2.533552937080777;-0.7843395005915069;0.4638195411549471;74;1.2566370614359177
103;0.6495029052151711;0.1555157172211972;0.5745954637239917;-0.9327305712515096;-1.8903173931817556;0.7858522338909736;77;1.2566370614359177
104;-2.383122756864915;-0.5097344044021661;-1.7124320338107633;0.8331648245643697;-1.4220608796183427;-2.476976155354236;99;1.256637061435917
105;-1.9744105146196047;0.1848635764649173;-2.1398650888182;-1.0529674297570024;-1.6126192190274242;-2.6529088634857176;52;1.2566370614359177
106;-1.2981025610035166;-0.5414623926478277;0.0257848951138571;-2.859552127599812;-0.1121606238899528;2.448872165651297;100;1.2566370614359172
107;-2.1223048833523364;-1.0246574897503975;-0.0345648955613781;0.4574672232131036;0.7737481908039093;-1.257334915044595;50;1.2566370614359177
108;-2.2414099586684664;1.3933553090302084;-0.967045373761296;-1.7809400177434676;-1.4223272345144815;-1.4589718794970197;52;1.256637061435917
109;2.0683539423911665;-0.4190638506680237;0.0107258470218593;2.459166411126352;-0.3235750327299004;2.620935773393022;92;1.256637061435917
110;-1.8967820213211448;0.4008322933755003;1.6794477080831152;0.7978128858284236;-1.5128097907406983;-0.878427568922737;13;1.2566370614359172
111;1.7065738942862794;-0.5093730234194894;-1.6551286867038495;2.0208052823386504;0.0879566113088322;-0.2874321180520907;76;1.2566370614359172
112;1.165000277488156;1.0786791088152017;-1.2600601924109025;2.341848014688129;0.3932644341665732;-0.048296535887197;76;1.2566370614359172
113;-0.4525638763525069;-0.0546988276782309;0.235710381459856;-2.594099292109076;0.4536452917794722;2.8877252354330096;106;1.256637061435917
114;-1.7040605821931885;-0.1943320902839234;0.8564085887646763;-2.551885742363309;-0.6103269240554917;1.837669581433812;100;0.9381760228787176
115;2.336496113336544;-0.2446226197505702;-0.2777222308987643;0.3815620368880612;0.8417198795924359;1.476964313817265;196;1.192666506319206
116;1.6817961317902164;0.7469208393428926;-1.043834539979826;-2.1428947117937907;-1.3667934116586398;0.85274878036489;6;1.2566370614359172
117;-1.8833889815563196;-0.6945230540334415;2.0116439648994136;-1.2728209865846132;-0.5208977312102876;-0.7862460687769319;66;1.2566370614359172
118;-0.6376132207344375;-0.6441803964808213;-0.6070114061975384;2.5518103684849445;0.0533164693046266;2.496879141065399;60;1.1955604552456596
119;2.596221316082416;-0.2546848701269217;1.8945175122929212;-1.6760254754312405;-1.499978953161858;2.664149872543503;83;1.256637061435917
120;0.3752410300339605;-1.0690777340143245;0.7535800329048812;2.2782864444050595;1.6417877676102914;2.641324423819581;55;1.256637061435917
121;-0.6581504232068942;-0.0664145058046432;0.5470384599452687;1.628757782180553;-1.918986112699248;-0.6033187546945966;26;1.256637061435917
122;-1.6663319828466658;0.5580317141892147;-0.5698310785887583;2.115974670217354;0.674359850488772;3.240294157730789;101;1.2566370614359172
123;-2.5990225016893582;1.1788343384007292;0.1425402172968078;-1.6914735822260598;-2.076794021310685;1.177189124162229;59;1.2566370614359172
124;-1.2004980472198767;0.1790832331630629;-1.432625990301702;0.8280794648413181;-2.7321024130926617;-2.074241231455232;99;1.2566370614359172
125;-0.6053483335262149;0.2731427399920896;1.9020710565654797;0.4574960309281148;1.530031112222258;0.0418191892908121;19;1.2566370614359177
126;1.013358980445676;-1.1938876678197323;-1.210773789221654;0.7474607896152919;-2.142879684946261;-1.4461076369943275;44;1.256637061435917
127;2.4543520855903966;0.3137639610736066;-0.3998484360136474;1.3204470921028937;0.7309815250998212;-3.0024397925736626;89;1.256637061435917
128;0.1242129917261683;0.4875597516515953;-1.341374784045425;-2.4834620696628176;1.0333963940236846;-0.1496276857741517;95;1.256637061435917
129;-2.5110890324783464;-0.3884354054200538;-1.3986285724776233;1.818055585371872;-1.8763446296246689;-0.3323963149294375;84;1.2566370614359172
130;-1.6219827273734042;-0.202875630395726;0.2733426272141744;3.19212640291176;1.2065225488733404;3.3930857922362847;101;1.2566370614359172
131;-3.0047536301001685;1.462100942162203;-1.110961223780243;-2.0805149058972736;-0.911993955490786;-0.6710504111979063;108;1.256637061435917
132;-0.5627723306991115;-0.2308889532155533;0.0728197296565417;-2.658585881754624;1.258616663032195;-0.3580892215607275;95;1.2566370614359172
133;1.907709220245926;-0.8149601955643189;-1.7894434021670778;1.1327400023292813;-1.8793606069933293;-1.7341135854963867;126;1.2566370614359172
134;-1.7171700234879026;1.5268878894527664;-0.6602825841820724;2.260597460629131;-0.0893225686140621;3.0804134339571068;122;1.2566370614359177
135;-1.7011766291813188;1.6004382804213262;-1.081767505909403;2.5961468885912278;-0.1695778483611127;1.95046326349614;134;1.2566370614359177
136;-1.3667729461806708;-1.1746828499733737;1.6903434832065152;-1.1696723036660477;-2.2006836364293525;1.203455048772584;86;1.2566370614359172
137;2.715761755385272;-0.3920679036941736;-0.3894545337989323;2.041173181661593;-1.0642335863854069;2.0957374522607566;109;1.256637061435917
138;0.1179649698963337;0.1867560657046827;-0.8691136355975424;-0.8227246497877073;0.3732154793395925;2.3584785852290797;14;1.256637061435917
139;1.2224105490322636;-0.2544815773802618;1.2674231367335838;-0.5052619443426494;-2.509692544317401;0.9767725442987252;103;1.256637061435917
140;-2.348255327323496;0.0105810588000907;2.1374456331476592;-0.8694693331142658;-1.3877605092975882;-1.379842175496254;66;1.2566370614359172
141;0.0626234051450352;-0.174068873920753;-1.1824559029310049;1.3893861243969403;1.0713367271892311;-2.275630887387774;69;1.2566370614359177
142;-1.968429210858841;-0.188742700950834;0.7300486962924065;3.264265521017366;1.8314316785717928;-0.9356680725756488;98;1.2566370614359172
143;1.391085305961102;0.8297716715295831;-2.143109427314872;2.4758313132148047;2.4930056402900758;1.181082384099596;82;1.256637061435917
144;-0.4641748938867553;0.1302957483538493;1.8609690012766889;2.1958704311493755;0.3508634807008265;-0.6444629918713023;23;1.2566370614359172
145;-2.4687664510148277;0.2201462007442272;0.5807859414714219;3.346092424010198;1.0312495985186014;-1.6373395363602274;362;1.2394667135244164
146;-0.3730100979281239;0.8293411553886295;0.3665261695229218;-2.8311621419913253;-1.3127736450143588;-0.6303072624217011;78;1.256637061435917
147;-0.4459252170083241;-1.2495277301520036;1.5115161009134574;2.5207816347511165;2.130167051699588;2.619525980529968;120;1.2566370614359172
148;-1.9134754844983168;-0.4122854121851316;2.4573257125157904;-1.498908335088492;-2.130696134933717;-0.978822133676026;140;1.2566370614359172
149;1.9838684477866169;0.2469426753438183;-1.508966215079842;1.419119242798558;-1.4366477499274062;-2.032481769678545;133;1.256637061435917
150;-1.4960534149852245;-0.8931227306225253;2.3373297481705384;1.919532303944328;-0.689363023658693;2.0821975753966218;71;1.256637061435917
151;-2.619719351550078;0.5553589181589238;1.0099084489996637;-0.9122632168326614;1.3521443802621254;2.417135836373372;65;1.2566370614359177
152;-1.2707325317846514;0.3277777098804512;1.069512842874312;-0.5419844280075055;-1.156193053310563;0.3525541923915009;9;1.2566370614359172
153;2.820150798549903;0.3958708706916427;-0.8873536611415188;2.2413096318777384;1.2931665435383504;-2.8103843200659586;127;1.256637061435917
154;-2.585979632918676;0.4623635516558355;1.923531764348965;0.9856306142308188;-0.7516106301473984;-1.5311760448946263;110;1.2566370614359172
155;2.808912605210414;-0.7149292282818015;0.2877677608641187;2.358032708149694;-0.0376691977282987;-2.1284726255459088;89;1.2566370614359177
156;2.648737654928437;0.8550269899266006;-1.5302156113376262;1.7218526058510275;2.074510213393445;-3.0232807202612424;153;1.2566370614359168
157;-2.932968492866525;0.2103306769066228;1.2423395071216836;-0.7826324075373257;2.2022786045266587;1.663205700609449;151;1.2566370614359177
158;2.423656376726008;-1.2601291311835925;-1.529718219371273;1.062206179400992;-0.9224550057915886;-2.090005892644988;133;1.2566370614359172
159;-2.685346909274235;0.5621621962369575;0.5565360503038016;2.602504115590804;0.2551266053091761;-2.1466293731658928;145;1.2566370614359177
160;2.524874364925249;-0.559893109464436;-0.8331327145756706;0.4126666872178275;1.753665271029859;2.0275659440400142;115;1.256637061435917
161;2.324838685998125;-0.6447596876631018;-0.9530000536032324;-0.3160907510903054;2.467785587995297;1.3372785507917309;160;1.2566370614359172
162;0.0093502423840186;-1.2954409781053131;0.580301110455932;-2.84146396590591;-1.7371275841909817;-1.2619795184355331;79;1.256637061435917
163;0.8957181699468282;0.238018252693073;1.7596700910824692;-2.496631606239831;-0.5304902214085349;-2.4561873195427864;54;1.256637061435917
164;-2.429485980560502;-0.1820416512194863;-0.2110886307302632;-2.38603986265762;-0.5783432907924222;0.6131475641146901;21;1.0931449960040072
165;-1.353837052442504;0.29867750271275;1.9414597143275931;-0.1887418175545198;2.255251959410008;-0.2286049541480893;125;1.2566370614359172
166;2.316161923846493;-0.619004417037464;-1.453393250433117;-1.726413430425878;-2.363974290677634;-0.1268163093965868;58;1.256637061435917
167;-0.2840638644203869;-0.166967198111054;2.1035111040998915;1.848168507556384;-1.2060447315566607;-2.3661160415865434;29;1.2566370614359172
168;2.484219126716097;0.0998337138911686;-1.3110109168813455;1.5616145225981977;-0.6159585445356452;2.153740263159575;137;1.2566370614359172
169;1.9368085659839425;0.2728345589367349;0.6648625409961051;1.327675178395197;2.1571962633348964;-0.1079286482552921;91;1.2566370614359177
170;0.929136858974156;0.1471446670660689;-2.014856906516073;2.347252904320944;2.2695245231221097;-1.4562995951345248;67;1.2566370614359177
171;-2.1201981346907512;1.2918892382889988;-0.7396230536540801;-1.8036008662200855;-2.334925360210692;1.8697684819263605;123;1.2566370614359172
172;1.0554092445618757;0.996269361402953;-0.4723815331041114;-2.426579232924008;-2.207655711969754;-0.5903604225683762;27;1.2566370614359172
173;-0.2547693794849218;-0.1035010401826131;-2.332301255278394;-1.029764102784636;-1.1002408535790704;1.988727221414833;14;1.2566370614359172
174;-2.176174912109417;-0.0128552362965425;1.981720316751194;-0.4604589145724869;1.9646761945508329;-1.032320780305086;165;1.2566370614359172
175;-2.033323758404812;1.2792364874898363;-0.8392826472946199;-2.297832383403707;-1.198994626886821;2.03376237426542;171;1.2566370614359177
176;0.2209559237855464;-0.0075577528095317;-0.4722287562585035;-2.6850162823660164;-1.4116266793229433;-2.8964051588528306;70;1.2566370614359172
177;-2.8091828678552977;-0.8761566353477297;-1.7956022474819715;1.170503018756095;-1.5940026131780072;0.439468525527805;129;1.2566370614359172
178;-2.347491615303701;-0.0840637535664011;1.4561606643122047;-1.1601332414236945;2.6858409296778016;-0.5235173297154339;174;1.2566370614359172
179;2.52310398575722;-1.2714044160478402;-0.075986039872587;0.9851990828471624;2.3049088973397915;-1.9173740319673505;34;1.256637061435917
180;-0.9923436489906996;-0.7424249212309819;1.6810458976142393;-2.806023679337573;-0.7030444292661117;1.6998993310061183;114;1.256637061435917
181;-0.1038752488040514;-0.3954478175400108;1.3589828864353852;1.2281966410142506;-2.497604837061627;-0.5076620388828716;121;1.256637061435917
182;-1.3637514782536295;1.3387400365963338;-1.3541920049004652;1.2089515680638738;2.5240353668152267;0.2368459028395476;53;1.256637061435917
183;-2.246559856259404;-0.7618932238791961;-1.0032349580704565;-0.6190060978767038;-0.0712150350977524;0.3784498570114389;7;1.2566370614359172
184;-2.312985640243973;-1.2282542966673184;2.384584230468058;-0.8905942381015988;-0.2052264434181401;0.0651552964912583;117;1.256637061435917
185;0.2610516163758745;-0.3836378810416206;2.3510640169158608;1.1602233534318966;-1.9757270835400944;-2.6948678161021777;167;1.2566370614359177
186;-0.3503286511394199;0.9825787030228904;-1.903572616469244;1.0087492365892534;-3.1303365571964665;-0.5394157357670115;62;1.2566370614359172
187;1.5605182833028608;-1.2942373252338104;0.0541721255224297;1.4429589883563587;2.059487969689197;-2.3457511995801323;34;1.2566370614359172
188;-1.956684518195236;0.6880987245101015;0.4803317432097101;2.161683697932909;0.0716529397796331;3.338923739997787;122;1.2566370614359177
189;-2.86392603468296;1.041206133140391;0.4830536886281918;3.0234144835103045;1.6644158251357826;-2.121358211581988;145;1.2566370614359172
190;-1.075873043820766;0.5159616777711749;0.0566001549086054;2.8791924624412566;1.0901900160869555;0.2066223127634869;94;1.256637061435917
191;-1.2521097194933164;-0.3033948838071592;1.5255251925332232;2.5544577120557506;1.364753785174037;-1.910219602286909;98;1.2566370614359172
192;1.252958570372214;1.2407063672233056;-1.9923918855375464;1.219878303173859;2.427947116752051;0.2018482695782697;82;1.2566370614359172
193;-0.1726831948315201;0.0310333396373874;-2.3219200555631465;-0.4010814310271995;1.6020577868987758;2.6448843858258018;56;1.256637061435917
194;1.9883983956178963;-0.2641337756470279;1.458724170118014;0.1850580506166411;2.191524146817819;-2.014994427976459;48;1.2566370614359172
195;1.1270988812570737;-0.9491764150196466;0.108282196091407;-1.6779322460592714;-0.6487516220801677;-3.327639248183647;70;1.2566370614359172
196;1.8878563896067435;0.3026842394088847;0.2666954709027081;0.5823670029149117;1.2607211915914125;0.8371552582142544;33;1.033822256131026
197;2.509140321026928;0.933681841299012;-1.7895583806782371;-2.6730006812739497;-1.2971109735049378;0.719382378271399;116;1.2566370614359168
198;2.2150853752121784;-0.4843187763649464;-1.1121593776650385;1.112083005664274;-0.9441511746482154;-1.3707201800123707;158;1.1576136287820438
199;-0.5449376956774032;1.3821357708562618;-1.0576621916614304;0.3933080041973546;2.3126235344796804;0.566843156794217;182;1.2566370614359172
200;-1.4250931235351525;0.8809221010086237;-1.2339292473584085;-1.4587811862360849;-2.972565476064009;2.26631305386259;171;1.2566370614359177
201;2.197351908540435;0.6971426967088256;-1.8160067449928177;1.0838503997528943;-1.2095490088057284;1.601982254975475;168;1.2566370614359172
202;-1.0927730269226847;0.9619759338969396;1.908863454989373;-0.7049074319786058;2.1733839230780503;-1.1212558584397876;165;1.2566370614359177
203;-2.4359692884349835;0.7235567828653435;-2.020387841013086;-1.848523561944729;-2.221461281457663;-2.893817150345016;105;1.2566370614359172
204;-0.2431991470364391;1.028392198118972;0.8389085247214326;-1.0984811329684936;0.4574557018922445;-0.350649246580232;1;1.256637061435917
205;-0.0364182102039879;0.0231264288276393;-0.0100272605363738;-1.7851221916042288;0.7394888725594212;-2.786969216733828;40;1.2566370614359172
206;0.3013548484032172;-0.2835512250566374;-1.7928984360510103;-1.4743716443938617;-1.8373806709929004;2.4419800210684093;173;1.256637061435917
207;3.075018685536113;0.0427141797999696;0.3625349901800661;1.4922300112702134;-0.4568304174687669;-2.186783411345349;155;1.2566370614359172
208;0.4738705320171176;0.0007825186321312;1.7118246065313143;-2.593742231345223;0.3653833857594546;-1.4359193513410664;97;1.2566370614359172
209;2.9407454175027548;1.078668122699889;1.521140742420319;-2.925123313392473;0.0181776574492056;0.297968518922642;102;1.2566370614359172
210;-1.654466322657676;-0.3201560209686289;2.117005853073445;-1.7901908796219026;-2.540104181541012;1.4930456846812916;136;1.2566370614359172
211;-1.934327334561737;-0.5660069627950834;-0.5968087591022867;-3.0449943354173;0.7504850532675694;2.3617913369208665;106;1.2566370614359172
212;-2.2702733613750143;0.2767254214102773;2.4513448250757035;-1.1088380533923563;-3.011460867968748;-1.2005402876088809;148;1.2566370614359177
213;-0.3185232036174397;0.0205653499838356;-2.0475787360356303;-1.9860364437510083;1.2591755910042668;-0.7561794753258799;128;1.2566370614359172
214;1.684663490691996;-0.544276772079555;-1.364616354672462;1.836003097152227;-1.0365918487613497;-2.7338378792842075;149;1.249850377881417
215;-2.6597612867157063;0.3878673982854119;2.152589823381947;1.1143823613245702;-0.8362349030187415;-0.4147488186373336;110;1.256637061435917
216;-2.138944981336623;0.7829930869923454;1.070464540031386;-0.4084115324415092;2.3017755383986533;2.787058122497228;151;1.2566370614359177
217;-3.3876806744300065;0.8149282623392614;0.984096183217118;-0.5911513306907138;1.2216544832494332;2.593873002736584;151;0.8995463265227914
218;0.1759888126514751;1.1657289533702304;0.8133071400102191;-1.407853406215664;0.4967272021338012;0.7836557781814318;204;1.2566370614359172
219;2.085591941295968;-0.907663504873617;-0.2953735803371854;2.097515768128183;1.4174126335084405;-0.2025603603624765;91;1.2566370614359177
220;0.1345919762694276;0.8560412763664471;-1.4447904322076446;1.3286807275723675;-2.763889961125738;0.3991238796209219;186;1.2566370614359172
221;-1.2655462787133505;0.4944076315033985;-1.0611955281559953;-0.5505303523043816;-1.7114826769825755;-0.3434824924603339;24;1.2566370614359172
222;-1.1219694449005555;-0.2644225032734124;1.309619603898594;-2.8848052963149367;-0.9231176645418624;-0.2036376453914264;57;1.2566370614359177
223;2.7317696133632348;-0.1810572759441881;-0.3451692170793971;-0.9253437796912118;2.7557000741128634;0.7249210833847011;161;1.256637061435917
224;-1.6324344141495957;1.5145967887259908;0.8919632314516026;1.0945980886350934;-0.7685446519510457;-2.2475379288825947;51;1.2566370614359172
225;1.8028160695096385;-0.8975600190329204;1.7088146459033169;0.403472486880564;2.8341702274263123;-2.8025368088246974;194;1.2566370614359172
226;-0.5127424990713769;-0.4915473223558824;-0.513275223540293;1.4125589874341755;1.0905066799844814;-0.9190558494849024;16;1.2083170657474034
227;0.2903092276751948;0.7053911952464159;0.0717303152495042;-0.8878333577265943;1.1771233345137229;-2.846678505163955;205;1.2566370614359172
228;2.8569527465532696;0.2291169957920858;0.3251831399478138;-1.7144556316890074;-1.8698316479801247;1.7355328474363394;42;1.256637061435917
229;-1.4869455170730737;-0.5691947837663722;0.6282708065673858;-2.2997988080109137;0.5963651905801084;-0.0570649930834783;57;1.256637061435917
230;-1.6899847343585217;0.5697963400653464;-0.5509885568912779;-2.9196875997289733;1.1910971284035627;2.2297156562813214;211;1.2566370614359177
231;2.2103128143174438;0.4266675995091775;0.893892250782944;1.8367402727047208;-0.9882039001707914;-2.2115744419798524;207;1.2566370614359177
232;0.2233037821954706;0.3485702967370024;-0.9257729560965527;-2.4800029449763747;0.6153226261727601;-3.049458802418205;205;1.256637061435917
233;-2.5079673363954478;-0.8218675119251855;0.6197194486031933;2.251312094434491;1.2700332076288552;0.876123353593895;94;1.2566370614359177
234;-2.825351153904652;0.3696825580052754;1.5042178364053478;-0.9071935458977344;3.0383835680372533;-1.5004139245778003;178;1.2566370614359172
235;-1.1648177151584422;-1.1163585953286697;2.628798677679869;-2.102742932557629;-0.6705911558848484;1.8250818065489292;180;1.2566370614359177
236;0.8162860452210636;1.0646189552534813;-2.4501667658393944;1.2090525508266097;1.8741025851222937;0.925158262664511;192;1.123069819797492
237;2.892084333972502;0.6276340673358414;-1.5277482547716137;1.504104652114956;-1.712868773777367;-1.3075808568023914;149;1.256637061435917
238;-2.881497857333592;0.7189618252367466;1.5722176708207014;-0.6199387633059675;0.279866695509894;2.876762142166711;217;1.2566370614359172
239;3.072880989600415;0.2669343767989851;0.2203918125862281;1.298083310041488;2.530341526770853;-0.8206000338012986;91;1.2566370614359172
240;0.3893464315178607;0.0087891777244486;0.5990836300865607;-0.8425928815851067;-1.4845416234248965;1.2040751493728612;77;1.0884758301308142
241;1.8664923262865265;0.4879962664122356;2.34013295427502;0.2311841121969156;1.731726414062725;-1.9247004587778411;194;1.2566370614359172
242;0.910124151575713;-1.274813558758713;1.7768880992588854;-0.0198717250778501;1.1108791978485812;-1.829479280933032;48;1.256637061435917
243;3.284619396625341;0.8667580000045447;1.2626582486489466;0.8278790974490535;1.7662181783872255;-1.5846577754257458;73;1.256637061435917
244;0.3019090045600152;0.1319992153187868;-1.559381284786653;2.672823628774292;1.001121338354218;-0.5465059973147722;67;1.256637061435917
245;-0.7135629660925719;-1.1003284116628491;-1.622567172659117;-1.1456840316739485;1.2402928411819645;1.691661830300376;56;1.256637061435917
246;-0.080470119369217;-0.1050961541094092;1.491383511263473;2.363736711121551;-0.6615468586422811;-0.2123162750578582;144;1.2566370614359172
247;1.4681942889123245;-0.6939156163456444;1.5228804007820642;1.7707905789498208;-0.9100958279729574;2.1000946136553047;92;1.2566370614359177
248;2.2502621965751124;-0.7913433310745002;-0.7497270246313555;1.412156433538536;0.8430173755539563;-1.2933283772559678;28;1.2566370614359172
249;-2.915032000561901;-0.0764152782750749;0.0902760487907161;-1.031100746202846;1.2802709125581475;2.894395307696278;151;1.2566370614359177
250;0.0391447677108082;-1.0394705382334104;1.591800804167607;-1.801834246456484;1.0018340880538603;0.2321235210143857;68;1.2566370614359172
251;-0.1052202553309058;-0.1322253118208979;2.058068296718418;-3.0783453171837327;-0.9866201688218156;-1.812648614693592;97;1.0856084175125515
252;-1.800785621553346;-0.0869904459989654;2.211477093627156;2.4653737153874573;2.0756753276378483;-1.412841306264725;191;1.256637061435917
253;-3.0858690511036886;0.1396068952020752;1.360310287814962;-0.8330240104337474;-0.8190763521958181;-1.0802662165860395;140;1.256637061435917
254;-1.134266843594136;0.2953133574320248;0.4777431371882101;-1.5423994391338454;0.769050041174268;-2.7414587774751427;205;1.2566370614359177
255;3.246995992361228;0.8011803623335576;-2.0755550183787403;-2.9440006977802478;-1.4818504225419236;1.6292094611685697;197;1.2566370614359177
256;3.1343743043550165;-0.3546516685613407;0.3661885982343587;0.7726296776497722;-1.1243513402852494;-2.860795151487009;207;1.2566370614359172
257;-2.781943185629501;-0.0356358607239458;0.5323138550306614;-0.8825013160940722;3.258373436083589;-0.1634098561226673;178;1.2566370614359177
258;-3.043660230371028;0.2388247757243745;1.8853556066161248;-0.3747090908880548;0.1566985325188543;-0.7201979537549539;253;1.2566370614359172
259;1.5151030622707309;0.3858526357804972;0.0131105489637542;-2.1104484645335444;-2.881098566299001;0.1411964866504234;27;1.256637061435917
260;1.227589610502846;-0.2237186938579525;1.9592340461767372;-0.630615556571693;2.3645614041989336;-2.244989766825124;194;1.2566370614359172
261;-1.553588723227695;0.6351953130639679;1.9149852755377144;-1.1276704107749642;1.168968808228573;-1.3902991415664252;202;1.2566370614359177
262;1.8630286984532625;1.3202520518230014;-1.796867560499534;0.3000616526027713;2.3587664346960686;0.7600106365826381;192;1.2566370614359177
263;-1.6106358879443157;-1.3331190976858958;1.0314048631731048;-0.7362308231769421;-2.7235910535020675;-1.6684392055357165;88;0.9393442413063844
264;-0.3401540088710405;-1.4017479086611782;0.7827572529916625;-0.3697858596524542;2.3309076879999298;0.5742063092816847;75;1.2566370614359172
265;3.1524033312975406;0.8751028597418326;-1.3648052677593638;1.175030640557377;-0.0025125662228812;2.099266176972682;168;1.2566370614359172
266;2.8554896027998904;0.8435729052504757;-2.333304563141168;1.1324108872979497;-2.1335473402926493;1.573318630059565;201;1.2566370614359172
267;-1.0856854932244655;-0.840199796188738;0.0552355938564734;2.950833080812025;2.0858645881030142;-2.195259568087241;98;1.2566370614359172
268;1.061264424101192;-0.6964003940962569;-0.9378147745646112;-2.863594242781625;-1.0545799277840069;-3.045975653415949;176;1.2566370614359172
269;0.1257298005090338;-0.775773339021143;-1.4160720141234362;2.99678850256437;0.190184173252305;2.168534721169729;118;1.256637061435917
270;1.803223966330079;1.6529904945997311;-1.5130415160045925;1.7627659704252894;2.049046172705877;-0.3785753034300763;82;1.2515367859615534
271;-2.367560840681085;-1.1602316269072512;1.5881385600581897;-0.6298159715786611;1.862499618697918;-1.2112260182827062;174;1.256637061435917
272;2.938048089853653;-0.972738865134612;1.9624762529523907;0.118450712836361;-0.3718686113605968;-0.2179871285651523;93;1.2566370614359177
273;2.716994842680831;0.2179786394027856;0.3589231813912887;2.1750398603096435;0.8599721647193865;-0.3493235814729645;91;1.2566370614359177
274;0.6845473730753125;0.1735887988012701;0.6526539435117071;0.048110548296135;-1.0960693929891174;1.92358966685559;240;1.256637061435917
275;-0.0318247983261178;1.4144773203378;-0.8504162838929447;-0.2759915262411507;2.8537520668818512;-0.1619044446505363;199;1.2566370614359172
276;-0.4115872563920106;0.161457950565018;-0.2176505076234678;-0.0283273058601674;0.6633536426544233;2.75649824330784;138;1.2566370614359172
277;2.1154187633106827;-0.1024568036182028;1.7246918738384782;-0.2633885117099939;-2.8923656092255534;0.3898097076429853;139;1.256637061435917
278;0.7218996037719978;0.2445456603122399;2.0645225778178324;-2.4256678141858337;-0.3893003764846757;-3.2868523048935394;163;0.9155136752916964
279;2.2627258602858875;0.7667857112769447;0.2694158089116691;-1.7235260788419873;-2.181602378322183;-0.2715874910362003;259;1.2566370614359177
280;-0.4751099864077261;0.6556650894039573;-1.2611359084232556;0.860029312739464;-2.3346342141583616;1.2533053448520677;220;1.2566370614359172
281;2.606697979905744;0.6612700833839811;-0.9550523483055152;-2.2326480154104225;1.168407512379768;-2.435944558055447;63;1.2566370614359172
282;-1.3654704068194825;-0.411205234768747;0.5665709818374146;-2.4449973655208;0.3992140273630369;-3.0006132016820315;254;1.256637061435917
283;1.642131773818634;1.4183564138938156;-2.142547281630585;2.291096467806063;1.2739189306390724;-0.0534434421121485;270;1.2095236410975965
284;0.2261578102016968;0.85639279814483;-0.4333896438363274;1.3503906131559336;1.9769753552872575;-2.00199268183894;69;1.2566370614359172
285;-1.7372331180764071;1.0700523771220287;1.6840420037240242;0.4382549399843971;2.757066064976813;-0.583455283045079;165;1.256637061435917
286;-1.361200095162184;-1.018106503944355;1.4991746946850657;2.395420316377008;1.2985824163378472;-0.4443891983719361;49;1.2566370614359172
287;1.843932255080908;-0.6097775741133387;1.640034903646559;1.0511959526721697;1.104445314568973;2.838021936987735;72;1.2566370614359172
288;1.2180853919763912;1.0888067030440205;-1.3649252881288991;-1.763578750517781;-2.3220127630766947;1.149058135275843;116;1.2566370614359172
289;-1.2167381808376256;-1.2622506606148705;1.359181336523177;-0.7942044447299984;-2.3197874872024795;1.5926202204158182;136;0.6681753443903194
290;1.2267753328241546;0.0641393308583336;-0.6162049201744915;2.172781365101057;1.5911214223358467;-0.9380432222464796;67;0.933582214688879
291;-2.026115612978664;1.7744692479743358;-0.986565360535648;2.2870730046931644;-1.0796848752333086;2.4568208088474317;135;1.1511537686801985
292;1.439913972030064;1.252325316735111;-2.350101986439965;0.5454172041880407;-1.0599419608805396;1.917650487647688;201;1.256637061435917
293;-0.8454411458307565;-0.4413561270034324;-1.4633799827006315;2.352093623191704;2.4750060038117385;0.0264154139840565;38;1.2566370614359172
294;-2.4540391438126625;1.1834869348304289;0.6775263861467603;2.2460432353797284;0.0511498434056052;-1.1687339538401256;159;1.2566370614359172
295;1.0975543564438088;0.4952463289116303;-1.67115882097057;2.7129531269272973;2.08443064093466;-2.5256324299878785;170;1.256637061435917
296;0.335536173678003;-0.1725830644115907;0.42236052439203;-0.2221623037201698;-2.490791108832093;1.3788211151725565;240;1.2227145094206966
297;-3.352060380430314;0.0872317054333601;1.860604977499385;-0.1637673614188129;1.4765116608965074;2.774008272059329;217;1.256637061435917
298;2.8335885212292475;-1.032793882936724;0.1329115576863208;2.386785551180788;0.3166187438721057;3.0532224637262875;109;1.2566370614359172
299;1.9500888660082087;-0.8817388136866645;-2.126597276397354;2.8120745218588263;0.4287012342354384;0.3580787977568175;111;1.2566370614359172
300;0.4030980155360586;0.7556719494845647;1.0198531252852836;1.8071575733378664;-0.7415290584303856;0.0443127200187977;246;1.2566370614359177
301;0.3934607520746977;0.9867428964108412;-1.4327639036367663;-1.5943449253926598;0.9187658378735314;-3.146470716807108;232;1.2566370614359172
302;-0.5386379011425542;-1.5301487102405014;2.6028393269827865;-2.2616561211453683;0.0947537009684686;2.460796558766477;235;1.2566370614359172
303;-2.711095128618036;0.2142857230030095;0.0715206685262126;0.2555979652034958;3.209733879216333;-0.2045233291965888;257;1.2566370614359177
304;0.211132212673938;1.431208467143375;-1.4236742073367372;1.9830034481471417;0.8850569388585632;0.3358865378305853;112;1.2566370614359177
305;-3.1847929624021805;0.3020300587847651;0.0014007599133677;2.4210770775025043;0.580177230480049;-3.0495539245783734;159;1.256637061435917
306;1.087669170935606;-0.8908777950495206;1.9871227566437903;-2.426931524338156;-1.6012557507406453;-1.281675259364233;79;1.2566370614359172
307;1.4643808458395784;0.3294582705852182;-1.341204706494317;1.8104296195908005;-1.5460368034843324;1.4016826948826813;201;1.2566370614359177
308;-2.7125137806559234;0.6621629344136744;-0.764147844789856;0.0233742813323413;3.348614805527677;-0.9836145176386248;303;1.2566370614359177
309;-3.0393598562819086;0.7094623510578871;-0.3704809672447647;-1.3317201552931517;0.5555557196323556;3.2381895373965075;249;1.2566370614359172
310;1.92179298036785;1.3853906483745029;-1.2412404618307695;2.0274834666864896;0.2345157822298844;0.8393684655364304;112;1.2566370614359177
311;1.1665445189596468;0.5237613085660852;-0.6055005164810721;-0.9843815168437732;0.0361652771083175;2.754480405532428;138;1.2566370614359172
312;-0.0102174964293648;-1.0600296226833672;-0.4390317483184413;-3.166662772554589;-1.2321426273286016;-0.9105086746514884;162;1.2566370614359172
313;0.48728488548597;-1.1508134327354602;-0.6320984482408956;-2.361951620692152;-1.0855151147694495;-0.389664332704104;312;1.1105690274393605
314;-2.242418330910457;0.7724565051934232;-1.592144894533174;1.8557061945101232;0.9566656536330458;3.333682853753869;122;1.256637061435917
315;-1.952121838189687;1.183362549988938;0.184022712149756;-1.0776122029329325;2.6785632504776875;2.6956224681781005;216;1.2566370614359177
316;-2.130456799653341;-0.0678351581792162;0.7223704424760232;-1.8778040326369816;-1.4310903207841703;2.3227639708266445;114;1.2566370614359172
317;3.018775347128879;0.4330032901222588;-0.9340893760049452;-1.3970759091772489;-0.497446056347757;2.1067789827196397;41;1.2566370614359177
318;-1.0212109277748078;0.480282379198618;-2.28082749441534;-0.7283272800618559;2.3378782177527957;2.560607815538197;193;1.2566370614359177
319;-1.635653701631914;0.8727472413939446;0.9433601872152204;-1.252254595662646;-2.437078709754418;-2.4767966729101576;87;1.2566370614359172
320;0.4123228439945883;-0.3504875670811143;-1.7081979427320535;0.6379284406417031;-2.607027204885319;-1.3330526490119436;126;1.249083921034311
321;1.2002756677367683;-0.1159813971419701;0.1010127126093116;0.2911285775509866;-1.5616857552950625;2.729285468544937;274;1.2566370614359172
322;2.900333546362247;0.6985510856311733;0.206761982284229;-3.046476616881705;-1.1100300778320729;2.26840735093218;42;0.950545343598659
323;-1.5955924547880262;1.2177160518954897;-0.2513807630124544;0.7044360868708509;1.9548922877656167;-0.2083111210397751;53;1.256637061435917
324;1.5808111281700814;-0.8010904110874751;-1.4657297164752956;1.0411853698136675;-0.166983479721087;-3.056669567104425;214;1.2566370614359177
325;3.0355484479140094;0.2566673873935905;1.752973461224931;-2.5137298658730898;0.524824842789785;0.9420038690171022;209;1.2566370614359177
326;3.0322198536863327;-0.3986620766922698;-0.0885466455860135;-1.4966193321230743;-2.5923842230565786;1.5412611105390397;228;1.096938395282644
327;2.7662159014974264;-1.29274340079021;2.3583758461733937;0.4122368815482446;0.164844484028785;0.7391438722792675;272;1.256637061435917
328;2.868820894303698;1.2347090206460518;0.4590966644318781;-2.5903603271644617;-2.0494167525056577;-0.7051538755428165;279;1.2566370614359177
329;-2.498890754045804;1.2962352330728282;0.1442955092231329;-1.2878409241626985;-2.4578602924163664;-2.596854141854059;319;1.256637061435917
330;-2.445267528369285;0.8714347200478811;-1.3218868111501785;-2.929078988960708;-1.2169795581048546;2.815704980397156;175;1.256637061435917
331;1.3469981545692886;-0.8388269257008534;2.2700098535149733;0.799623813419132;-1.015539257912515;1.9241307222291704;247;1.256637061435917
332;2.7163712949296914;-0.5802754812531554;1.0880434394632514;0.7520591106824228;0.938374005856202;-3.195625464997093;85;1.2566370614359172
333;0.3012764711339262;0.9359144098900648;1.3843139558255102;-1.9605676778876115;-0.8637292340251989;-3.4287589273137087;278;1.256637061435917
334;1.0274815797956354;0.943095472841234;-1.6671539835538758;0.2346646165294634;2.0504868405236127;-0.2680694094585006;192;1.2566370614359172
335;2.280531201595441;0.9080490941973678;-0.2744247636163565;-0.7276801310009112;-0.706742447147444;1.169719241349044;41;1.256637061435917
336;-2.537120548303782;0.7434692537914043;-1.7977290219880422;-2.175255434589377;-0.4024196725068705;-0.993126140091942;131;1.2566370614359172
337;2.7558163840924776;-0.8222320261602439;-1.7166309004116358;0.5718760433830954;1.0585110592219655;1.61790176561594;160;1.2566370614359172
338;0.5348525624872078;0.52202286682887;2.1856502764456853;2.6104048981302825;0.0679808609253227;-0.909701335451119;144;1.2566370614359172
339;-2.254486695528789;0.7297531791272968;-0.5493423249989732;-0.5122756838430017;-0.2756169067647318;0.8794728320129731;5;1.2566370614359172
340;1.9662685107098348;0.2145506213096352;-2.1431615708428247;1.585314439815515;-0.0317552267201137;2.1152012049976943;168;1.1477142423026008
341;3.1161840953507425;-0.3571283564414548;1.229255102235785;0.6179612370537991;-2.0217277440132726;-2.929418468765816;256;1.2566370614359177
342;-1.8143844880902384;0.716228867888862;0.4673245953562089;-1.0863254376232614;1.9768865014380823;3.464702275910782;216;1.2238858261386678
343;-2.087896946779145;0.5945472516756178;-0.8880110362278029;1.015503382856896;1.517242645387424;0.2965011815956803;323;1.256637061435917
344;-2.0813588162831014;-1.0990279559014084;2.183854842232197;-0.4258055888796501;2.664654523960611;-1.8846713382062952;271;1.2566370614359177
345;2.931465593907834;0.951888535064588;-1.3101219808610065;1.1986347036552585;0.4151477400638681;-3.035745471154362;127;1.256637061435917
346;-2.2576704192609185;-1.5504891386145103;0.6677537215947743;0.0155468431745195;-2.480456514047484;-2.443081714614659;88;1.2566370614359172
347;1.8119287109058997;-0.1880310318195045;-2.3039386873606764;0.3292447326176056;-2.393742161824279;-1.7791045953239375;133;1.2566370614359172
348;0.1951250502085998;0.7049322121758459;1.0130900643856953;0.7225846218522812;-0.7162536735184177;2.4964659338019084;274;1.2566370614359172
349;0.6686471901337303;0.789693580711224;-0.6180551382245292;1.563094894074025;-0.028959078120078;-0.277115404426834;112;1.256637061435917
350;2.3607469408306927;-0.8339994537584585;2.2266366513725053;-0.873581434402475;-2.398438931590583;0.7297341331224969;277;1.2566370614359177
351;-2.253150256258177;1.1119182483219123;1.3950028828600698;-0.8632320184547921;0.6307158530132893;-1.8724402130919224;261;1.2566370614359177
352;0.7287755819700923;0.9860792434970932;-0.2103809719686145;-2.2721174604704597;-1.803841834481015;-1.4943931260744454;172;1.0861109049663615
353;3.0603020119953395;0.8431111225099976;-2.445937747717228;0.8243826586865457;0.7210026926101328;-3.20011108394206;345;1.256637061435917
354;-0.1695744415667193;0.0254334858274871;-2.032491925055654;0.4686091397749745;-2.615077135644912;1.7649153256538248;280;1.2566370614359177
355;-0.4767667338916101;-0.312840544939997;1.583251355870861;0.1038144641783124;-2.505059696738708;-0.1631660561268748;181;1.2566370614359172
356;-3.027912760789496;-1.2509774588557334;1.0758851926774635;0.3538238390979596;-3.004280535456207;-1.859333511949306;346;1.2566370614359172
357;2.744784650841226;-0.9349586962952906;-2.238182728638804;2.2410090415841646;-0.3331974061628157;0.5184107149913315;299;1.2566370614359177
358;1.177863284616934;-0.3142738689360896;-1.1726194732574329;-2.5355364362746378;0.927332249773069;-3.3087333588924013;232;1.256637061435917
359;-1.0939254445373343;0.8997167619148672;-1.9762080986814816;-0.7005181263861984;-2.347149624139299;0.005216085045944;221;1.2566370614359172
360;2.8421255040725475;0.5265990246521719;0.0592749623447416;-1.216713851932696;1.8539294365332597;0.7921441874302917;223;1.2566370614359172
361;-1.3715962569412945;-0.2773219279828986;0.72027888431972;-1.282566757143676;-2.3332595438172112;-2.8307581986096486;319;1.256637061435917
362;-1.355356239590261;-0.2781893392531392;0.5370999975404721;3.367083089331963;1.024125592273913;-1.423196351987503;98;0.6948986058849564
363;2.6326932545276125;0.0892307425266915;-1.543818536398965;-1.3151698351132182;0.2023950051542682;-1.0268927822906242;63;1.256637061435917
364;2.4417455245137485;1.3271766211892042;-1.447799663752746;-1.6654261027593007;0.720535715130131;-3.021919056390518;281;1.2566370614359172
365;-2.1781955264019635;1.1767991931594308;0.44877624895904;2.432519099212379;0.580045176743104;2.3599287456535247;188;1.2566370614359172
366;1.826240215027384;-1.1847004610335534;1.1394775618882784;1.854772501301173;1.6410781621337742;-1.7237127226141735;85;1.2540650046690045
367;-2.0502736140804565;-0.9291357112253642;0.6600847505503221;0.847926391270987;-2.922514271454164;-2.9546612309729725;346;1.2566370614359172
368;-2.5133233750585062;-0.2897353281332713;0.1051549827274022;0.5756200618388083;-0.1051098538522436;-0.9740374400100318;107;1.2566370614359172
369;0.8722194874987007;0.7679010840713795;0.9745936691138944;1.4005544295358852;-0.042997814050149;-1.1275702593849246e-17;300;0.9367542680140776
