Komment314/test_diploma/benchmarking/path_finding_for_benckmarking/pre_rrt_star_results/6_3_tree.csv
id;joint_1;joint_2;joint_3;joint_4;joint_5;joint_6;parent_id;cost
0;0.0;0.0;0.0;0.0;0.0;0.0;-1;0.0
1;-0.5803696200031959;-0.2181668901652556;-0.5161768305525462;0.7343437460440365;0.6237080716441022;0.0;0;1.256637061435917
2;0.6322692874762368;-0.2904784621047984;0.43806773615399;0.0985255834949747;-0.805844513466562;-0.4939620465132452;0;1.2566370614359172
3;0.5860512655774867;0.1691374529812535;-0.3423946289795779;-0.4701541347593741;0.9191372409967544;0.1548576123921999;0;1.256637061435917
4;0.8362357784094263;0.0954181085127985;0.9455230021740262;-0.8970763075394153;-1.1185250229495585;-0.2887423152908039;2;1.2566370614359177
5;-1.2293631362648558;-0.1457114387445796;-0.5805118200049165;0.8918582511209376;1.6402334064520585;0.3007004507814463;1;1.256637061435917
6;-1.6208859041954746;0.7173177435101625;-1.2205374667082325;1.3937241238518887;1.6186441505067717;0.4387547093926507;5;1.2566370614359172
7;1.4581699625492066;0.1628923087231722;-0.3778888252709714;0.2184190561672628;1.504364379167773;0.1798175854438086;3;1.256637061435917
8;-2.464343037538005;0.9488600555430332;-1.6059863241224424;2.1606081117695424;1.8418767120700807;0.2726514975698584;6;1.2566370614359172
9;0.5221128561869001;0.3132330690297223;0.7742609404801354;0.7175560934640266;0.3066808810870646;0.0;0;1.2566370614359172
10;0.761517739017336;0.4203070008042803;-0.8723210789293027;-1.0564320651997228;0.3248355896396022;0.8672646394741077;3;1.2566370614359177
11;0.1301095437919264;0.4565670660256726;0.609037058924752;-0.0579172658826628;-0.984062353034269;-1.3206595740934366;2;1.2566370614359177
12;0.6301885318234388;-1.3089684135023911;0.799642986535515;0.449017513947658;-0.920838258163494;-1.01837197892491;2;1.256637061435917
13;-2.5460464421022606;1.1595823698591203;-1.851302402998632;1.6826592269772718;1.4797389162613928;-0.78010605567953;8;1.256637061435917
14;0.777041373549214;-0.0691776929144318;1.35078329137425;0.374204783756688;0.9581149954402312;-0.7023358285448104;9;1.256637061435917
15;1.2580059899740257;-1.4344832121478253;0.1129850245007697;0.9300697342412408;-1.5727719816534884;-0.8151479561372298;12;1.2566370614359172
16;1.4189744924187713;0.792559520553053;-0.6105256953775177;1.1116233059678855;2.073329081462056;0.1058916496008973;7;1.2566370614359177
17;1.4893057169618846;0.1879224387935568;-0.2596072009663093;-0.040459741223875;-0.8801096432587147;-0.8167240220499659;2;1.2566370614359172
18;-2.049625435075901;-0.1903819628009893;-1.5326031021054352;2.202762981658562;2.101967705685841;0.0870061832394819;8;1.2566370614359172
19;-2.014724087264181;1.1154547781813646;-0.4454824871196721;0.9074270510650166;2.1901077399190183;0.1197729027882214;6;1.256637061435917
20;-2.055441624808649;0.949930939857658;-2.103561980750931;1.766520591311382;0.6076206438018095;-1.460717538955638;13;1.2566370614359177
21;-2.788416061621364;1.0233250840016663;-0.901365680355118;2.277592569102622;1.3749982130381675;1.1331264774696423;8;1.2566370614359177
22;-0.9347816848223236;-0.3640326415457994;0.5161021155916637;-0.0279841399494967;-0.2548748693174048;0.4906061933646511;0;1.256637061435917
23;0.4140950694994236;0.8720637005087671;0.6976366452287643;0.8694648413918559;-0.8732747194805873;-1.9882598382946743;11;1.2566370614359172
24;-0.959858348838394;-0.0342879536207241;1.0961109640246571;-0.2417108527474743;-1.266905952404695;0.7425586109408445;22;1.2566370614359172
25;-1.2828533345251938;-0.4020208503646937;-0.3581488528266204;-0.537993541522341;-0.8765357698803151;0.2769403185121966;22;1.256637061435917
26;1.1795857970857544;0.5797900010233454;-0.9753395904024368;-0.7910298050254134;-1.1565722010971828;-1.2381386269567285;17;1.2566370614359172
27;-1.5458827696351387;0.0430916252854038;0.2943387233177124;-0.5175881458138739;-1.0380877691135448;-0.6501905453941357;932;1.1463467715741305
28;1.47182828053077;-0.8078052682122948;-0.0619967343116563;1.2541987540796538;-2.279693851618793;-0.1043211705091434;15;1.2566370614359172
29;-3.105450935873097;0.3537082085139802;-1.6949460161502077;2.59496305232815;1.631211022893886;1.616965351297473;21;1.2566370614359177
30;2.1684381515927016;0.3368809942496727;-0.961480515842659;1.3460244502442562;2.6990803635505785;-0.3841289203108917;16;1.256637061435917
31;-1.4031357145740304;0.4460818171243493;-2.20533717789431;1.7355282323806405;1.4166271466893563;-1.9444111675969065;20;1.2566370614359172
32;-1.3262737817938388;-0.2037638158664247;1.747319526525826;0.6618084119569245;-1.002820143561502;0.4169923369146989;24;1.2566370614359177
33;-2.0991968259222933;1.0473347538297546;-0.3111152929545262;0.2973967290954376;1.928916620927128;1.172839085727295;19;1.2566370614359172
34;2.148997064690104;0.6910613360005199;-1.0275144167448684;1.476574928403893;1.5049052615910845;0.7428586402826952;16;1.2566370614359172
35;1.9140536812040072;-0.1877776313395507;-1.051938445818578;1.2445774528607176;-2.2894555725266765;-0.2420407256718387;28;1.2566370614359172
36;1.2165249663775042;0.5663987508627706;-0.787164332588294;-1.5129849849614605;-0.3200406204921981;-1.8048648232156328;26;1.2566370614359172
37;-1.5826917825847489;-0.195370264539576;-1.0292439949924015;0.1818965189812101;-1.10029677311472;0.931042580393996;25;1.2566370614359172
38;-0.9857431622445942;0.0870666717547182;0.0088947022929116;1.530311227972944;2.0107630214721017;-0.4564560164825729;5;1.2566370614359177
39;-1.861927406234405;0.5917243917078249;-0.7069132600658357;-0.2006439399206742;-0.8110760671774886;1.6711528766661632;37;1.256637061435917
40;-2.6277410236917382;0.3732278552790707;-1.985824539083345;2.1930851549733226;2.3413569860324346;2.3916430125993013;29;1.2566370614359177
41;0.4025832992947527;0.3654723388866302;-1.4723509023733574;-2.103547169463151;-0.5588862229035695;-1.8360528459608891;36;1.2566370614359172
42;-2.443401722361928;1.2616988243100364;-0.1378716688838182;0.795016583975247;2.433973100299307;-0.9789782181271252;19;1.2566370614359177
43;-2.171587935833889;0.7902943083174382;-0.8133162738840993;-0.0423466273474394;2.773483375138792;-1.0807719463581154;42;1.256637061435917
44;0.6187353141628076;0.3172033098808707;-0.6875985926806153;-1.9004323182779304;-0.552062270908216;1.0481259960144482;10;1.2566370614359172
45;-1.5362348103393162;0.8043268335600249;0.6182636874653119;1.0953337877767348;2.4301696798469163;-0.6151873340618766;38;1.256637061435917
46;-0.7947524804155728;0.0378241461595003;0.852005010494684;0.3211671086858757;-2.1828673378268046;0.1669962547609078;24;1.2566370614359177
47;0.9226309300763076;-0.3291793516620995;-1.8257624611342984;-1.4985943143380505;0.0118000279966905;-1.7380951461402994;41;1.2566370614359177
48;-1.3408335150425836;-0.2796847045245454;0.1833368208436783;-0.6712367327628322;-1.7841750648265426;0.4449706259222831;25;1.086890790582382
49;-0.0879753480679363;-0.406190222198867;0.938144200514478;-0.4825186400067217;-2.5431901907336893;-0.1481080597450386;46;1.256637061435917
50;1.813128489494445;-0.6257324636032797;-1.5806473652293476;-2.136283500745793;0.2064382659622898;-1.2981018504386244;47;1.2566370614359172
51;0.1250144159969136;0.0695727845495975;-1.5887755846400844;-1.0915420392071713;0.4217535606663183;-2.365809333681675;47;1.256637061435917
52;1.3427822583169464;0.1484124131710251;-1.2594213664182088;0.3435877372058243;-2.4338267399163107;-0.7559349322056207;528;1.1318605041908325
53;-0.328306269203363;0.7805497506887104;1.1687377662153209;-0.925187239387992;-0.6639368305864662;-1.630698971268569;11;1.2566370614359172
54;1.6312320763289752;-0.919563910152022;-0.6625254668892091;-2.691302995519236;0.7117076660619742;-1.0669701702138212;50;1.2566370614359172
55;-2.581645344233742;0.8171529974240074;-1.0348785088726875;-0.5937516024279357;-0.3130686262326543;2.3784141350692054;39;1.256637061435917
56;0.3659580133058907;0.2973229374306023;1.8612932093829533;-0.600751496311027;-0.4260056164481834;-2.1019980283929027;53;1.2566370614359177
57;-1.5037168040202964;0.4721530684987184;-0.1577759672192906;0.6317507446277436;-0.7337699206163772;2.331543404873758;39;1.2566370614359172
58;0.4598066461295451;0.7853834541219834;-1.3813257740177003;-1.97707192029612;-0.2934873663109021;1.9316947387724333;44;1.2566370614359177
59;-0.3220782435433388;0.3701857345842728;-0.1899553385343714;-0.9926415047506189;1.5152911598287198;0.4046311163757571;3;1.256637061435917
60;-0.9525963166352092;0.0968490145983345;0.6853659881746132;-1.576220114172936;1.516815440678598;0.3938163400411826;59;1.256637061435917
61;-1.2483034769473933;-0.2698101434856982;1.510219293971117;-2.149651107680962;1.154546304260917;0.85944498360564;60;1.2566370614359172
62;-1.6980275271208567;1.0122900120151324;-1.581997155155997;2.588604841172419;0.1476058230594135;-0.9240265695907144;20;1.2566370614359172
63;1.7911091505537098;-1.1395652916022132;0.2829453653264087;0.5954068112188146;-2.35623506816615;-1.488394528403198;15;1.2566370614359177
64;1.7751276027422498;0.2181349286507675;1.6407512628181218;-0.1024907892600619;0.9115503420898484;-0.2699891158012361;14;1.2566370614359172
65;-1.7284051525253763;0.6552354750283238;1.488266747661842;1.6198720473815824;2.787347982179196;-1.215484743994634;45;1.2566370614359172
66;-1.4543459067656737;0.361248339151295;0.2657531615311913;0.6632968535230492;-2.471076371845223;0.8710286172786693;46;1.256637061435917
67;-0.98715503770721;-0.2958170732299513;0.5347512778919733;2.1084344506695976;1.8398283060332263;0.4338048851324458;38;1.256637061435917
68;-0.6020228762216064;0.1142759875755871;1.6238743619069542;-0.8581035664803413;-1.6576079388050742;1.5286228641817576;24;1.2566370614359177
69;1.5022868820315574;1.2647030867890017;-1.1454347627916843;2.047971927230672;0.9165956619129124;0.3616371007301254;34;1.2566370614359172
70;-1.925584237672256;-0.7293513649808264;0.9183891507413808;-1.2739099365292463;-2.0923958469424435;0.6359842963184485;48;1.2566370614359172
71;2.254580001233186;0.3035255793866024;1.7468450401895073;-0.0859858054693503;1.8190503540822989;-0.981948358082236;64;1.2566370614359172
72;2.5599785792148384;0.2184332430689082;1.5911397990668084;0.3870203678901978;0.1501919269852452;-0.6460163134240952;64;1.2566370614359177
73;1.0888897519437608;0.5346859560669799;-0.0343304619149418;-2.1585788505113976;0.0864281472157478;-2.4475724703354107;36;1.2566370614359172
74;1.8610351559833955;-0.0706895898585023;-1.9467134337652692;-0.0824972092357824;-2.0607315581540777;-0.0707881096730088;52;1.2566370614359172
75;0.5402987155944309;-0.1496541839168842;1.8567760595667744;-0.5786576440938538;0.4346371269036511;-2.8815741966146637;56;1.256637061435917
76;2.5505173162187886;0.3922710598008561;-1.752487722733799;1.313316596105485;-2.672049007747487;-0.684445704746267;35;1.2566370614359172
77;-1.2135383467024854;-0.2580792070325007;1.7289688343769252;-0.9647643759728548;-1.0285581903997016;2.333863312862162;68;1.2566370614359177
78;1.107959172977065;0.656813279259691;-0.0336821218498433;-1.5766721309737572;1.1635480225134782;-2.7026310948440457;73;1.2566370614359177
79;-2.730811568205142;1.2619425014764545;-2.494192192425348;0.9339369313548812;0.8754903935756198;-1.789532400547795;20;1.2566370614359172
80;0.2793852007340288;0.1375612337846948;-0.7375575705681873;-1.3179255936585033;-1.3413772338174748;0.3648406714134001;44;1.256637061435917
81;-1.7511796634432455;-0.3684440804727594;1.5975268114013923;-1.826184543069337;-1.7957890743905307;-0.1151847259208112;227;0.8574845417634825
82;-2.375233468538491;0.1115417418748685;-2.193622716604508;1.2777447380341052;0.258201190691727;-2.0970089096835305;20;1.2566370614359177
83;1.9078599806798453;0.3478833040010705;0.2985112807135693;-2.4826385768922785;-0.5988221840857468;-2.0137950050925024;73;1.256637061435917
84;1.0352284699691885;-0.4756514428511261;1.0268453917772922;-0.3405967334117308;-0.226801230093135;-3.093584618380428;75;1.256637061435917
85;-0.9356131239144584;0.246083569712685;-0.3378261306222322;1.6740931819443146;-0.9529625645718232;2.5273654194851845;57;1.2566370614359172
86;-1.378057432853102;-0.0190605523657861;-0.6670448723803356;-1.386548443528488;-2.297769757357586;0.3390142221348059;48;1.2566370614359172
87;-2.362544960008901;0.5593571372338453;0.635091503329485;0.7231511470048695;2.1069198720150344;1.5770704885740547;33;1.2566370614359172
88;0.9995148882693946;-0.8973601596588152;0.9798310346707118;1.0174335573802955;1.4876828006534848;-0.5929505054416976;14;1.256637061435917
89;-0.985205294350753;-1.029120601554829;1.1467157645950294;2.3102282690187907;1.5997174291894314;0.4767837011464341;67;1.006210492922437
90;-1.349220933266659;1.248953855398847;-2.1228754076201097;2.436213328412748;0.2343127941418163;-2.0953467328885806;20;1.256637061435917
91;-0.1891220587411665;1.2800872666322676;-0.901600516007227;-2.536603337114246;0.2741423976743902;1.7128772360099818;58;1.256637061435917
92;1.5706275458367287;-1.2893889968502652;0.1537229106578602;0.8424761681439947;1.0748357194078495;-0.1284367873993358;88;1.256637061435917
93;-2.01863412924681;-0.4894575769842501;0.1554088979134986;-0.6705031452696827;-1.65933480384034;-1.4523138723952365;27;1.2566370614359172
94;-0.5955931199881126;-1.0947058034446426;1.726629287173819;-1.872840644820453;1.0819980449917763;1.445902549711882;61;1.256637061435917
95;1.5307277655568206;-0.5465812901114918;0.3840541495018432;1.2620899190652886;-1.640995648521571;-0.3419479553652437;15;1.1291747310065987
96;2.38687478914508;0.8085197003645826;-0.0667791890696391;-0.324917372290203;-0.940485570806166;-0.3003700106450655;17;1.2566370614359177
97;-1.032235882244814;-0.3928502540889838;1.2041245158724867;1.2685114045270849;-2.719030698124133;-0.0013408746693258;46;1.2566370614359172
98;1.6599445751897586;0.7047501875679081;-1.0749173327616568;-1.3840242928137456;1.5426081303049073;-2.7873680609868945;78;1.2566370614359172
99;1.20230249906011;0.079311208646053;1.16467449728901;1.189539183019623;2.0962377457764902;-0.2056517136355596;88;1.2566370614359172
100;-1.407027234535665;-0.2502586942720388;0.113285529241424;0.0042752173484091;-1.104737254496374;2.997195296881577;57;1.2566370614359172
101;-1.0619339201733335;0.3264972278647459;1.14309227966476;-1.6166647323655512;-0.2601698894529091;-2.069944828843208;53;1.2566370614359172
102;-2.153252604732383;0.0693652623277128;2.1509010521420286;0.9560316838639392;-0.4600843142844407;0.9429540040529696;32;1.2566370614359172
103;1.8602761616034145;-0.5994778474927984;-1.1835049161722258;-0.6968421580740238;-2.4020077526418606;-0.543167944420658;74;1.2566370614359172
104;0.9158946378721446;-0.5447718027513268;1.1120784956336536;-0.9981920572181168;-1.2700903696951675;-3.272386172741778;84;1.2566370614359172
105;0.3112707634252609;-1.0236834680674605;2.1193850951730555;-2.244119046401608;0.6522131542594068;1.9701835817096616;94;1.256637061435917
106;1.554003571343425;-1.2924360199777687;0.9469737847844626;1.548359716584849;-1.107234881875042;0.2399164568526618;95;1.2566370614359177
107;0.8609904043722889;0.7357826996337472;-2.225717166546636;-1.7003244450777395;-0.5579516594229571;-1.1277310970021448;41;1.2566370614359172
108;-1.2375429222492051;0.1565596653795748;-0.8888172992739058;2.681157365375448;-0.1110211205226649;-1.2048539692756592;62;1.2566370614359177
109;-1.2618832585825148;0.3610919638957258;2.54377063802683;-1.5845804309929432;-0.6852009023064749;2.4995690344967567;77;1.2566370614359168
110;-1.7543623052471418;-0.1800418318942154;-1.2135052314232506;-2.074861169686653;-2.01503082074892;1.086865634888032;86;1.2566370614359172
111;2.3381729872407098;-0.2379768065716979;0.3646195652081349;1.8817999101496317;-1.6903463928294946;-1.009090008314329;95;1.256637061435917
112;-0.5441473371915231;-0.2098285379759935;2.121321471346325;1.0002409530099998;-1.6351610912601684;0.9765538029433808;32;1.2566370614359172
113;-2.1796758205802056;0.2178771851386702;0.0791643544783587;1.3312600011186564;-2.078303107037703;0.2407771234395824;66;1.256637061435917
114;2.3733018352954423;0.7337315871892711;1.0299961309357697;-0.2762961774306855;2.5069751445995268;-0.3847601906180959;71;1.2566370614359172
115;2.377760091546663;0.8050067405637349;1.2990191023584303;0.0378977073015807;2.6527044455589097;0.790700780712982;114;1.2566370614359172
116;-0.1764465361358626;-0.5102300577520579;-0.2607610132141492;0.4794607163532386;0.7436293509413326;1.089081374752721;1;1.2566370614359172
117;2.30491501128896;-0.8820663154812538;-2.0822410740186554;-1.5898086532144928;0.2412622415362268;-1.0951660192037496;50;0.948782216945743
118;-1.0031816416935444;0.8247747465971529;-1.859683306429246;1.7405914115856806;1.3906426670949013;1.216714955535288;6;1.2566370614359172
119;2.019265753140256;-0.4591557404234085;-1.2397898277738302;0.829882147237423;2.919846809377555;-1.1125608272873666;30;1.256637061435917
120;2.366037393367736;0.53448343771558;0.5504364656288289;-2.6639110867441493;-0.8469845341745921;-0.9291383870098712;83;1.2566370614359172
121;1.246007098178203;-1.3462655019115282;-0.5202542718569001;1.667412789366964;0.5171528430553907;0.0288764992176354;92;1.2566370614359172
122;-2.0123317325489487;1.3061519751007509;1.0241768801040014;0.4174144435354903;2.298427778290224;-1.2926412928473088;45;1.2566370614359172
123;0.4476771610868306;1.0586148259009476;-1.937170106921226;-1.2749396750573083;-0.7042519610937492;2.66221101695554;58;1.256637061435917
124;-2.7294816382142724;0.00051063449026;-0.886061061762915;-0.7744046780670145;3.070244136131175;-0.9588485010205026;43;1.256637061435917
125;-0.8352496948053647;1.0632589012623976;-1.7180119453578102;-2.7844735584763374;0.6410410090556403;1.2108220772738365;91;1.256637061435917
126;2.526071635088293;-1.44609430422938;-0.1387855243445068;0.434902538788122;0.8349897854089439;-0.705067711975969;92;1.2566370614359177
127;-0.4019005628429158;0.8190205697741648;-0.752959982068558;2.8607517079602847;-0.7357000033702757;-1.1724648308734724;108;1.256637061435917
128;-1.0492656992791312;1.0541592347540385;-2.271533183339444;1.0258166413859122;2.032275252136179;-2.388325041393248;31;1.2566370614359172
129;-0.319223180124815;0.266629788403101;0.4042410092826167;1.621344810142778;-0.2027227071331234;2.8145450143781834;85;1.256637061435917
130;-2.461748556307777;0.3263755869102578;-0.1549766718090506;-0.8924847939343402;-0.7144040596337642;-0.1888080606697374;27;1.2566370614359172
131;-0.4847485174198658;0.9197739379467816;2.228942180047575;-2.2196490771694117;-0.8024313429430969;2.882845215077957;109;1.256637061435917
132;2.2181842389624187;-1.3650414790291991;-0.0222903091241627;-0.3916197891890384;1.48264565763662;-1.3064029532209749;126;1.2566370614359172
133;1.736955742296607;0.3774361858377024;1.3544349720781503;-2.702619591408136;-1.5101926399183323;-0.6627323005417418;1010;1.133669927290695
134;2.795332160128075;1.0686824706303395;-1.4462746670341446;2.2120178710041225;1.3801979272927425;0.2071333944805607;34;1.2566370614359172
135;0.3299587051721344;-1.2782527655839866;1.820912303305372;-0.7154501167251448;-0.9474020404348936;-3.37871271907164;104;1.256637061435917
136;-0.4135891638575111;0.5573383873781497;-2.016600916158741;-2.4184505534272;-0.4869085654031858;-2.525714815396549;41;1.2566370614359172
137;-2.9209930613236885;-0.388713758398243;-1.0878819933986463;-1.6095980001199577;2.4028087378741536;-0.5036399043542859;124;1.2566370614359172
138;-2.348108962269848;-0.9905656409156152;-0.2790892179616763;-1.849045035501863;2.7026473955612684;-0.2081217699868207;137;1.2566370614359172
139;2.362925673713337;1.2132545295794368;-1.8037936453733177;2.970930497544951;0.6713514688519686;-0.1991039231210596;134;1.2566370614359168
140;0.8693430826676463;0.2376348540643097;-1.8353753070588452;1.2383028933226434;-2.8866890823618188;-0.6574009094216292;52;1.256637061435917
141;-0.5347795927308228;0.0990781614094105;-1.816525375318544;2.3219269926965405;1.2353752194421763;0.5317484995939588;118;1.2566370614359172
142;2.6873633313309204;0.3685316230966564;0.3206968359093137;-1.03600186356213;3.022169341801596;-0.4228099844789053;114;1.2566370614359172
143;2.1987908313160083;-0.7999788044579408;1.6241531556174458;-0.5706209964331451;0.7829737700716176;0.0865740293521696;64;1.2566370614359172
144;-1.432235489921834;-0.9727346152134708;1.6331029786294684;1.417761157486287;-0.4380052267760253;0.1466835009023871;32;1.2566370614359172
145;-2.2128733356877834;-0.2048643387020471;1.2370177013504595;0.2184643124504586;2.5831974966356435;1.218132722081102;87;1.2566370614359172
146;-2.816720264918437;0.6938378601880167;-1.5588117654485505;1.4545650363975169;-0.3728082530115091;-2.558239940437516;82;1.2566370614359177
147;-2.20809624589369;-0.4843898286386274;0.1977732020342314;0.1698143828954552;-2.0091923921129986;3.1704791016393306;100;1.256637061435917
148;-2.076865750397205;1.190905936288997;-1.6233472879432045;2.840323389450244;2.139421596120452;2.2651886658132767;40;1.2566370614359177
149;-0.1634359572167711;-0.9099555666154484;0.467238795449247;2.956265990274656;1.6705196988947726;0.551381991261789;89;1.256637061435917
150;1.40058084160067;-0.4984739010043269;0.4878835919310272;-2.835493423180074;-0.2768933888119718;-1.7627669153177945;83;1.1404710909516502
151;-1.538252238330673;0.905130990944483;0.4028659255736029;0.350043936891508;1.6050268255604254;-1.8602648820072776;122;1.256637061435917
152;-1.317777913451375;-0.1116833844996937;-2.1644605103884698;-2.570023864473653;0.0137102529601217;-2.389578308504472;136;1.2566370614359172
153;1.30519686411607;-0.5296495134478503;-0.7712067603602227;-0.8827022672552114;0.429890058751144;1.441450797912535;10;1.2566370614359172
154;-0.3207687818760166;-0.0866814025292538;-0.2663520103745528;2.542635626749748;-0.0341419620643517;2.457593640566172;129;1.256637061435917
155;-0.6460018166112942;1.118326959504231;1.4407312898563518;-2.845411777688206;-1.509986681779622;2.8977063392582867;131;1.2566370614359177
156;-2.619973012471577;-0.1533037530219128;2.151181972769757;0.4597936997289109;-0.8096281588044625;1.9141873229422333;102;1.256637061435917
157;1.9167545648617448;-0.8371668007257556;-0.3467229871308355;-1.9806575916047668;1.303736348257973;-0.3351380363159428;54;1.2566370614359172
158;2.3444471177079835;0.3808193126189103;1.0414571717618308;-2.715515422898288;0.2598266000605971;-1.8041151578372092;83;1.2566370614359177
159;-2.1611726783199896;0.3890451304848467;-2.151191666476594;-2.8084601457853138;0.7441975660019501;-2.226933628086289;152;1.2566370614359172
160;1.1563497862008048;0.2859888718281239;-0.8178826729592937;-2.3956832362689964;0.1260665613643287;2.3510279584807483;58;1.2566370614359177
161;3.296470302793365;0.3498361694841306;0.1616424783286909;-0.5750674471906726;3.2923748062269365;-0.1270207977583966;142;0.8772809604209517
162;0.4890707570641336;-0.3970663693267119;0.5525230285890532;0.206976308137487;0.5399198118250491;-1.443029167449214;14;1.2566370614359172
163;1.2218143731066653;-0.4399497363558589;-1.9710114794471656;1.528664496358708;-2.756815828215801;-1.593459520030697;140;1.2566370614359172
164;-2.478781214258372;-0.8805643771495174;-0.8463318313891266;0.0609702112904182;-0.668678274078423;0.6621654663331122;37;1.256637061435917
165;-2.5258976392996253;-1.152754536632217;-0.5003399613664957;-1.2251163819771351;2.2769631280304314;0.7414974699356313;138;1.2566370614359172
166;-1.607322347268974;-0.0970553516152185;-0.1369377177429447;-1.1015612029039004;-2.33572107807426;-2.1784019049345047;93;1.2566370614359177
167;0.052378102732568;-0.0484249867458646;0.0694447421372452;-1.3419511875202284;2.487329442449519;0.0447420589066321;59;1.2566370614359177
168;2.3802198988945333;-1.2865686291527283;0.6247738122744801;0.4558345126492691;-1.6316365202472565;-2.2294107764001865;63;1.2566370614359172
169;-0.0745104407186608;-0.417303893617224;0.9740625566283768;1.0465358752329708;-3.145344256483794;0.6129520616434213;97;1.2566370614359172
170;-0.6245749893115744;0.4530036934591097;-2.646069117269353;1.0132917679007631;2.905452396833605;-2.021563325930144;128;1.2566370614359172
171;0.3528225329334397;-0.6123165560176193;-0.2406138615110101;0.8691260017862422;0.6288473142737859;-2.1054671183522;162;1.2566370614359172
172;0.3397655365612139;0.3358358104610113;-0.5904200916256477;3.147408181761911;-0.7658670070197718;-0.6599389660955568;127;1.0750442199142147
173;-1.1253316540154716;0.611764907151044;0.4061958733534837;-1.5850419212292313;-2.510633547398246;-2.7123058680768906;166;1.2566370614359177
174;0.3533080016143612;1.2065509251349642;-0.4048914068070969;-2.284475201129124;1.3560622519378591;-2.880348810764568;78;1.2566370614359172
175;0.0257089438650791;-0.4394875935557762;-0.3942093111052595;1.5507246412648052;-1.3405975108695043;2.3995802293921096;85;1.256637061435917
176;1.301099827296738;0.8998645032907076;-1.7220402109667714;2.2236381604607147;0.5938352970757634;1.3301651383728947;69;1.256637061435917
177;2.310686369006634;0.6837058712545336;1.6209635527577606;-2.41252022236064;-1.235011531794871;0.2991663331172303;133;1.256637061435917
178;-0.7845636214214127;0.7997934045644277;1.749800418846448;-1.098631677434425;-2.353483030456553;0.8089506024092739;68;1.2566370614359177
179;2.0437136199136186;-0.2500983215927881;-1.5758333389588437;0.029461341962146;3.10665326788021;-0.248651895888329;119;1.256637061435917
180;-2.5803726470989594;-1.0756794945642325;0.1881722563644559;0.9904739384877737;-2.5223130263195284;2.777978851119299;147;1.2566370614359172
181;1.7886933717820466;0.5600201015617294;-1.7082779331585214;-0.2927026569884722;-2.084285635009388;0.1763431514856556;74;0.7521266659185246
182;1.7885439569446857;-0.9572960193034968;2.0318471066863184;-0.6254836820290784;0.7107142808696908;1.187319138070543;143;1.2566370614359172
183;2.114060662632252;0.7112178735254355;-1.7404314773039442;-0.6013449752313302;1.036527774739859;-2.5398602120353786;98;1.2566370614359172
184;1.9985943217995357;-1.573148948031296;-0.3448340208828886;-0.8358717177180653;2.490984157021582;-0.8947386452448438;132;1.256637061435917
185;-2.7114612606702586;-1.074318136133443;1.03441383836866;-2.1725687524466664;-1.9591317859326096;0.5749660189198651;70;1.2566370614359172
186;2.300901406183256;1.4858749745489015;-1.4573795076714595;2.764982040314302;0.3459382775170996;-1.3093545797144954;139;1.256637061435917
187;2.1968825385253155;0.4668619301773575;-0.505422338173999;-2.807785663110565;-1.323211931403975;-2.466206714125647;83;1.2566370614359177
188;1.091965602904006;-1.2803789257939393;-0.6494902822913654;0.5473296610617461;0.2207632406389103;-2.276996959035031;171;1.208026372878344
189;2.92029075902152;-0.1695327580826199;0.6343222153907004;2.208634468608953;-1.0289947450023482;-1.7956296868908035;111;1.2566370614359172
190;-2.157261176589061;-0.592004339398358;-0.1443654037575408;-0.7091491101610663;-2.818786479245702;3.0294351958598296;147;1.2566370614359172
191;2.202345771956347;0.4072636295425886;-2.0977428611631037;0.4698365884595833;1.2540878601935552;-2.1442334902363225;183;1.256637061435917
192;1.943872788377748;-0.1326242154284012;-0.7077619585238774;-0.4514772507991955;1.135911224734352;2.011674031533829;153;1.2566370614359172
193;2.050946291086788;0.986888170823865;-0.6349220636828258;-2.4405242439708443;0.3826999893132589;2.782569327793131;160;1.2566370614359172
194;0.175027277380434;-1.3934565345569432;1.0849992481720467;-2.693371309780133;0.3450137676587779;2.2103692520338707;105;1.256637061435917
195;0.1119948086293711;-0.3595113587842432;1.8573628372989104;-1.2736055444416243;-2.20637008519855;2.091243824668197;68;1.256637061435917
196;1.1886453464744593;-0.1285574950157307;1.023309024112909;2.0539702937135944;-1.3463878234415003;0.0640783201357821;95;1.256637061435917
197;-2.2817220244771383;0.4539084667011041;0.2743184944704612;0.8294587128687171;-2.5115092785897044;3.1709028529345926;147;1.2566370614359172
198;2.402632941317004;1.0164132028027364;0.7086086716504734;-2.9157215910231717;0.3640913557381046;-1.311920287376842;158;0.9007567634348846
199;-0.9711563524770204;0.2192152336909754;-2.3205089100533;1.6884287175969386;0.6754879587652163;1.913049157558982;118;1.2566370614359172
200;0.5727897391442215;-1.5926296533689015;2.176508389669712;-1.4377246490593851;-1.8157351854559052;-3.240129032792741;135;1.2566370614359172
201;-0.1526732592695369;-1.0941098884007396;-0.8803778224638126;0.2256996632204192;0.3797932027452536;1.8996117404497963;116;1.2566370614359177
202;-1.6963188429742315;0.7226421888339288;-1.0262649533551254;2.458481767732143;1.7200053478370263;2.275111686403637;148;1.0209827030587215
203;0.1489942174679443;0.9899301755758724;-2.392315720325732;-2.9650546101613324;0.1735615413080404;-2.079236801103539;136;1.2566370614359172
204;2.1381372213337158;-0.3811044784590033;0.4854281467004517;0.5931016377413798;-2.697500147352382;0.1001538579606989;28;1.2566370614359172
205;2.7145204503537097;1.399591419108088;-1.1718050559592423;-2.84812114368349;0.1688626972599928;2.098188512267577;193;1.256637061435917
206;1.5865806631792083;-0.0077531041762888;1.5472350044259562;-0.5402388660892229;0.1186497315915054;0.977414908328472;182;1.256637061435917
207;1.445864615156197;-0.4545023570708028;-0.1593071031605434;-0.8338625457058639;-0.0803357810248968;2.398824954876668;153;1.2566370614359172
208;1.6683204056604863;-1.4396823010562845;-1.2190052158224975;-0.0253523114515611;-0.2443281407646841;-2.871094918913081;188;1.256637061435917
209;0.8383154860215721;-1.1217407513997932;1.500324411653079;0.5266447951227677;2.312149384883899;-0.0350323270446698;88;1.2566370614359177
210;1.6554778832463477;-0.92595116338437;1.1769275238218078;2.2315880769967014;-0.158353705273536;0.3602215532071412;106;1.2566370614359172
211;0.9550257057353604;-0.1026783309135371;-1.370135206279969;-2.174813109735065;-0.9436859583601208;-2.7800768514437646;41;1.256637061435917
212;1.1169391427832782;-0.0275602736593427;0.5596514801318659;-1.3945771693960294;-0.6017622086670491;1.9681541501344149;207;1.2566370614359172
213;0.4322938838893765;0.6603520373514056;-1.7077888768110951;-0.2709308194167037;-0.7503775503518596;-1.0326580861203902;26;1.2566370614359172
214;2.5522432505643406;-0.7748790835906523;0.9721850757158046;-0.2895872974008239;-2.991018917628329;-0.2876207265743381;204;1.256637061435917
215;-1.4468473561230428;0.1311419097656702;1.1556159888441917;-0.942225823843762;-1.258615352755681;-0.1166792181446668;24;1.2235790888206035
216;-1.2284231044487113;1.0780424341899004;-0.9102758765813098;0.3763579659807214;1.605508702019626;1.5584171282784425;33;1.1737466619565522
217;0.204726869847831;-0.7862815821791932;-0.8913125140251779;2.75286876600833;-0.9971513070331176;-0.6145099893557937;172;1.2566370614359172
218;0.7191693336612794;0.6787374943936302;-2.290264805017568;2.732008470168783;-0.1056661110999686;1.677979269153996;176;1.2566370614359177
219;2.810435170689174;-0.8064578366460478;1.0592926696302734;1.9766265613847869;-0.1687703461414723;-2.228043060639514;189;1.256637061435917
220;0.2156934503780084;-0.0978687264415691;-2.392344619688968;-0.4015106757788512;-1.196132011296546;-1.55511145847381;213;1.2566370614359172
221;-1.7103789055797722;0.5811830975033491;-2.6184997397936622;2.272936368247191;0.1475143010379235;2.351754155471805;199;1.2566370614359172
222;0.093248152912726;0.8488074855316835;-0.0080494522333961;-1.2214381998154378;0.4220343166408542;0.7178819790781008;10;1.1983956550547508
223;0.8394284678484516;-1.1434472977866317;-1.6713488123695366;-1.8066845901752755;-0.8155105121699643;-1.4125558343721067;47;1.256637061435917
224;2.5018753768408604;0.5060949753906405;1.0181299033960045;1.231945934358878;-0.4424372654076923;-0.330480995717101;72;1.2566370614359172
225;0.5441552354230159;-0.3557003031126209;2.083141730840844;-3.1271242458500117;0.6097005833112169;1.4262341945293149;105;1.256637061435917
226;-1.242781334175978;1.2258338470810493;-2.145902926552902;-2.0149085726766165;-0.9893889939949176;-2.638138780704873;136;1.2566370614359172
227;-1.5719289198537512;-0.2754744983529319;1.08593351461633;-1.655186432346322;-1.6646285252930588;0.5063733343282757;215;1.1167774876153116
228;1.0178898474224622;0.1292759836255167;0.4445152084923107;1.171907447218474;0.5013909256133652;-2.007798805956113;171;1.2566370614359177
229;1.4066979620822124;-1.1783152024908876;-1.4341974293082147;2.2033389418527327;0.6200167437068416;0.6549898510390842;121;1.2566370614359177
230;-0.1100131182422474;-1.2722065923801211;0.2987569380036083;1.2521542286043768;-0.8810965206464187;2.6942115605372927;1185;1.244060478417247
231;-0.3275415211872333;-0.8656535910763444;0.0700187305642706;0.2281548517873911;-2.6812297797281257;-0.3294491579168886;49;1.2566370614359172
232;1.2186243115547384;0.5044177082504081;-1.3878063856704197;-2.668144648272393;-0.6884038599590417;0.7549392634847283;44;1.2566370614359172
233;-0.6263922761817245;0.741588354873286;-1.704488535332644;-1.504347753387688;-0.4339139896938263;3.0432023105921058;123;1.2566370614359177
234;0.6916128739698416;-0.8922723077686013;2.212397006743231;0.1656098210654424;1.0035317397637071;-2.9083632516535727;75;1.2566370614359172
235;-1.978470602662324;0.617960415988071;-0.6282454960247055;-0.7892820693721504;-1.4678654977454608;1.2455266653772876;39;0.989688909702921
236;0.8210546891178124;-0.5384761318884634;0.0098636569232374;2.33029663254762;-1.274294758051896;2.8012761477759422;175;1.2566370614359172
237;1.0030791658714455;0.575814369018814;-2.425429397917664;-0.1887210717166315;0.0871539796113897;-1.1842127787110222;213;1.2566370614359172
238;0.329167421481781;0.5070348903904047;-2.114924909686638;2.632640697312738;-0.536234505321793;2.7603591715770546;218;1.2566370614359177
239;-1.6751485492124083;-0.436940180981528;1.0006392433771951;1.9444175908938048;2.9113576083821373;-1.373484727088944;65;1.2566370614359172
240;-0.5259358997706209;1.0852099622483324;-2.209192384558808;-3.144888087593011;-0.6137127051306722;-2.7525812777294565;136;0.9610519418611726
241;1.5488458259622224;0.8242999538290069;-0.6473637084164341;1.6460195554504309;-2.5254679207576127;-0.2704472683693807;35;1.240573680194811
242;-2.003740831072394;-0.1018741300267574;-1.0343651358748829;-0.4758165601733676;-2.10843675202413;-1.762018216902742;166;1.2566370614359172
243;-0.6531996329493226;1.022376526478089;-0.2507563477370527;1.1032373977782644;-2.6171587269373884;1.0071941853679864;66;1.256637061435917
244;1.4758553688946965;-0.6889733273040537;-1.8537895645981437;-0.1277665598786201;2.1687970017714004;-0.5358935849195668;179;1.2566370614359177
245;-2.90720728785887;1.227481103115842;-1.2965713986568126;2.393048726271598;2.203401277751297;-1.1087736208056465;13;1.2566370614359172
246;1.6893871883848393;0.7570909472997264;-1.6657281425660702;3.018245720612472;0.0678587854315947;0.4695775376752591;139;1.2224477221422734
247;0.4908650473891617;0.5552347300974934;0.1111889233619496;2.99526781627155;0.2148697624539208;-0.8357890282027247;172;1.2566370614359172
248;2.5384720319963265;0.7427545102118001;-1.5622318564514308;3.34546340832775;0.9652870875656852;0.8216432370355279;1194;1.0342172643380492
249;1.3456160136321922;0.3452937998000789;-2.2359021587182286;-1.2260399263164323;-1.0403475412249086;2.90598011221733;123;1.2566370614359177
250;-0.854840631820253;-0.6053402654198228;2.3913478648325954;0.7274207763738227;-0.3095435056502847;0.960971991740436;32;1.2566370614359172
251;0.5154633427659824;-0.8401187735003415;1.8581275162364956;-0.1022748853528402;2.502856937271878;-0.9491766606466918;209;1.2566370614359177
252;-0.1345787234503906;0.086601323019256;-0.3220361208455983;-1.5367420036839066;-1.3364014252971388;1.1588189880528608;44;1.2304498075692467
253;-0.3698105699952445;0.3569522177112469;-1.1185125459549436;0.8396114069763113;-2.955446326168923;1.3523026467374009;243;1.2566370614359172
254;-0.8265352676344987;0.5220469062351163;-1.875603022499365;1.2521286303854158;0.5044650712147548;-1.686615718407953;31;1.2566370614359172
255;1.4295193863799318;0.0401417463170909;-1.9844747948471848;2.6144760288022284;-0.4362919088725945;3.1111259592119187;238;1.256637061435917
256;2.5902879404141026;0.0244808928699597;2.173087079805037;-3.1536716720630507;-1.0090245406477356;0.7006213276456117;177;1.2566370614359172
257;2.8878846783976804;-0.4136566604605224;2.1699675404384577;1.0084939326058155;-0.0367424520759341;-1.2080316515176506;72;1.2566370614359172
258;2.260562875958314;-0.7399499305065658;-0.4013152965219837;-0.6378160624763587;-1.907430832049128;0.1911779093471306;103;1.256637061435917
259;-2.0721894976584454;0.3976624408760821;1.2001588868458009;-0.2621218549771223;2.624707826966859;-1.6812318234539072;122;1.256637061435917
260;3.012260899095795;1.2669932932881736;0.0280035847162711;-2.36205438697494;0.6608254997339078;-0.7763101062666955;198;1.256637061435917
261;-2.0623544617162435;-0.2526442377631124;0.6915459533171433;-0.583160468301208;-0.4758846196806128;-1.0281330095359602;27;0.9875165365138332
262;-1.5494731597615965;-0.9800299940085356;2.05510167383523;2.2433592018138624;-0.5503675099664861;0.979160826813685;144;1.2566370614359172
263;2.807953057451324;0.308335422552007;1.4812063932133492;-0.4953364123586178;-2.940932078651112;-0.4785433315917943;214;1.2566370614359172
264;2.449079872888368;-0.6189533830561191;-0.9020780522391006;0.1501904424992336;1.853360069430712;2.427475479892504;192;1.2566370614359177
265;1.1901955345525708;-0.307981859183458;1.5475602559695565;-0.9526517253303824;-2.376528083847382;-3.0937705402577884;104;1.2566370614359172
266;0.5973322847161008;-0.2889707777960653;-1.720738981555248;-0.9640235539658792;-1.5721505767365265;2.913494349153956;1011;1.2000632774497857
267;-0.6030412156580209;0.3827838181564829;-2.738568825983173;1.1309788424862992;1.452160266138392;-2.833589904243555;128;1.189048701653009
268;1.9064971904233223;-0.2205071725327674;-1.0983192862905888;-0.880961137058445;2.042360695774476;-3.1859587192748773;98;1.2566370614359172
269;1.6525808564360245;-1.1027466678153304;-0.3366337714208148;0.2104976096181642;-2.808292516078838;-2.395147895346473;63;1.2566370614359172
270;-1.1927687182686129;0.7115887562470953;-1.80598774501462;0.722744204443923;1.6143363606048955;-0.3376697365914512;6;1.2566370614359172
271;-2.306303291572345;0.7446495429259115;-0.8165824110512799;-1.0622496640021435;-1.6186269955700916;-2.135841216176229;242;1.256637061435917
272;0.3350029313991191;-1.5890720471345896;0.6237336619393276;0.6999241972030843;2.1073404216146336;0.0212352439407634;209;1.1468530473704126
273;1.6324386340530077;0.0035808669233361;2.0704118428344307;-0.144350245626823;-2.9246135310312367;-2.850123887445476;265;1.2566370614359177
274;3.060803301541263;-0.9040428339774014;0.3740448088862523;-0.4893166161774654;2.1773340618854453;-1.392379078068186;132;1.2566370614359177
275;-1.7013845194101576;0.6766189718215438;-0.331957680460351;2.716235173961776;0.0007522616424089;-2.0821849319229107;108;1.256637061435917
276;2.968518434681468;1.2915395619203474;1.757219643321836;0.0550616230651744;-3.16783068428265;-0.87358863945767;263;1.256637061435917
277;0.3581751108082761;-0.9168225005788456;2.17092675972285;-1.112450150847883;2.988210247955456;-1.390366398264254;251;1.2566370614359172
278;0.253781881992075;-0.3514281156288587;-0.2246897879558565;2.7614573054802287;1.5949346706021286;1.3068185409522943;149;1.256637061435917
279;0.7207257582038925;-0.8008833510508794;1.2692924125939165;-3.054550361980376;0.250677681076921;-1.4651675654422287;150;1.2566370614359172
280;-1.104242252923901;1.2585160806234337;-2.581533674352129;1.327283582726219;0.7914285765599149;2.431967873707616;199;1.2566370614359172
281;-2.187369077037553;-0.6607839427906255;0.2555038169047541;1.308616523185479;2.368558007195987;-1.485554334105407;239;1.2566370614359172
282;1.9064281334285955;-1.1961072069808016;-0.9155610365772628;-3.1752328113675725;1.7704666987940945;-0.9789821953310484;54;1.2566370614359172
283;2.8330799384182965;-1.0627717813137685;1.43530808587076;-0.9598024646003518;-2.2126899051878737;0.0969802472172118;214;1.2566370614359172
284;-0.9602891312693896;-0.0900402261272982;-0.7928176514360801;2.5204900185216146;1.9840877194014157;2.773972483785485;202;1.256637061435917
285;2.342817251920505;-0.7155037077303688;2.5626467425074075;-0.0069000674171177;1.3523156317252396;-0.0824093973486037;143;1.2566370614359177
286;-2.421189411342807;-0.5209064157923927;-1.7566125852685182;-2.4698702923832;0.8693181234364558;-2.6951741016624093;159;1.1835795508395623
287;-2.6681158574976886;-0.9852118420516752;0.4430743270427235;-1.5084975371299798;-1.6976039832410472;-1.8059907977276453;93;1.2566370614359172
288;-1.3835467362502718;-0.1705155707066829;0.6464668575462361;-0.4386813150570859;2.828179322118871;-2.3160017368046284;259;1.2566370614359172
289;-2.6381717504930147;-1.0669447828610608;0.4646560711562664;1.1208840292425342;1.649011721928047;-2.2692711288658387;281;1.2566370614359172
290;-0.9401307427984814;0.5982066958367043;-0.9433817430784168;-2.0095923725855807;-1.5753490637385812;1.117240589241124;252;1.256637061435917
291;0.9302891564364084;1.2005550104900409;-2.374629308181171;-2.297613008218667;-0.5004286225759325;2.879696873201203;123;1.256637061435917
292;2.975064701150147;0.66752275965382;1.3285171822554096;0.9262945686675156;-0.7668518779629895;-1.3474184455810312;224;1.256637061435917
293;-2.2500637533332646;-1.188234810399324;0.9004921308420699;1.7363721260469671;2.0485663045995066;-3.0783749457233203;289;1.2443514806746074
294;-0.0130909273361919;-1.0466154002903263;1.2543457700642262;-1.8698610859909333;2.9611897552529;-1.2907175449063175;277;1.2566370614359177
295;-0.297853183406294;-0.2065823643944391;-1.1566678755180964;-1.4601238110019643;-1.791282065058566;3.3118428703040514;266;1.2566370614359177
296;0.0743166848974075;-0.9630397492062924;1.7564820320948948;-2.842651213072774;-0.6076230743200912;-1.8058465276430888;279;1.2566370614359172
297;0.4616301638571242;-1.5099269467200127;1.0520699611719684;2.414172963291999;1.6518441574081846;0.9898135975149402;149;1.2566370614359172
298;-0.5494565531242882;1.3293451060970374;-2.535203496900218;1.0765223839697198;0.4377639435953974;-1.0699518499969416;254;1.2566370614359177
299;2.551809910852866;0.6678093231513822;-0.300486916718209;-1.3823129660742548;1.1204592876605577;-2.721086415906297;98;1.2566370614359177
300;2.1047423175304294;-0.6636179426500588;-0.6332857931256817;-0.4551713925683903;1.9179514132280933;-1.5715154377282248;132;1.0686412236947465
301;2.5353366004867146;1.1231610274332513;0.9794038085942752;0.6407916543826517;2.948701274000679;1.739297126831067;115;1.2566370614359172
302;-0.3863258680034194;0.2779629484690387;0.3898088298119049;-0.6531902953597644;-0.68471718716349;-2.431968269206073;53;1.2566370614359172
303;-0.7732400782172925;1.1228818707054826;-1.9037378041890205;-0.7690002011762631;-0.2459677575082056;2.150774385143759;233;1.256637061435917
304;-2.9573218977228573;-0.5643261468507661;-0.1736903220417022;0.6863383376772106;2.916928102690142;-1.809371784218511;281;1.2566370614359172
305;2.684147684881529;0.5185550278497129;-1.4287321201515393;-0.4251647364869321;1.3869125993303948;2.1653078900689806;192;1.2566370614359168
306;1.3326246333229383;-0.369977569932405;0.9857943258431184;-1.5866917773760594;-1.8046234121832343;0.1214032636435066;4;1.256637061435917
307;2.867845034078055;-1.0568897045005592;-0.0086417360039638;-0.4182720151215059;3.1406386528770414;-2.0550174284211304;274;1.2566370614359172
308;-1.0820386951470824;1.4734257643965505;-1.2810488689464163;2.466725111280869;0.4115968535556344;-2.941709651527668;90;1.2566370614359172
309;-2.228453412225857;1.4234717679316164;-1.666452122279788;-1.355948304979464;-1.8302731446899467;-2.6447075808394103;271;1.2566370614359172
310;-2.277245342885974;-0.8850625719180293;-0.42083667910608;0.9394855145027664;-0.2167747518890326;1.2797799957982603;164;1.2566370614359177
311;-2.4973350367254628;1.2947388731030354;-0.1720842198270228;2.869904301714415;1.143509368077413;0.4370866987179909;21;1.2566370614359177
312;1.1386750990864176;-1.0077973266453366;-0.3981214227315685;3.0394191677401365;-0.5389531978976192;2.582283476052128;236;1.256637061435917
313;-2.029543759180432;1.0242276611196015;-1.3582931842018695;0.3176820260306894;1.2450436708581258;0.4777574250291909;6;1.2566370614359172
314;-0.2108900061460911;0.8977943367661623;1.9528029539443912;-1.121816579192482;-0.3650365520338453;3.0584921569456345;131;1.2566370614359172
315;-1.6911143241591715;-0.1120431009688569;0.2662770599504919;-0.0851258201068167;-2.391749366012185;2.409322941925845;147;1.0960420687234775
316;0.7643931599331844;-1.1811559329299453;1.705043937199421;-1.8864698639462396;0.6001584152745832;2.993275949003374;105;1.2566370614359172
317;2.4152334791967154;-0.2137921413889604;-1.0698995341460376;1.0436307630342485;2.618895023113072;2.46478596906765;264;1.2566370614359172
318;0.6252788961127524;-0.3929247230987758;-1.527565851611885;-1.7203531418952869;-0.8403858369349896;1.5518204251244592;44;1.256637061435917
319;-2.252382663262442;0.034775431031013;-0.907000336569786;-2.5788685683237667;-1.7403746489423666;0.1586623976794921;110;1.2566370614359172
320;0.8165719336199384;-0.2950715907399864;2.039438266127874;1.4170976782115767;2.305374320194556;-0.2236356128760505;99;1.0723836053340872
321;0.4758763035717455;-0.3613785810629114;1.691201483244137;-1.9993435297670632;2.9591327099286184;-0.4765397977110359;294;1.2566370614359172
322;0.0388644868284738;-0.3763703364392641;-1.2400451699362922;0.3679082002463063;-2.214876383241334;1.0545754236292946;253;1.2566370614359172
323;-0.535252080268903;-1.7738126421944704;0.4947278839035329;2.442765757047134;1.5600045868897998;1.1153480052747635;149;1.2162259949702534
324;-1.942639157764402;-0.2934274971801089;1.2199999764648777;-2.620327283888376;1.5192386112713383;1.6704401088854095;61;1.256637061435917
325;0.5264122400726113;0.6871446423150535;1.2530524475841538;2.430151610935625;-1.4909556853757508;0.5739996369624237;196;1.2566370614359177
326;0.6322970478768833;0.8889981870007774;0.7915980337095774;-1.797796618173434;0.1604132521930452;0.221014802684059;222;1.256637061435917
327;2.842594812623787;-0.3234730047206026;-0.4323595227034305;-1.170420032881384;1.495035696073435;1.896276650902328;192;1.256637061435917
328;0.374074016432503;1.1356990193211565;-2.2501631246155087;-0.1429466805055919;-1.5174679560373774;-1.704085627222822;213;1.256637061435917
329;-2.948697453665792;0.1945163233524166;1.897736926349216;0.0202130730899463;-1.5620107513516808;1.1885475666117815;156;1.2566370614359172
330;-2.6901873812695163;1.3213925423126347;-0.5691473303326213;-0.583662675993908;-1.713165485348257;1.9324292515119288;235;1.256637061435917
331;0.1895789527036158;-0.0970758058269111;0.2754694497940225;-2.3860555084369937;0.2602387860937437;-2.887256576677704;73;1.2566370614359172
332;3.095516550975734;0.6293617741612254;-0.7508332877782277;-2.3001643992462286;-0.1485777221275284;2.935493748754316;193;1.2480906758875847
333;-0.2220676593201017;-1.581202628629952;-0.2445060988847262;3.010351889556067;1.0314906338926224;0.0961214236847329;149;1.2566370614359177
334;-2.8036952669880773;0.1907175375108683;-1.7286348288134357;-0.7418329675425096;3.117568046293881;-0.0509832280859417;124;1.2566370614359172
335;2.834351886607465;-1.2318948051824803;2.1440701575067243;-0.4636950601724384;0.7992335628670653;1.7901563886112584;182;1.2566370614359172
336;-2.111476279928727;-0.8788884132119114;1.9437428001899573;-2.175414364579148;1.0512186707787772;0.3458205079196857;61;1.2566370614359172
337;1.3738542754395864;0.3006936885076385;-1.3116803929874314;-0.7711631208887526;-2.209261622918437;2.779287201128602;266;1.2566370614359172
338;-2.76562273639775;-0.9145896103922818;-1.5407916637088324;2.5152862736624786;1.4373054227333777;0.136946556473287;18;1.256637061435917
339;2.9842643874655383;0.4567135967820042;-1.1098003546244724;-2.237732416590249;-1.1544816943933025;-2.9564721075039917;187;1.2566370614359177
340;-2.074135209968133;0.0547750273387946;0.1141687805674261;-1.1844044659785993;3.286703694147566;-2.3581864526941634;288;1.256637061435917
341;-2.5288698265462366;1.4804038431047024;-0.4749852233120667;-0.3189187738771656;-1.1002060401801583;-2.360065910578258;271;1.2566370614359172
342;1.0782634350111815;-1.1028335513705625;2.5493606707438534;-0.5829877310465515;1.833327105511188;-2.7573703524406654;234;1.256637061435917
343;-1.5583216270357374;-0.4503552617378705;1.0643451837831333;0.4267436462994423;-0.3900504033743674;-1.3741747080707116;261;1.256637061435917
344;0.9227600696023436;-0.5206145292506084;-1.1956351724087793;-3.1951486414178314;-0.3338308095880069;0.7778507135650978;232;1.2566370614359172
345;-2.3141825660042965;1.0120308747341762;-0.8166756975965244;-0.5508132637853789;1.9766023096703544;1.917383263181476;33;1.2566370614359172
346;-2.9677765779013643;-1.0088715238617607;-0.7650803527895556;0.1046910733463847;-1.7804143069442129;0.9433899163491366;164;1.2566370614359177
347;1.1250066707984308;0.6587964158498473;-2.400769878876702;1.276019212097058;-1.8908724570753876;-0.503610535818758;140;1.256637061435917
348;-3.0831065078383078;-0.2451310726426166;1.6141295194820953;-2.331957198911671;-2.107300407268724;1.183272224730041;185;1.256637061435917
349;-0.5073991797119456;-0.1807066289914353;1.1413576617419168;-1.134362192111279;2.5938218907975314;-0.1549368325455402;167;1.2546520785832138
350;2.9793999695947244;-0.6784188911529062;0.3611034386309172;0.6308848433978018;-2.7814579913325845;-0.0073017903183036;204;0.9119203425663356
351;-0.4085205182410348;1.299522937040422;0.8273679827800875;-0.6676006911174237;0.5925485808465776;0.4170712486657544;1104;1.0684616872445734
352;-1.5970895037690227;0.5851511214530662;-2.142510567639873;-3.006268512036481;0.6881543601129644;1.9446735683442995;125;1.2566370614359177
353;-2.341475432623582;0.1707086461966537;1.4699731656490869;-2.594211189100387;1.3915761412991865;2.7311840075173115;324;1.256637061435917
354;-2.8014415119660856;-0.7187211706929586;1.0457068801777554;-1.8468782318604555;-1.9759884030035857;-2.7730369818795726;287;1.2566370614359172
355;2.24140642074667;1.641432214533172;-1.5804342762045314;2.597166901748751;1.3074266623269175;-0.9402708701141336;1333;0.9076852874588844
356;-2.021526421155338;0.1487008376663067;1.395703764244374;1.327579698813013;-0.131462905045316;-1.506606637755245;343;1.2566370614359172
357;-2.563027993116767;-0.0081614678223907;0.5851771512559559;0.0797151446391324;-1.7072184348179964;-2.001226437609731;93;1.2566370614359177
358;0.8036753547201163;-0.8727081849210507;-1.690843448294012;-3.245831472567436;-1.2931000687342653;0.2553680869919648;344;1.256637061435917
359;2.9194298102178973;-0.7692306748044695;-1.2972496332461927;-0.4036943704362059;-1.6361336679051075;0.652762410223466;258;1.256637061435917
360;1.2650633401410951;1.5301988316228623;-1.5961759775257456;-0.4794118562559686;1.175298670273048;-2.904107030394254;183;1.2566370614359172
361;-2.4543461933422406;0.7067339221502432;-0.013595583313728;1.1112604999630136;-0.7313958976962331;2.939564018736592;57;1.2566370614359177
362;-2.7331905872205624;-0.3579357681554379;1.7452573578244526;0.6803628987531076;0.3476558830427709;-1.7195809422872348;356;1.256637061435917
363;2.7370655085067805;-1.4589385171259155;-0.3397040303312763;-0.1019722069602499;-3.104588731633175;-2.0939521948993547;269;1.2566370614359168
364;-0.9927178152218096;0.6310716210083478;1.8440876051800617;-2.4043290433158924;0.4302071053198997;0.8944955876716114;61;1.2566370614359177
365;2.415979064709475;-0.1789738490968812;-2.1092204868140274;1.4396376875695316;1.0017458013670706;-2.574931431561742;191;1.256637061435917
366;-2.2769444589534937;0.2046691212718569;1.6839799416401853;0.1273156725647706;-0.2340346916594876;0.2124948944731325;102;1.234123698224275
367;-0.0422453492996493;0.2376057792394059;-1.2035282917016024;1.271623449630309;-2.9737579156403906;-1.2406858672384422;140;1.2566370614359172
368;3.0556255468467493;-1.303681355204579;2.298397641070557;-0.7548174174260565;-2.963238000108809;-0.2513125045043503;283;1.2566370614359172
369;0.3154573015765515;1.417933388084233;-0.2468451821043503;-2.593396749200173;1.208401994862411;1.6852405530006596;91;1.2566370614359172
370;-2.407229746441191;1.446935211260369;-0.1966168803747026;0.0829778429981715;-2.103687417627345;-2.923302580087593;341;1.2566370614359177
371;1.3172616832059958;1.274272721833013;-2.034552123814889;1.558138626963906;-1.458098778914236;-1.3767449849589384;347;1.2566370614359172
372;1.380511386970022;-1.2832988429462926;1.7466024689644986;-1.2945648295443843;0.7421737916851721;-0.2811270033570811;143;1.2566370614359177
373;1.286513826565117;-1.008470906485046;0.7819233884313512;2.476954351940182;2.4006980250215797;1.0875003331548327;297;1.256637061435917
374;1.3931472782814307;0.4052962448166136;-0.1212873187243093;1.345854141671665;0.9740091081981372;-2.8957027880092308;228;1.2566370614359168
375;-2.940231060315164;-0.9970672663800788;-1.1936056331972669;-1.536296494006452;1.3109673421700123;-0.5015468894591977;137;1.2566370614359172
376;-0.1775962512762385;0.3119613424861074;2.3444697693704226;-2.745642825152864;0.3264357681533036;0.2347711967494192;364;1.2566370614359172
377;-0.1493666919942773;-1.277834178580961;1.5275825690853808;-0.3878417344969057;3.199295724248448;-0.4298428741591591;251;1.256637061435917
378;-2.8270013914553505;-0.6486807680048956;0.8410049752475102;2.6837601846216845;1.9586170853911549;-2.863928253090066;293;1.2566370614359177
379;-1.432270660702485;1.4560918124731874;1.2920322165729206;-1.12861440090417;0.7700122678872885;0.2011576403996826;351;1.256637061435917
380;-1.886680930640587;-0.6883173985268689;2.005580140173162;-0.9582470567047472;-2.0855737623342474;0.622446701277965;70;1.1336023827690114
381;0.8742435474515317;-0.8252375074990126;1.0134050580309302;2.6346782419861507;-1.655559772322163;2.302308168870171;236;1.2566370614359172
382;0.3634787921025658;1.2740100681655269;0.0995970205001655;-2.1986492783689617;-0.2420628513878902;-0.5253792148940258;326;1.2566370614359172
383;-1.684486902936427;1.486487487032216;1.6993153216857604;-1.5197264808565911;0.9511504521638444;0.5588997226358955;379;0.7376825576623617
384;-3.081213642884075;1.1130032289688592;0.432119938947075;1.47637520252542;2.3203640943400488;1.2576559245217698;87;1.2566370614359172
385;-1.9262015299303248;-0.5478817247112439;-1.2925786245308348;-2.069830004154646;1.0878709747891862;-0.4316361160806101;375;1.2566370614359172
386;0.58472246748491;0.233187045253293;-0.6674730057909847;1.992309431049539;1.3315119187854971;-2.6678147729895936;374;1.2566370614359172
387;-0.0598789621628102;-0.9847006635143124;1.9964231882082013;-0.6898996417153792;-2.71150857622001;0.0807600070662055;49;1.2566370614359177
388;-0.9041508280540382;-0.8406462348439485;0.7846211665214;1.2251190001852428;0.0589175950671577;-1.088431412268437;343;1.2566370614359172
389;1.6754916512066382;0.2605688922845557;-2.1262138876310046;0.7725410817129699;-2.090455142802316;0.748225777026614;74;1.2566370614359172
390;-0.5608904086666033;-0.97373904956467;-1.5815009856244877;-0.0172968406148501;-0.037282796235481;2.720241342979436;201;1.2566370614359177
391;0.072353553193314;1.0067980703887258;1.7578316858214698;0.8475587523571158;-1.2607860809898217;-2.4000093175259747;23;1.2566370614359172
392;1.131183908131577;-1.0992247928309404;-1.0002892227723472;-0.9694942459596114;-2.870045423981226;0.1430155351223205;103;1.256637061435917
393;1.7334435349085615;0.1491023216010425;0.0046892539920633;-0.5968168892955442;2.360006077541587;-3.0663193599392624;268;1.2566370614359172
394;-2.983430336169908;-0.0900984388371856;-0.5348788349471387;1.7333013430478192;-0.7973750876429186;2.974785745846872;361;1.256637061435917
395;2.631720534458621;0.5221613185427516;1.386374265161824;-1.9547925138089304;0.0495621755983988;-2.5581290709253457;158;1.188662623988798
396;3.2284344936433533;0.0991682028939457;1.871257936479752;1.6547049115548262;0.030407858170935;-1.3022587136443526;257;0.9482444185720664
397;1.0064519478421423;0.964349652675646;-1.2271210362303135;-1.2272661869085588;0.031405595562964;3.12089068082809;123;1.256637061435917
398;-0.0383075607548809;1.0706928474781352;1.389371578500542;-0.7708800246478364;1.0454389876612642;-0.0778452410331321;1104;1.047902580095137
399;2.072094490897099;0.7129420834222708;-0.1620793287527874;2.196092111667036;1.5177991163433149;-2.8387356221873;374;1.256637061435917
400;-2.2288886047658303;-0.4621079885461522;2.2065407475629204;2.939384141545061;-0.8886474279578948;0.5022223183807558;262;1.2566370614359172
401;-0.1370481907229028;0.6713152974319189;-0.7149302639306155;1.0476476792571925;0.0303325222013194;-0.318853301597446;1;1.2566370614359172
402;1.008508561017165;-0.830526313202224;1.830893658669153;-0.781763755203819;0.6556637868778601;-1.260000698237128;372;1.256637061435917
403;-0.2257646564867101;-1.2684739669803964;0.8665507003564578;-0.4092344874706018;-1.4624777522291132;-3.360394560991125;135;1.2566370614359172
404;2.0630797656671445;-0.5259246205412945;2.367445041108588;-2.8589860744744664;-1.4609037109408458;1.5188099442663547;256;1.256637061435917
405;2.472345668511921;0.1223739384549302;2.123576439608802;-0.2447606857214689;2.7074305368122973;1.375009958859155;115;1.2566370614359172
406;1.4983725116232691;-1.0205838439371973;0.3956935071202756;-2.456162395664674;-1.8932260701938532;-0.0063748953185788;306;1.2566370614359172
407;-2.2994692070205573;-0.9342232630505714;2.241853997939656;1.155747495347858;-0.4174695785815643;-1.6895895755281205;362;1.2566370614359177
408;-0.0763725800050406;-0.145437907906772;0.8667757333223469;-1.8562145011279647;1.22913363209;-0.3535781604533489;60;1.256637061435917
409;2.919312314626289;-1.079381064248614;1.2662678528456297;-0.576823306782829;1.8974598811997323;-2.1963222176708213;274;1.2566370614359172
410;3.15810590350296;1.1225706760347056;-0.6901938684123322;-0.4513290577660287;-0.2601406764901209;-0.1654022173218159;96;1.2566370614359172
411;0.7653711088890253;-1.1300514054334827;-1.3180227796218855;0.4542350729172573;-1.7506598546271377;1.5588172867467418;322;1.256637061435917
412;-0.174114872762523;-0.302494003657957;-0.4238197327546554;1.0672188733032002;-1.2207515058060336;2.551815205951525;1185;1.1947110617386965
413;-2.95496403021962;0.4454397641506658;-1.7668769956616002;-1.1355003489008824;3.450140001999016;0.2826947693278718;334;0.6827497591536521
414;2.022184387766438;0.642424680489553;-0.5047191477789652;-0.3206178942223536;-2.621339123976718;2.9135979576780717;337;1.2566370614359172
415;-3.031713409233358;-1.5729159330535183;-0.5280972186228757;-1.3231021630684603;2.2008538297010216;-0.5588218571137856;138;1.2328240450152532
416;2.062922596314018;0.4585087666316942;1.8423195154540128;0.8132644153920398;2.031934557429996;1.070395408724458;115;1.2566370614359172
417;-1.154213202401621;1.2765397157843434;0.7042184474102864;-1.3329791402684756;-2.7583519420910263;-2.2604382976537782;173;0.9277184349213852
418;-2.495195826631143;-0.1601454148174403;-0.3217622743124273;-2.4485295920329357;-1.8521646344514897;1.3486814944172072;110;1.2566370614359172
419;-2.834700465286268;-0.7250761381087767;-1.937689089153023;-0.2131522839986326;2.6187904069837327;0.3582981459753405;334;1.2566370614359177
420;2.3013080993373176;-0.8151497655137844;-0.9797872510003678;1.5958901931302516;0.4275079861023418;0.8404030589052561;229;1.2566370614359172
421;-2.968315057070245;0.2438567720182359;-0.077825077787077;-1.8032056751215708;3.223017313814529;-2.6328306214203656;340;1.1552365375421885
422;1.655988677842822;1.2855727957467291;-2.465392999698907;-2.031677216965491;-0.6622418323246725;-1.81090727850326;107;1.2566370614359172
423;1.1028248254165371;-0.4543528167174705;0.3528460037582457;2.928001986924865;-0.9239588669533544;0.0413079920160539;196;1.2271611658623294
424;1.294615766525375;-0.9333565355812576;-1.6090489054982804;2.0640539749530062;1.8269015548399947;0.6499650082255207;229;1.2566370614359177
425;-0.4930040491928304;0.8907617489206561;-1.8088512936776149;-2.873016287149849;0.6086580095479547;-1.292515868248589;203;1.2566370614359172
426;-2.84266739539679;0.4590411513523915;0.1987813406036444;-1.861715213493673;-0.3521214031095216;-0.6585274763308581;130;1.2566370614359172
427;-1.9237149104715197;1.4327323863994952;-0.8622366626856186;0.915168939102798;-2.560058467282412;-2.8874956347449774;370;1.256637061435917
428;2.1423801255888315;0.762186319621839;-2.3347318570605418;2.054878291217685;-0.1572246138874009;3.300624540102602;255;1.2566370614359172
429;-1.2172852111571777;0.1400738219540164;-1.251413806260756;0.4335703534501406;-0.3865102114872043;2.1557352003341976;57;1.256637061435917
430;2.2318796338924383;-0.0977148118926406;-0.6463065515543434;2.0491633466876915;0.3803218146494189;0.5625934752672973;955;1.072413938642049
431;-3.178571269853656;0.9923712005522562;0.3836233000505018;0.5775192982075643;3.2330333898277286;-1.070442164328498;42;1.2566370614359172
432;3.10196297271032;0.3360755956212666;0.2967820808869177;-1.8868865368392973;1.325306172058676;1.840772914159169;327;1.256637061435917
433;1.5120757695763756;-1.1055345198512252;-1.2780957920536793;1.0254686114717912;-1.588011632165732;2.374731049064672;411;1.2562804462723791
434;1.6969070626297509;-0.7887324309386237;0.0177254610243835;1.535184882296692;-3.032630037794822;-0.1907055101070733;28;0.8430351229536646
435;1.0006718831695565;-0.5087173590399753;2.572359620872969;0.6035171506708583;1.5610980389722278;-2.069144124484622;234;1.2566370614359172
436;1.7318128535676758;-0.1209939405735155;2.662934361120207;0.7905000931090252;2.426177711273533;1.1747684512180605;416;1.1338894941961224
437;2.9871527503814463;-0.214379746481152;-0.9818469702743304;1.8260021867049645;2.15995293525454;3.114061386400854;317;1.2566370614359172
438;2.4812942505232365;1.4946342725179425;-1.5908802274190186;1.520736820166536;1.26257354635846;-0.6796959034356201;134;1.256637061435917
439;-3.3122546438729654;-0.071940716586383;0.2738512214169717;-2.3556303686777835;0.5524454245907668;-0.7526229749558467;426;1.2566370614359177
440;1.6584107905693009;-0.4383118326492323;0.410115277785766;-2.192341536341325;0.969360217415111;0.4547279423922578;157;1.256637061435917
441;-2.680488039039876;-0.8972584778031757;1.6752267136317514;-1.5886711148857688;0.7862945512395145;1.2224455953883906;336;1.2566370614359177
442;2.110085035674127;0.8244391964860966;0.1881038435585489;-1.6312075498960954;0.567191168145109;-0.747592396821708;260;1.256637061435917
443;-0.4320043671259509;1.0757009598143312;-2.1728827861930538;2.1357490555678216;-1.0994877257517353;2.43042204957021;238;1.2566370614359177
444;2.431523097536868;0.9210519724739572;-0.019082901955402;1.401299412474344;2.2481844126054584;-2.368595258870751;399;1.2566370614359172
445;2.308315844378201;0.4726640152995945;2.1397775507215497;-1.082840522851133;0.8821404609099169;-0.4081345823334373;64;1.2566370614359172
446;-2.4117314923292605;0.2553056855030203;-1.606697737432202;0.1671196683766526;1.1596321912319385;-0.3883599283120925;313;1.2566370614359172
447;-2.514036115782774;0.181356544144892;1.3947443169243696;-0.3527436074543351;0.6029148023422913;0.9236380231827456;366;1.2558180974760218
448;-2.823204879692243;-0.7847198581104947;0.3647575462141981;-0.6808500313810852;-2.3511234743541114;0.4234278865098781;70;1.256637061435917
449;0.1301564464633194;0.3707886023084152;2.031036465617043;-0.7116157654808615;-2.5767152068736543;2.8411226655054698;195;1.2566370614359172
450;1.8495280059845407;0.1589926780509653;-1.9606149226387373;-0.8863232508806013;1.805018155650829;2.453201733653655;305;1.2566370614359177
451;-1.4004593004096326;1.0263704456928784;0.3365983535880429;-0.6933244389933291;0.3190869207213335;0.8690491832757008;351;1.2566370614359172
452;-0.7526609572852359;1.257037650333322;-2.394761434397711;0.9856671321445382;0.4702804422588148;1.5262199144082418;280;1.0948574117503882
453;-0.7076826822151785;-1.4549290178788143;1.615148666659172;2.0984182137667875;-0.4931334100495704;-0.4491293798606157;144;1.256637061435917
454;1.526319263091504;0.805407452001487;-2.524907319556788;-2.54160161594226;-0.6286689106126068;0.4698326902883786;232;1.256637061435917
455;0.3695039274872949;-1.778698569407104;1.5703351835789;-0.8675557712554886;-2.534465915902214;-2.774689851839501;200;1.2254357436395948
456;-1.0163137992452926;-0.2586266487447123;1.742871330731312;-0.783902252956058;2.685027794142307;0.751215309747615;349;1.2566370614359172
457;2.72971699826275;0.9780671910383596;-1.970091614385969;-0.2638237933309399;2.098741943985333;2.188836500041236;305;1.019599727234012
458;2.330041197821719;1.5910762340197613;-0.1549487743648126;-2.8171261251346893;-0.2783478461134679;1.6985745541683874;205;1.256637061435917
459;-3.015863206731495;-1.031130533161101;-0.0719653351202654;2.8441109456415496;1.3285706270772328;-2.48840940904857;378;1.256637061435917
460;-2.0485640715537574;0.3817628724861894;-1.0981614704311289;-0.9090243848758092;2.707405948935999;2.525431253209716;345;1.2566370614359172
461;-3.318573204658924;-0.6913994283532618;0.8395349932290517;-2.6754796791028146;0.1016656707805056;0.002270121359028;439;1.2566370614359172
462;-2.350381178520386;0.0435759313343228;-2.423189049723184;1.9377410802533364;2.0156253074890427;-2.2140469897092405;31;1.256637061435917
463;3.148296950775049;0.5255613252975264;0.7793161035535148;1.6098515260706066;-0.8282089655944935;-2.5856391342105107;189;1.2566370614359172
464;2.4876576144230707;-0.0830098382810156;0.0806317913754604;-2.301314554377337;-0.108166657591007;2.839564877354936;332;1.2566370614359172
465;2.0836796078187554;1.1806839371781834;-1.1845040623089969;-2.3111061128101023;-0.6069934901405641;0.3099178849100761;232;1.256637061435917
466;2.035943384975261;-0.3872728637950505;-0.3167792561924822;-1.1579978947469742;0.5799570470278319;-0.4626061151091165;485;1.2145813914064088
467;1.9480516568461232;0.4233709817111226;1.1465742906491008;-0.2431912964724349;2.478105988128412;-0.4512411781250475;71;1.0997115645260604
468;-1.9883331565900144;-0.2967420976099776;2.1695584996746327;-2.197223587369618;-1.9178933937212064;-1.1339850306581636;81;1.2566370614359172
469;2.4572293485382968;-0.0225360887960336;-1.1106916404934082;-1.641585911273432;-1.995558235022016;-3.0507552629597434;339;1.256637061435917
470;0.7033602108281454;1.154353916590677;2.09414380934395;-1.832363186030587;-0.0301486051313025;3.2596308455719267;818;1.2143050800113326
471;2.8741396137686857;1.1502794937811416;-2.0941727356365663;-0.9871604076893186;0.8011118105663888;1.960000659383252;305;1.256637061435917
472;-2.9659276851135057;-0.2608277302446742;1.8223746324460712;-0.1763859192337474;0.5483537657481954;-1.8923092289816672;362;0.934706820386094
473;-3.091302198168067;-1.2935767049167668;0.4800386497077065;-1.0377914576017906;-0.7609660357763581;-1.353508845039186;287;1.2566370614359172
474;-0.9284029147694308;1.2897041203879749;-1.0228233577249437;1.01828996475058;0.1102056562679344;-1.8918178717292555;254;1.2566370614359177
475;2.4441463818312315;-1.3178956741600525;-0.5908189469484477;-0.7378350213233834;-0.1832763850711349;-3.108627778199508;208;1.256637061435917
476;-3.301415435343607;-0.372043203393508;1.4955082963216175;-1.6492911486350967;-2.6398571274187166;2.050250100141417;348;1.2566370614359172
477;0.3457959583558504;0.0863882862304127;-2.176959253864553;0.9595332295801748;-3.1836909638437407;0.3423777424685557;140;1.2566370614359172
478;1.5514813545776314;-0.8991506285917127;0.8873447143511933;-3.072527676716222;-0.2374421558328922;-2.848360335466088;150;1.256637061435917
479;1.840909408323012;0.8155213335073997;-2.08117301748015;2.4503421073208385;-0.270825533874488;0.9732239623760276;176;1.1635826408100962
480;1.435679833191417;-1.3764993119375115;-1.432873696383792;0.6622720949997988;0.6786835296173912;-3.2590451516941505;208;1.2566370614359172
481;2.577144332450512;-0.8913844457192693;-1.903640471026815;1.388199636251578;0.1189232304196825;-2.1044541263920102;365;1.256637061435917
482;-0.3158815812801888;1.2365775041084968;0.5868374634741284;1.095269700205021;-2.08696197296971;0.3463343646246906;243;1.256637061435917
483;0.3600993461603101;0.8779668797756477;1.380076427005899;0.7294017247224154;-1.7312210701645547;0.6687407717403935;482;1.2566370614359172
484;1.8067952495095017;-1.458151653121058;2.605430766198137;-0.0926249625701199;0.5589798542079046;0.8926662507107581;182;0.9868990653726064
485;1.5333461413530245;-0.6443520067496291;-0.2353484090614419;-2.18793754808869;0.5665386806195368;-0.7608133523864802;1242;1.1747568888839155
486;1.888770479624522;-0.8965466282331782;-1.0033893432719911;-0.4886901929539016;2.730492369206708;2.409075401941955;264;1.2566370614359177
487;3.37874943718333;0.0558848916874108;0.698313444949231;1.9027432596047376;-0.2239864270735269;-0.2434920332827376;224;1.256637061435917
488;0.255635174690191;-0.9685938507554448;0.9908912626916956;-3.070077227486719;-0.0467470222161571;-0.3841999879258078;279;1.2566370614359172
489;-1.6971862221451242;-1.132148481370872;1.7749225669114346;-1.6826648121403127;-1.1403736533945104;2.5602012479585365;77;1.2566370614359177
490;1.5519451095730907;1.1737475639402029;-1.6315098805690966;2.031814555354604;-1.5242751646927186;-2.436350495128375;371;1.256637061435917
491;-1.784298626842778;0.649397595344046;-1.427420599349866;-2.645711312815197;-1.1757954513464108;-2.5692863676117828;226;1.256637061435917
492;2.712222603671281;-0.0127764857745986;0.690765021202621;0.9429873452887512;-1.8667443025414372;-1.6170803792726758;111;1.2566370614359177
493;-2.7041394316033496;-0.4538029104870418;-0.4429212190130375;0.9577355709116148;1.6368011626634398;-1.1350391360081329;281;1.2566370614359172
494;2.0755660905542954;0.479731536706773;-0.0882351396545793;-0.1691344732132688;1.965118633855221;1.822734463235104;192;1.2566370614359172
495;2.7984719682253085;1.0706429203556465;-2.1143370117029616;-2.883678389822463;0.6004942582534791;1.475336104234079;205;1.2566370614359172
496;3.2335337349544213;0.6582186513116352;0.4386840522267812;-1.2845753818287995;0.7909745295727292;-2.62652875572065;299;1.0668959963141555
497;0.7623691656175141;-1.2473783323377916;-1.4108114394303728;1.757972767589567;2.787994455860469;0.275055408038897;424;1.256637061435917
498;0.5757390020796841;0.5787538811070483;2.030441586683903;0.3304703149659143;0.3550734713755968;-3.310874376607867;75;1.2566370614359172
499;-1.866716400470181;-0.2614707460174951;-1.3589463831078197;0.8672098330745627;-1.879025551652028;1.48720886239326;37;1.2566370614359172
500;-0.6526375138947555;-0.0589328022416161;1.7246095334774303;-2.986226552853652;-1.5341004712092403;3.2012767464508016;155;1.2566370614359172
501;0.4752380183167071;0.0161093815056078;0.6322907830225346;1.107905678981474;-0.3208775716431116;2.0691453756908627;129;1.2566370614359172
502;0.0270201755233952;0.6783503876812271;1.7209646555397926;-0.0381709158482201;-1.691844058223973;2.465308989124116;449;1.256637061435917
503;-1.2098046864146166;1.2889442620274094;-0.7830103565613784;2.702569761682618;-1.1394682822257325;-1.8912457283686472;127;1.256637061435917
504;-0.0519813643629447;-1.2287361815469873;-0.1915465117220859;0.1752982279286037;-0.7906231264943003;-1.2000554298945818;560;1.13303096999983
505;2.379625668169643;0.8896753360130631;0.8658782498290425;-1.2891002584956113;1.067304197005015;1.7850149831613518;432;1.2566370614359177
506;-2.5348916290445493;0.2617188690207136;-0.3665659893306766;1.5670359977742505;-2.85661123857175;0.2354990042786234;113;0.9940611801964412
507;-0.5078903785045229;-0.933202487713764;-1.2196314933078016;0.7528770745121343;0.4434099331726474;-0.7313741808486489;1;1.256637061435917
508;3.2784608084195743;0.4941893943081946;0.8157805263062226;0.7338254961811792;-1.0239806716066846;-2.565709781760829;463;0.9085162777988136
509;-1.0099679104852992;0.9566437942017504;0.9143675235154236;1.659334356531131;0.3729157547362524;2.99581053375176;129;1.2566370614359172
510;2.8760339174003664;-0.4598422039423935;0.9302803749256094;-2.541770159492981;0.5506675940408108;3.108848621696233;464;1.2566370614359172
511;-2.66204886457958;-0.8817636076468871;1.712712926172521;-0.3617692367830357;2.6691758713809137;1.8087563150932424;145;1.2566370614359172
512;2.45115163167213;0.7304750980070185;0.7162056182899432;1.010064759182113;2.0188600863581394;0.8526446145084419;416;1.2566370614359172
513;1.1282461721294383;-0.2271932080453543;2.43171157203704;1.1513725849292646;2.3929193042709542;-2.755985874443406;435;1.2566370614359172
514;2.295667871042433;0.2504137067676693;2.2058988805395976;-2.833418866295584;-0.8920453548303282;2.2751085661862605;404;1.2566370614359177
515;-0.6723158626874841;0.6295645215531309;1.7749099827085366;-0.0518981752064496;1.517620781359352;-0.3845137429633017;398;1.2566370614359172
516;2.97360911002646;1.264117820499904;1.7211894700620751;0.4922607061562993;0.4599918242229864;-0.4284569885994741;72;1.1982666370084516
517;2.8314926332431813;-1.25432462239006;-0.8896951516383;-0.1922395226984285;3.1526913826661973;-2.8984292988607847;307;1.2566370614359172
518;1.6098573093779636;-0.1777239530178476;1.878712424396324;0.1344009974823747;-0.0706723837954078;-2.6640486948167545;84;1.2566370614359172
519;-3.147995982987613;0.6516681367199577;-1.0355648397634367;-0.9803335627083508;2.5148783099457197;3.026896202976716;460;1.2566370614359177
520;3.1111343244387237;0.0405049635594736;-2.08413156250207;-1.4555704622456749;0.9954119424315104;1.7753134704669948;471;1.256637061435917
521;-2.432170100585512;-0.3187221852495784;0.766317337087785;1.2210971157148187;-2.8370699146180502;2.0725161247573074;180;1.2566370614359172
522;0.1158899750926767;-1.2706137915254452;-1.865644897097888;0.0809656901298288;-0.937509555768946;3.083791749337053;390;1.256637061435917
523;2.252833558710066;-0.8871188043596842;1.2275219931397752;-2.612307766091969;-1.606034230545685;1.6958165908595195;404;1.2566370614359172
524;-0.7142095557371038;1.0908092239477984;-2.544872731708557;0.7426100378603735;3.123033264778309;-1.004973087717004;170;1.2566370614359177
525;2.4382461544728256;-0.8538961783098036;1.491504624020852;-0.3732590507025242;0.7156397487420129;2.529255772028762;335;1.1344862205325337
526;-2.2206671081775298;0.5099830020605435;-1.8922651517078335;0.2914239337974872;-0.3836021776764842;2.08773400080794;429;1.2566370614359172
527;0.7736007737996372;-0.4747861942192612;-0.3019717487062693;-0.1636500979186552;-0.0194943519689972;-2.657543711651557;188;1.2566370614359177
528;1.327369202758608;0.706437850651652;-1.092214416816658;0.0675959142017227;-1.6608981222378745;-1.2735544366715503;26;1.0219473459467343
529;0.6601864902310779;-0.1826352242292657;1.27058368082099;-0.9675864084955684;1.3691512611749888;-1.6848581687793405;402;1.2566370614359172
530;-2.9089881502428474;-0.1268918213201205;2.079106735324721;0.3338661603690107;-0.3770375344965899;-1.1180669389896136;362;1.0967229051542398
531;-1.9660495523067805;1.8105475731656644;1.5824789616253792;-1.228418776008296;0.0427795176050634;0.4453646389375472;379;1.0456498207477531
532;-2.2360387181304326;-1.2669570688769018;1.2123050342634532;2.6369874280229686;-0.1712358029860291;1.1074070141392365;262;1.2566370614359172
533;-2.9886709054928624;1.553696866312032;-1.6210171598919292;1.664401922605513;0.5389533124316779;-0.6101031754247582;13;1.1482969154055696
534;1.959144115989047;-0.6887825227996469;-0.0440215841651751;2.8257520908642624;2.2267999139782435;1.5238706137651492;373;1.256637061435917
535;0.0203920457973548;0.457961047239123;0.2516507139153318;-2.0059364273130824;-2.6165916803244227;-2.537563878139831;173;1.256637061435917
536;-0.4117224058999258;-1.1323209990467529;-1.002409641448088;2.385956055593103;1.9448730219167605;3.132156878248571;284;1.2566370614359172
537;-0.8192734198467206;0.725168561537305;1.772769524940484;1.9889135076246944;3.241986756570375;-0.8377886389347894;65;1.1823262394816791
538;1.0454191834033892;-0.8388007749692061;-0.0351212829625856;2.46686753861215;2.4851811770425747;0.1833869653448723;373;1.2566370614359172
539;0.5073912670102363;-1.8149206116918988;0.8160674651359546;-0.2095858370877842;-2.343991050559145;-3.235843916405924;455;1.12743643975852
540;-2.4275008084212835;-0.7200699026013897;1.7083283058707206;1.345396725092327;-0.5163878770602466;2.3072081046790083;156;1.2566370614359177
541;-1.6588415854184917;0.6103792518401674;-0.8552991400458376;0.5294350715174058;-2.032666797564506;2.1072446510721456;499;1.2566370614359172
542;3.0161657436074822;1.2139245558604452;0.3411398058852987;-1.238616507261688;1.3366659421306375;0.9374531349544036;505;1.2566370614359177
543;-0.1060216731699967;0.5723704534329278;-2.367172208551364;2.432730405823297;0.8893101352521912;-0.3261835391445437;141;1.256637061435917
544;3.178592148692106;1.370416715433337;-0.5146251466016394;1.7121133673258115;2.796388535755985;-1.948594457244529;444;1.2566370614359172
545;-0.832592902600631;-0.5783118955425142;-1.391527742043062;-1.7618125803618356;-2.795446855068636;3.3338677790375737;295;1.2566370614359172
546;-3.219416067631766;-1.5317987979358665;0.3602500320483196;-0.9621796760754132;2.9777996864623835;-0.4204634324580373;415;1.256637061435917
547;2.026078491001601;-0.0083664454764632;1.1251989129738087;-3.0840399318955933;1.079078058719655;-2.519878122743336;158;1.2566370614359172
548;-0.2583326780116191;0.0562985218790524;1.0776052265113956;-1.927062371703712;-1.9147987327551896;-2.9365389819361662;535;1.2566370614359172
549;0.8881237922400663;-0.2230550218967546;-0.1190124464169395;2.15973149937921;0.4723287758171232;-2.772503826935377;374;1.2566370614359177
550;-0.2880443823205198;0.7648928660382989;-1.7659149941428771;1.0479050940317018;0.3139864459454181;0.2000332098651113;401;1.218945585683865
551;1.276905200767736;0.8946412753658445;-1.6725338988746024;0.1472760407757964;-2.537725430776867;3.1471589528259525;337;1.256637061435917
552;-1.13883045097792;0.2379320043246389;1.4262421481287015;-2.9246830184479653;1.5215117716057656;2.7152005000820405;353;1.2566370614359172
553;2.8945369981287072;-1.1398001329238163;1.2002246940275232;0.1052310258921684;-0.2706072965448933;2.477156697636717;525;1.2566370614359177
554;0.9125192470623096;-0.3479237615405968;-2.358777416089103;-2.572339371507579;-0.355639192590679;-1.8195698926075687;47;1.256637061435917
555;-1.789102309865951;1.7027846757590124;0.8999067061326054;1.2110480840019124;2.339003184507488;-1.835069297206041;122;1.071597316767828
556;-0.988638377400948;0.4941043644754199;-1.758862447829311;-3.1638705835108887;1.441261363312874;2.6239672956844102;352;1.2566370614359177
557;-0.0403575889545005;0.994252516433776;1.347986943423317;0.8459886733709121;0.3435270057984999;-2.767472370810927;498;1.2566370614359177
558;-2.9274543920537326;0.4986349326519993;1.1688145433000634;-2.79297572092229;-2.343396919919929;1.86057137686116;348;1.2258607841808853
559;1.0255876079718205;0.4726798457929004;0.4686498311346908;3.010998724720502;-0.6469476871664352;0.7885172568125249;423;1.233171119173671
560;-0.2396038617817848;-0.5362026940005444;-0.3033299988851814;0.0304582651976033;-0.060708440934142;-0.7498280039583227;0;1.0018920521181385
561;1.8124232429766332;-0.8800479091526475;-2.186403409626392;1.4466562128573923;-0.5325369888077972;-1.4070035013317117;481;1.2566370614359172
562;0.526329418844218;-1.415325083688508;1.0441770048089634;-0.0290635533406527;0.4656653056334585;-1.930825750764113;162;1.256637061435917
563;-0.365376198167117;1.1576072347089768;-2.4660038627248477;-3.3138016796635723;1.5364990231977351;-1.2246106794796408;425;1.2566370614359172
564;2.688250941674222;1.1870920373418723;-0.549011817587566;-0.8643132548442639;-1.3282199646998674;-1.119612293614445;96;1.2566370614359172
565;-3.0676844449828398;0.0787723660471481;1.6037643859166557;-2.437143298134775;-1.5204979167895891;-2.843342404457598;354;1.256637061435917
566;2.1112837184938886;1.243581231742115;1.6967726239151997;-1.2334714619832898;1.8762861900793464;1.9692648954510876;505;1.2566370614359172
567;2.7346915615769536;0.3972634573534643;-0.9697816373624362;-2.764837542877585;-1.1069486130972053;0.5090144359923058;465;1.2566370614359172
568;-3.2348183687334813;0.8299038102301521;1.409133203621847;-2.055629474519608;-2.203670325187572;-2.2629581567920383;565;1.256637061435917
569;-0.2495630136422408;0.0565752271077499;0.6976011381758024;2.7483863759565645;-1.2189755651040488;0.8832060628128472;325;1.256637061435917
570;-0.2387954866053301;0.9847795269287598;0.7438532433723486;-2.086592159980191;-2.078906265975133;2.79587768386708;155;1.2566370614359177
571;-1.2701478589339563;-0.3470662345271776;-1.197677221871206;-2.464783418452083;0.2815914442232997;-0.3737826132732409;385;1.1354124647960662
572;0.1168006583716288;1.3721542577691606;-2.772751569612351;2.6371125021628474;0.8991937337207817;-0.3811154811831569;543;0.9479903946294984
573;-1.28397609301671;0.1693424448318852;1.616975677155921;-0.4582215397863274;-2.9404351510038214;0.4089816954438119;178;1.2566370614359172
574;-1.573124679762819;0.6183033811430216;-1.752467423988771;0.258708631257295;-2.8405810874506017;2.309228040148416;541;1.256637061435917
575;-0.5296508056573717;-0.2471204850637298;-0.1453025886491374;1.752610861417053;0.0613088671148189;3.437862372405027;129;1.0419622221255656
576;1.9865075987569345;-1.2426633225762331;1.7537346392236215;1.2464210888252052;-0.0053830219081852;0.1538506082730689;210;1.256637061435917
577;2.2735507616383157;0.6295051781136146;-2.284751725717587;0.3217432121605775;-2.300018762767222;3.379071131664242;551;1.2566370614359177
578;-0.0082767340818766;-1.0106387049842362;-1.3017544638621807;0.1445416373914235;1.3982716167224778;-0.5444262691868211;507;1.256637061435917
579;-0.6413330203236572;1.2121867969893811;0.7901881939870642;-2.089857546416841;-1.5416934627660237;2.516348229929471;155;1.072072437029392
580;1.5072158662552642;0.1119530272289509;-1.539040469201937;-3.175878672765198;-1.242270082216143;1.623495371674596;232;1.256637061435917
581;-2.4520045385271305;0.7477681214264235;1.9622525800927957;-0.437988746630122;0.5604359432602245;1.884538588658938;447;1.2566370614359172
582;-2.680013575453813;-0.0979149910933983;1.8899934821947564;-1.117618050275255;-0.0579712479119885;-1.4310836768298625;472;1.2566370614359172
583;-1.4402351534796252;1.2233830157968335;-2.546454005886405;2.60685399979634;1.3756474356998694;1.1650515485133568;118;1.2549355180227078
584;-2.2925375281795803;1.2483188161341536;0.1042074504278764;2.79043085724431;-0.763146846948122;-1.8990007997880585;275;1.2203056530870104
585;0.1875094873174323;-1.368980434080442;2.3665173768375323;-1.5379630566989413;-2.659112184768629;-0.634319059222127;387;1.2566370614359177
586;-0.530003960371597;-0.7275957411350413;-1.3641927280089043;-0.7598025333471659;-3.3642906121740377;2.9638185764283254;545;1.256637061435917
587;-0.4902277496797232;0.2648799132099984;-2.5980428170896888;0.17215822288113;-3.291044581682653;0.5412400949114702;477;1.2566370614359172
588;2.740729551719822;-0.6789158874598449;1.3482624696016232;-1.223500430671763;2.665723216468145;-2.8060185118128738;409;1.2566370614359172
589;2.4390942696776685;-0.9502045199486674;-0.1347051852233367;1.163373533023669;-1.7233358631178135;-2.843170596038941;168;1.2566370614359172
590;0.682507298193338;1.3879971011496872;1.6772202963197729;-0.093432760084235;-1.3699774000705274;-2.002957124713735;391;1.2566370614359172
591;2.865687341076598;-1.0391948527428432;-1.0369732171389447;0.2520474594397289;1.1522702135972;1.585529231362587;1384;1.161996826577387
592;-1.3290857633245894;-0.1560987296894293;1.6052543964964807;-0.0480644989459033;-0.2238778682526983;-2.3198817735468364;343;1.2566370614359172
593;-1.9586451908541933;1.584729185630939;0.7185501442577442;3.225645712736412;0.6716503114898331;0.1872405831165357;311;1.256637061435917
594;-2.31845294618709;-1.1343059534713358;-1.7130450888479922;-1.3929988189082945;1.4675524057421625;0.425180562288049;375;1.256637061435917
595;1.1561156046179637;-1.7201630073164669;-0.3633442046738505;-0.6289012569036324;1.7592660166422394;-1.3140007591391498;132;1.2260904893901414
596;0.5045605799698958;0.3126258680330713;0.6505347718097934;1.8333132797839435;-1.327315723328912;-2.3355441243464226;23;1.256637061435917
597;-0.8442120822942482;0.3864945758917805;-0.9742829250767084;3.1466353845837585;-0.4212867276307638;2.201888044407586;154;1.256637061435917
598;-2.8315151897410846;0.1370813774390961;1.4147702683611678;1.1704217099168293;1.5119545125280054;1.7147407410273938;87;1.2566370614359177
599;-0.5769543785742725;-0.8865503171705017;0.310249434648515;-0.4426622827083913;-3.2178118607720805;-1.1784877369976432;231;1.2566370614359172
600;-2.30495333398516;1.1367138526477163;-2.4256199283797133;1.0744987720724828;1.2120027247810214;-0.0480529512818726;13;1.1687313765863936
601;-2.339523624740982;0.089592197432017;-2.0866457973303163;2.7274643123587032;2.594420893326108;-0.6556317713439475;18;1.2404525621500984
602;3.3062109111771187;0.8817596640454104;1.3076551632668163;1.4948900025470353;-1.6242078949590526;-3.293699879696772;463;1.2566370614359172
603;1.72068862944574;0.6046843454459447;-1.6936297817979926;-0.9087700677634264;-2.397547248295196;3.039343417684464;337;0.693257606203094
604;0.313263445879934;0.2005247396725984;2.2354690306868195;-0.2544043854681029;0.6744983651631941;-0.8841340625612985;14;1.256637061435917
605;0.0228395689034712;0.7621254744178617;-0.8542607819420565;-1.2154375628173577;2.4184010494827723;0.4067212714584173;59;1.2566370614359177
606;-1.1511527351105744;-1.0653993728691835;1.6283172132167338;-1.9620514181458355;2.8872611553980154;-0.9304675584790424;294;1.2566370614359172
607;1.3402618625557778;-0.6728353939280171;-1.6754770735602385;1.4486677479387722;-0.1569800582036129;0.8212539428730273;229;1.2324917234007664
608;0.445491271381976;0.4248286510790421;-0.903487857750032;2.10444550687851;0.1167543211736596;-3.2400169253577533;549;1.2566370614359172
609;1.5778271620209363;0.5743486666011002;2.0201531539089763;0.3772611405491332;-0.2579831183533777;-3.305348528276263;498;1.1757398677543087
610;-3.0462400429559664;-1.7429973204448503;-0.2624439345747195;0.3653640113592782;-2.231149753746452;2.2952640533754107;180;1.254572640801694
611;1.7141292531000556;-0.2383765435234145;0.0739076003265107;0.6733479031034459;-1.753428461772501;-1.1132313544686872;95;1.085796267264146
612;-2.548127486485951;0.5360697759480179;2.205698216371503;1.6618350334671808;0.9875174235888872;1.4954064781889274;598;1.195699036178172
613;2.7275781793389355;0.8224625682233953;0.0019583568776645;-0.2342324675806766;0.1759287092771303;0.4307268361699306;410;1.1606683366545036
614;-2.7572437672428207;-0.6959906622814793;0.5214636621599952;3.223084037098765;1.329271053787238;-1.537538814708638;459;1.256637061435917
615;0.4518321803296492;-1.0966138226357685;-1.7118213018697848;-1.9574621298103376;-0.0039873880879029;2.065767391082538;318;1.256637061435917
616;1.7797370063713611;0.0503192501638175;-0.7048475835254124;-1.6388840548910666;-2.5380686724059243;3.129156890858358;337;1.2566370614359172
617;2.5168551746545127;-1.0979345550374682;-1.936230325815482;0.9459146793160064;0.2089275522705141;0.5802492672039842;420;1.2566370614359172
618;2.235476056961101;1.4865285319900408;-1.1163568502421322;-2.6141862697648586;-1.6548110297749332;-2.597536834344236;187;1.2566370614359172
619;-0.1069797592011759;-0.2886322322886373;-2.1794502379569787;0.9749716173387332;0.2078494442411717;-2.070094451107316;254;1.2566370614359172
620;-3.2124674778733726;-0.3158125492021052;-2.1400362285137278;2.69338709867244;0.9415723035385588;-0.4830270190912482;338;1.2566370614359172
621;-0.2475735346235586;0.7478427221499294;1.616976115874679;-3.159739948230128;1.999944425601188;2.2632493279717507;552;1.2566370614359172
622;2.660330865464636;0.3210612450706749;-2.3930890099802986;3.129145827940337;0.2696046078949667;-0.6003224936819732;139;1.2566370614359172
623;-3.1273211647916828;-1.5329472837641192;1.0111238420562365;-0.8293264022840887;2.1969750714155034;-1.141351860476595;546;1.2566370614359177
624;2.663801259034297;-0.9917304565374134;1.750975124342454;-1.373607119235804;0.2549849109380652;-0.5351096118016407;143;1.2566370614359177
625;-0.0115285445146054;1.3159353860578475;-1.371380540845549;-2.730143602152784;1.7945513569050493;-3.2106089709887264;174;1.2566370614359172
626;2.237177959144139;-0.1664909031284684;2.3021454954973333;1.3174092148212904;1.8815578104143016;-2.556295819494848;513;1.2566370614359177
627;-2.486252648363167;-0.5744244363087039;-0.1123704035013343;1.0959480683929483;0.5913756281474973;-1.678943003487098;493;1.256637061435917
628;-1.3198447222662222;0.8562076745582607;1.8668888313992276;-1.4481883037264918;-1.756030769009746;0.5722596413657769;1293;0.9857623509389212
629;-0.0828533706724951;1.1270223295908626;-0.9101574105286816;-1.700139917053412;-2.259220478793823;1.1218715798829757;290;1.2566370614359172
630;-1.6361591094388444;-0.3942818716564746;1.275994344462033;1.5507778019451768;-0.931739577019753;2.450650497276365;540;1.074498171811033
631;-2.702807404368466;1.116009935953382;-2.2903488315711;-0.5714549956946842;-0.6437249070941002;2.1810843991196536;1068;1.124691854283116
632;2.924463710990377;1.373250499719023;-1.744289836174309;2.1260321448397432;1.944372106410618;1.234363150610241;134;1.2566370614359172
633;-2.119533869109696;0.0661601889690474;2.1769862055403904;-1.4588237042176084;-2.356832656574149;-0.4515620511944991;81;1.105989364006135
634;-0.1514441699621326;-1.3072838763818235;2.0247982647950797;-1.324790472166177;2.0119183029019743;-1.7742633841650008;277;1.2566370614359172
635;0.0898903865041892;-1.524290780256361;0.5110230604617156;2.9742094683698066;-1.522129344404578;2.601938842647005;381;1.256637061435917
636;-0.7226729267389351;0.0812621294219143;1.8340172671903927;-2.776480083922073;0.6033336341576938;2.335832410375817;552;1.1717288217781374
637;1.8831446197682975;1.5005942135949448;-1.180110406516092;-3.300935465689572;0.0505428244889166;0.1535708967864697;465;1.256637061435917
638;3.192743471466155;-0.0863905240126141;-2.162826188685916;-0.4882579830661668;-1.1076337696053575;0.6029652737078602;359;1.2566370614359172
639;2.4353931199879866;0.1142015630691953;1.8220174492694017;-1.054798104229882;-3.003136727231783;-3.009443970750779;273;1.2566370614359172
640;-1.8773275452288352;-1.2131018594029648;2.047701699829883;1.3942918438438572;2.01448028750755;-3.0901061653091717;293;1.254575164620179
641;3.26042810914386;1.2515484694424108;1.3728507344938945;-2.6256324591666638;0.8703219865220553;-1.2319397485326045;198;1.256637061435917
642;1.318625808633442;0.0024934913996;-1.5826067705051328;2.830364511645456;1.745940834392039;0.3209372196606744;424;1.256637061435917
643;-3.0670205015380496;-0.2889234047509391;2.0543857331305944;-2.317500250715073;-2.5237606417395235;-0.9901002853061428;468;1.2566370614359177
644;2.941203800312761;0.0181255135676318;1.1965474110998071;2.1210619989162405;0.7245253708726344;0.1931885838621891;487;1.2566370614359172
645;-2.354834086149119;0.2735735941525263;0.7384380345305777;-0.7064730447352018;0.0893904934011396;-1.966080958295912;261;1.2566370614359172
646;2.153497024890355;-0.7779361248310277;-1.815966992161179;-0.60613356480851;-1.4615957415118532;-0.9538987511821836;824;0.7779670646258184
647;-1.636133127037172;0.9838801216071412;1.468657007002821;1.2504211823402858;2.9896453337045528;-2.374097147482994;555;1.2566370614359172
648;-1.2811355386568346;-1.1314781538619223;1.0747231753844555;0.9940214898112084;-3.122793771348494;-0.8478043714539706;97;1.2566370614359172
649;-2.5451162265535823;1.1327612889287333;0.5065784702906402;3.3843218909022315;0.3754666145382579;-0.747146138957863;593;1.2566370614359177
650;-2.943615236588028;-1.1020873234507584;-1.0558935642113507;3.0710657096317866;1.628470155189235;1.1022128815725325;338;1.2566370614359177
651;-2.348462813918239;-1.6586910568036706;1.213078534748261;0.1244965195572266;2.1238186497773275;2.1148295444247363;511;1.2566370614359177
652;2.8907152124409845;0.4133670688435231;2.6353136183950734;-3.0643407525557373;-0.0271921002606219;2.736420262196392;514;1.2566370614359172
653;-3.013083934058985;-0.5639852699024113;-0.5794412689801464;-2.5293276895274897;-1.613277471175354;2.3575660815599737;418;1.256637061435917
654;0.9138399500614002;0.9913655001706574;-1.2078452621982516;-1.3604358679063997;1.6366009634128127;-1.8317241135731963;98;1.2566370614359172
655;3.014367583259165;-0.7479113476274895;2.1241405233072785;-2.2196223460760285;0.9867700144580226;-0.4558090326087722;624;1.2566370614359172
656;-0.3171811316281575;-0.5480249894569207;-0.6831294526515161;-0.4262363875391184;-0.0241559431527331;2.4462846311105517;201;1.1185818040944029
657;-2.1749903109693065;-1.0839284744091668;1.3616037177885505;0.5336252020989802;2.2991615272896757;0.4374770155191718;145;1.256637061435917
658;-0.9466711882016228;-0.4483879276756058;0.6895549855930159;-0.1169370443508217;-2.722865864909604;1.6206538180967427;315;1.256637061435917
659;0.244332574518457;-0.5716714794038588;-1.5082042919775136;3.0759902753320105;-0.5647115734180711;-1.5416256765366;217;1.256637061435917
660;0.4584533150674971;1.1841559804829682;-2.485994828549229;0.8395388405266574;0.8552003254663978;-0.7849337574315651;298;1.1623395904372458
661;3.084492360530413;0.2438216597488294;0.0052518657032258;1.42090023674031;2.086535975875168;-1.5680953833454665;444;1.246160662166143
662;0.1862193316496572;0.8663928884161245;1.2229906921342295;-2.0704516769574712;0.0410418394541459;2.6207893167299776;470;1.256637061435917
663;-2.718982888604333;-0.734952440589985;-0.9154880571332044;2.153842971899945;-0.9773947258009252;2.1149939941182776;394;1.256637061435917
664;1.907024385157421;1.2522480723128258;-2.2049984490868195;1.0942399484699128;-0.4638071708946187;2.800690333224364;428;1.2566370614359177
665;-3.1069835783703077;1.0796612469108635;-0.226658675448885;2.3803094944696146;0.4481873815933412;0.7144960079268536;311;1.1050066813506303
666;-2.0138724048178407;0.4405293769533423;-1.9312097871378373;-1.8813685962210516;-2.4155054555005018;0.443621164421821;110;1.256637061435917
667;2.47608159292476;-1.371559131735216;0.0999504810197779;-1.8875050475401596;1.6030367112731263;-1.161539588525498;157;1.2566370614359172
668;-0.9139120922418325;-0.161191985725113;0.5272949791239682;-1.129723599720769;-2.294814557496961;1.3996409782396932;658;1.1694845792218662
669;0.0668403090121315;-0.4302946888068377;-2.4615063015590413;0.0642302401481473;-0.123798115766184;2.9531430549332613;390;1.2378052173392549
670;0.4578350190942301;0.9994848472242124;-0.2487918844838298;1.706099721211874;-0.2677061367213502;2.8341031469245057;129;1.256637061435917
671;-2.843570346844522;0.064905403709406;0.8121345609033088;-1.857748325092989;-1.5054958233810178;-1.4180229094911545;287;1.256637061435917
672;2.573092289193134;-1.7320143579449303;-1.470617041772238;-0.1652514862279737;-2.856351245919912;-1.7291389320663657;363;1.256637061435917
673;1.4695620063185697;-0.0644591496474927;2.451580605592653;-0.898601118526342;2.6990888147565526;1.315921894054004;405;1.256637061435917
674;-0.0336803190895631;1.382806598567914;-2.3900500662693305;-1.543728977200763;-0.9942424864970344;-0.7839521757711987;107;1.2566370614359172
675;2.6827005856496893;-0.3248548049953464;0.3251454732005556;2.244761499589625;2.4934098827373807;-1.183801907429047;661;1.2566370614359177
676;3.055907385846281;0.0098424414699531;1.879421452819794;1.56006096124319;-2.2737372839894223;-3.350205060139248;602;1.2566370614359177
677;-1.2494518379717174;0.0410764178691573;-1.8494558224991149;-1.2653476747650996;2.494011238007239;2.2295557913424884;460;1.256637061435917
678;3.245356779659163;-1.427461932637467;-1.0707299245050153;-0.3520080033005388;-0.9949310549248628;1.4107310613484032;359;1.2566370614359177
679;2.5289654286245327;0.3126641271029334;-0.875746329941954;1.7072185627560788;2.765629746867284;-2.6915464882896774;444;1.256637061435917
680;-1.829553423443666;-0.9085310421793232;1.7512949267015523;2.1256139771307394;1.1290797533635717;-3.368436564481824;640;1.2566370614359177
681;-0.0126108760521913;-0.8087227173932849;-0.8196899008789982;-0.1413740062018999;1.462707003316758;2.308200768115088;201;1.256637061435917
682;-0.4608356591961736;-0.25749246654991;-1.4936216667160926;1.1594183590677505;-1.079717232498073;1.9843337814725392;412;1.2566370614359177
683;-0.8727788529120666;0.0051839392153989;-1.0435804851842168;-1.8231207553238795;-1.4765277449619818;-0.1689873513835147;86;1.2331961447701243
684;2.3156432857274667;-0.9259467168082854;-1.4141702209751452;0.932298340692902;2.462501246575882;2.518018333789623;264;1.1684315835960453
685;-2.6805218829431854;-0.6880850443772957;-0.4070835204971867;-0.9316687158595304;-0.1341636588970689;0.8555875981359906;164;1.256637061435917
686;-0.4847145109043565;0.917840116342018;-2.4770062642457824;-2.1991128541906297;-1.383986581660156;-2.6169101358460214;136;1.099166946444187
687;-0.8226003154729907;0.7176795660690589;-0.1309356441531065;3.394175504285954;0.3545130699489739;-1.6578862227215123;275;1.2566370614359172
688;2.6156310425875238;-0.2399073503191089;-0.0737404545642253;2.3068483337341195;1.7264428039980473;-3.397466140372831;399;1.256637061435917
689;-3.0063723365509225;-0.1138902615678058;0.3692164508541411;1.4355954101236772;-3.1601003643394474;-0.5161673783783537;506;1.2566370614359172
690;-3.132347558674964;0.6721521133167844;0.3803240100591289;2.14607672366067;0.651103843718653;0.7649049865147571;665;0.796062907445496
691;3.10043467459518;0.4488600244718163;-0.9914218351226814;1.0454734978261568;3.034861634999235;0.3187248782992903;30;1.256637061435917
692;-0.6180869238655622;-0.5252596615718756;-0.1824673358752622;-2.2276756474894555;-1.907528041856792;0.2077838513714183;683;1.2566370614359172
693;-1.277234606953979;1.226728466919626;0.0146699462389051;1.3128856073263175;-2.9965829648401137;-2.9201287555086477;427;1.2566370614359177
694;-0.4753059577012342;0.1913914419084421;2.0641636357268385;-1.542096093970318;-2.486341819778055;-3.192763830309081;825;1.1222632288913457
695;1.0826703009032257;-0.5490986024625522;-0.4838003326026535;-2.5208325967838463;-2.3358297083167017;-0.4651127439264771;406;1.2566370614359177
696;3.191350016753795;0.9028449137563672;-1.5336090669091056;0.0798916050496687;2.98373785534195;-0.0498396319553935;691;1.2566370614359177
697;-2.801998240519416;-0.6598719999655234;-1.4438989486976048;0.373143385406952;0.4529394944684912;-0.5329786968056466;446;1.2566370614359172
698;2.0081016583040245;0.7514444932211743;-1.858551906548835;-1.0485169738045976;-2.539303730058142;-0.6564079486955835;181;1.256637061435917
699;-0.2653219651044692;-1.2339158080687609;1.0642901574969343;-3.2046084807690343;-1.4676011956049968;-2.00759743432763;296;1.2566370614359172
700;-2.128272861658361;1.0977377311269638;0.7378358855936255;1.5177043307191933;-2.641384945234778;0.3698857178562239;113;1.2566370614359177
701;1.2218417519909404;-0.4041115732780409;0.782840479599582;-0.5589471111398534;-1.0645335170426713;2.64939790820555;212;1.256637061435917
702;1.1419872089593348;0.0102571923569315;-1.2362917320378632;-0.3092665681572361;-3.089399057137677;-1.5703073286956608;52;1.2566370614359177
703;3.3494505702605086;0.2297040210196355;2.7145302499529413;-2.00857230590148;0.3620598846551738;2.486366137860246;652;1.2566370614359172
704;-3.0410160154996886;0.5208410928782305;-1.0379253663331909;0.1844269183276944;0.6000233783267633;-1.0780446867307127;446;1.2566370614359172
705;-1.5387943512899604;0.7002349538456468;0.3077820487360467;-0.8044846985924159;1.3172469489882936;-1.525064265775255;151;1.256637061435917
706;-2.694049676960057;1.589813200056513;-0.4368597304798776;1.0975617399020818;-3.0174960824088157;-2.154293868704075;427;1.2566370614359177
707;3.169004540630062;0.3563659801236303;-1.6744588039332071;-2.6729345969013982;-0.1427738244820462;-2.9003898496113845;339;1.2566370614359172
