Komment314/test_diploma/benchmarking/path_finding_for_benckmarking/pre_rrt_star_results/6_5_tree.csv
id;joint_1;joint_2;joint_3;joint_4;joint_5;joint_6;parent_id;cost
0;0.0;0.0;0.0;0.0;0.0;0.0;-1;0.0
1;0.7396276509398063;0.3626592284429715;-0.4155138346974126;-0.6787409645874632;0.2712694238733555;-0.4400429319987531;0;1.2566370614359172
2;0.9095807756734392;0.4304255774295868;-1.2115044177759018;-1.08779415022148;-0.5194398720177742;-0.0943354633536872;1;1.2566370614359172
3;0.3998214994676823;0.7628959850967028;-0.1727971891372389;-1.669647932122261;0.3100246432478133;-0.951089961976962;1;1.256637061435917
4;1.6024308771680589;0.0102545580031183;-0.8741897387202437;-0.8917814629581404;-0.9589998283138392;-0.854030556146643;2;1.256637061435917
5;-0.5773901643180459;-0.4152614001109734;-0.6723735368491054;-0.1157669060502403;-0.7793558713244548;-0.0207737368239339;0;1.2566370614359172
6;-0.4852967096213239;-0.7717895749202545;-0.983310048522344;0.7361310447903437;-1.1759496587901723;-0.7018353310642581;5;1.2566370614359177
7;1.1602247151502902;-0.3602891479441258;-0.7135807935503535;-1.152765008017696;-0.7654196779252755;0.6662099527892429;2;1.256637061435917
8;0.0492583264772469;0.9737826205057116;0.3623633920434865;-1.9573423518803188;0.514531752011543;0.0493004161147742;3;1.2566370614359177
9;0.915732802245967;0.7638957113078755;-0.6096294748756955;0.2356236227061359;0.9763647235366744;-0.312645511262657;1;1.256637061435917
10;0.1364185151566207;-0.2892634632000611;0.3096182168923251;0.4104401309799118;-0.4675490821508509;0.9969587033492284;0;1.2566370614359172
11;-1.2095910923813258;-0.1555500740290342;-0.5002135009847948;0.4848177577848981;-1.315901726736924;-1.300714287972239;6;1.2566370614359172
12;1.9924193344723236;0.136572184355926;0.0999204511180427;-0.7548412238926543;-0.5594115700991766;-1.3867363825566856;4;1.2566370614359172
13;-1.110465202220976;0.5479262083795444;0.379177595623425;0.0433760868917935;-1.0124353803121096;-1.4196285812918046;11;1.2566370614359177
14;-1.9497969717956496;0.0878710702242165;-1.0471545432733995;-0.1268281988019581;-1.717641081136439;-1.6712926440092162;11;1.2566370614359177
15;-0.573385585238189;0.4792610936169391;1.0680567540938777;0.936366671534817;-0.9014724275568848;-1.4604677180401675;13;1.2566370614359177
16;0.0490692396255501;0.0112319283911294;1.0018556125346252;0.2694710355329278;0.692829002698608;0.1423426265839539;0;1.256637061435917
17;1.22406795785434;1.2215336563229915;-1.8750244067904869;-1.380863714339094;0.0245406311241619;-0.2741108534804806;2;1.256637061435917
18;1.8056533987764671;-0.0016697096530858;1.1485002199594228;-0.1093453476235647;-0.4647609898020168;-1.3878217047754713;12;1.2566370614359172
19;-0.5384202896300134;0.3146603699558743;0.647109720298798;-2.251262350146076;0.916527075141756;0.7350545488188241;8;1.2566370614359172
20;-0.1374613911348916;-0.1604320936414957;1.2952306384079268;1.8568809372541335;-0.6232676943334721;-1.5200249732641729;15;1.2566370614359172
21;-0.0136421368504753;-0.7144810096809766;0.5873564098395093;1.3016380011932036;-0.4724219506262083;1.7071788456408972;10;1.2566370614359172
22;-1.249739124068422;0.0276535153783244;-0.6660858833341051;-0.7986113949623097;-1.383902287893189;0.2940555148722596;5;1.2566370614359172
23;2.1563275625521263;0.0630003232299436;1.7333144556692546;0.1772776665966007;0.5098897589518504;-1.6668872835655522;18;1.256637061435917
24;-0.8800293892800167;-0.8683992509101661;0.42624385328944;1.2597114003548324;0.3964678108423748;1.855955506101838;21;1.2566370614359172
25;0.7573028687930198;0.299125681794848;1.265735428484999;0.8424731911932499;1.4604734578921637;0.0562207350876531;16;1.256637061435917
26;1.7215016635012077;-0.0947888833194684;-1.2971612304197566;-1.4067288031005194;-0.4366487444860427;1.4911102126536444;7;1.256637061435917
27;0.210797770450008;-0.2977898666579363;-1.574015498690889;1.346991761518114;-0.8922523912906506;-0.9613455849446644;6;1.2566370614359172
28;0.4563654875959625;-0.2031838927523321;1.887131150161796;1.056715150183843;1.936119576324608;-0.7040338263590918;25;1.2566370614359177
29;0.640298010268035;0.5294982894309959;0.4935518537973304;-2.389038451017201;1.0640267050925234;0.7751816678023117;8;1.256637061435917
30;1.3020495537206491;0.5232342081473758;-1.226550431440181;-0.4172175202991428;1.7213015939830985;-0.4139082734286337;9;1.256637061435917
31;0.5314046142189239;-0.5333695759509182;1.211270561650409;0.0991403207924598;-0.6690564221560114;1.6396445992058732;10;1.2566370614359172
32;0.7253001976188177;0.0998099366129979;-1.2728297043945276;1.9969087906484408;-1.2120702129307157;-0.2258526301364631;27;1.2566370614359172
33;1.8668529766007784;0.2225278265414494;-1.38246032978838;-0.9185376588582156;-0.0305635392706202;-1.4397855274390812;4;1.2566370614359172
34;0.6605036678497589;0.8039281628186408;1.1599246215649712;-2.139536231553357;-0.1968869903722474;0.0139429786021534;8;1.256637061435917
35;0.8342249158943462;-0.2242728641925345;-1.242970270000443;-0.2640751347421426;1.9548361762048845;-1.264348974931604;30;1.2566370614359172
36;1.8011100882119362;-0.0036157183544878;-1.0943311942889975;0.3264211306354999;2.2373153311841096;0.0505848860642254;30;1.2566370614359172
37;1.5872502286224317;0.7653578978857689;-1.1833855703016116;1.2920947679768966;2.2715419842578064;0.0293123066896021;36;1.2566370614359172
38;-1.672548503472269;-0.0134972036294792;-0.3648935416760208;1.091820119466926;-2.220342939633736;-1.6746806710073596;11;1.2566370614359172
39;-1.3718283546361492;0.9341838072169024;1.9032498945536176;0.8713169408898088;-1.0617650262635931;-1.3756242958253877;15;1.256637061435917
40;-1.220333303218167;0.1242291498093768;1.2165061908162014;-2.550158159734333;0.8352343620798405;-0.0759372795264883;19;1.2566370614359177
41;-1.3945091422611715;0.5008015284100558;0.423498221973267;-2.199824302105563;0.9117267197896723;-0.8818815665001766;40;1.2566370614359177
42;-2.079104429673362;-0.2013840593554531;0.3807241455852757;-2.6319028658455355;0.337255862873439;-1.1963066365267423;41;1.2566370614359172
43;-2.891728145275869;0.5592009368958335;0.6748953486523024;-2.833403577874594;0.5098859974400594;-1.6244998960130292;42;1.2566370614359172
44;-0.2130734540830565;0.0569016806332615;2.089114853866574;1.8375130327236755;0.2706431573309589;-1.8306399707559025;20;1.2566370614359172
45;2.0528505463430733;-0.8414105213063569;-1.0452577692399534;-1.115441384300549;0.3892530775908841;1.7765628670256404;26;1.2566370614359177
46;-1.273355221202136;0.3438354439542644;-1.1568280226346883;-0.662344887081836;-1.5147405293123448;1.3904554958552748;22;1.2566370614359172
47;0.5378516688486075;-0.3371996606926905;0.8006735726644918;2.6342491846919587;-0.190842690210738;-1.283460532071165;20;1.2566370614359172
48;-1.7928072931853245;0.6955076041094098;-1.2605629946241217;0.0552940048229277;-1.501152418620438;2.20266346215354;46;1.256637061435917
49;1.1470332777972263;-0.0889329939965833;1.6102177510290825;-0.4350834703727979;-0.1810340484517218;2.2052366970818444;31;1.256637061435917
50;1.7601203933985714;0.0922694599368152;-0.6581773375063094;0.685769789881386;2.8548756872878687;0.9819924996031186;36;1.2566370614359172
51;1.3471317773572968;0.0542211140284949;-2.0404361545688987;-1.028041495724137;1.814044245448146;0.1455681927107316;30;1.2566370614359172
52;2.217910424155559;-0.1728628003919353;-1.4149937550521094;-0.3498915343128085;-1.6855027533672151;-0.6240969015639661;4;1.2566370614359172
53;0.0323510611486926;0.0044743263851808;1.071869152357648;-0.1513173027807758;-1.5575316517134028;1.2282370343673892;31;1.256637061435917
54;2.31965652806486;-0.4220124136720244;1.602554342513149;-0.6669048448139694;-1.241972246341693;-1.5187965956013592;18;1.256637061435917
55;2.8696254347462435;-0.6560367919397565;2.153840049985301;-0.8424372153024564;-1.4926156158968076;-0.6108572511624997;54;1.256637061435917
56;0.2146958899402195;0.5883362030702073;-1.2230145899300071;-0.702430129017451;2.1334218239488854;-0.0379313778612345;30;1.2566370614359172
57;0.6414366082704177;-0.8399850792862203;1.4742832032086923;2.710687584296498;0.0692873246037223;-2.1713531491401645;47;1.2566370614359177
58;-2.5371215281310944;-0.3114812209123375;-0.083371294736544;-2.8131575203916923;0.1797333480504515;-0.1550648363124683;42;1.256637061435917
59;-2.4745455428309127;0.7812001839490419;1.2831152322104178;-2.362023586967344;0.5347687819395774;-2.498034119241714;43;1.2566370614359172
60;1.7149733529487292;-0.5567243897831886;0.2171753688559385;-1.2517133150256805;-1.154031652213682;1.1197369982025631;7;1.256637061435917
61;1.1987025662784108;-0.4808447653378778;1.8601572222654223;-0.9190960921327264;0.8482513172054426;2.4635114171483825;49;1.2566370614359172
62;0.8932924829509405;-0.3939607138866768;-0.0661982432885333;-0.1767890297654744;1.7609312034172626;-0.9225254021384592;35;1.2566370614359172
63;2.5507644546126205;-0.7991624075907996;-0.4023120678324779;-0.6455541747033988;0.981149478881299;2.363860939942309;45;1.2566370614359172
64;-0.2383527786149514;-0.3495195812449588;2.072058804844727;2.954461027968257;0.4531189070760924;-1.4671041600237926;44;1.2566370614359177
65;1.0217838955255514;0.3795653764134155;-1.678561975921411;-2.1343955003865487;-0.7474868795371266;1.7959611408403906;26;1.256637061435917
66;-0.2064870128041115;0.3155654590539318;0.4838507058236382;2.872233817604992;0.3785846559627941;-0.9403375037187568;47;1.2566370614359172
67;2.02903557061671;-0.5397805783329472;-0.1101176367028;1.4251071989350914;2.6137892895840884;1.4316837153616262;50;1.2566370614359172
68;-2.052601984742838;-0.9160497704753294;0.6313986679214498;0.8708061604530776;0.3351604068679094;1.7863476103052585;24;1.256637061435917
69;0.1345101824805465;0.7900608920908576;-0.912345272637902;-2.239597336450322;0.7919708908034798;-1.5866706415483611;3;1.2566370614359172
70;-0.791951898057451;-0.0571191378711279;-0.3479800456837552;2.6473592712479594;0.8486378138498609;-0.5742598732465332;66;1.2566370614359172
71;-0.8450287039368843;0.7361731113317982;-1.0958257243912268;0.0940689269623752;-1.5222892097337943;-1.6185607402063422;11;1.256637061435917
72;-1.965469267269007;0.3983733947733213;1.1641312711493168;-1.4509030251974968;1.096062282333209;-2.3794025691801863;59;1.2566370614359172
73;1.9673432364044343;1.1310118108817713;-1.6756878872238756;1.8552681705016247;1.410635002581131;0.0126827588217348;37;1.2566370614359177
74;-0.8361876389213785;0.3711979694771538;-1.785732722404243;-0.6676384835922167;-2.4966818185674957;1.5563309379007635;46;1.2566370614359177
75;-1.851304779827783;0.9904671315555346;1.6278190112764537;-0.8905120494461798;1.4770575711515732;-3.1151514425706512;72;1.2566370614359177
76;-0.8941242201116972;0.0312326350766402;0.8923691672224615;-0.3860370132229385;-1.830219401390765;-1.805412368016652;13;1.2566370614359172
77;-0.5460881181292399;0.3656211764244816;-1.421062194397238;-0.3180542173577909;2.3291186239503423;0.8138182810855996;56;1.2566370614359172
78;-1.373023257515587;-0.3229811013511452;0.5062154934067513;-1.2386592457497718;1.2037755108464263;-2.846617068643724;72;1.2566370614359177
79;1.2336548323595713;1.0466338753860478;-1.777719467149299;1.5300674204052231;2.689875778025093;0.9182014432772938;37;1.256637061435917
80;-1.9417449954259811;0.1168721828209291;-0.5157832308560679;-0.090791812701545;-1.8856264156029927;0.9369008580955448;46;1.256637061435917
81;1.6544637578003965;1.3036944481872303;-2.537269180665977;2.241280180932113;1.7655321439236715;0.6715790059478935;73;1.2566370614359177
82;1.4084987470243788;-0.2576812269951477;0.9087813759368032;0.7935341903407279;-1.0526817767487942;1.7536075510641462;31;1.256637061435917
83;0.3835886231694751;-1.0417311951779644;-0.0213207228472096;-0.6149874302730437;2.369206544478507;-0.3431279888940617;62;1.2566370614359172
84;-1.0424609641046687;-0.2854230193129342;0.7857748704736084;-2.1318999803562675;1.586387022170382;1.4298868168843324;19;1.2566370614359172
85;2.4988726933575403;0.1249546949826224;1.306081031284496;1.2808182500724066;0.6973719094073328;-1.5169492352673597;23;1.2566370614359172
86;-1.171200695245672;0.538522702505229;0.1956256758027824;-2.5521294002035098;1.4573883816590845;2.014837025678254;84;1.2566370614359177
87;-2.5284270781895613;0.0461301138550944;1.1044737386150412;-2.097689469973408;0.0749601856941672;-0.5345014176309766;42;1.2566370614359177
88;2.7292781883611323;0.3158458460844744;-0.2560487392648069;-0.3260367753936637;-0.2882110279073731;-1.950139793669448;12;1.129894009912814
89;-0.797673036314771;0.5215982224108398;-1.1643820975096384;-1.2291178729714036;-1.997962994419505;-0.2717059957511712;22;1.2566370614359172
90;-2.7273961623843825;-1.087926752470713;-0.1164905165485525;0.1734191736009649;0.1167381130283715;1.7571468409398112;68;1.2566370614359172
91;-2.4130056941158906;0.7808183778139761;-0.9215918653574052;-0.5498869363013107;-2.367163725551845;-1.1538237410049084;14;1.256637061435917
92;-1.7663519515826642;-1.043359463538866;0.8577879080981816;-2.6246197592081564;-0.0617600446883366;-0.5753851932346035;42;1.256637061435917
93;-1.9755161360826403;0.623880209562236;1.4762072629987095;1.296302512585421;-0.2040796375512455;-1.2348866936586491;39;1.2566370614359172
94;-2.9638530623428374;-0.9935027715104496;0.8497672205905052;-0.4929722701816975;0.1852568236077148;2.1203032340112564;90;1.2566370614359172
95;-0.9829032224264592;-0.6818591226487163;0.2857913235962673;-0.467666659977937;-0.6805486973804482;0.5195459130001994;5;1.2566370614359172
96;-2.1436603058372463;0.2026932207396444;0.8376468699505721;0.8707542936920581;0.1322078311526499;2.27166311018268;68;1.256637061435917
97;-0.8192960193257212;-0.1852339075437163;-0.1133074425417831;1.88775101065308;1.0029522044731367;1.6206671661508527;24;1.2566370614359177
98;1.5810492177381237;-1.1936259565328025;2.468379008539812;-0.2952061891519834;0.9431708041342975;2.8593758566117207;61;1.2566370614359172
99;2.059290821765823;-0.5726913933428065;0.2645459686958269;1.1478420149894508;-0.4373414832975222;2.123956040234404;82;1.2566370614359172
100;-0.0810711505530672;0.0532201871693959;0.2018997061394757;1.626233298883075;1.2989821146021845;2.470325700018576;97;1.256637061435917
101;1.6149588996996271;0.8350378289205351;-1.8178761789759237;-2.478711136261912;0.050895515427314;2.290378788921855;65;1.2566370614359177
102;2.251752220229175;-0.7953858859017653;1.721456225968054;0.3181168441978116;-1.856256996114586;-1.24793349388673;54;1.2566370614359172
103;-1.917450753756319;-0.1987637990880766;-0.7385981007654366;-0.5544518212732985;-2.1821986590526663;1.878109240242772;46;1.2566370614359172
104;1.8978516338663187;0.3812357740694888;2.054504924676041;-1.3656478921715045;-1.295610883025399;-1.7650310489202867;54;1.2566370614359172
105;-0.0101102118320425;-0.3500767033132462;1.7423903439187722;-0.2884133731580797;-2.5466047133534606;1.1577544854389192;53;1.2566370614359177
106;2.374144373176092;-0.58796318507389;1.7567318383281425;1.3176710246729153;-0.1667083520794262;-1.839824863704793;85;1.2566370614359177
107;2.554320758518868;-0.5478722070867019;-0.5933802046840173;1.9861496455277703;2.629729573953726;2.3003500908664667;67;1.2566370614359172
108;-1.3791610407578925;-0.4258425786463728;-1.1568401676007622;2.4240201172533338;1.363906687638711;-0.2154729388468579;70;1.2566370614359177
109;-0.0424848639694121;-0.1865199895370147;-0.7338472608678037;-0.2310193322057223;2.144503302283712;1.5256738467246098;77;1.2566370614359172
110;-2.3147994581045763;-0.0774600300931945;-1.0776731542394744;-1.4504931880155036;-1.634533611075073;2.312548049946431;103;1.256637061435917
111;-0.81918192184716;-0.9356085103255782;1.7075648322067611;-0.7010515764152043;-2.632059813591628;0.5230053239629895;105;1.2566370614359172
112;-2.943437301850379;0.0420976139817253;0.6737150800691369;1.185832952418024;1.019503213735723;2.2555007142888117;96;1.2566370614359172
113;1.1703471498424534;-0.4267759683696966;-1.207986982514589;2.948197120199533;-1.5573541571627445;-0.5004471175155271;32;1.2566370614359177
114;-2.611574982149156;-0.2634405889616936;-0.1533985060579494;-0.0388928479742436;-1.3351967841660537;-1.416399397654064;14;1.2566370614359177
115;-0.5514804100439008;1.458551197954227;0.7857307750679088;-1.908569782381789;0.0372338956476766;-0.7082067803539044;8;1.256637061435917
116;-1.620905249629776;0.7019406552170522;2.048413322189485;-2.6117013364560586;0.9359830015486336;-2.3105244235694595;59;1.256637061435917
117;-2.4904875105300097;0.5531948668280185;-0.1224109313765266;1.2380499543782548;1.339632571177557;1.6441687733926336;112;1.2566370614359177
118;0.0066193088486227;0.2722416266249192;-2.0186607502531637;1.983337216941178;-0.6041060073114264;-1.6871821227982944;27;1.2566370614359177
119;0.2385684752819083;0.2788975730405041;1.6622993270254378;-2.6258298989970217;-0.5997957235185885;0.702603239047288;34;1.2566370614359172
120;2.011085520317896;-0.8891862578843214;-1.0501934283066916;0.0895132527181612;2.801145761988971;0.6628214432022752;36;1.256637061435917
121;-0.3112206084385908;-0.2782957839958744;0.9870785037251044;-1.2607732264008114;1.6402559052495869;-3.0123930122218674;78;1.2566370614359172
122;-1.1469017494872424;-0.3817302074335547;1.4986419262239927;-1.3243949629558762;-2.1369795791087247;-1.8555901395405832;76;1.2566370614359172
123;-0.8162198677360747;0.8951912195105349;-1.7268482622764918;0.071098041897529;-1.0626952529024285;-2.222455640635477;71;1.000374664099425
124;-0.8223600817809141;0.0158129699219716;2.4466554187810075;0.9537239039412424;0.7293719113010158;-2.125373202514197;44;1.2566370614359172
125;-0.2329535803846264;0.1486101594414883;1.5441819891962834;-0.1196097473267072;-1.1035914803600373;2.06660427801601;31;1.2566370614359172
126;0.8907325004782763;0.8565315586401682;-1.593130608825024;-1.501642524775991;-0.6679772676631797;2.755371830813241;65;1.256637061435917
127;-2.267939803466341;-0.2200283185651662;-0.7253373381264928;-0.798626273700959;-2.99133917122493;-0.8961099511498355;91;1.2566370614359172
128;-3.1398470705453243;0.0816799185969025;1.463953449302948;0.5762030664866797;1.4557019451814324;1.661700632820288;112;1.2566370614359172
129;-1.144244122876428;0.4010456926928846;2.1959331930843877;1.5723914620700783;1.6651828134009703;-2.2013330020158364;124;1.2566370614359172
130;2.212944443570253;0.228166767969238;0.711946029144861;1.9015832675607247;-0.7065661178535847;2.3948414041269697;99;1.2566370614359172
131;-2.578062269024987;0.1194572089425319;-1.050027526643973;1.3365881414124177;1.1807130417215028;2.3426680726183213;117;1.2566370614359172
132;-2.022741063915076;0.8720872858392261;-0.546916445727374;-1.0509767844572535;-1.5333094636626097;1.8542829053890029;46;1.2566370614359172
133;-2.8090984052908152;-0.1018279047154117;0.0171519175454799;-0.266652426257247;-3.110011024851121;-1.5472192015955402;127;1.2566370614359177
134;1.772084106944888;-0.9951157359420232;0.1063635571694263;2.379032053858672;2.034113837142447;1.3180079596720975;67;1.256637061435917
135;-0.4751561488256495;1.1886703340407552;-0.9977160374992944;-0.5416630682952439;-1.1595184324829386;1.1410452108850753;46;1.2566370614359172
136;-0.7635973556981933;-0.2011152258772587;1.5320447658197018;-3.011762023242047;-0.3651033388713165;1.0538833176381446;119;1.2566370614359172
137;-1.9976845544194528;0.7948883422525583;0.7603291928408515;0.827687503591453;0.3487753668516882;-1.9501987864375885;93;1.2566370614359172
138;-1.8755466880642533;-0.4752750765751616;0.3125579672952694;0.203714497475915;-0.3593976161449015;0.8824809669707538;95;1.2352401819145629
139;1.7624598618708185;0.4583081496446509;-0.8420712945428785;-0.3477529641590439;-2.419875960251007;-0.9493291187437668;52;1.256637061435917
140;2.721992444060533;-0.6414736804787532;-0.5385974708936586;0.6717120063322206;-0.7857721944555542;1.7470089208914477;99;1.2566370614359172
141;2.423953995413552;1.1327909895311;0.2330104760777258;-0.1023418385661357;-0.1732127563600918;-2.6685209812304715;88;1.2566370614359177
142;-3.087882086934217;0.3543286346817864;1.0045484013743418;-0.1134444526729981;-2.787119466482074;-1.1105796286346803;133;1.2566370614359177
143;2.287040406065682;1.123903415831904;-1.0155898627058295;0.2054973771908374;-2.4313104532694254;-0.2250297903415019;139;1.256637061435917
144;0.7246305193572193;-0.918491870279513;-0.7109987306451843;-1.518325055105418;-0.4015275186727207;0.33405702311534;7;0.9368652357534226
145;-2.923408507654879;1.600270603374971;-1.1288292820640442;-0.2803510846892224;-2.358674789254512;-0.4248143186364717;91;1.2566370614359172
146;-3.0472233262174866;0.0128755223442043;-1.0801509249633998;-2.008556023528741;-2.435465993973453;2.598202596303637;110;1.2566370614359172
147;-2.942049114580844;-0.5879115262374991;-1.51894662309485;2.066938557414544;0.7419787825723623;2.364920119815481;131;1.2566370614359177
148;0.0049190862930804;0.2270061887392422;-1.2801016927227522;-2.8773240289542525;0.201539438417275;-2.1822903475557647;69;1.256637061435917
149;0.7059772069441338;-0.4577052429295287;-1.6571983656201434;1.363238631043015;-1.8745134630475908;0.3031388180488533;32;1.2566370614359172
150;0.2526850467574162;1.4982507455946044;0.9008832769934058;-1.7671251827815202;1.4822253798412253;0.0409180436888825;8;1.2566370614359172
151;0.4664766218033731;-0.2644198619814863;1.6013308628605898;-1.0853162994860126;1.883377128901994;-2.3004013284639875;121;1.2566370614359177
152;2.42597066570196;-0.6377581533665082;0.1263497161491486;2.301166260034716;1.21011683792651;0.7362596915084134;134;1.2566370614359177
153;0.7300482776299507;-0.5589386503331553;2.20655170024649;-1.0535769388632437;0.9466606556760117;-2.7225244970951863;151;1.256637061435917
154;-0.9718242965207636;0.4557475462550241;-1.0529336138917298;-1.406146283279763;-2.0007656751550944;-1.4967382621084466;89;1.2566370614359177
155;-0.261336321206989;-0.5401869046043352;0.9850164801823408;-3.081865303405283;-1.0442506805450702;1.7220939335458874;136;1.256637061435917
156;-2.142561676303374;0.3661028129782887;-0.6497056443733511;-2.799839726237779;0.975961794684924;-0.057867068504392;58;1.256637061435917
157;-0.3672503731415721;0.92459415817258;1.1218005087253555;-2.8748702119401277;-0.3507242035925941;-0.9589955451212712;115;1.2566370614359177
158;0.2445842932461087;0.6683876324542865;1.5413706290840354;2.114838275828597;-0.4394532758758721;-0.75496220663172;20;1.2566370614359172
159;2.651188693989819;-0.8701150782253767;2.7071287591295894;-0.7915360122369679;1.0455985092272966;2.735107012173805;98;1.2566370614359172
160;1.618771034249916;-0.6418538593559927;-1.433421978174478;-1.1740543686079936;-2.24905560205647;-0.5689580573353579;52;1.2566370614359172
161;0.987726512151372;-0.7128680702345399;-0.1075867421515354;2.893818601992185;0.1334957538961489;-0.7954912016650976;47;1.2566370614359172
162;-2.3454357239737136;-0.4070757019766417;2.208083956562425;0.4277417976957588;1.5189393570277387;2.021416255984014;128;1.2566370614359172
163;0.4711442769852073;0.7098942182719276;1.9856544197637025;2.176623601110371;-1.3139395984075812;-1.5033956638610848;158;1.2566370614359177
164;-2.5612455947915027;0.8145225135900294;0.3796183146883263;-1.1988548510164845;-1.580886982340198;2.4892928787629374;132;1.2566370614359172
165;2.6574182613760287;1.1154969746150003;-1.630627618267983;-0.1228922586626241;-2.7032995016209007;0.7140107008461927;143;1.2566370614359177
166;-0.3175251406365705;-0.8154127816738761;1.196989436035917;-1.8463101699104647;-2.361429878264219;-2.3935705525556235;122;1.2566370614359177
167;-0.1306386633332107;1.457962270132846;0.2741393761782595;-0.8172443867985928;0.4480883824300318;0.0672524577298725;8;1.2566370614359172
168;0.9735703976110855;0.6304198311108558;-1.5516425964295744;-0.4261876295591442;2.795412165558969;-1.2312902765772682;35;1.2566370614359172
169;-2.8388672086594786;-0.6954111069973337;0.4737042540256357;-0.7989387166542251;0.8916400610757839;2.9809079636849205;94;1.2566370614359172
170;2.0940940090016578;0.646457072622499;-1.4064141544642972;-0.2458181411115927;1.0137476022390377;0.1978572481762741;30;1.256637061435917
171;-0.9746858289738016;-1.3062779348156714;1.7098483547092451;0.2462214432073597;-2.26237881593354;-0.0963201063089124;111;1.2566370614359172
172;0.870961773139696;-0.1742441446669507;1.7053771287668824;1.4291221911152514;1.8178993138824069;0.8789869526524924;25;1.2566370614359172
173;-1.4194922311450662;0.215230864685622;1.8069708406146343;-2.1640289076990564;1.2408011634587008;1.5816325026200726;84;1.2566370614359177
174;-3.171087691076059;-0.1532881666185163;-2.163623934359128;2.7166379071143454;1.03686819428887;1.7221894420638573;147;1.256637061435917
175;-3.2309413651469545;-0.4566746456026519;0.1168519443636638;-1.015750495919323;0.0991091630105613;1.4864792749694526;94;1.2566370614359172
176;-2.856053188879477;0.8815786247590052;1.090110954883306;-0.7685489754629796;-2.069826524041805;-1.6550127857321486;142;1.2566370614359172
177;-2.525565009629438;0.45928266205719;-0.2696917105613213;-3.017058351937812;0.0267976736555877;-2.1495993947503607;43;1.2566370614359172
178;-1.4202346473114127;0.5680590413361438;1.0049962790624798;0.1467358155233233;0.4714093885975624;2.7766715852280783;96;1.2566370614359172
179;-2.0689541955112545;0.171861502070541;-0.9703497457972416;2.1446537836846917;0.6181239533512041;0.0621163750804908;108;1.2566370614359172
180;0.8984181669579673;1.1447951167586847;-1.6347338842265755;-0.3105697878419422;-0.4735189088453224;2.9497493121738025;126;1.2566370614359172
181;-1.7644977049358506;0.979986486836241;-1.11455155962493;0.9355548449838405;1.2080234709748672;2.237778364362535;131;1.2566370614359172
182;-0.3339524879701098;0.0877269998657995;-0.1984637220429293;2.60940185455371;0.1801506232690477;1.8737219612028608;97;1.256637061435917
183;-2.578286618514769;1.3335433399796366;-1.1316744823502904;-1.0943456930689828;-2.926071814217233;-1.9241261108856855;91;1.2566370614359172
184;3.052690502153031;-1.164927756902056;-0.314025432135579;0.7674942492329799;-0.7218788968636416;0.6830154358081266;140;1.2566370614359177
185;-1.965740229819252;1.1603884481398743;-1.0708495258863364;-1.5623854195197429;-0.8758106809155879;2.5784519016099305;132;1.256637061435917
186;1.1358409216514205;0.6858890102791353;-2.2183706864086483;1.7741455787443214;2.322527909879678;1.943257629396536;79;1.2566370614359172
187;0.8845907291423629;-0.7407525527944896;2.5235979523172163;0.3934555986133932;1.428408252389432;-0.6407426660765393;28;1.2566370614359172
188;-1.2629437159969694;0.8066931601090743;-2.1021088015857083;0.8200438131548256;-0.2820397600511055;-1.9763268900075184;123;1.2566370614359172
189;-0.9790987474180092;-0.2830919004868475;1.8876374125407784;-0.0918473933296348;-2.4594356669587887;-1.795583900240593;76;1.2566370614359177
190;2.8029028349276084;0.6016415384118599;2.001483976528364;-1.405627035659459;-1.45931245416987;-2.5897931779155448;104;1.2566370614359177
191;0.4939074753945612;0.130972352042725;-2.04953459598811;2.509250595057814;0.1697968727295554;-2.3544648182200856;118;1.2566370614359172
192;0.7984034839830265;0.7042467549570414;1.1315273333523357;1.4408333265953686;0.0142168014520405;-0.0893313826990296;158;1.2566370614359172
193;0.969108244055574;0.1334919332509129;-1.4682737863263042;1.5863909668010492;-0.1892264916379878;-2.541234159580261;191;1.2566370614359177
194;1.3249654384964238;0.8161322190380756;1.8818020454043325;-0.6816990506947798;-1.6611872235910332;-1.1088718986867985;104;1.2566370614359172
195;1.7139495982373136;1.2675391197636126;-2.594715601205721;1.0823172553603742;2.010597349796693;2.378053689778364;186;1.2566370614359177
196;-2.5678642201273463;0.4950293663771273;1.3174761319100496;1.8416431754770175;-0.0510611433230826;2.5991970211254363;96;1.2566370614359172
197;2.550109614342952;-1.0627270267115152;-0.1209604421624833;-0.0726188110896374;3.078470409165813;0.1226329361005257;120;1.2566370614359177
198;2.9164818246939284;-0.1520535374212183;1.777035697924629;0.4398406573332508;-2.690611773364333;-1.3445827971136957;102;1.2566370614359177
199;2.485634459274579;1.059624150958942;-0.9730227160971808;-0.1356377159886221;-0.894656516780801;-2.1703411887537496;88;1.2566370614359172
200;-2.6814838268255388;0.4478922736605268;0.7875289835260184;-1.0986466167117124;0.9701814756061636;3.2105707927927867;169;1.256637061435917
201;2.636036838846572;-0.6786650957130828;1.535201491362434;-1.5462855916959428;-0.4525835538737701;-1.408396452557756;54;1.2566370614359172
202;-3.0014058452660075;-0.0862714298114344;0.1396332965793816;-3.0835759511051224;-0.6542630829720775;-2.797108181928129;177;1.2566370614359172
203;2.4331423054432424;-1.1794419471480149;-0.7753972004917172;2.867605468167605;2.324595272703712;1.405054676488257;134;1.2566370614359177
204;2.18001939186487;0.3063534556033063;1.252272998213297;-1.4605532149651064;-2.003923563959791;-3.0827664353812123;190;1.2566370614359177
205;0.1360019258493361;0.6354645157347789;-0.3840433605587409;0.8093246388251549;1.7257932548069013;2.457258954564758;100;1.2566370614359177
206;2.83489625218068;0.0378700903375222;1.8766245379821251;1.531136986503521;1.645900310134584;-1.9301751467182715;85;1.2566370614359172
207;1.5644528363332977;0.5915808656404864;-0.3074579702133515;-0.6663885445595181;-3.0184747175638496;-0.0681323227447786;139;1.2566370614359177
208;-2.1092906311504804;-0.9939600962542676;0.488197724479443;-0.8692364288989678;0.5554595946241647;-3.0190202654228333;78;1.2566370614359172
209;2.6685074301988685;-0.8271666971080802;0.2176685176663454;-1.647455409263453;0.6842252577139362;2.066971983733502;63;1.2566370614359172
210;1.1595050950963353;-1.0647858733682871;0.061718319852001;-0.9268737376737824;-2.092957037884878;1.1543306772936517;60;1.2566370614359177
211;-0.225419386131029;-0.9047244834398708;-1.242174872411514;1.3768410271564715;-1.639899107862984;-0.7268769413510832;6;0.8823856102969344
212;-1.7175774996042334;0.870459496794058;1.528157836040411;-3.119560103695414;1.028137618050234;1.4236610653929702;173;1.2566370614359172
213;-2.60149858582483;-0.3112745586436165;0.5945396158815409;-0.0228456904046196;-0.523864292685779;-0.0488309678105036;138;1.256637061435917
214;1.1139269595910806;1.2783397352373682;1.925439464642544;-1.3460797512874014;-2.362942297742351;-1.7295147531447073;194;1.2566370614359177
215;0.9595984992561308;0.0937024702741857;0.1664152026134994;2.3528771134259547;-0.1271857567948992;-2.137909793937277;47;1.2566370614359172
216;-2.605661432145712;0.9883671405813228;0.4274770494699614;-1.135638962329362;0.6749552259325087;-2.4220177250242987;72;1.2566370614359172
217;-0.9478850067242576;0.1508611656764374;0.2757127425982102;-0.8575311893209676;2.2065499388362846;-3.029279149434496;121;1.2566370614359172
218;1.524720724990336;0.7339692048939762;-2.490295324146962;-0.7140540620712094;-0.4702018592892293;0.1537465732024614;17;1.2566370614359172
219;-2.189301062003905;0.4832208685811811;-2.2547061435172724;0.3393283833629874;-0.1651728770239053;-1.3861292055542878;188;1.2566370614359172
220;2.604645577505855;0.7562063959123506;0.4397295391591083;-0.9254676948067256;0.3658297415843131;-1.6363057059594424;88;1.2566370614359172
221;2.5879412126566628;-1.1365344865732467;0.5737278997391427;1.6254573332712516;2.901864341030723;0.8661098199562033;67;1.256637061435917
222;3.024201195897737;-0.759991145386663;1.5378755062564953;2.1468281189080405;2.741298961073276;1.0069632859955469;221;1.2566370614359177
223;0.5134367860841769;-1.372430384718189;0.6826323483174752;-0.0668029892827987;3.0841958629329955;0.0385110703614386;83;1.2566370614359172
224;-0.1870536672913006;-0.9040011167887264;1.983718859743028;-0.390657888349966;2.2035780839554526;-2.4084343973380946;151;1.2566370614359172
225;-0.4827731412448717;0.1575465236605072;1.0573895243375804;-0.991774090912791;-2.897755867504256;1.2616561870668124;105;1.2566370614359172
226;-0.6790887344857851;0.0278374076841892;2.070671967961068;-0.1610626480878242;-1.7538800153472685;2.8812998355252564;125;1.256637061435917
227;-2.689856445606346;0.9690881136863044;-1.176331516217051;2.152853765619713;0.8991288558722854;2.0541647430082377;131;1.2566370614359177
228;-0.7252939417436237;-0.3986302467903143;-0.5041971911655874;-0.4216531307932719;1.988124551150748;2.502599121639385;109;1.256637061435917
229;1.4047467868708816;1.344712878762237;-1.897917985540575;2.040827715110328;0.91896926175877;0.8298686825582443;73;1.164272093320864
230;-2.231112366054934;-1.1348880244619035;-1.4559665745013906;2.468462627904675;-0.0329482968481761;2.458847272635232;147;1.2566370614359177
231;-2.41928514511411;-0.0660337277539358;0.7902423738290951;1.3890560907036518;0.9348823775032102;-1.92466609077305;137;1.2566370614359172
232;2.0576227340985933;-0.6663911133709568;0.5009218399898467;0.337994621702241;-0.8003136749449471;-1.9723960822535689;18;1.2566370614359172
233;-0.6277089081466758;0.4160847948962072;-0.9363189282089524;0.7124340736651488;2.7113188875638548;0.4574912115757722;77;1.2566370614359172
234;-1.4652879514231745;-0.3597562736036445;1.14270244579058;-0.7063497059484485;0.0719314914523104;-3.290082661790505;208;1.2566370614359172
235;-0.7620966844599649;-0.536511760258877;-1.0550074687181603;2.344872719186536;1.5538571056267694;1.851347474432274;97;1.2566370614359177
236;-2.849850067569314;-1.305919815614786;-0.8296626108537208;-0.0227157413527317;1.0315395180526925;2.121393760084413;90;1.256637061435917
237;3.0112684367837472;0.1601149644541973;2.2316310989714365;-0.9209265768286816;0.9371253744664928;2.369731892361133;159;1.256637061435917
238;-3.3498240259525365;0.4278775060779486;-0.7700457052715157;2.325070713635617;0.5682376160131756;2.0334018171232167;227;1.0164217028193576
239;0.006342257650015;0.898663118472545;1.322636229097392;0.6507638882396456;-1.8067858698446924;1.3309045628203091;53;1.2566370614359177
240;0.3938659427048968;-0.3558508375063479;-0.8604254214745217;2.3990938220840183;1.4091465330594346;2.23671157348783;235;1.256637061435917
241;-0.1581159714471313;0.2281292684832402;-1.3046809163960846;-2.0422361543114387;-2.0892638326381707;-0.872729902165125;89;1.2432087287790008
242;2.6472111108088505;0.5958544399929948;-0.4554963137881678;1.8463135834776363;2.833201401738788;2.7274690052979325;107;1.2566370614359177
243;-1.9031246211682824;-0.0726001882264885;-2.3811226038849744;-0.1356669493972762;0.4851845860672614;-0.6624330094195789;219;1.2566370614359172
244;-2.1494535028410544;0.8905562607295348;-1.520787191844465;0.845250535755165;-0.5145356020000575;-2.603686095740823;188;1.2566370614359177
245;0.2117134270821816;-0.9380036997011088;1.6431094832396729;2.147384108352844;1.973937080719221;1.0096561470940673;172;1.2566370614359177
246;-2.9184085114126;-0.1363737293853079;-1.4543776891269762;1.5771651605020809;0.7766310434141445;-0.363447047330675;179;1.256637061435917
247;-0.6450581228677991;-0.1479964346574627;1.006526761335513;2.6070612503280475;-1.4449276561945708;-1.5290854814235149;20;1.2566370614359177
248;-2.299622890965824;0.9645555127563684;-0.7505634018381371;2.579706848746014;0.1426278478024046;2.754920132233873;227;1.2566370614359172
249;1.524847713446215;-0.9874303938107748;0.8159744691935112;-0.2285253921826292;-2.586966203282051;1.527211086014542;210;1.256637061435917
250;-2.93389069761767;-0.9874339970395658;2.340522528799826;1.232157526218412;1.5897626634568784;1.545599991996351;162;1.2566370614359172
251;0.395404987225636;0.2786213719951647;2.388233079832842;2.610233697994018;0.2235443241781929;-1.5889649968908663;44;1.0800924348374756
252;-1.4134498344628763;0.0686496593722706;1.226194098436889;0.6877849210436037;-0.3597107246653981;0.8561403034797692;138;1.2566370614359172
253;-2.3958664165866668;0.3904374412908348;-0.9430681085424146;-0.3127919026861248;-2.988045291650897;2.381597830448213;103;1.256637061435917
254;1.798779757288445;0.0608870125904718;-1.4626712027808948;1.6650280390117191;-1.0110915430828733;-0.7144079408035301;32;1.2566370614359177
255;-3.2370671273939458;0.1732835637279608;0.0297700440455422;-0.5265946360831797;-1.6085020841777906;2.8582432365640185;164;1.256637061435917
256;-1.265616591035237;0.7909717782649774;-1.8556846886350584;-0.4119105972891163;-1.6325118263831724;-0.1804817608546122;89;1.256637061435917
257;0.1802760636363403;-0.920030804863576;2.343985736520985;3.18080321835413;1.1163899910983694;-0.7506546041475952;64;1.2566370614359172
258;0.9379531130279816;0.4991756403364348;1.419349608936258;1.223068930238167;0.7255509640040925;-2.255140518769849e-17;192;0.840099781222442
