Komment314/test_diploma/benchmarking/path_finding_for_benckmarking/pre_rrt_star_results/7_1_tree.csv
id;joint_1;joint_2;joint_3;joint_4;joint_5;joint_6;parent_id;cost
0;0.0;0.0;0.0;0.0;0.0;0.0;-1;0.0
1;-0.4692046319071395;-0.3648625380677838;-0.5615871919062297;0.9264496806373052;0.2284072262863588;0.0;0;1.2566370614359172
2;0.6924842599560542;0.2750171041895871;-0.2626831688375981;-0.0229244079148991;0.6863538106072965;-0.6952397552547033;0;1.2566370614359172
3;0.7244240874048697;-0.3792496876821413;0.4778712373442004;0.4144176724013623;-0.7129724029499532;0.0456458772206938;0;1.256637061435917
4;0.8836708711145398;0.0888461010406542;0.8974148522640688;-0.6475910296001444;-0.8877393606499521;0.0301319743675345;3;1.2566370614359172
5;-0.2625780933376116;0.4671821876419205;0.5752578930211971;-0.5382648487101327;0.5909625834336572;0.5674881379948657;0;1.2566370614359172
6;1.059490280218227;0.4432036973354464;-0.802921773185092;-0.5634683278517615;-0.0554041933172149;-1.2261880952629347;2;1.2566370614359172
7;1.1480447837740804;-1.1011986428918468;0.564608985193988;0.9347410699903022;-1.3682247997848622;0.458993596840789;3;1.256637061435917
8;0.1981537048746103;-0.3078506768469602;0.4752383694442207;-0.7125848819087756;-0.4202299939251853;-0.7313534061398258;0;1.2566370614359177
9;-1.0652726813747544;-0.1529059973292725;-1.05282204496034;1.162638568822994;0.7628323697966071;-0.7721443541481742;1;1.2566370614359172
10;1.0250819127715962;-0.0435405458507154;0.9019990013143696;-0.2840950496319634;-0.2724459912234956;-1.393092261790582;8;1.256637061435917
11;-1.5459948427226229;0.1160336557573789;-0.0264013195958363;1.1482626951371084;0.4260508308908013;-1.1016081527834316;9;1.256637061435917
12;-0.2943424273176001;-0.0613637448564286;-0.1281657135102734;-1.3211607204236422;-1.1217369850338694;-0.953288890421447;8;1.256637061435917
13;0.6648523195185844;0.3828064728066918;-0.1755159052060817;-0.0406057016996851;0.68751077167397;0.6967363810106252;0;1.2566370614359172
14;1.983374328760712;0.9472673897111356;-1.027552327705687;-1.137425841577644;-0.0995440872330277;-0.9267547650705396;6;1.2566370614359177
15;0.9423399215740228;-0.0338011392197372;-1.154938368140728;-1.3241845169509878;0.5274587894789524;-1.769828439011392;6;1.256637061435917
16;1.09283608388146;-0.4195225276915212;-0.7607196315087968;-1.6665758859622468;1.591617769427491;-1.718525190671414;15;1.2566370614359172
17;0.5616098271360117;0.2930702756717069;0.7424501461592008;0.3067331450825621;0.7297420626030869;0.0;0;1.256637061435917
18;-1.0763351195224609;0.5120950156516901;-1.5972594323492808;1.4559333107281751;-0.0235718602890958;-1.1408210307335134;9;1.2566370614359172
19;-0.8884284000643354;0.7304996372974282;-0.85872876618615;2.1887907222618845;-0.62530511548201;-0.9138039624495268;18;1.256637061435917
20;1.3683399435235546;0.7204595174939902;-0.6407738727651107;0.1707220618724024;0.239443599382684;1.4097186371298696;13;1.2566370614359172
21;-1.2810267310726593;-0.3558937503354398;0.1935807562851705;1.3200106901122772;1.3179146463720723;-1.744183109119058;11;1.2566370614359172
22;1.1881727514085152;0.4581522948757316;-1.2095011553719033;-0.3502362225206294;-0.5756359621791464;1.8773386327321893;20;1.2566370614359172
23;-0.3506938771745875;0.1791258008142178;-1.1161485870227608;2.211418293670016;-1.3535098654576505;-1.537427286639821;19;1.2566370614359172
24;-1.9217273764082627;-0.0824503033021375;-2.1412180006395345;1.3998391636129666;-0.4201900176015662;-0.9071095423230916;18;1.256637061435917
25;1.8909501066926984;-0.6436590597421323;1.5092518290117047;-0.4470260684411116;-0.3224060839860199;-1.6604276685541268;10;1.2566370614359172
26;-0.0314683769547287;-0.4301182835693085;-0.1758321673379368;-2.0523002636153835;-0.3269853635623524;-0.4998721221739239;12;1.2566370614359172
27;0.0345888109571362;0.6263795751719784;-0.7038465543471588;-0.1655237943090056;1.4928755634737094;1.1200878959490266;13;1.2566370614359172
28;-0.7311728939454005;-0.7273864914075191;0.1062040958727384;2.1819592070085343;1.197989296277307;-1.1327760522889605;21;1.256637061435917
29;-1.167300567282621;-0.0447780868565583;0.4464742046443298;-0.7542184051845457;0.0537334673820993;0.9504689816008192;5;1.2566370614359177
30;2.654364103155469;1.004766986025721;-0.2964377083479115;-0.7287665617461363;-0.5978754247594427;-0.5075434726848401;14;1.2566370614359172
31;-1.8993831079357355;-0.968296608925144;0.940512402065044;1.4574360174767704;1.5461704946188002;-2.183320328938472;21;1.2566370614359177
32;-2.5726627102349147;0.6295190012625079;-1.743076514065304;1.0381240501979512;-0.9773343574752472;-1.1279156170818307;24;1.2566370614359177
33;-0.8341271462428128;-0.5477483084387579;1.1288202953128983;-0.7420070085552544;0.8885651340499894;0.7214189552775716;29;1.2566370614359177
34;-1.547626186118076;-0.9721065868717904;1.5639847163984348;-1.32823630096516;1.0857070115966545;0.1574348249547618;33;1.2566370614359172
35;-0.0344362675670951;0.2914805193604485;-0.9750229507609114;0.8906068735149595;1.7823125269059483;1.5553952400571267;27;1.2566370614359177
36;-2.509281623815562;-0.8279527434872612;2.187385974341907;-1.4515367838022764;1.4754926150089192;0.4363796916538666;34;1.2566370614359172
37;-1.8583611634987296;0.1096039478782504;0.4747050645214921;1.0756915512918066;0.4749305942938038;-0.3447237238603142;45;1.1502128558379454
38;-0.3029113617228711;-0.76795864190563;1.2997562910067082;-0.4704853070295333;-0.9962516283264322;-0.5165785629509384;8;1.256637061435917
39;-0.2829459593513685;-0.5775718195737413;-0.8162366888992032;-1.559866007111024;-1.9981028487582135;-1.0720198473044031;12;1.2566370614359177
40;-0.8188868207471958;-0.2966595650964806;0.3307456704607801;-1.5206270268264956;-1.3425947602193529;-1.927691855259575;12;1.2566370614359172
41;-2.763921390669059;-0.2929517428931366;2.5773097251557213;-2.039301833096649;1.6568282058338972;1.2716511095497516;36;1.2566370614359172
42;0.1293490926278074;0.8887566289683989;1.6612993837888212;0.3559362220555155;1.0807456731279812;-0.2598783007393223;17;1.256637061435917
43;-2.374669780506406;-1.2942764344844035;1.3440082373596645;2.0039749831993485;0.9161017750542578;-1.560041807848223;246;1.0640134918052382
44;-2.329292809431725;-0.516928966934626;-2.0033296780158785;1.5206341253517148;-0.598305703610976;0.169424527238476;24;1.2566370614359172
45;-1.882927588332176;-0.1862181198679939;-0.5947428882596054;0.8975530261022786;0.4831417772911882;-0.5883540326265356;9;1.0304279756314063
46;-1.8901441946216928;0.2469009594165718;-0.3908205250001547;-1.010294726860852;0.454297131776061;1.1613441401861118;29;1.256637061435917
47;-1.5847416998718684;0.817097424491426;0.3362761696306786;0.3736294927788692;0.9077717524886936;-1.451605826648868;11;1.256637061435917
48;-1.95288145683702;0.2594312641196534;0.4686366064116968;-0.0946766581363681;0.6888333257717721;-2.3723958712241515;47;1.2566370614359172
49;1.69146036253211;-0.2405716470229043;-0.6343502426496236;-1.6776745780146671;1.8508788766991529;-2.7699306949097013;16;1.2566370614359168
50;1.9890209557725995;0.7749000917734786;0.0483182018795906;0.7426707200114707;0.266096381225065;0.7866259607046368;20;1.2566370614359172
51;2.29207501440732;0.2401748997256651;1.5850983321410956;-0.6671535151326031;0.4354669042772595;-1.752584022180589;25;1.256637061435917
52;0.4785868005232099;0.0790875805005394;-1.071580404315286;-0.9466651761167072;0.0829589621700654;2.2286753944834645;22;1.256637061435917
53;-0.4118316236618417;0.446844621906135;-0.8587847988293378;1.7631182815875446;2.544946654378222;1.7924040319740528;35;1.256637061435917
54;-1.5032213488818604;-0.4959526076120057;0.5443903008523359;-0.4733774609075847;-0.982304209727168;1.2681200766976062;29;1.2566370614359172
55;1.251754040634442;0.6060434564660614;-1.3192845973937366;0.985764908885346;-0.379572239669338;1.1985288137472736;20;1.2566370614359177
56;2.5499347582862057;0.9867179215569888;-0.2508908490021539;-0.5353930992413052;-1.5942237110556696;-1.239477709739975;30;1.2566370614359177
57;0.908635617001923;0.2179413790901451;-1.0297640241632893;-2.075248982845645;0.3408560832690506;-2.7185325078431544;15;1.2566370614359172
58;0.6579936356626443;0.2990534159429447;-1.234501866493121;1.7497363141871456;1.759644048526056;1.0134786218642764;35;1.256637061435917
59;0.0795348556513808;-0.461275654104594;-1.4798567661061914;1.7955309431467508;-1.2107752398268323;-2.348788375768276;23;1.256637061435917
60;-0.5922640917954671;0.420289933178649;0.9600741319810958;-1.624377266209003;-2.1186948362689013;-1.9956072962449505;40;1.2566370614359177
61;-2.489855319538687;-0.9806309919328516;2.0355268111858;-1.2805758803179312;2.6065883841812805;0.909435925450396;36;1.2566370614359172
62;-0.2678507024047678;0.9022484770748288;1.133445812980141;-1.4086085874448862;1.0545714775498023;0.2421866727037822;5;1.2566370614359172
63;-1.692458841300878;0.5678749979738661;1.293531597986365;-1.5120225452081228;-2.5875881285220577;-2.0526027478052997;60;1.2566370614359172
64;-2.152107696660277;0.5592191851524296;1.591821082064432;-0.3914635760584696;-2.7089861385451592;-1.9608519202633783;63;1.256637061435917
65;0.3777817357077333;0.9606449266013476;1.3706364161659603;-2.0026469831758464;0.1964039513655168;0.1268922111092244;62;1.2566370614359177
66;-0.7105236975831347;-1.2060146392075086;1.963395246107678;-2.060249801596053;0.7298566231687447;0.1984362349623479;34;1.2566370614359172
67;-1.2065430874886642;-0.1276656960173841;-0.4393636163882443;1.8130362190558509;-1.409128233182663;-1.901704974910528;23;1.2566370614359172
68;-2.458691177494686;0.7084468609652368;-0.1355438746706454;-0.5730410631558825;-0.0238109900306151;-2.231152301827544;48;1.2566370614359172
69;-0.4035591524158198;-0.0376731856732432;-1.5947046151836035;-1.2750069783324465;-0.1317033197995343;2.828487840995556;52;1.2566370614359172
70;1.762666818925879;0.9552356063641936;-0.7016691853983241;1.220281584723656;-0.9769342338748588;1.8332582514611948;55;1.2566370614359172
71;-1.2724011790421836;0.5381030220749582;-1.5153882871038724;2.1331021060550657;2.448524548113669;2.2953108376219866;53;1.2566370614359172
72;-1.7908218586797615;0.0075763726400567;-0.3795565404721372;2.172296296728816;1.1176600563447456;-2.047755315915923;21;1.256637061435917
73;0.5780181897241099;-0.3964237609110372;0.3137061425587011;1.006688568975794;-2.128973260206268;0.7916072659717346;7;1.256637061435917
74;-2.673616167988116;-0.2598725690375044;-1.626820671812338;0.565667761283109;-1.698202291211254;-1.2747038813923597;32;1.2566370614359172
75;0.7116138606754707;0.3535909752748213;0.6843666917843221;0.736817130934003;-1.7207392999819398;1.580208555774121;73;1.2566370614359172
76;-2.4348144052862075;-0.3968248014738201;-0.6028198521771851;-0.1759123313296529;0.7483251423653853;1.362585395519225;46;1.2566370614359177
77;-2.888622042294502;-1.1311031470110071;0.0824629038777175;-0.0894081188248667;1.329686704315188;1.5002587182888276;76;1.2566370614359177
78;1.008134415382212;-0.7784498854783469;0.7270295759586018;1.373614435896257;-0.2649525417299155;0.441150935601702;3;1.2566370614359172
79;-2.7759971321674053;-0.8913928059942747;-1.166254083313293;0.0979736981748821;-2.4082245075849804;-1.7593131733064595;74;1.256637061435917
80;2.236400621794524;-0.9727755236082738;1.412154099914272;-0.951932807356157;-1.2993680655752329;-2.0246659168669563;25;1.256637061435917
81;1.7799032890495172;1.0281835089254272;-1.2893748100796127;-0.926774115023782;0.1516352947359764;2.0680133994507357;22;1.2566370614359177
82;0.1684542219004254;-0.15449111214376;-0.9260753283072244;2.484225161015569;1.1538114792321557;1.377004865759157;58;1.2566370614359177
83;0.0506639546820755;-1.1409871999408248;-1.308701813694875;1.0269548794682677;-1.8395427473186976;-2.031072106376106;59;1.2566370614359172
84;0.92832443369095;0.4406719800832803;-0.8711436880948358;-0.3307773145045905;2.205568854071063;1.5474720868096223;27;1.2566370614359172
85;-1.4220804672863792;-0.1346907150992953;-1.5753615173818267;2.366168853538809;2.2007087514554677;1.3029642067222047;71;1.2566370614359172
86;2.341111688791811;0.659382621700978;-1.0608734490504652;-0.906298628309578;-2.168916214887395;-0.6876923950979534;56;1.256637061435917
87;-2.2972438112570086;0.1136856230573731;-1.0628242456499666;-1.7375516378135258;-0.1258717408666789;1.4416524429336657;46;1.256637061435917
88;2.781507678235433;0.1041476326360583;1.027283796721153;-1.6137041031088175;0.4557662261980099;-1.4155946746245909;51;1.256637061435917
89;-0.7642626106058601;-1.4515998680017266;1.461471356846619;-0.8662805028098095;1.5738927317412852;0.3919100765223516;33;1.2353863130672
90;1.3068760458688513;0.772057503072621;-1.867935600754708;1.529657140742059;-0.6837656219354001;0.2716160304364561;55;1.2566370614359172
91;2.4712105085296368;0.0257249062803158;-0.7644748793110749;1.0556336407267777;-1.001153063900556;2.259253967576387;70;1.256637061435917
92;0.2769158814692212;-1.2638529827997889;2.321051277092728;-2.635079341397591;0.6730460705915557;-0.1746324352488515;66;1.2566370614359172
93;-0.8236547480404759;0.1302134317284819;0.1028781720875893;1.992114880671626;2.306226345940681;2.3168662423597386;53;1.256637061435917
94;-0.3944561620110483;1.0868523140004531;-1.4223032050257247;-0.3145428350594053;1.77919557586577;0.3699837770200554;27;1.256637061435917
95;-0.3592896767052485;-0.6286851192046051;-0.7455080733978502;2.124837210390242;1.9592841738626865;-1.4832773841204725;28;1.2566370614359172
96;-1.6095628934798614;-0.7570084682337955;0.7364598450815816;-2.0480696607690234;-1.1187235359360632;-2.4268199860156434;40;1.256637061435917
97;2.1063656125125187;-0.3414119720227349;-1.650163180498883;1.771611346055594;-0.9012423198363606;2.1945591420791404;91;1.2566370614359177
98;-2.297451453116493;-0.7986990192028497;-0.5648019569617062;-2.302448492973628;-0.3592481881788258;1.0879693892447275;87;1.2566370614359172
99;-2.5158496049858496;-1.028558872011099;-1.1325088220919948;-2.480256846596089;0.5016607507981236;0.4686695402564438;98;1.256637061435917
100;1.5542131982018743;-1.106021935328534;1.346181589480054;-0.814084901905354;-0.601620668783275;-2.762733367965959;80;1.240195023541137
101;0.1662792429190763;0.3767353700037275;-0.8128579572250938;1.9359809891292872;-1.2074637598367677;-2.984968418334644;59;1.2566370614359172
102;-1.9182104712753392;-0.1097713179412542;1.162680812155295;-0.7909538300568352;-1.7154311682884644;1.7551228487626034;54;1.2566370614359172
103;2.2744232197558194;1.1414776523179448;-1.0223809190324191;-0.2535289632435182;-3.0327354429645355;-0.2772046797727166;86;1.2566370614359172
104;1.905567211757048;-0.1649515622292058;1.4037498853058483;-0.5543275086775739;-1.3489618395072251;-1.3581432511208515;25;1.1820369602321106
105;0.4475850510914347;0.0534844601555973;1.3877244050209052;1.61820404368297;-1.5995790002188608;1.9450739974011635;75;1.2566370614359172
106;2.9282759235618863;1.2170070367037855;0.4329809990635307;0.4539606471294605;0.7726681542684523;0.670245876770157;50;1.256637061435917
107;1.161942265770978;0.1887157691880477;-0.7339214209528606;-0.9133808094431332;-1.2522408308782116;2.58779663043887;22;1.256637061435917
108;1.7779776240312208;0.3963977352824017;-1.6142711260258276;-1.6958552856621636;0.3761588246186484;1.4103467258280586;81;1.2566370614359177
109;0.0221129327137851;-0.2810297917413952;-0.6314263768333205;1.4274421759589058;2.4989958549263185;-2.2058708803353526;95;1.2566370614359172
110;-0.3135058928867794;-0.1388296463357569;2.100346047464157;2.047776147159984;-1.107390655937739;2.113244743973512;105;1.256637061435917
111;1.1767352392035575;0.0651871867727227;-0.7940745979935137;1.5546754551849635;2.226898739940553;-2.303021516701369;109;1.2566370614359172
112;-2.721328374984078;-0.0414855118398845;-0.4972184113997637;0.8924734349556346;-2.0801309637866043;-1.2524639012323782;74;1.2566370614359177
113;1.9278743709808328;-0.6221118264941279;1.7241703519565628;-0.0389402863228969;-1.1466351661384402;-3.168417428223844;100;1.256637061435917
114;-1.3613340700450556;1.280631071853914;-1.607581933646685;2.06915553629012;0.7051048640386107;-1.1529376374909264;18;1.2566370614359177
115;-2.8061268650109588;0.3801106989264395;-2.035214043094264;0.5986542035293835;-2.526895137744144;-0.7293654991917844;74;1.256637061435917
116;2.2264257877607503;-1.0393579044079395;1.4150304915390948;-0.7949712757653644;-1.5435791096607303;-1.3368077903095674;104;0.9817863492037064
117;-3.196360721266952;-0.174882391410979;-2.0014604782879237;1.618599875775591;-1.2621108697423646;-1.163574217592917;32;1.2337521891681644
118;-2.8592385855348;-0.755056664714284;2.1048080789977024;1.6585673575371778;1.307773879091925;-2.0095325789140777;43;1.2566370614359177
119;0.3234994952382213;1.3745032120238911;1.4980158696917938;-2.8647828865372005;-0.5842452257465888;0.3166143325394258;65;1.2566370614359177
120;0.6571727948756179;0.6688479585654806;1.2404269786175242;0.1810831834749164;-1.93703682565092;2.4812956916568507;75;1.2566370614359177
121;2.827036902700634;0.7908602116108914;0.4951340835181491;0.7213404660447885;1.0101889695131474;1.3469466286500154;106;0.8840506063689932
122;-2.707088098326836;-0.7185483690324556;0.0662054880933265;-1.9111310337857976;-1.1811705996603297;0.6660047031906591;98;1.2566370614359177
123;-2.6405202621722617;0.6502446068561735;-1.6459756429794044;-2.0810007205608527;-0.7011093533728087;0.8215868787897482;87;1.2566370614359177
124;0.2550569363494079;0.0619053626934394;-0.5866575080188083;-1.6637832777894417;-2.793948331131379;-0.6432039305070405;39;1.2566370614359172
125;-1.2031701289920465;0.6365707361575053;-1.6217609395102253;-0.7383554782436994;1.1988423942536868;-0.0376368366191546;94;1.256637061435917
126;-0.7408848876491183;0.9566413700482156;-0.1182379065278686;-1.4920513642656166;-1.9531994257202483;-2.2440423415805903;60;1.2566370614359172
127;1.4005427066692389;-0.4497945182588516;-0.3443590576463019;-0.8050780751799848;1.9645558546468165;1.5991005462527494;84;1.256637061435917
128;2.9177794342648222;0.5698653436785666;1.3054398522822848;-2.30913080623292;0.7143680058296233;-2.261650083692026;88;1.2566370614359172
129;-0.1645773286501954;-1.4169767520270458;2.3102685851791493;-1.3601906677300772;0.1078280281684373;0.6875689123742422;66;1.2566370614359172
130;-2.6103946627663173;-1.4516141385173251;1.7037696313919208;-1.143946058314853;2.738037031114455;-0.184535082006379;61;1.256637061435917
131;-1.161888409586793;-0.4073535922350499;0.7160387748583996;2.8020870711708263;1.6376222322544465;-0.5484253269472201;28;1.256637061435917
132;2.62668698018492;-1.376974307823992;1.7319253640256564;0.1436779207959769;-2.1117206221752243;-1.362757616939111;116;1.2566370614359172
133;-0.8470510383413542;-0.8249046700401591;2.373628107604605;2.566546567764381;-0.4964400724467629;2.439895772792539;110;1.2566370614359177
134;-2.478412463809192;-0.396449905796974;1.6416301573827812;2.429604259839287;1.375192961945239;-1.029214267183403;43;1.2566370614359177
135;-2.2527507981791066;-0.2791143077056206;-2.3505010821262675;1.2563783272662885;-0.6915061573911672;1.3173255583839816;44;1.2566370614359172
136;-0.5719969468623005;-0.3258643693732649;1.8079679049982709;-0.8971717112029465;-0.2856728437909876;-1.121574236575413;38;1.2566370614359177
137;2.395533370587349;-0.4632966169153747;-1.3689554560790471;-1.8405425948663563;1.168662963483597;-2.7227912365619544;49;1.2566370614359177
138;-0.2939665482083007;-1.3002772491777208;1.4051887500266265;0.054418203590413;2.030644678146324;-0.1330504958615233;89;1.256637061435917
139;0.9430714139604942;0.7973817688880335;-1.5224022500536345;1.7777214320598582;-0.6876152046413145;-2.9782213404070657;101;1.2566370614359172
140;-2.39545236580101;-0.9219677402378288;-0.4597157718604936;-1.8528282231564952;-1.0341314556979166;-0.4012476261813181;122;1.2566370614359172
141;1.2729113249460542;-0.2508086368127469;0.1375664351631113;2.1292486978458407;1.8345558482268824;-2.646549002735404;111;1.2566370614359172
142;1.180953137711025;0.455919409133546;-0.3136286882332877;0.2921160481799247;2.603444202811932;2.3586188358656;84;1.2566370614359172
143;1.1652786461776083;0.1372427540366946;0.4827155035763945;-0.3224823370647089;-2.2589464314336496;2.808450620374636;120;1.256637061435917
144;-3.1642986139736;-0.9460234665041668;0.512870604497749;0.6596498424802469;2.153108721181592;1.711261580490056;77;1.256637061435917
145;0.6403036255257548;-0.8328358201645026;-1.1223168415089466;1.3322455092458123;1.84834891860207;-1.7377792343086278;109;1.2566370614359172
146;1.6989386631819523;0.1514078360393748;-1.8056226515906888;2.146632792354169;-0.1007267018437698;-2.805676907023189;139;1.2566370614359172
147;-1.9076785871776416;-0.5671472716405491;1.6283660006184624;-1.5641143614049495;-2.190177560280265;2.329412829409664;102;1.256637061435917
148;-1.1948140284876498;0.0905047740118181;0.3874092299457178;-2.653200979416546;-0.672277666211802;-2.3879969509510177;96;1.2566370614359172
149;0.1566439606939457;-1.190807224308755;-1.5185186602232583;0.4486765867564073;-2.8773529737906904;-1.6994941387828175;83;1.256637061435917
150;2.399759205451321;0.9696723396167256;-1.9417716227453603;-0.9273577914852208;-0.5894985282318601;2.5334062493534235;81;1.256637061435917
151;-1.7365434006434028;-0.8262747682925247;-1.7691185743895157;2.1964784391038767;0.1827856596476489;0.0676113528090277;44;1.2566370614359177
152;-1.3537254992333472;-0.7455334036383855;1.5919141769334493;-0.5084144396771855;-2.5270457033183438;2.434958376270883;147;1.256637061435917
153;-2.1120215213385656;0.5380055180758044;0.6332577038370673;0.0195459924227286;-2.1421203902086154;1.807052318275152;102;1.2566370614359172
154;0.7601443335963005;0.0425032520626374;-0.4314090471562922;0.3138864733752488;-2.640095090675633;2.9504508390868467;143;1.2566370614359172
155;-2.8940265684790107;0.204190490357878;1.7856876752648403;1.9509417205258963;1.09069525344531;-0.1837419769581388;134;1.256637061435917
156;-1.3880173348232754;-0.1380028711913159;-2.2693463554915385;0.5964721933614088;-1.2540887757049075;1.0873279358688603;135;1.2566370614359172
157;-1.9458808082825652;-0.8416029978594434;1.4954760427835645;-2.419893108127267;-1.296506353451598;-1.5824825325461398;96;1.2566370614359172
158;-1.0018494422533484;0.1995224743557413;1.5654032784030742;2.8287389590363383;0.9614601443761835;-0.471613083027061;131;1.2566370614359172
159;-1.7017395050131094;0.2548048122513288;-2.078677633820744;0.3694818344659263;-0.5669440588588435;1.9627536503584264;156;1.2566370614359172
160;0.7611767541130279;-0.6681342033220101;-1.058776304654332;2.8274453426847064;0.7252165542388257;2.1800517055562616;82;1.2566370614359172
161;-2.650707153845256;-0.7139869408079166;-1.4847979210897415;-2.328271796892876;1.0868197891334583;-0.5174219773206848;99;1.2566370614359172
162;-2.567477005093191;0.7571724426668315;-2.4458156931259114;0.8590602109951255;-0.8380353048521969;0.8506602198218194;135;1.2566370614359177
163;-2.378487189605699;0.2154357613836642;1.0535406838272705;-1.3331615749169337;-1.1254802683550045;2.5345967301494405;102;1.2566370614359177
164;-3.3355948090178176;-1.055450157463958;-1.6320236051195325;1.793864305142859;-1.305643124780129;-1.57781420077718;117;1.065587521585343
165;-0.5335953986046219;0.600056741665884;-0.7131418290143535;-0.3250556824033775;0.0366830155294696;-0.5645940603323749;0;1.2566370614359177
166;-0.602598120371795;-0.0593357536034768;-0.4773717727092796;3.078934531860897;0.9443010379139098;1.990724431842108;82;1.2566370614359177
167;1.6053648656155184;-0.6510281878037224;-1.861372157325136;-1.7392895263702777;1.3769908319280348;-1.7102727354704264;16;1.2566370614359177
168;0.2198315992623618;1.0464321705719748;0.128109137259373;1.7636772706109132;-0.7495521337148591;-3.039597558522109;101;1.2566370614359172
169;-3.347523927135425;-0.4599641734873522;-0.6867921353672842;-0.8546685146728566;0.2525782816997296;1.1935138072166134;76;1.256637061435917
170;2.0142165826118243;-0.1714604768257438;-2.019165806055981;1.7678851490417624;-0.9950613662883442;0.381396226632355;90;1.2566370614359177
171;1.22105138847891;-0.5240313596554119;-0.3645451103024073;-1.72821257140558;-1.485895401428;3.0489367703107195;107;1.2566370614359172
172;2.535197388669415;0.4427735896391924;-1.773236106101947;-1.43236201058208;-0.7044455234732443;-0.8210351751146024;14;1.2566370614359172
173;2.1790970616385272;0.2718073333202792;-0.1716842579083672;2.22676514691484;2.0320295439325715;-2.062857857478387;141;1.2566370614359172
174;-2.140704536467382;-0.1347113608538397;0.164277191946181;0.6046018158195118;-2.892199335790209;1.8372934821392224;153;1.2566370614359172
175;0.2902841562017241;0.3277855084816649;-0.1665015902072737;-1.913885749762068;-2.4848383190235213;0.4396498241095358;124;1.256637061435917
176;0.9447579127739458;0.2675309611325502;-1.9608058907544008;3.085300066966852;0.2018914721314182;-2.7953004750403387;146;1.2566370614359172
177;2.803495906325781;-1.568394607422449;1.00561409767498;-0.062794679476094;-2.557794372529785;-2.2242056975954148;132;1.256637061435917
178;-1.8810585850264725;-0.519910235690271;-0.1137552481651545;0.7234445650510553;2.132295581058546;-1.4637652014098064;21;1.2566370614359177
179;1.4114173262160414;0.4004189120959052;-1.4304810408000108;-2.55402798043276;0.3474102670876919;2.23113197992302;108;1.2566370614359172
180;-1.5408423682308312;0.5789359093716419;1.0927217240782363;-2.1358501237691043;-1.0459323755207313;2.83985657386125;163;1.2566370614359172
181;1.758166907103737;0.2495716660343364;-0.9183754964598494;1.4896286029723518;-1.780922451952266;2.6126971823802263;91;1.2261883954896633
182;-1.1695437244985192;-0.3590488975208984;0.4966712815226019;-0.0175166642526366;1.2058422589605018;-2.928240405482148;48;1.2566370614359177
183;-2.1164313855619463;1.1592954708102323;1.5881929206576064;0.2925637545243808;-1.886457832889356;-2.231615636900865;64;1.2566370614359172
184;2.434844425324279;-0.0561527038835853;-1.421845209156753;-2.487733104469707;-0.9708329347022052;-0.7119820714311572;172;1.2566370614359177
185;2.029152296288238;-0.4730477194920688;0.9039436691860616;2.389079950821316;1.377534571273198;-2.3397407643718813;141;1.256637061435917
186;0.4746098087136398;0.716443700847471;1.3039352163861009;1.3559597382790969;1.5607431110896313;0.0086105729802877;42;1.2566370614359177
187;2.2310708842582616;0.3845477573366824;1.5680711046792768;-2.4053144379125677;0.7079864655321054;-0.9521090477364836;88;1.2566370614359177
188;2.024338874379714;-0.8290229832586085;-0.717958269317538;-0.4432746097109944;2.7182935175866274;2.0547344272770203;127;1.2566370614359172
189;1.3624432070424355;-0.7423477704099078;1.5263189877901864;0.2862012893369042;-1.775177119763924;-1.576306786469526;104;1.2566370614359177
190;0.9493989755865286;0.5590575747658354;2.051358353110728;1.1224706879206303;1.9990216983677271;0.7322782843619684;186;1.2566370614359172
191;-2.507340960962425;-1.4857350150432036;2.155293110018355;-0.001684076372652;2.8125375396134973;0.0460428692289032;130;1.2566370614359172
192;-1.257165823404933;-0.3915844723277404;0.9546499755785932;2.384480284574359;1.326029760309063;0.5657513428651478;131;1.2566370614359172
193;1.83791927680741;-0.9269659556296592;1.282801894297154;2.071790565373481;0.000973391987801;0.4797175663052557;78;1.2566370614359177
194;1.404866035933754;0.3058767689394481;-0.5510067079554043;-2.443396441524694;-0.6211808958843108;-2.90535642039224;57;1.2566370614359172
195;-2.7621197803736397;0.3215028202528105;2.4819445124779143;-1.0170912983385656;1.465091561803115;1.6045282736509934;41;1.2566370614359177
196;-2.246827315445887;-0.2718917658339181;1.0986435166797612;0.1667070724645082;-0.4735764467407606;1.2515419014057336;54;1.2566370614359177
197;-2.605524162123052;-0.0795360719515719;-0.4024596719853309;0.7590042574543482;0.4783130080604608;2.042440499751912;76;1.2566370614359177
198;-0.6595137154283315;0.1833182070239307;-1.3657070570205898;1.122507700336865;2.886408264308016;-2.547427941596539;109;1.2566370614359172
199;-1.151524052610514;0.7720828355149335;-1.8876112011345196;0.2380467182521187;2.3697119379257336;0.1793827038877614;94;1.2566370614359172
200;2.608041798522208;-0.8664994152377722;1.4391908536431208;1.5149136581856015;1.4153829561288167;-2.1470475999716507;185;1.256637061435917
201;1.9348913777522028;-0.5291676435307983;-1.4196762059775487;-2.627234336723756;0.7594130953668041;2.7466494011356946;179;1.256637061435917
202;1.5715407353192412;-0.9726338372523406;1.3416801530179208;1.014855943379212;-2.121040071405224;0.0048238620897566;7;1.256637061435917
203;2.180309393893098;-0.440411503149852;-2.0461524679004617;-2.513263670243908;1.4524429781627397;-0.9583795643412274;167;1.2566370614359172
204;1.8153386061682264;-0.8337851436862853;0.3995852402278674;0.0526810588679757;-0.5004086944129874;0.0290829348906312;3;1.2566370614359172
205;0.6496775700722822;-0.7200058371917931;-0.2658885745522611;2.404171745027563;1.9171764000355067;1.3243476008810835;537;1.2057144076727802
206;0.3137616539693101;0.175054638884558;-1.919648015080716;0.6065373465280257;3.009987219222201;-2.338967576500633;198;1.256637061435917
207;3.1755389994826757;-1.0119182991475992;1.7894881464141896;2.293290826471785;1.988786102642035;-2.5696190157294305;602;1.1998718860936022
208;0.3222459775594531;-0.4248292460818719;1.2183508538766803;1.644823486455546;-0.3586289922647586;-0.3712036506493086;78;1.2566370614359172
209;-2.9839603545057694;0.8501919686615758;2.033540333369764;-0.9736123664589834;2.413484888616035;1.2198145872613428;195;1.2566370614359172
210;-2.36216628072856;1.275586894300353;-2.170674809838048;0.5318166983508584;-0.227451898404266;-0.7874554939829572;32;1.2566370614359172
211;0.2782787059496169;0.882691823401093;-0.7654574248054631;-2.452503616343253;-1.7191987578785222;0.6294136758070933;175;1.2566370614359172
212;2.740599425004476;0.7137473180320665;0.4526046869812256;0.4319188528532176;-1.7481072385206315;-1.1211890086217806;56;1.256637061435917
213;-0.77940287878109;-0.0116988834598306;2.210232876688529;2.0923377773853287;0.289298827991614;-0.1974835111629375;158;1.2566370614359172
214;0.0350932969807877;-0.3696443860914339;1.6382267498590528;-1.1998764945356075;0.5753392773316521;-1.710537165646859;136;1.2566370614359177
215;-1.4786555041389733;0.2314870653385421;0.4066516610628141;2.241683194729465;0.639792849160866;-2.809501945370624;72;1.2566370614359177
216;1.4949507007779728;0.2559096020043247;-1.4830966835009924;-0.9416035462860112;-2.5368465951714776;-0.0668331942839263;86;1.256637061435917
217;1.8018046449639888;0.2966477777137433;-2.578581990335262;1.6568615451059991;-0.7881662741764834;-2.318290536967273;146;1.2566370614359172
218;-3.099232095363229;-0.8593050810434483;-1.7647142765022197;-0.7765646143853006;0.3680452075020962;0.773197572152498;169;1.2566370614359172
219;0.4448253690491776;-1.606363383378691;-0.6055421943564733;1.8963566859195;2.475603876011533;1.5821471714777808;205;1.2566370614359172
220;1.7839628522457749;-0.1728454865361097;-2.1018084853754977;-2.44562279054787;-0.629200544242196;-1.461005869932792;184;1.2566370614359172
221;-0.7819142746764906;-1.32779373778861;1.5956115912946307;2.0384580265417216;-1.0039718728615603;2.864419925554886;133;1.2566370614359172
222;2.793660106193584;1.2432132810402947;-1.8052647380980709;-0.0570756164241461;0.141644259566682;2.729771134195068;150;1.2566370614359177
223;-3.140524488988324;0.6219041141882088;0.2608791836394416;1.3592520808817377;-2.087464402520163;-0.8393325915548733;112;1.2566370614359177
224;-1.7017682994384205;1.0867772824158712;-0.2030467563616757;0.7469198216856172;1.8115525122442704;-1.9472667021851648;47;1.2566370614359177
225;-2.8877185584662795;0.8747275146022954;-1.0709045408689328;-2.4357660877388443;-1.7065049631442597;0.8374475292899051;123;1.2566370614359172
226;-0.7387512374831875;0.9571946158959136;-1.1590886984977269;1.501590681428158;-0.8723831549672678;-2.937282779104038;101;1.256637061435917
227;-2.310982502965837;0.0827052931030328;-0.1064046980775257;-2.3442505244974967;-0.6774499028166905;-0.6640922937054121;140;1.2566370614359177
228;1.966236953557543;-1.4180615986160687;1.307215886171451;0.8975570687497572;-2.13378090230972;1.1047495725077092;202;1.2566370614359172
229;-2.50001852161363;-0.7838836841489986;2.143562665527777;-2.297904607672858;-0.4453474652559338;-1.9131903520571332;157;1.2566370614359172
230;1.3927310657826064;-0.3970974932142194;-2.256373153309898;-0.8618700401486838;-2.60772889660354;0.6631882797650033;216;1.2566370614359177
231;-2.253535486124989;-1.3862048344264937;-1.0580236896127162;0.7389603511631667;-3.129209542983714;-1.6878693201689456;79;1.2104984378000294
232;2.826690657934108;0.4776457022749815;-0.3705841498327509;-1.310852377662607;-2.7842691034146267;-0.1477857079105541;86;1.2566370614359172
233;-1.730208781399246;0.4666059886364804;1.475112176503174;0.5232416765155323;-1.0504500892128372;-2.662012639230296;183;1.2566370614359172
234;1.682975302561569;-1.1419154579294182;1.2020724407671053;-0.0275864189998567;-2.848279410888436;0.8921722584900125;228;1.2566370614359172
235;1.2060924580084469;-1.0310347786091405;0.4910512152285443;-2.3870172294885834;-1.6487028668949564;2.6893737756115943;171;1.2566370614359172
236;-1.139269126853767;1.442851757804669;1.4643909574158318;0.1668113193068205;-2.086925595348545;-1.725564844252657;183;1.1673326763732277
237;-0.5013803496546431;-1.0419793796502144;-0.3241846663651866;1.3666043993313757;-0.1079848985774587;0.8696886874134029;1;1.2566370614359172
238;-0.3319046932601276;1.2579250282426198;-1.3812834443062325;-1.900287613519696;-2.211084532096204;1.003415213960592;211;1.2566370614359177
239;0.2804520336342588;-0.3787851147530688;-0.5883814747315398;1.7420916040464032;0.297438153056943;-0.2700684536627017;1;1.1427470733549885
240;1.242094594079323;-1.128593576263093;2.367207479677614;-1.2123469642837124;-1.0770191739533457;-2.5301416126114624;100;1.2566370614359172
241;0.6790243213994043;-0.3850055321078521;-2.161833697926257;-1.0858878978218889;0.7194410425587157;-2.298010608310224;15;1.2566370614359177
242;2.649526906861911;0.3211494412280095;0.2919527517394514;0.9531435936055368;-1.4135134548709327;2.663580158867352;91;1.2566370614359172
243;0.7762066684971435;-1.2092225639328726;0.3459113880612595;1.963859464366859;1.5234892613358169;2.099351100080121;205;1.2566370614359177
244;1.6047956504211671;0.506335649507822;-1.6284921186528618;-2.430073184434926;-1.105545363576495;-3.226634856672057;194;1.2566370614359172
245;-2.8181237043633445;0.2930870732564563;-0.9618321690476868;-0.5770795209545665;1.5088076139366948;1.6593576032105075;76;1.256637061435917
246;-1.9900662801919091;-0.6077365055193327;0.9112023565062904;1.6863880058501577;1.158061110613212;-1.9676458381016748;21;1.136161827506991
247;1.0650516385532167;0.4738996325167687;-2.02398778172738;1.90623865485933;1.5510362567726723;1.845086151434256;58;1.2566370614359172
248;0.8542359609286525;-1.189007381743634;1.9218858661651752;-3.0464380649691063;-0.2795258569761512;-0.1091033264468067;92;1.2566370614359172
249;2.793353913343908;-1.3886593382784744;-0.0681035057543734;-0.4494240785997376;-2.581891378188719;-2.7179633581090377;177;1.2566370614359177
250;-2.691868342182467;0.5873644434935323;-0.3259441071320261;2.3391600279463463;1.4131247239245557;-1.4882192902257303;72;1.256637061435917
251;2.708584579174764;1.1806053323654668;-0.2129379199102062;1.605683578686403;0.9724354157313356;1.705206950671253;121;1.256637061435917
252;-0.1734050520270514;-1.0401972231450112;-0.4080853643665073;1.2256919567900324;-2.2338000419195443;0.9334572844628;73;1.256637061435917
253;-2.70757745158219;-0.5592657329988371;1.88569885465324;3.2244996143041287;1.2234303073942483;-1.9155838639726968;134;1.256637061435917
254;-1.8618126712150007;1.1926089157623163;-0.3173714490597829;2.084057036437837;-0.89614144417827;-1.1156097426274751;19;1.2566370614359172
255;-1.7823548454689837;1.0973654692928778;-0.8126692464957394;-1.132101346222669;1.2874336278597458;-0.5000613162492092;125;1.2566370614359177
256;0.1858680099563316;-0.3574924933355057;0.8272133948847468;2.4312374919454824;-1.1311567124242776;1.5615072912433494;105;1.2566370614359172
257;1.0349838865028915;-0.431468307170896;1.867045220341303;0.2097959601830665;-2.3916780012538066;0.0365792023339535;202;1.2566370614359172
258;-1.9065699487458505;-0.622330327122912;1.8549514913249656;0.0510333703996999;3.1864801541432537;-0.4437794902616768;191;1.2566370614359172
259;-0.7730783227237512;0.4472968316960503;0.425224327935968;2.0239597483584544;1.4162796406789688;0.0938800264070569;192;1.2566370614359172
260;0.7797772107904177;-0.3085784225556738;1.2931685421203536;2.337973674946724;-0.1943373412017402;1.9087436745967288;256;1.2566370614359172
261;0.135163822491383;-1.4793594952358906;-1.1051573016298035;1.2884220014533216;2.7627817460006323;0.7072497614060994;219;1.2566370614359177
262;1.3305219050484915;0.0472608866384804;-1.7694191770245211;0.9086418841611326;-0.9939206558436372;-2.1235510269873448;217;1.2566370614359172
263;-0.0145907478041262;-0.0351983588979289;-0.6717874009224725;-1.8229449712562356;-0.5547764023867567;-0.0853801299693789;26;0.8237198638442738
264;-0.9043834072652428;1.1243037206526203;1.4820383335555265;0.6453051872287787;-1.6778560171765386;-1.6342470748340872;236;0.7493923001746015
265;-2.873658646495699;0.9853776441297496;-0.3084954795543753;-0.9764061365563638;-0.9427173389907048;-2.7726719477783472;68;1.256637061435917
266;2.8046771218226976;0.4306114207073126;0.582174797854031;-0.3668254718376167;1.440365850670097;1.078387120115346;121;1.2566370614359177
267;1.2453549336866672;0.2215169593567964;0.5058095630804443;-1.6481048927336974;-2.1837341764549167;0.6455091308355749;175;1.256637061435917
268;-2.3474976907456035;0.7126315261549472;0.328650268386577;1.1220698645139768;0.7758821409447775;2.4031949480505155;197;1.2566370614359172
269;-2.2684063328273933;-0.295067280029883;1.3583412902782523;-0.4013990240904087;-3.2298172358104744;-1.2467585029659107;64;1.2566370614359172
270;-0.5728149011500101;0.9202773988215468;0.4222016376719188;0.1447422816036665;1.0260375232178691;-2.137707435068662;47;1.2566370614359177
271;0.9143481360674154;0.0071473731462076;0.5014366517590938;2.0796649246362198;2.4519161655681243;1.3071688899545593;205;1.2566370614359172
272;2.675840588155592;-1.142723546568528;-1.5823801080598274;-1.4575206888889112;0.2681680196678372;-2.533591318892643;137;1.2566370614359172
273;-3.1057831363929367;0.7616898562313498;-1.4933067447959123;-1.5445802680549623;1.3796664860140877;1.455397224952391;245;1.2566370614359177
274;-2.6729992949380925;-0.6127771614178291;0.4438408052343318;1.190930413917764;-2.1672309995913657;1.4912646433172014;174;1.2566370614359172
275;2.8492315001320754;0.9762837038350812;0.22258609036673;2.055175961090399;2.012393941879901;-2.73255336203004;173;1.256637061435917
276;-1.6479022655497764;-1.0074482245397889;1.1809719298889392;-0.9309910053804796;0.9582171046746546;0.3364223722477347;33;1.0320186372677085
277;-2.5209756181211;1.314787686388923;-0.3966292337033627;1.468588834227008;-2.179196672932977;-0.3269639720903283;223;1.2566370614359172
278;2.537121865807189;0.9628082395254176;0.0774834410787726;1.453652881254304;-0.2648151688728083;1.2676679158624466;50;1.1641901738997638
279;2.387111211641188;0.4123992151445006;-1.3063967175278153;-2.9425477114504424;-0.1377229340047176;2.674182020381639;179;1.2450358017108083
280;2.801482256771161;-0.0027187271893152;1.4483087488239272;-0.9417120177933872;0.8848501416567602;1.032876514414961;266;1.2566370614359172
281;-1.6806909688282732;-1.5673810838757962;2.1905749719030627;-0.9352824216215838;0.5896091309781741;0.800814599469427;34;1.2566370614359177
282;2.086849938760428;-0.9141783624157572;-1.6118435129804358;1.4007602104716756;0.1100480681669356;1.8962517601088225;97;1.2566370614359172
283;2.9711531871214305;0.5146441822468504;2.11502977191748;-1.727860399757572;1.0200652662374723;1.482159018517798;280;1.2566370614359172
284;-1.0209471174746894;0.8146310710438204;1.066601865430457;2.2162172722157623;0.0109101773201605;-2.364634993164;215;1.256637061435917
285;-2.5438338465956343;0.0953961325442539;0.2844357245556467;-1.1981508832203824;-0.9967228645959968;-3.296723922590788;265;1.2566370614359172
286;-2.2717236119204083;0.2297126318559169;1.913953222790035;1.1481628663570036;0.6141821636267346;0.3669427700386991;155;1.256637061435917
287;2.294510485133603;-0.8764493479378825;1.6193043918199908;-0.4803491557404029;-2.376668174992144;1.6223745691635945;234;1.2566370614359177
288;0.6042425930194766;-0.8487962290015546;-0.3989522716124642;-1.0605943169562353;-0.3534121656449333;2.444431615307013;52;1.2566370614359172
289;2.776143325428272;-1.0295331044256202;0.0715314721892468;2.4791142150273697;1.4722645364818;-2.301333445208088;185;1.2566370614359172
290;-2.098059286077976;0.6423705830879299;-0.9458532379314232;2.5149428836069485;1.850780658974675;2.538381530097391;71;1.256637061435917
291;3.1419944128890123;-0.1613805315562868;2.05058999890421;1.392726520876597;0.8015413367595222;-2.323961490441696;200;1.2566370614359172
292;-1.7491110050173504;1.3804427599052185;0.6578719032161233;0.0091501768838478;0.9161618935389764;-0.4523950947582917;47;1.2566370614359172
293;-0.7112423552248652;0.4713251546659257;-0.0126110807084546;-1.58701370131648;-3.1340459835114176;0.3806624995505324;175;1.2566370614359172
294;-2.403796830309713;-1.2416027349833194;2.185568281508968;-1.1566967162698132;-0.4144723644824762;-2.1483459723980523;229;1.2566370614359177
295;1.7362261702714905;0.3120422772165916;-2.6629227122172283;-2.7673700304378697;1.0295422602630315;-1.3964657537134892;203;1.256637061435917
296;1.975410183145116;-0.9872171209208706;-0.363244436089175;-2.9146925088423976;0.9976536265757284;2.4116169086987216;201;1.2566370614359177
297;0.8252183560437645;-0.868813895849002;1.1056653034292834;0.2893458856649804;0.7073883092680754;-0.164149815967231;17;1.2566370614359177
298;2.761118173781279;0.9735599519097272;0.6065390056440525;1.4980410772884771;-1.7136400567592565;-1.712554142768982;212;1.256637061435917
299;2.7235034218847285;-0.914901881426043;-0.9770414958739096;-1.6247444678078768;1.3334498061693754;-2.784360502941733;137;0.7366291681791265
300;-2.441207840548908;-1.1066766575856888;1.0059093686304428;2.073971588586203;2.2366644325452265;-2.819904081042888;31;1.256637061435917
301;1.7797095472578754;-0.3455181227278353;1.798388414416754;-1.8461634282403376;0.3359697987062153;-0.6398724511927745;187;1.156852303957934
302;-1.9182221664555748;-0.5346626139432987;-0.1736004111231551;0.9336806915400764;-2.3564243126998767;0.7700565437221893;274;1.256637061435917
303;-1.3034919315515303;0.4808022520322776;-0.5100256566812108;-2.027925776949473;0.4648388608874928;0.8002734183802254;46;1.256637061435917
304;-1.907477819187124;0.1493946501435494;-2.311275985284119;1.8493702401026488;1.8973079658424723;2.378614177679328;71;1.256637061435917
305;2.491623744205502;-0.7530354501711491;2.0628483100756854;0.9783588162379656;-2.7000680093241884;-1.5014662575086533;132;1.2566370614359172
306;-1.978182183338597;1.29724136252203;-0.2831321947576812;2.8855617553187094;1.1777437298013254;2.2122309368261206;290;1.2566370614359172
307;2.4903981021287507;1.585436422827818;-1.3340960210898565;-1.361412022702526;-0.6331270980866209;-0.2296506065513489;14;1.2566370614359177
308;1.7023252549098995;-1.4205977128135363;0.7747346633829519;2.1725472345779666;2.0022446815721864;2.56851511746829;243;1.2566370614359172
309;-0.0691306860825416;-0.2834578831088891;2.3409494942533446;1.034161573217068;-0.8080590551003605;2.6820999146675923;543;1.2018799902092234
310;-0.0858963162841555;0.9754785840130286;1.4191998585195744;-1.6786076055842372;-2.5340560217414727;-1.202996631916427;60;1.256637061435917
311;1.923061214827861;1.346341688040455;-1.1029657114802245;1.4369953313137755;-0.8396811031439991;-3.025701635550435;139;1.2566370614359172
312;1.018886322538755;1.011939630267979;-1.83853000442805;1.2373153593143535;2.208580619316709;0.6792374706638158;58;1.256637061435917
313;0.3335154635755878;0.7262675159881581;2.1628845948996425;-1.3407176205140716;-3.079024229643629;-0.5890769874159489;310;1.2566370614359172
314;-1.5194364716329416;0.9255613544250408;0.9231076911622538;1.3522737676198822;1.270909344626748;-0.0658166186292716;259;1.2375269215870688
315;0.4786321340332522;-0.1167486406959594;2.023345148330049;1.4176138269323766;-2.42223924727234;2.599423619336223;105;1.2566370614359172
316;1.5237152800838814;0.117669536537238;-2.189647912025396;-3.351626421462961;0.0368633965330888;-1.715320688943216;220;1.220247238031045
317;0.1705484612250453;-1.195331141118837;-0.3673605269206891;1.007302655285907;-1.33150798948234;-2.6769840214633334;83;1.2566370614359172
318;1.702800308799604;-0.5261056447289519;2.541294589268659;-1.1704783759087838;0.980463239433054;-0.9816006332238524;301;1.2566370614359172
319;2.255792649682004;-1.1185256222243825;0.5297154577363237;-1.1711752301262288;-0.1953965285327798;-3.119970175046964;100;1.256637061435917
320;-2.8045404009947283;1.366803418410079;0.2845547422934906;0.8383017868330331;0.201595296722486;1.675160825370261;268;1.256637061435917
321;2.214788285088453;0.454933572437137;2.351878020440725;-1.3515344833539262;0.9883241444532648;2.379241899429813;283;1.2566370614359177
322;-1.3658524056681205;1.0344729418772065;1.5961713259093209;-1.836593815200381;-1.4879440981454546;3.370698331693266;180;1.0287461541019696
323;-2.312478946124195;-0.4178996826702063;0.2690370244023652;1.524280887370704;-0.4374216101459707;-0.2078464674604256;37;1.2566370614359172
324;-0.9786013614297602;0.4178884017089019;1.4785686107667948;-1.4972779013322095;0.3315328743451902;-1.0163737766690906;136;1.2566370614359172
325;-0.6645881151544817;-1.4917311605664934;1.8746389824656235;-1.4092294888483057;2.290750871983885;-0.3750348347691521;89;1.2566370614359172
326;-2.188846743813511;-0.8068267838060886;-0.2822509928785642;-0.2238916687758837;-2.2632739925214937;-2.1737715657095027;79;1.1957182694279824
327;-2.899632196989653;1.1145053524618904;-2.374746336855964;0.4501414812516722;-2.6537049308436718;0.2074584005423297;115;1.2566370614359172
328;2.863095529853947;0.0066313774308827;-2.29539372296065;1.5359378404019934;-0.2676519884948465;-2.37247162826411;217;1.2566370614359177
329;1.4328495314389165;-0.7484687922391184;2.339520613161762;-3.066121829430575;-0.8128189210111405;-0.8779082865783923;248;1.2566370614359172
330;-0.182904045912826;0.857973258568725;-0.7163390896151547;2.449558794121321;0.2776949559424616;-1.3155982250585097;19;1.2566370614359172
331;-1.0208621810584588;1.2861700518863557;0.6399567406251716;0.8979433806723294;-1.7272859301097752;-2.5083168134772467;264;1.2566370614359172
332;2.590306801656008;-1.4416514641510096;-0.9753591822973268;0.3580868835225234;-2.392956459027745;-2.562344628646259;249;1.2566370614359172
333;-2.147720031470797;0.8354687892887438;-2.115758001454044;2.2112032486324438;0.9477569656611154;-1.8050602142604515;114;1.2566370614359172
334;-1.7422445960308035;0.5843468424251348;1.3086108509343264;0.2418991841843552;-1.5868467473136558;-1.0141860133506948;264;1.2566370614359177
335;0.1108612352539493;0.6365476371661795;0.4505560344386692;0.708996784175858;-1.5057554876531605;2.918382184776205;120;1.2566370614359172
336;1.5969412084572;-0.2004915024611375;0.5779745081656564;-1.4359981727899112;-1.3434403987294803;-1.2053525866344652;104;1.2566370614359172
337;-2.0871611525549745;0.8341973128601238;2.272207634911552;-1.7557451658182628;0.9550957236699292;1.7094904739442638;195;1.256637061435917
338;-2.58345621745244;-0.9177857233531062;1.331627945503114;0.7764238039777808;1.45819739481894;1.9834011612174467;144;1.2566370614359172
339;2.672898782037499;0.6250546869962658;-1.1372747827741572;2.1193158246792803;1.858436508912071;-2.549137521724304;173;1.256637061435917
340;1.6083123329278073;1.2711532330883235;-2.2883802967303866;0.8309062428974406;-1.330780713290049;0.6659778354392875;90;1.2566370614359172
341;2.885689458750169;0.1470620333509439;1.9058136952432565;-0.6025509417221422;-2.3514610853622244;1.9129125578800008;287;1.2566370614359172
342;-1.0356363199608096;1.1523324574473737;-1.857398695090381;1.048323865806315;3.1082574676241275;-2.997093256853223;198;1.2566370614359172
343;-2.792092701058229;-1.5077945023099706;2.077770976152085;-0.5847240274347658;0.351922068426981;-2.805134767469534;294;1.2566370614359172
344;1.4615038393674609;-0.4119464412249899;-0.6812702266893994;-3.0020513167118863;0.0541684947947442;3.144391814054346;201;1.2566370614359172
345;-2.796184390942872;0.9432810987621768;1.4855120406337454;0.0193354503084853;2.289940985888958;0.7364225794912925;209;1.256637061435917
346;1.5464763385632696;-0.799486087840156;2.170971304029901;-1.1983804461424303;-2.816424451709393;1.6032074776162892;287;1.256637061435917
347;0.2361778303775788;-1.3783872847909666;1.9201509032377715;-1.1779270977442646;-0.9493412073432196;-0.3482560470829471;38;1.2566370614359172
348;1.2847625148232145;-1.2444831184590517;1.982054202004284;0.4732198033603033;-1.9463384767087124;1.7481749951659418;228;1.2566370614359177
349;-2.562182429009894;0.4690285111604568;0.8442310798553925;0.2315799419386075;-0.7162896435970212;-2.5962774334524874;233;1.1363308783759627
350;-3.317858708017771;-0.0648686889743791;2.530377422608683;1.3218463901157669;0.5874232984016243;-2.290690204363786;118;1.2566370614359172
351;2.304764854176926;-0.9643758367620472;-1.918927901450857;-0.5030404440385665;-2.2162178804475503;0.8352856392008243;230;1.2566370614359177
352;2.2765157116262618;1.3735272022012952;0.6253645359676082;-0.8229219272421877;-0.4351275740650069;0.1369033651355855;30;1.2566370614359172
353;2.377172562161126;-1.1367665537288738;1.230936483972106;1.102782347573521;2.434045171915931;-2.5963770605926504;602;1.1193596262361312
354;-0.8836043705824139;0.9360385004048776;-1.1157252880538813;-1.1589894197349109;-1.625790483319451;-2.8316097201558503;126;1.2566370614359172
355;1.6173659380365548;-0.0989980398195411;-0.2277081816301925;-2.60405473837306;-1.7094737413944596;-3.1406063767240533;194;1.2566370614359177
356;-0.0405965875256153;0.5903345318525735;1.352419779804757;-2.6869738134655186;-1.2508597825419152;0.894940341413543;119;1.256637061435917
357;-2.677610217908801;0.7213979569894808;1.8127235234751904;0.2125186286969192;-1.551667580419057;-0.3590413940952873;334;1.256637061435917
358;2.723175248708671;-0.3228503901489617;-2.032863094971144;1.2951775255609823;-1.3741613485437336;-2.688303799235152;328;1.256637061435917
359;2.2302907923410302;1.1132447445636424;0.9151736420843531;-0.7791451936723721;0.0465901581056159;-2.2003586418161034;51;1.256637061435917
360;-1.9558741593469968;1.097423612678391;1.3233570528213934;1.5598411387635245;2.2555335040018907;-0.4975036728802923;314;1.2566370614359172
361;1.200074189052266;0.1370814610061089;0.0868359189300094;-1.164398049766513;-2.774106550123711;3.326042994349913;143;1.183235091661622
362;-2.7788577983438056;0.9958893333818768;-0.0203585336255886;0.6207549885500627;-0.768921437043729;2.274075179704791;320;1.256637061435917
363;0.4081453089667877;0.2961799023613425;-2.043350011041277;-0.3388216363289054;0.8709307295738762;-2.966331010717582;241;1.2566370614359177
364;0.4178095488098556;1.1699535762253035;1.2961976624075453;0.9527269630358228;2.3262835093034866;1.1982982057133478;190;1.2566370614359172
365;2.136136018576952;0.4446191191090041;2.450896825220867;-1.7425961100575766;-0.025815563256189;1.761479104445984;321;1.256637061435917
366;-1.0902139558223565;-0.1129066827144935;-2.280190067159976;1.1932595456906756;1.8365221667487424;2.9248047103834107;304;1.2125134228516496
367;-1.5839804126430694;0.0945470180302079;-1.6851629161665662;-0.3894498368238933;-1.4552747320686752;2.102840909119613;159;1.2566370614359172
368;1.170895558990292;-1.2476387810724274;0.4666645076148892;1.6191639806105995;-1.1743858220699974;1.18587284413813;7;1.0324348418673337
369;-1.5576132131199925;1.018610550417932;-1.0622760566136902;0.85093506499252;-1.1287981076291564;-3.482408065250322;226;1.2124118427867252
370;-3.184083195295492;-1.3396457318544894;0.8802934428823035;2.779735479001748;2.4890082427997138;-2.19106475853754;300;1.256637061435917
371;0.600044439217524;-1.1031654117853853;0.7302166793249268;2.660802815175318;0.9191993933967606;2.833019020875839;243;1.256637061435917
372;0.0172828255944604;-1.3243900207350596;2.3605644468333797;-1.5539352180189914;0.6435603644436292;-1.58605094335444;214;1.256637061435917
373;-1.268425183557634;-0.2118052178868354;-2.38134188609756;0.4122008300940478;-0.6323038692954688;-0.6672783292174302;24;1.2566370614359172
374;-1.6880229706017262;1.2865796709941786;-2.406955180049105;0.328667794846372;-1.0499642526498214;-1.379842358470496;210;1.2566370614359177
375;2.060729370270004;1.0069747929216588;-2.055855777028346;-3.108843256517468;1.5795351015759456;-1.8473280636891216;295;1.256637061435917
376;-0.4243044257061468;-1.1088523478726056;-0.6961711573049143;-2.776135354563139;-0.1614119884691718;-0.876743674593386;26;1.2566370614359172
377;-2.6689141795664986;-1.4628806053598384;0.1033017567260115;1.5354887546648357;2.647463923443195;-3.1762533334874226;300;1.2566370614359172
378;-2.73259038475838;1.350290056857786;-0.95505193183103;1.1437459601583524;-1.2020347222095449;1.9325525084303643;362;1.256637061435917
379;-3.108582332131732;-1.0639433718911615;-1.1788535565291365;-2.560553970530792;-0.7878500585593897;1.304285408699536;98;1.1842541355502638
380;-2.405538596898904;-0.3998221808286606;-1.05565819042555;0.790248237713221;2.636230652139991;-1.084236755553177;178;1.2566370614359172
381;-3.336396989950548;-0.1377026786395007;0.3797525139572296;1.2249875458221038;-1.3639269267731455;-1.478162674585653;223;1.2566370614359172
382;-0.3079504710734236;0.2656270217260429;-1.6634958498147494;-0.6461439473418127;1.4325528126789504;1.5397303670674265;27;1.2566370614359172
383;2.3788195220301414;-1.38216445307504;-1.7446112369763749;0.6219078338575859;0.2288430019023755;2.694079408285649;282;1.2566370614359177
384;-0.6748453029838057;1.0159011950450372;-1.5071468685066527;1.801990939474068;-1.2232988785509102;-0.1896435744137696;19;1.2566370614359177
385;-0.0917431466496452;-0.7848649036379004;1.6286927240723077;2.317156795680936;-1.0328993463026614;-0.8218376429702077;208;1.2566370614359177
386;3.1799103128479245;0.9969140202208342;0.6231286650696106;-2.791441157326229;1.4336515268947103;-1.926220627788208;128;1.2566370614359172
387;-1.8262750351792816;0.8069443748692923;-1.9903888042151936;0.6854071307462969;0.6111401977302764;-0.2279899475432669;210;1.2566370614359172
388;3.002876655836169;0.0772928668175641;1.395757450942542;1.4830643124828868;1.8693252121700852;-1.5782472353046948;602;1.1478253868898791
389;0.5375951034574615;-1.1552828907451138;-0.9203097349202518;-1.0946035211715637;0.7454866569451684;2.429875184608986;288;1.2566370614359177
390;1.7645223164573522;0.6595941205259631;2.224587025325577;-1.425394598568292;-0.6150674867226348;2.707932989011104;365;1.2566370614359172
391;-1.5215740509526927;1.3229957530710132;-1.6859729537954449;-1.6507786256042705;-2.276182850973864;-2.6517591696557656;354;1.256637061435917
392;1.919095575601976;-0.2597612193272098;2.1427246498333905;-0.388069403352564;1.0938199324209563;-2.3590682824644;51;1.256637061435917
393;1.9939383391669292;-0.8960663032220098;0.997137144621438;1.1971391439660082;2.2130155538564225;2.151793212451806;308;1.2566370614359177
394;1.345563445490058;-0.2466029309492406;-2.143036141480624;2.19823693669336;-1.341364460069619;-0.5163347709856363;170;1.256637061435917
395;-1.5632433764319071;1.4801818324764329;0.2432997400742798;-0.6280374918982926;-0.0527521395922132;-0.5864452306115636;292;1.2566370614359172
396;2.391347755212725;-0.1634841176083112;-1.3976083967569035;-0.3036175073581431;-2.505421306111652;1.5667433649437748;351;1.2566370614359172
397;1.286549792292324;0.0779817998266327;-1.7874449112551778;-2.087483758425236;-2.2244552296030524;-0.0949364527750502;216;1.2566370614359177
398;-2.970968565047952;-0.2920542127350232;-1.0966522748160936;0.975614636147246;-2.655989220731406;-2.347046713555102;79;1.2566370614359172
399;2.2786414785074114;-1.2964195464107664;-0.0523068678230418;-2.124616042767987;1.0007443207262587;-2.9257117073937606;299;1.2566370614359172
400;-2.3051739600764822;-0.5755760302248496;-1.549320326097828;1.4700878025691118;-0.125387420733215;1.0610980146785811;44;1.1096999278121662
401;-2.0478704549757127;0.1212925632279782;2.134475153661727;-0.4108448285481992;-1.1588932954842153;-2.861885949033176;233;1.2566370614359172
402;-0.1100373408149898;-0.3823813471658328;2.013491498285525;-2.6966945065300663;-1.6586936484766144;0.7377788524592158;356;1.2566370614359172
403;1.489412193862806;1.1763258114643174;-1.6011338113916538;1.1507878307149326;-2.27208277039703;0.974726433272298;340;1.2566370614359172
404;-2.4507089621431426;-0.1600324334763597;-0.1602883630455207;0.4848776434724522;-1.9311937371085035;1.0292768226970463;274;1.1777179980940498
405;-1.3637308722680348;-0.8005151289706868;1.4142585709606612;0.5314962527397651;-0.6280297982656422;0.7384192359201833;196;1.256637061435917
406;-0.5451697132670913;-0.0614253658555462;-2.2589631913411554;1.9622044159625784;1.8398547936415672;1.512922126133639;85;1.256637061435917
407;-3.2142894204054966;1.37206139054661;-0.2777391859813402;-1.7035903758101312;-1.9233146850135463;0.7236574448560249;225;1.2566370614359172
408;-2.8276426619656907;-0.75897210722691;-0.5765187679611132;-3.4114330896925598;0.1642919682577853;0.8139418076255315;99;1.2566370614359177
409;-0.7064572271118938;0.7726955622816787;-1.866559286442908;-1.6292334493680576;-2.936676938552855;-3.0293342082882107;391;1.2566370614359172
410;0.6347296922407952;-0.8691010667256399;-1.0966378165001225;-0.8675565845021163;1.7411588783885503;-1.0912142940904503;16;1.2566370614359172
411;-2.15652146461518;-1.1146196325835436;1.931207787076344;0.0944949779988949;1.6597581968405763;2.6855195031923755;338;1.2566370614359172
412;1.5089224558996956;0.3914288100585305;-1.4977532717332005;2.363405308216812;2.112226362697673;0.487818647388951;58;1.2566370614359177
413;3.024866525350708;0.2259437954300601;0.89855073167139;1.3076889744472084;1.5615213526084606;0.7063589099546463;121;1.2566370614359177
414;-3.046716741318204;-0.2854764216072925;0.6463170602546204;2.6715199536159018;2.2016619491263;-3.044692864246737;300;1.256637061435917
415;-0.562927517026111;-0.227394766638656;1.5722479747855564;-2.020999578012557;0.5678451037636099;-2.0788846194908244;214;1.0918773624311584
416;2.3362581523418213;1.327241660855899;-1.5325015047382475;-0.5611038121422414;-0.6738740932334017;-0.7759912828597589;14;1.0993692628213367
417;-0.3207252901240344;-1.226125097026162;0.6374274373818946;1.3996963416843498;-1.728612254684074;1.313292817794358;252;1.2566370614359172
418;-3.1542729586964784;1.0571561959156588;-1.9012295548310585;-0.3565993998417975;-2.4472291488449573;-0.9798299417707016;115;1.256637061435917
419;-2.869218391346165;-1.2283729711301985;-0.1417674894774279;0.9023552947444438;-0.5996603597970399;-0.3823106177182949;323;1.2566370614359172
420;1.8993197792866707;0.7188588737376121;-2.070463519393876;2.3791461019963287;0.9207418137128348;2.292362141143695;247;1.256637061435917
421;0.9907906733029292;-0.0826316170852096;1.223521190672091;2.453924826805683;1.8651669412707617;-3.077375851225677;141;1.256637061435917
422;1.2809898920065546;0.206165747044506;-1.0216498400713696;-0.1398257564763207;-0.5653984593853714;-0.2329718603342125;6;1.2566370614359172
423;-1.7709964763833712;1.3627473911374888;-0.0142830882834731;1.489956143089041;-2.884750338600939;-0.7962268083378836;277;1.19558670440386
424;-2.4451941611672616;0.2553089846221023;0.2546446061212775;0.3454081480012311;0.0852265458042669;-0.1080583176091438;37;1.0748130717865807
425;3.019288175979448;1.558723546835066;1.327731197273608;-0.3485703756804845;0.7255171751250856;0.5852392524144735;106;1.2566370614359172
426;-0.2482744768883612;-0.7811013644876977;2.268223719623784;-2.8571321828901985;-1.2618654118207149;1.811533081405576;402;1.256637061435917
427;0.7584369519094294;-1.3800989378493338;1.5385323064003813;0.6729785872815185;1.200617423359771;0.6934291617744102;297;1.256637061435917
428;1.7174149911390493;-0.0372644384404496;-2.424161205350642;3.010499883311261;-2.128318530800245;-0.3189989599854952;394;1.2566370614359177
429;-2.155181612998749;1.1474511346457317;1.2379033444030187;0.0371085146631511;0.6052934655958668;-0.5530677391340878;292;0.8143529568569184
430;1.652243406455647;0.9314246426899264;-2.808763608210857;-3.1197499346163644;2.1939042957959822;-1.860639364782108;375;1.0569694712998374
431;-0.8613592528941991;-0.1175564344781743;1.450208481606801;2.7499096058838832;-0.0613830717724742;-2.862115661478711;284;1.2566370614359177
432;0.7703071213726309;-0.3487880372720313;-1.3741879875708725;-0.7253053157838145;-2.913000293660057;1.210271561920757;230;1.256637061435917
433;-1.6862822720917008;-1.0946315353654603;1.2732644531352617;1.3504375690075974;-0.6898301823570125;3.0402772188600764;221;1.2566370614359172
434;0.6315975491990591;0.7498320269409618;-0.9240700905193991;-2.602976866975934;1.0831868591025595;2.010421632846106;179;1.2566370614359172
435;-1.2441608338668797;-1.1256693369736646;1.918615182371304;2.962601486183712;0.1653846690619823;-3.178725433992927;431;1.256637061435917
436;-1.3406678928894276;0.2153451620289763;-2.7304670878058293;-1.293752821311223;-2.9741615901705134;-2.951971253571815;409;1.2566370614359172
437;1.1746962370749818;1.147625291516638;-2.404209031263412;0.2356625630733337;1.7763368758579463;0.5170226850864099;312;1.2566370614359177
438;2.805423419429041;-0.6291700600941139;1.515275091859448;3.3137078301307787;2.00048576470804;-2.992790853568633;207;1.2566370614359172
439;-0.8660630647652618;-0.8360948262419622;-1.36468088428042;-2.3994132816674574;-2.3682285718321823;-1.0121877121737168;39;1.2462196036577426
440;0.5629831604840109;-1.1877009518866948;2.355759877627211;-3.184327363136974;-1.0299916014212738;2.5778161861536724;426;1.256637061435917
441;-2.718396186309357;-0.9843043529576324;0.2740853571664889;-0.2494135414448688;2.8569493473883827;1.705257792171993;144;1.2566370614359172
442;0.3215647909024094;1.356248658558482;1.5589156283325272;0.9031833013232374;-2.0186789824372413;3.0849969485165496;120;1.2566370614359172
443;-0.1102923384805505;0.2549976554744972;1.829344925239019;2.9313905082455647;-1.6619840390645484;1.6969085342272567;110;1.237546483920279
444;-1.3896533973207308;-0.1887818175395786;0.516163240501669;2.688395635273267;1.9785959691539543;2.94461711916961;93;1.2566370614359172
445;-2.9569684385023747;0.8001911064933626;-1.0922917256215672;0.5104726238096877;-2.763033227602184;-2.744672590249545;398;1.256637061435917
446;1.907027904668137;-1.0962268600436085;2.052994435115128;-1.2985152110233629;-2.146423929424155;-2.479760138634808;80;1.2566370614359172
447;-0.3831180948368653;-0.8949162135102108;1.4873507035691065;0.1338348469926149;-2.205588353621289;2.138326865881849;152;1.2566370614359172
448;0.171241339754186;1.08173416149135;-1.241763945534389;2.7213467101269333;1.032259727819153;-0.6196522049918906;330;1.2566370614359172
449;-2.80779593572382;-0.6452958427182993;2.0222489327840174;0.2055838403234801;-0.993436024026762;1.2659626771006858;196;1.2566370614359177
450;-2.2545458204919586;0.6580990048287126;0.4918935419955316;-1.0127203178857629;-2.4900718620006264;-2.6472613484553613;63;1.2566370614359177
451;-0.1055245590396534;0.009165771618678;-0.1865444525641633;-0.3385787519072569;1.773513100318484;0.2244065025501411;27;1.2566370614359172
452;2.370787167881489;-1.09789765261027;-1.1334728107355785;-2.0730125352756863;1.328023282417911;-0.6970724539791373;203;1.256637061435917
453;2.3554647463452683;0.0493482910018443;-0.1802311427319076;-0.0235339295066431;2.864085491676589;2.514482472025356;188;1.2566370614359177
454;2.4295674152071918;-1.3546851172498835;-1.3102448618933775;0.9453966803986574;-0.470299595620493;1.1009441889540248;282;1.2566370614359172
455;1.4341953019767084;-1.4175032683371849;1.5731943477758557;0.1826302674240623;-0.167408857457105;-2.6814191998356542;100;1.1625629997817208
456;1.22731432197986;0.0289670929612717;-0.361571459488385;1.28697417547563;3.158349837356858;2.6664135701788694;142;1.2566370614359172
457;2.4937754576974083;0.5261795794883037;2.0221414358044694;-0.2587503142201253;0.2558825914390152;0.9171225047664044;280;1.256637061435917
458;-0.6695155626313316;0.4903813346604198;-2.4324271599605143;-0.0466344437061765;-1.0502202504914129;-0.0845396225940257;373;1.256637061435917
459;-0.5910141569617231;0.7160014357542679;-0.6426414883627234;1.6070392249604737;2.876994335578266;-3.085379221860576;198;1.155646325051546
460;0.6188529537507766;-0.6602780916432001;-1.1085022072428856;-2.9035045948491005;-0.438322911293297;-1.040514994469045;376;1.2566370614359172
461;-2.587440316266791;-0.8449224454940885;2.2930829508954225;-2.281157129629223;0.9181155005357112;2.0188754221802303;41;1.2566370614359172
462;1.3279735645481576;1.4440707297029682;-2.357336759213818;0.3337494369490816;2.674834833009507;-0.2883630880162459;437;1.256637061435917
463;-2.4640117863984727;0.1095006752147367;-2.3508944722676386;1.9210353815377323;0.5431299854325314;-2.610576808227973;333;1.2566370614359172
464;2.953420654990421;1.0317759226595808;-1.907821696659135;-2.495210919444863;-0.1541328879969295;2.114976051940152;279;1.2566370614359172
465;1.8654158548790132;-1.0172004847901317;-1.5144290120638644;0.1859876485153362;-3.0705131600123665;1.5349371292658056;396;1.2566370614359172
466;-2.793487474628125;0.098240214620348;-1.748652319741184;1.6744407108701005;-3.027570628792465;-0.8264005550128508;115;1.2566370614359172
467;-1.336536109283672;1.0323405749536856;1.8268351026243272;-1.3186763070174077;1.0898417767609925;2.463742167745568;337;1.2566370614359172
468;-0.909787640827397;0.0514118477420498;1.796878899275682;0.0981520642713811;-0.455496306326311;-0.5710613713813633;136;1.256637061435917
469;-1.0897832952124809;0.7556032632880284;0.6683937188999522;2.5537147925743207;1.8348027899984825;2.8265302447216367;93;1.256637061435917
470;-0.6209757368662399;1.0236865682093983;-0.2389904471155948;1.7525915969679366;-1.4470287328776688;-1.328619868903885;19;1.256637061435917
471;-1.6880152529590648;-1.1198452217563049;2.216952609581138;-2.715133670832248;1.5188505075229102;2.392472412207431;461;1.2566370614359177
472;1.0614688907758212;0.2042580323999597;-1.668894156668252;-1.5293472310392016;-1.6461324028549476;-2.9308174554973765;244;1.2566370614359172
473;1.3092192213028166;-1.1851957597306917;-1.09837038956766;3.0495557409919822;0.602431056572954;1.2077058277012385;160;1.256637061435917
474;2.387574174881893;-0.3517822206347499;-1.9404019792759888;-2.670412628831529;-0.8761491093987932;0.3734982172849678;184;1.2566370614359172
475;-0.4413213593234619;-0.3230643498149244;-2.0972662190739326;0.7611818853706034;-2.937890939615753;-1.5197072089125951;149;1.256637061435917
476;0.2201967618971932;-0.8874423953242686;0.4429483312838865;1.163977614524045;0.9172777145356864;2.4862976461242416;243;1.2566370614359177
477;-2.2412055181690995;1.046960396233568;-1.319804300588818;-1.4767587022606303;-3.0064277447509204;-2.1156139317372173;391;1.2566370614359172
478;1.667684269245091;-0.7839268855988413;-1.3805969163693592;0.7486265315227616;0.6621965110960448;1.1198174925958646;282;1.2566370614359172
479;-3.005367071101137;-0.2986476924784117;-1.9799779008604603;-1.6680815692547084;0.97438318158345;-1.283679124962003;161;1.2566370614359172
480;-2.3800364561344685;-0.6429583674260658;1.471870737645076;-3.071736936541693;1.7326263625326517;2.773010564709186;471;1.2566370614359177
481;-1.2644039318244298;0.9331956449080164;0.5886998629450766;1.894408918182987;-3.0174586354206183;-1.5664241963395196;423;1.256637061435917
482;1.8999797108318872;-0.7797716569956399;1.082444970024861;2.516766137369342;-0.3250616940894604;2.002551851209433;260;1.2566370614359172
483;2.250385287546995;0.6260747166128496;1.7804733595944513;1.9820064960688977;2.313487572420747;-1.2354614553123475;388;1.2566370614359172
484;-0.2176185243524884;-1.000417516676291;1.830365889156217;-2.214261386177678;1.0850029755172903;-2.258992116979652;415;1.058616281605292
485;-1.2451130637510115;1.4247465556659156;0.4516362214273288;1.2187134529867096;0.3410840149613201;-1.665946195849091;47;1.256637061435917
486;2.3108094095414207;0.5260909299882887;-2.410803411260277;1.4329901590594143;1.3416670895420233;1.8629053795862436;701;1.2537116052391497
487;-2.34965025803507;0.3633354951877634;-1.4543480301840153;-1.0619073461991746;-1.899852802527585;2.5692258063233107;367;1.2566370614359177
488;0.9104095665549228;-1.4420227800796377;-1.5435342004611;1.9804510327259468;2.7117490572018124;0.1567464559592628;261;1.2566370614359172
489;1.481544958229257;-0.2225380482576766;-0.0144157474283347;2.083766320845593;2.3155509493338418;-1.2127908160342178;173;1.256637061435917
490;-2.1049733416488525;-0.6024613817952984;1.0747662372886566;1.1640874113255166;2.1900586330262253;1.277087123583232;338;1.256637061435917
491;0.1821569689094058;1.0806601862826022;1.6458653714932474;1.4545559469884617;-1.1565651928100025;1.540208620589283;105;1.256637061435917
492;2.303877713009145;0.4182495474399801;1.1276480174921728;-0.7715638812258112;1.9858591542636708;0.3238894840993695;266;1.2566370614359172
493;-2.5922550188035123;1.0026595559841025;0.8440268955105925;0.4092966772518084;2.652610325068942;1.652349276698569;345;1.2566370614359177
494;-0.4318565087002447;1.1673082094811418;-2.151473154214448;2.8283747993823;-1.3589321656246878;-0.0888840234526109;384;1.256637061435917
495;2.6988083075646627;1.3405214282937972;-1.8708815775989496;1.9293749179727109;1.3315856691354906;-2.085732236977319;339;1.2566370614359172
496;0.4792622301010452;0.4249309171775823;0.7349410534535622;1.460499855857594;-2.1544482400629623;0.0769549389353283;73;1.2566370614359172
497;-2.894115826428581;0.1359867723843424;-1.8152859622852064;-0.8518229707287823;-1.897380450190404;-0.6512944243885301;418;1.256637061435917
498;-0.9475529561435294;0.8662151626446356;0.4808574714332833;-2.464574122264122;-1.5735919408260997;-2.1681260397554074;126;1.226975755143724
499;-2.036412746841923;-0.5379109883234985;-1.6130948383746286;-0.8275285130701733;-2.243829137832415;-0.1739624904842531;497;1.2566370614359172
500;-3.4012187526670106;0.7936963547820763;-2.758317715469351;-0.400171960894539;-3.165351331483494;-1.4231641709295553;418;1.2566370614359172
501;-0.3953878988681535;-1.1147570112241447;-0.9960573089957936;2.0035834817665075;-0.7919377729780407;1.3571914947047052;237;1.2566370614359172
502;0.0584186398522258;1.413217678690909;0.3176721256436496;1.1822333262161764;-0.7652668275285173;2.4903217787028376;335;1.2566370614359172
503;-1.224614815102783;-1.5057128372894528;2.2763203562347267;-0.699823308890077;2.472608391487392;0.2141362588324362;325;1.1656007811727775
504;-1.8524537261024856;-1.128718367281353;1.033893465618366;-3.123432971024174;-0.8399208854238212;-0.826522384595386;157;1.256637061435917
505;-1.628674810980469;1.02406709149694;0.7175306234090383;3.0019355875753027;1.117844136811282;-2.650488266077474;215;1.2566370614359177
506;2.235370987625056;-0.2878410148091421;-1.1495344769982934;0.3515606565033343;-2.122099814052432;-2.4276755080898225;332;1.2566370614359177
507;2.1135770893339347;1.2061373426749007;-1.7043876538971032;0.6557720412932777;0.8759638584429695;2.969970898191133;222;1.2566370614359177
508;0.0405651388444652;-1.2099801029710897;-1.1895039831356038;-1.828027111029058;1.4214282094289847;-1.3678931917392825;410;1.2566370614359172
509;2.329224395627054;-0.9664177147070204;-1.025627725693767;-2.6978224291201918;-1.7003224803994093;-0.6337650160256078;184;1.256637061435917
510;0.2150486799293799;0.481895782376378;-1.4090940244920154;1.8519227880817224;1.0872464075959265;1.1076253696136302;58;0.8553000990847736
511;-1.0274812155728483;-0.8009913455169417;1.3140329480740234;-2.859007390995669;1.525366925893052;-2.173723117721781;484;1.2566370614359172
512;-0.96044631404656;1.1077829091874465;-0.2744306782099424;0.7960931578652949;2.768291349068601;-2.7993590645097046;459;1.0848084788346153
513;2.6721714982647398;-0.1094697705512287;-1.3035921570361415;-0.2768531738326756;-3.2193973312774244;2.555702430038356;396;1.2566370614359177
514;0.5667630614049559;0.026667368965971;2.368394120247197;0.1819306292297668;2.0436144832985264;1.1349833054471326;190;1.2566370614359172
515;-0.8644490028997112;1.5962857668153154;-0.3151754279811325;-1.2791104326256024;-0.575549826853579;-0.3252267495704691;395;1.2566370614359172
516;-1.417217768707273;1.2992843277030486;-1.3518481701540783;0.1245520552803474;-0.3108364053021665;-3.035079973247896;662;1.1791947090160415
517;-2.924611862760332;-1.6758053802868855;0.2327825802427406;0.1262548792778475;-0.0602327753312925;0.202728507672369;419;1.2566370614359172
518;3.180042406336522;0.9422313146034972;1.141893479533769;0.772703265931156;0.7274198906255349;2.3116830705004627;121;1.2566370614359172
519;-0.9215201282824546;1.2338173263268022;0.2708968136744584;-0.3236983220976887;2.8688776624363577;-2.816798774741295;512;1.2566370614359172
520;0.7051697545629045;0.0975159783688928;1.3758687524086954;-0.1151395378960534;2.693360952539388;1.378772152031571;514;1.2566370614359172
521;-2.2532945254677403;-0.3371169206694546;1.1006652717016665;-0.6938730579886345;-2.5120003711297696;-2.9877506236520284;450;1.2566370614359172
522;-2.5786193902031664;1.3826798147138195;1.245861679111796;1.974646828991568;2.6905923933026408;0.3642436509153554;360;1.2566370614359172
523;-1.1358986707595955;-0.6313789134360009;1.5559940773243988;-1.697594711518205;-0.9789278159399144;-2.631620675956656;96;1.0469459368676253
524;2.297810856228389;-0.1728570103570819;1.7361364129945502;1.955024914113712;2.9235521388916896;-0.4846465184681228;483;1.2566370614359172
525;1.3483658631644575;0.2275588192919764;-1.4596330299405174;-1.244761175535283;2.624388293133502;1.5337332305771587;84;1.2566370614359172
526;0.5225185018060954;0.6083425884548341;-0.5611891315416375;-2.5801043962605577;-0.0166593985422653;-0.12297168950422;263;1.2566370614359177
527;1.4335129684715715;-1.3684347677487108;0.3742581972439065;1.643200813928151;0.2232596718711542;-0.3428337600833906;78;1.2566370614359172
528;2.5946625191215205;0.3754559221363182;-2.0531448742564904;-0.5663398714287283;-1.2780211937599832;-1.4642587913929257;172;1.2566370614359172
529;-0.4814478260952133;1.5018897346647369;1.7893731794310068;-0.8309264486279795;0.9840196377831942;1.8497530199614427;467;1.256637061435917
530;1.8223386291855064;-1.5124515768784932;2.701656493915924;-1.4882642133205823;-0.1990189468109732;-2.899242857473123;240;1.2566370614359172
531;-2.85653678579213;0.366936136156091;-1.739450751530624;2.7626739604418997;0.0377113828014301;-2.7559072161304146;463;1.256637061435917
532;0.353344308111541;-0.3072491231754233;1.560801255359932;2.3513166886265355;0.954878167282127;1.839545939803955;260;1.256637061435917
533;3.0956785393242483;0.3782240144216434;-1.2510478733328427;0.5270175836270685;-1.0097801764287997;1.518539366637646;91;1.256637061435917
534;1.8213860945212916;-0.1152722453107507;-1.9388995755883411;-0.3697596309357275;-0.1928570541265276;0.155335367245276;422;1.2566370614359172
535;3.0998166757121464;1.3265186071444075;1.1754037740086327;-0.3222266462787737;0.0687186355071753;-2.9078837310081016;359;1.2566370614359177
536;1.7787079762783982;0.5962035465842849;0.158949840571944;-2.584793750988955;-1.8174310567558536;0.4958243363346578;267;1.2566370614359172
537;0.8142298108363412;-0.0170998569109785;-0.520356726487071;1.8326397080294785;1.2384231837436643;1.6080448647450476;58;1.1253528758268916
538;3.2345353014053067;-1.3266948485884489;2.291727844077465;1.2911197056723345;2.447252803044082;-2.4706822692446204;207;1.2566370614359177
539;2.6152903891921784;-0.2551276128731933;1.3488518304816488;0.5251235039429684;2.883362151477012;-2.154031193761919;353;1.256637061435917
540;-3.0153669014803968;-1.387712538068906;0.637228563908361;1.6319549099386623;0.0268618078044221;-0.3557071707723951;419;1.256637061435917
541;-0.4417908542998626;-0.7038447753112349;-2.359797412805113;-1.0669920513236937;-0.8403545180735024;2.773109734684126;69;1.256637061435917
542;-2.089238966994003;0.8911348555777745;-1.7654109872057635;2.5906623100362274;1.8747412365540608;-1.136789378312323;333;1.2566370614359172
543;0.2638548438188626;0.204986565759899;1.912204815934939;1.202774864909191;-0.7636024886355937;1.7435748268369966;105;1.115271009545726
544;3.159192174118027;-0.0539744175064153;-1.2780076779556984;2.7730595329162004;1.429777901500186;-3.04977724315835;339;1.256637061435917
545;-0.6731271545448534;1.028001769856008;-0.7449263413642065;-0.7750059865010702;3.303158919526723;-2.591183857316112;519;1.2566370614359172
546;-0.8026672926245595;0.3368261568593089;0.7803434950183531;-1.0209218154307322;-0.2827999139295638;0.6433329008293507;5;1.1631509873899055
547;-2.2871036361385646;0.5696546013482539;2.1185248429938044;-1.997721854856625;-2.078304002250459;-2.2754100865206444;63;1.256637061435917
548;-1.7175734333154973;-0.641804242469775;0.6000225113038533;1.8414658030383388;0.0907807680842744;3.303693458692029;433;1.2566370614359172
549;-2.005978627589036;-0.6930455487727308;1.593113223972483;-2.4703100526477755;-2.531952308459346;-1.7051774608009382;157;1.256637061435917
550;-0.2858409414730241;0.768603050730705;-0.9821910181610064;-2.37861775216392;0.3674906108991758;1.596713046577991;658;0.8609286162281916
551;-2.0384463310135312;0.7411196106121339;0.3295424066583469;-0.7343400914988085;0.0087753555902982;1.626130752652054;46;1.1295289111468796
552;0.1134661982617906;1.3954888851849228;0.7015635480970217;0.1497432969813014;0.6018757257272265;0.8616762521497154;5;1.2566370614359172
553;0.3979667128710222;-1.493562172527585;1.552291967531553;0.1434353611670651;-1.6563472429514454;-1.7986161944350656;189;1.256637061435917
554;-2.724252321202299;-0.5907435711542636;-0.1000359399035535;1.6869672420881956;0.3792776513330658;0.5337902328663375;323;1.256637061435917
555;-0.6475132884780328;1.394697643103498;-1.145692531580872;-0.9846698689452352;2.405700394189631;1.0786713348879482;94;1.2566370614359172
556;-1.5979520308019917;1.231260851761774;0.656639682517054;0.6089209740044771;2.527207032269848;-0.3947986100343987;360;1.2566370614359172
557;0.0394036051365485;-0.4917931218406198;0.8877264104397664;2.6701758166583764;-1.4318566220621358;-0.3771845566904418;385;1.0647193629870326
558;-2.1016590608573438;0.5298133315470782;2.6501819258842345;-2.73110223315637;0.4894545405423926;2.128142145244001;337;1.2566370614359172
559;-0.599288061433513;0.9604448512597412;-1.4533153394870169;2.694258822932292;-0.7304315957974594;-3.1119232826907077;226;1.256637061435917
560;-1.6542591002938396;0.6777207861954847;1.2307722315908285;-2.071566655120693;1.1145900287948036;-0.791159810263764;324;1.256637061435917
561;0.7494218162935209;-1.2598212757011744;0.9741386051866616;0.0984281434983657;0.8128913122218944;-0.9190911880055874;297;0.8907570387086506
562;0.4823901857580799;0.2271940351800539;-1.0052025446689177;-2.653164919863164;0.1968800229984232;-0.8836347479621636;526;0.9867003727641208
563;-1.105684915098632;0.3606685631351795;-2.2669527028990752;0.2996768037164782;1.3090091807010689;2.397843094042944;366;1.2566370614359172
564;-0.4561167239669255;-0.5702930356743419;-0.9468348949690938;0.924169361013216;-1.9745661874942684;0.7327575996823745;252;0.8884735911062034
565;1.7064810967406832;-0.5731838334720484;1.7951407456043036;1.0224029202397924;-1.2689960864996492;-2.325760574111651;189;1.2566370614359172
566;0.4620659283145788;-0.720363291951068;1.0831129461615157;2.123174226554678;1.8602080337284332;3.1713733264866475;371;1.2566370614359172
567;-3.3713396519930976;0.3019972224536395;-1.1483343129242676;1.4935815365407783;-1.2947865188112408;-0.4042433446255602;117;1.2566370614359172
568;-3.315167178671401;-1.0967390728874031;-1.179993265727088;-2.594172067054384;1.7309803150967746;-0.707603082992376;161;1.096689011055506
569;-0.0405165928910066;1.5186901726592;0.5776154055150166;-0.4181036400766073;1.7604582527847603;-1.898177502697032;270;1.2566370614359172
570;-3.329386338092295;0.8656091985819294;-0.9754285465320464;1.618551887903276;-0.4217127954001006;1.5410201662521597;378;1.2566370614359177
571;-0.6921952590205721;-0.257859980490806;2.413158436801805;-1.8554850611405451;1.386157959931929;0.2681251465168824;66;1.2566370614359172
572;-3.1566800939280344;-0.6427325052183402;-2.049043439601892;-2.322855521513038;1.527489700160839;-2.119394936017755;479;1.2566370614359177
573;-0.8130280437473264;-0.8379740145078018;-2.198349177438311;2.591779720591403;1.1331693870871014;1.4427977471627462;406;1.2566370614359172
574;0.7939735426805193;-0.0183641621611099;0.6638658700208753;2.008066924971345;1.259077276105874;0.976077237548729;271;1.256637061435917
575;-2.3187432575028906;1.2702961872777023;1.364027241035286;0.1255007422623969;-1.1189119269234211;0.5086475015478579;357;1.2566370614359172
576;-1.5116704576170827;-0.4439631001885782;-0.1639745102399014;-3.182222912513433;-1.197078908102717;-1.8102615263729056;148;1.2566370614359172
577;-3.133745914357134;-0.2436211007566639;1.8980261411034405;-3.120360607379345;-0.7421701114994225;-1.666579530630948;229;1.256637061435917
578;-3.1446089437635845;-0.3275379614072849;-0.9182075275467318;0.7048743507187611;1.6956157479590477;-1.4259221882373436;380;1.2566370614359172
579;-1.954277795671286;0.5495395973563147;2.2315764593683194;-0.975279014828851;0.5314644998309923;3.072768176690301;467;1.2566370614359177
580;-2.673699511538861;0.1750143102568008;-2.255961321463165;2.4370246941060545;-0.8121647061136392;0.3494387881828738;44;1.2566370614359172
581;1.1633823317220764;-0.6128828823716975;-0.3637344541576595;-0.827934316120216;2.327792412626032;-0.4986274508568458;410;1.256637061435917
582;0.933553040355262;-1.5226227850174323;-0.9893396124273184;0.4997170823579502;0.2965410199078915;1.5016214751806387;478;1.256637061435917
583;0.4596507000776964;0.7567867063456958;0.1580640143503385;0.1268325705482627;2.140810483895442;-0.2557044284776745;451;1.256637061435917
584;0.7464872603221462;-0.0343314879160481;-2.72192427015664;3.0193657431919534;1.1309088660666486;-2.839827698794606;176;1.256637061435917
585;0.08009972667217;0.3824531244678425;1.498852439553648;2.752243817198495;-0.6428825326457392;1.1642270451627603;256;1.228451782853406
586;-1.888324693464685;0.3512823865162174;-0.4188879879113337;-3.1809514408276645;-1.7201256518955117;-2.4931176698884903;576;1.2566370614359177
587;2.667744566744916;-1.6416490273604325;0.9810473845534085;2.6098140084989416;-0.7309181612917302;1.7511907961091788;482;1.256637061435917
588;-1.2147900480541682;0.0412257930654216;0.0699790906757709;2.628202930716579;1.127288982595746;-3.05543475695064;215;0.8165204740396935
589;-2.8545608221944723;0.983902088160486;0.4562630518711124;-2.469268181853108;-2.2100751597418378;1.0266608079874495;407;1.2566370614359172
590;1.6314431943653351;0.2810266192824698;-1.195895559428995;-1.0771605658431913;1.929682550237672;-1.3348669136487092;16;1.2566370614359177
591;1.772406172630777;-1.4290350469233148;-0.2542486086566748;0.2898403784351452;-0.1543384508079869;0.394568515990503;204;1.045587494884389
592;2.1872025083488715;0.2458349666053592;-2.079851490894351;-3.0661647384403885;0.4380499926098439;-1.0315915670789246;316;1.085643359054685
593;-0.0023634376716184;-0.7521255075932325;1.468945745047066;2.6749250856343663;0.4261450163969065;-2.4206096196424607;431;1.2566370614359172
594;1.5916770584471145;0.9184038440061812;1.9358751084885364;-2.5660613809952464;0.0702273418679641;2.086536820231492;365;1.2566370614359172
595;-2.982312191616364;-0.3143126487164319;-0.7185059689186684;0.7850671734170195;-1.6505605477236611;-2.75816195804837;398;1.1661173357830423
596;-0.0718165058997275;0.9440194451199452;0.8147904814699037;0.0801120857745383;2.56380570636324;-3.2871237481116125;519;1.2566370614359172
597;2.91401261688131;1.4397140390509395;0.013671476183808;-0.0951034995133792;0.0248175309092001;-3.2665844244851203;535;1.2566370614359172
598;2.969525846054719;-0.2450218533652894;-0.6825538995307506;-0.6813607203940275;3.222076296351102;3.0642007935905986;453;1.2566370614359172
599;0.6761016154905867;-1.3271803763190837;2.158188087511548;-0.0135364831988332;-2.67283031783413;-1.5770159499493233;553;1.2566370614359177
600;-2.991496911152813;0.207192488554386;-1.4741373861517946;-2.783441498995631;1.6603059359186167;-2.638222614380181;572;1.2566370614359177
601;1.7963767760667932;0.5253087830339621;-0.4194365748092972;2.198415869264673;1.5826853198163089;0.578266095673394;412;1.2566370614359172
602;2.5304448028699262;-0.3151577631824154;1.3321471186256917;1.7880305023753165;2.2196607340050454;-2.42707474245209;185;1.2400184461258754
603;2.426746303457759;-0.1460742778536669;-0.8046850487811875;-1.5219367353636062;0.1788428240968931;1.7836416990935977;108;1.256637061435917
604;-3.04492515868799;0.966156460854848;-0.2986597832727186;2.283298174335155;-0.7282527526322464;2.2440411190033607;570;1.2566370614359172
605;2.05895681523048;-0.6847512366848215;-0.1211579006567995;-1.1407965582345598;3.191674931322359;3.235862711568948;598;1.256637061435917
606;-1.7510384662140996;-1.0365011330149567;1.736110401304678;-0.1061957000762772;-2.2704280921067217;-2.813897458861341;521;1.2566370614359172
607;1.189034865385526;0.8104098715835849;-2.243841862740018;2.8714214146017256;0.0805059237806437;2.588772458069086;420;1.256637061435917
608;-1.0709324412857095;1.3719404816875802;0.4201845073585865;-1.5881548416487925;-2.6005087776843494;0.7889228400738356;293;1.2566370614359172
609;-2.395685229821121;-0.804038575185404;-0.0846122952822255;2.5520910611725767;-0.3559854139660781;-0.6926317039131455;323;1.256637061435917
610;-2.64240303043219;1.494740038284378;-2.719226425290445;1.5644841925672863;-0.9525060599562848;1.0134268277637002;162;1.077772152197774
611;0.1976333306231589;-0.0910343812764795;-1.3608592610247745;-2.377366809005045;-1.7882808585208547;1.1388929029768535;211;1.2566370614359172
612;1.8798523220528784;1.0421168165480266;-0.9711594154713368;-1.7303916785423583;-0.5702501490217982;2.136296259419755;81;1.132707956578287
613;-3.2704682925317936;-0.3126859888369782;-1.3399574599913868;0.667766260057699;2.243750061577848;-2.466774870290274;578;1.2566370614359177
614;2.34749198146434;0.8144605406178225;-2.165371694737092;-2.3864200012486765;-1.1671102132787148;2.360883848836275;464;1.2566370614359172
615;-0.6474705732906837;-1.1925222629664762;2.495277132888319;2.0539184129351926;0.5563222675859373;2.5750512108937613;133;1.2566370614359172
616;-0.6480000302704239;-0.8863248931272564;0.5097136077966434;0.9028186290333302;1.2836232001596093;3.2727448171062514;476;1.2566370614359172
617;-2.2419861099608163;0.9416378231002678;-0.5998706214387166;2.4003956432179714;-0.5421401656530229;3.135526813407107;604;1.256637061435917
618;-0.4025895287649417;-1.029083722655765;-0.0696696847307648;-2.6990914640990065;0.9211724068557762;-0.9200253642512096;376;1.2566370614359172
619;1.458803372842779;1.2640485259651146;1.7141968723631544;1.124764581163207;-2.446499014451222;2.939794540290459;442;1.256637061435917
620;1.9691883440765976;-0.8059468740758978;2.782582232114289;-1.608469119004818;-2.7795368633165465;1.8835912034787867;346;0.8949544995317614
621;1.3308444308461926;0.8923121969057836;-0.7860987670956417;0.2645656224504399;-3.072201449318145;2.4853598678866478;154;1.256637061435917
622;-1.761371811835723;0.7425739970161364;-1.0957656296030864;2.3993408859195378;-1.4388061613074783;3.283834221090394;617;1.158677900449285
623;2.8386808381505952;0.9826748149691916;-1.8460995778171811;-2.265312752597834;0.7004596587883497;2.996207776139028;464;1.2566370614359172
624;-3.3769455540710496;0.9466660881259142;-1.6559393451114583;2.966596346757881;0.2174942955946432;-1.8117969415933457;531;1.2566370614359172
625;0.1729690532379943;1.3007848447071264;-0.2089912460438933;2.436399904301378;-0.6452652691123221;-3.3707386160928623;168;0.8681094064113904
626;-2.5224498270073936;1.0661443956166785;-1.706791281763772;1.267161543521214;-1.0821513058267374;-3.2475735165992248;369;1.2566370614359177
627;3.0346998827485763;-0.1924313954850013;-0.2684945199856585;-0.2468252833859001;0.8517706186251885;0.8469541879445008;266;1.2566370614359172
628;1.589797379339711;-1.239605920355462;1.2548752235288698;-3.1889897032533026;0.4663889864258846;0.0088490844427832;248;1.2566370614359172
629;2.8979523984633224;-0.9042584528252642;-0.56445011241802;1.84043750779929;0.8177336102925215;-2.856143565802133;289;1.2566370614359172
630;2.5818400038757807;0.5312183122808612;-2.0653146502635886;2.8171250664765948;-1.9265289289267664;0.2304095859562171;428;1.2566370614359177
631;1.6978906550142585;-0.5160914567675118;0.1159834214097945;-0.989982286093203;2.441581030917567;0.5087117879654965;581;1.2566370614359172
632;2.84612028704475;-0.4603581601098209;0.3686934657376759;-2.851852596729802;0.9573297344263652;2.457576582233212;296;1.256637061435917
633;-3.300771321574825;0.2284832863290255;1.526500372200722;-2.760717721429245;-0.2446086200618588;-2.5684746603869866;577;1.2566370614359172
634;0.0154172470231375;0.683541236764198;-1.5970379920487578;3.093716263653073;-0.9437167617723368;-1.6515750039093626;23;1.2566370614359172
635;2.0811263595810066;-0.4130091844805079;-1.9381476198941556;0.4139714448294193;-2.887650603169212;-1.8551334381682616;506;1.2566370614359177
636;-1.3590253504663814;-0.4903411734803109;0.804816512996778;0.1791474477439868;0.1731457297253374;-1.913720982389877;48;1.2566370614359177
637;0.1387429319970293;-1.261741115207872;1.8756432697447427;1.7895537721624697;-0.0812313880154785;-2.115976111931662;593;1.2566370614359172
638;0.3978605146611675;0.9623687025318184;0.8921284177141152;0.1519987541065008;-0.6355807822260634;3.276393019835979;335;1.2566370614359172
639;0.8272686546335897;-1.6455153593594056;2.1662935500475724;-1.3953755848261729;-1.9441010794256768;-0.5951845452636034;347;1.2566370614359172
640;0.2280084072393114;-1.021976921264575;1.124573711188004;0.3205657031305594;-0.3431273575612046;0.6421291045299176;3;1.2566370614359172
641;1.2314900578873018;0.5172069960790955;-2.201044116017213;1.340310467344986;1.07162514578718;2.8290072644984;247;1.256637061435917
642;2.8865224056840426;-0.324090672035864;1.3106380452965845;-1.4861872835324783;-1.4154242594404165;-2.677723294769569;80;1.2566370614359172
643;-1.568786826858716;1.2981944595880603;-1.6174186810229811;2.6448187978364026;-1.5325798962288124;2.3392926366954963;622;1.2566370614359177
644;2.927766200139942;-0.1794108494667642;2.2858396904195435;2.001506960892525;-0.2429134278599091;-2.450753003692415;291;1.2566370614359172
645;-2.3264851476890307;0.8092310704095602;-1.2556295686504595;3.290382242085064;0.7873234475389117;-2.923477921010197;531;1.2566370614359177
646;-2.882971493420006;-1.249179052114993;-0.3850456403048543;-3.07565270527827;1.0467664046377263;-0.9004544224818464;568;1.2566370614359177
647;2.605886546536341;0.2134223824247978;0.1089299125649704;-1.0092308799718643;-0.0858361372202978;2.2838347462465984;603;1.2566370614359177
648;3.053346455986283;-0.0428859167869392;0.0337194644946469;0.8926388016674494;-2.511953153415661;2.582157175585896;242;1.2566370614359177
649;2.2024152814205493;-0.6628538794796058;-1.9778140175894552;-0.9372645403538716;-1.084651240838314;-1.8723516458785323;528;1.2566370614359172
650;-2.503054359128303;-0.6991770256884491;-0.5134300197048062;1.5964427801738903;-1.2760696734518102;0.1701855212175432;323;1.2566370614359172
651;-0.4518678309303242;-1.167154658494173;-1.2764348299480508;1.1684111641157495;2.311153578772998;-1.679158178816889;145;1.25412367994034
652;-2.9267641850004136;1.5443551897426506;0.850885587724857;1.0030840495743574;-0.7744213959635828;1.9595695028190407;320;1.1949242593952032
653;-2.349705337052617;0.4356489421490571;-0.9437740460659558;1.0028696728579112;-2.447884782742717;1.284156158819926;404;1.2566370614359172
654;3.125130478628687;0.064790878129427;-1.1541618978570654;-1.163265909380666;0.6620548222279703;-2.8031440308301003;137;1.2566370614359172
655;0.526454895931642;1.3179294750259505;1.0339618152289884;0.7683090296478267;0.537991556144495;0.8094425091893196;552;0.8224942863970452
656;-0.714752241238205;1.239256277383174;-0.7782727806152133;2.104197369486036;-1.0210811222222926;0.7399684222452916;384;1.2566370614359172
657;2.5507072598191702;-1.4040559727586408;2.2944320616239557;0.8553814470925103;2.377144781935045;-2.938733130145946;353;1.1892154164827984
658;-0.5085081330257909;0.191837804785795;-0.7408636974523125;-2.608287889187116;0.0701543721376727;1.1972594589421155;303;1.191209400625923
659;-0.716978113020612;-0.1731477283187438;-2.369908631673513;-1.7857414573197177;-0.0194756413357853;2.061568105572836;69;1.256637061435917
660;1.109205793502268;-0.4067998854830314;0.3549399350282899;-1.3075720632579368;1.127795271576206;1.373881972058135;127;1.256637061435917
661;2.404618926768188;-0.1720928917159225;-0.740316857836007;-0.0632315336581569;-0.2945737821488607;-0.3560733264311757;422;1.256637061435917
662;-1.4477892158502237;1.1400972535259206;-1.5711327794498149;0.8741733426644713;-0.7159385387183084;-2.2669006511269387;226;1.254395546353769
663;2.824034169816838;-1.2577209924360058;-1.6322296177480995;-0.164266165730436;-1.6856568854209315;-0.0278399685103817;351;1.2566370614359172
664;2.761889754165938;-0.6366620951758901;0.4496706168879053;2.60797140575978;0.2225247634186998;2.329957903800932;482;1.256637061435917
665;1.2357614176422853;1.1697009842766288;-1.5662015246674998;-0.2625490243717084;1.0141555268239697;0.3083875109309228;437;1.2566370614359172
666;1.5746638042731322;1.0240757358417545;-1.3780423995326068;1.7284101794673248;-2.259104434648464;3.2825019671111137;181;1.2566370614359172
667;0.0081517207965121;1.109022965501064;-2.107205439758421;1.022474950157203;2.860173431650322;-1.7202460000331323;206;1.2566370614359172
668;1.5930253313778666;1.081842097523274;-0.9078226431826564;1.7979458032765818;-0.8980898205005787;1.21875584185252;55;1.2004410855981125
669;0.4848017111760911;0.8460790458549082;0.3148282977614584;-0.4511415244363634;1.9481776993901088;0.1868854428617639;451;1.159685085925117
670;-3.0504657412763603;-1.2415823359175764;0.5409379763011807;0.1171101834856534;1.4560293492686334;0.3724617485571464;77;1.2566370614359172
671;1.2679467041632115;-0.7500951664758092;2.8109275406234144;-2.303211041198539;-0.2659479717904577;-2.7990380029963564;530;1.2566370614359177
672;2.89597686583887;1.1358503909696271;-1.034113918335506;-0.1586863044939245;-3.217587581294529;0.79493010508802;103;1.2566370614359172
673;-0.8501560527178207;-0.2430073773460574;-0.169003147123294;0.7907612238065403;-0.1883452003734148;-1.2062818469303662;11;1.0722330594719631
674;-2.900133717624368;0.8199254433225667;0.9266528654947596;-0.1328282220875927;0.8863342947466162;-2.7151130513083004;48;1.2566370614359172
675;-2.503848240495393;-0.0323881924165123;-1.4096949869263014;-1.8271102539435216;0.5328621213836335;-2.127046111670557;479;1.2566370614359172
676;-1.9212552819582147;1.5574201781887616;0.2832133675361262;-0.2779846090897085;1.819651105019356;-1.7972205565624717;224;1.2566370614359177
677;-2.979377126912821;-0.91385839466428;1.9085506506441796;-1.8245103657117292;-2.755700964724652;-1.5776930076103866;549;1.2566370614359172
678;-2.139795408952331;-0.8393836447002205;1.7696039316658314;2.061954997915993;-0.9660164873803708;2.34787397759874;433;1.256637061435917
679;2.018177245471884;-0.1629544081102172;-0.1713911095861135;2.672752015655154;0.8493174856658889;2.2408044101176428;664;1.252293466396915
680;0.8013073029056117;1.3395522964656676;-1.8454541542616385;-0.6137378707514347;1.2951652866232668;-2.763309503376983;363;1.2566370614359177
681;-0.7307953735787285;-0.6116586669565632;2.2503403300768263;-0.8371023960236752;-0.7135865690376701;-2.7834882039862503;523;1.2167707411924218
682;1.5688274869233614;0.2052243957955328;1.7774176259336711;-0.6358004106380828;-0.1222718853216806;-2.5926946667316875;51;1.256637061435917
683;2.1936928512021816;1.6302549240937128;0.813474151839366;-1.091018426366282;0.9877343867227074;0.4959921620206243;425;1.256637061435917
684;2.759644175148848;0.6451562231013616;-0.5061005760325838;-2.457319386471553;-1.314708646464972;-0.8670429728243753;184;1.256637061435917
685;-2.929723935025394;-0.9090476769510244;2.388191787175989;1.0198750007048978;2.1053084860800038;-2.662341575291512;118;1.2566370614359177
686;-2.066489242612873;1.3671670823394124;-1.8698286901063392;1.1141724977906846;0.9688641443644368;-1.3080810634269815;114;1.256637061435917
687;-3.1051321972799872;-0.2066931699894006;-0.9142094345555416;-0.9523175320680776;0.0238646512653085;1.3102770745301382;87;1.197366131456571
688;1.5405014469399023;-0.4982052194964629;2.1879840153820864;1.1555685231061052;2.9173935895091296;-0.7222028295828621;524;1.256637061435917
689;-2.4008331208897733;-0.9571029246884388;-1.4507991007510943;0.5353420567884843;2.848949291841421;-0.0831423467035643;380;1.2566370614359172
690;1.1037537428306483;0.0798194302387794;2.0692489756169885;-1.033339649103318;-0.8179652477701211;-2.091284056478492;682;1.100283977088419
691;2.1544417451716247;0.4530433359180004;-1.0507095792938892;0.2354389022452465;3.10226998399018;3.2174940504505747;453;1.2566370614359172
692;1.7237962953935335;-1.6257911131603846;1.231427497527301;0.4129955221844694;-0.6334982449468299;-0.2933800426189511;204;1.2566370614359172
693;-1.1476275165185912;1.1474474044244027;-0.9701391107937166;-2.765554907145162;0.4948775056919627;2.3225536128036706;550;1.256637061435917
694;-1.83563362924769;0.8424193449291183;1.3918356782343877;-2.845316626966512;0.2404166972875459;-0.4301821061357611;560;1.2566370614359172
695;-0.735657685353439;-1.1913407969500258;-2.069290008966676;1.7446762658944168;-0.8802244096375432;1.8376414873297169;501;1.2566370614359177
696;-1.8910227872113223;-1.1186457760794497;1.984443828018972;2.3386183682413857;1.2098387018698646;-0.3409149209448199;134;1.2220847654026572
697;-1.2782668674475082;0.4307349570764476;2.1416539193712665;2.6723957613739957;-0.5279394446558033;-0.5517080011110493;213;1.2566370614359172
698;-0.2658219353215151;-0.7876545332735283;-1.8070348642405225;0.5293363561545686;-1.8827487720782632;-2.956438319116854;83;1.2566370614359172
699;-1.5327418553683896;-1.4179932140930955;1.0936222267435742;1.4608588506513218;-0.1845613677136816;2.4467711445467395;433;0.8832596781682218
700;-2.3020535008252203;-0.8180024045916123;-1.7106571959174883;0.5620997232304565;1.9160222334621548;0.6988008977521178;689;1.2566370614359172
701;1.7983472676717722;-0.1012248701389226;-2.478173040976662;1.8382724146844864;2.203040128664282;1.9328649601529464;247;1.2297188707114723
702;0.957929796748004;-0.3082233588125639;-0.1979291292522258;0.1826287630173428;2.565824940764652;1.7814604830904923;84;1.2095699096826278
703;0.9168388792516392;-0.4872613789770926;-0.8619390662997972;2.856977616459321;-0.4004412372613386;2.644237564046968;160;1.256637061435917
704;2.3067626991313297;-0.1444012964211035;1.97667694857276;2.372059245717021;0.4151645720945688;0.5408477442554769;193;1.2566370614359172
705;-0.5789346229301043;1.3121079069740915;-0.6066149889607209;2.0358887928107543;2.118045750806296;-3.2224249825086955;459;1.065590538394606
706;-1.727496317582654;-1.586940128133823;1.4863165434227643;-3.373717680970445;1.203675330100526;-1.9029718119081287;511;1.2566370614359177
707;-2.0094592468075807;-0.7449443850940933;1.1218488711416847;1.6566822781399124;1.1653474750551926;3.4525564104630586;548;1.256637061435917
