Komment314/test_diploma/benchmarking/path_finding_for_benckmarking/pre_rrt_star_results/7_3_tree.csv
id;joint_1;joint_2;joint_3;joint_4;joint_5;joint_6;parent_id;cost
0;0.0;0.0;0.0;0.0;0.0;0.0;-1;0.0
1;-0.5605182699996261;0.1180140934001725;-0.3219898994504712;-0.5229717019369904;0.3088568688723432;-0.8823033407537538;0;1.2566370614359172
2;-0.982704722119874;-0.2150202976074434;-0.7291360281061795;-0.6410689356501917;-0.6970814051651402;-0.5686846863929994;1;1.2566370614359177
3;-0.9437500566081748;-0.3887732425772928;0.0522268996086937;-1.4279405434263523;-1.1143854634993091;-0.1897499647193234;652;1.2513023178724878
4;0.0002788819555797;-0.3311875665098663;-0.4789229084651326;-1.8545819246717616;-1.2458050120621749;-0.6405446770752069;3;1.2566370614359172
5;0.5688992978507812;0.3324715011035683;0.8559319198354397;0.3480255618619065;0.5396403903810839;0.0;0;1.2566370614359172
6;0.8151783242740261;0.3521025378975128;-0.5747730936026076;-0.2367954827973289;-0.1202542946431281;0.624297606459748;0;1.2566370614359172
7;-0.8531453941977118;-0.2300141404175125;0.3814999649934228;0.7109072234351219;0.3426081793662157;0.1733824314937099;0;1.256637061435917
8;0.1477619709340126;0.069390320842825;-0.9630776870473648;-0.7784275154428892;-0.1294688154967829;1.4050250200453205;6;1.2566370614359172
9;-1.4128052355810186;-0.4143857495802717;0.1697184473691771;-2.0107815221379086;-1.3770245223805204;-1.157210970252604;3;1.2566370614359177
10;-2.051606785387272;-0.8330078034055552;0.2928349961007837;-1.2503327338892063;-1.966947459135768;-0.9240248969975836;9;1.2566370614359172
11;1.647877676215728;0.0227664720091338;-0.9927603048959012;-0.361596983336268;-0.6296441735166192;1.1965907805541676;6;1.256637061435917
12;0.406593002534409;-0.7749183847658027;0.0065151372641302;-2.191035680132468;-0.5382573607887808;-0.0341837318495823;4;1.2566370614359172
13;-0.715086899254729;0.1630096704941621;-0.8125801485146068;0.353942821593061;0.1959435617414824;-1.6108727280357746;1;1.256637061435917
14;1.0906716866462618;-0.5742138307433654;0.9576888381602612;-1.963467811280088;-0.8150074126275508;0.1601911757633391;12;1.2566370614359172
15;0.915964349610524;-0.6064656126241376;1.33718111953132;-1.293653647002941;-1.5382034090267651;0.8173791379410862;14;1.2566370614359172
16;-1.7906886705782734;0.1466591879007623;-0.1914429503912099;-1.7139662484812987;-1.3742599224279066;0.4155791743269332;3;1.2566370614359177
17;2.123674498921285;-0.0008183261443425;-0.9912483180817035;0.5964617448521273;-0.4099796757837798;1.817933311407596;11;1.2566370614359172
18;-1.166692008635658;-0.5353797801493531;-0.2510036171508453;1.34634112504154;1.104213651634714;0.1125783963105536;7;1.256637061435917
19;0.8914899687373723;0.0707162377197511;0.7402362271650386;1.278853648082381;1.1265766640235475;0.426890544057198;5;1.256637061435917
20;-1.925066085677947;-0.3007427791588424;1.0954535758103312;-2.221310795596541;-0.91086502021896;-0.7268645790308713;9;1.256637061435917
21;-1.6127347724530865;0.5030083445485748;-0.9869323084625392;0.4979618031715386;0.82892691342369;-2.0646985044277177;13;1.256637061435917
22;0.618419933927411;-0.5995579183651308;1.189635018803532;0.1918740102954885;0.8633427725374273;-0.6837260229730205;5;1.2566370614359172
23;0.5319107819368518;-0.3182548315486219;1.4923949852333296;-0.7014411042270057;0.8646925598435226;-1.4601564004770142;22;1.2566370614359172
24;2.3001416187598536;-0.3661239793030409;-0.951123398014906;1.4879184135438133;-0.3432934493630841;1.034482109735788;17;1.2566370614359172
25;-0.4787064796392903;0.4909506432070342;-1.2045669580924192;0.005815866781121;-0.4237896619749861;1.9040053482698855;8;1.2566370614359172
26;-2.0621701166176414;-0.0057927442179629;1.581926071809706;-2.719155608128664;-1.6053262468614955;-0.0151326605925511;20;1.256637061435917
27;-0.9270367772091604;0.9120608633531376;-1.3027182969387343;-0.4618237445303699;-1.2849938162526224;2.3844319755645875;25;1.2566370614359172
28;0.8910410884526188;0.1576342847770733;1.0197679749869557;0.5429918477198135;1.380709099078873;1.3688926002949544;19;1.2566370614359172
29;2.612750814374236;-0.4637745968553916;-0.9608806981636622;1.226277560125321;0.8111479332697251;1.300170846539528;24;1.256637061435917
30;2.090310719883616;-0.0357815234148151;-1.1712062942107273;0.8098413990965062;-1.4243558216471248;2.5034451070353336;17;1.256637061435917
31;2.808052168220617;0.0108865244147054;-1.4436590706107546;0.0836406230906608;-1.944350339093079;2.067769045939758;30;1.256637061435917
32;0.7108309440164817;0.0153274174416386;1.283936958503162;1.9539983223071755;0.241484682867011;0.3340871602283924;1348;1.2400621461007022
33;0.5709374500967158;0.1182073352129775;-1.3873556239942186;-2.051094093191238;-1.6742433583097298;-0.7046015075603732;4;1.2566370614359172
34;0.057693937732462;-0.0186937225472775;1.0328146616352682;1.0549249305091646;1.9228623221207437;0.8235469760780547;28;1.2566370614359177
35;1.2661918375385204;-0.3510128979964421;-0.8761365627292345;-1.5453122135958894;-2.2321136146436844;-0.4873206928657684;33;1.256637061435917
36;0.0787054526184821;0.5680906037610454;0.9136849687128288;2.0029691518073784;1.4510073498004297;0.3198682287037037;19;1.256637061435917
37;0.2300679057896386;-0.4277722630484302;-1.1325869122709544;-0.9630289587813416;0.9832604467406612;1.560634534800622;8;1.2566370614359172
38;-0.2977665322081938;-0.2974558571492025;1.3067083974317528;0.7631085120418467;1.137912318616659;-1.1664991999933931;22;1.2566370614359172
39;-2.105095229682196;0.6638121896462627;-1.5047393858625515;0.65236054189775;-0.1793887747726807;-2.1115636379976643;21;1.256637061435917
40;0.6706100683300441;0.4842650889371757;0.1510355075379093;-0.013088566527868;-1.1019980574546149;0.6345960507450473;653;1.0467288990002752
41;2.779737322888833;0.2145490942885068;-1.5349451809722423;1.0028347307807457;1.6512025415781115;1.2229652325378604;29;1.256637061435917
42;-0.1549202591008212;-0.3547285200148629;-0.2136323147397048;-1.4591716658537084;1.0085598769244286;2.138830201854328;37;1.2566370614359172
43;1.2060242619758388;-0.8196116243306921;1.4334871450109274;2.27269570859262;0.486206003392757;-0.3389472159497175;32;1.256637061435917
44;-1.5706087678431622;1.282233500221556;-1.93300977441502;-0.38651256837306;-2.007087760564193;2.706247499917736;27;1.2566370614359172
45;-2.413146393510615;-0.5232635975983789;1.1524398364575117;-2.5943988953117545;-0.1421234089778765;-1.47385385186956;20;1.2566370614359172
46;0.0801496992032355;-1.2802162003745186;2.044857425317832;-0.4525691896732404;1.0649657234356495;-1.254200979146868;23;1.2566370614359172
47;1.3555584294740983;-0.6477927108573649;1.4153290551451754;2.054141237179172;-0.5112049916294662;-1.0348854543761874;43;1.2566370614359177
48;0.9399136278912406;-0.1779215808580979;-0.5315971352269239;-1.1280973595390096;-2.6311346476247506;-1.4826724868081789;35;1.2566370614359177
49;-2.493021087005737;0.2702539591082046;-1.77639300665322;-0.0528810563421575;-0.2471076724495247;-1.276090776744458;39;1.2566370614359177
50;1.4057533686371326;0.9804030411292374;-0.7461173938452361;-0.3766255068081953;0.6556204945497313;1.0540688310001929;6;1.2566370614359177
51;0.9096610606067556;-0.430654157137197;2.0489545206756734;-2.134401543311821;-1.0434252477590191;1.1172182218672628;15;1.2566370614359172
52;2.528438552586591;0.1201149806915273;-2.144351992567565;0.4610675874103037;1.9860016481417864;0.3685127242042191;41;1.2566370614359172
53;-2.236549844742909;-0.035994172393931;-0.8533691615083118;0.0414805176634628;1.4030737558397697;-1.4785169015193649;21;1.2566370614359172
54;-1.947012138226862;-0.6923385712830386;0.0800327666940226;-0.2011518444558921;-2.4435271966574907;-0.5054376811334311;10;1.2566370614359172
55;-2.577741158326037;-1.1570880526202418;-0.5110878033895346;0.1850997337546725;-1.7756336333981306;-0.6490688236007887;54;1.2566370614359177
56;0.7975664803187081;-0.5468375156945846;-0.945579742387272;-0.8548960402598315;-2.4514441799178472;-2.5524695716350614;48;1.2566370614359172
57;1.2412015517459187;-0.88188573452879;-1.3111660776424008;-1.5007205267910324;1.114437056996238;1.449655412809656;37;1.2566370614359172
58;1.9727201024980028;1.0219522585891796;-0.6677369419529791;-0.8275751561867111;-0.9877339563870846;1.0409060686207994;11;1.2566370614359172
59;0.1658190697618583;0.7718099481050139;0.5524447342871384;0.10173392295554;1.819995490388992;1.104495396640376;28;1.2566370614359172
60;-0.0680908794825172;-0.9975337640690658;-0.0800461221054024;-1.0824678784798552;0.2328164509147967;2.768806315643032;42;1.2566370614359177
61;2.574422140172149;0.2722984350274179;0.0937572974967096;0.5972029643890023;-0.1715979005101059;2.077369039136845;17;1.256637061435917
62;-1.94698131173908;0.4437391233173419;-0.0202603762943266;0.7254221611411474;0.286260080636901;-2.4927440443740445;21;1.256637061435917
63;1.2959585916424274;-0.7286688425218805;1.9056191989512692;-0.3858304309070948;0.7612039745139728;-2.198975561737388;23;1.2566370614359172
64;3.0929552336366157;-0.4198051407284061;0.7414626879582578;0.2493662792039886;-0.7058264323841191;2.0042936060504912;61;1.2566370614359172
65;2.712890046383409;-0.0702251749668422;-0.7859635232547093;2.092442677777203;1.2565173472239128;1.9597432435644315;29;1.2566370614359172
66;2.468837692801805;-0.3890021405144324;0.5423942981789778;0.9055911005407928;-1.4217657576575884;1.5506011803328468;64;1.2566370614359172
67;-2.297765618429906;0.3134907599133564;1.355717122091341;-2.9728016227268403;0.3861006795901657;-2.107995129021445;45;1.256637061435917
68;-0.4151641550437107;0.6332631750211407;-1.3416227705625166;1.0786386387654066;-0.0214316077070015;-2.255638271079248;13;1.2566370614359172
69;1.053767572949737;-0.1766465474588431;1.5408782992669938;-2.455084749713061;-1.495510015384142;2.080800262356169;51;1.256637061435917
70;-1.2068770583197792;-0.3462308731758476;-0.7593833311249744;-1.7644108011531772;1.179261747377598;2.3675159175633973;42;1.2566370614359172
71;-2.1432173844785654;-0.0844467107315838;0.9785671907463545;1.008831466434459;0.6886323789488664;-2.640280559122179;62;1.256637061435917
72;1.7362539834212165;-0.2904071818027163;1.7068119450088608;-3.038511981070233;-0.6443100113752956;1.991666846249788;444;1.0068678867819982
73;2.3776725887209142;-0.6509359840463795;0.9044288428251264;2.3271947113585973;-0.1646767890575821;-1.315510555868037;47;1.2566370614359177
74;-2.569473648332256;1.5625454529580964;-2.231751540632171;-0.8513989839771687;-1.5628750414536978;2.6944194934283443;44;1.256637061435917
75;2.408350475994244;-1.1895860291009503;0.529693365431056;2.480975296710064;0.2001507733855819;-2.310938807226429;73;1.256637061435917
76;-0.024573591618689;0.1698769675237558;1.2057129911342903;-2.278570250615461;-1.6769537879720766;2.42695556819056;69;1.2566370614359172
77;-2.9155817461272866;-0.4833000692239226;-1.7064400413322878;0.201091088033696;1.498704304481377;-1.0840309654878304;53;1.2566370614359172
78;-2.545704346268651;0.4047840028078015;0.1151017509071881;-0.526115586212864;1.293561817376407;-1.347441775618237;53;1.2566370614359172
79;-1.2202418128978496;-0.5367745873826789;1.096905371605172;0.223629025682672;0.4006849260743657;0.9464652895413834;7;1.2566370614359172
80;-0.0011282792468255;0.4934612860761092;0.0631326554995083;-2.1256184724063774;-1.5100424185214594;-1.320237653642589;4;1.256637061435917
81;-2.010236077231304;-0.0184567108939247;-1.250218413726444;0.2424172634798392;2.1582717395517177;-2.3499653055256946;53;1.2566370614359172
82;-2.0991092267280216;-0.268892983495073;-0.1044307568076509;1.6057312684198983;-0.1380496872669027;-2.786140918153006;62;1.2566370614359172
83;-0.7424029219466943;0.1870823300132918;-1.4327066884915565;1.0230591214422362;-0.9249425689122142;2.185570841279489;25;1.2566370614359172
84;2.897834798626244;-0.4798320067277114;0.0338272456114217;1.129600912666339;1.386495422736109;0.8905478680861023;29;1.2566370614359177
85;0.2231143667355383;-0.6719396634239592;0.0598352751236385;-1.2471888475990425;-2.260446131510771;-2.732073768094308;56;1.2566370614359172
86;0.3832469532305012;-0.5920486646811235;1.5440099044003872;1.6809674363496852;2.064956204599863;1.5098235834473923;34;1.2566370614359177
87;0.4446368303720776;0.2438895226601901;-1.1022878978442676;-0.9518480144959368;1.9044956281279444;1.0787112803497287;37;1.2566370614359177
88;2.461122899352482;-0.866836794479818;0.3304381501998028;1.8678844523178932;1.22781531401123;-2.33346156738116;75;1.256637061435917
89;-2.9006662946410224;-0.3171146953024493;-1.9084734651240332;0.3795336343145001;-1.099837071743664;-1.645394191372593;49;1.2566370614359172
90;-0.0835550060270084;-0.4570996468242717;2.302693599451548;-1.5046661291194212;-0.6969317591750894;1.0125700703647251;51;1.2566370614359177
91;2.6129626381055724;0.7144059248522157;-1.1597449461170004;0.365316086256116;-1.3392053566773898;1.5626100109423011;1534;1.2570848064762816
92;-0.5220080050441389;-0.4758181901193073;-1.227187778837069;1.5484919949970126;-1.8022423002794905;2.1294180168532257;83;1.2566370614359177
93;-2.6898845187733804;-0.8499047013775773;1.9443008081301072;-2.1610529082697214;-1.7457219910082706;-0.1155383337045294;26;1.256637061435917
94;0.8381481842309029;-0.982280269835025;-1.1976740749260606;-0.2568345837691698;-1.502729254615624;-2.294418472781848;56;1.2566370614359172
95;2.893063929785688;0.5275830608313555;-1.0370338128136394;0.8169343761019319;-2.6723293429429;2.335942749525404;31;1.2566370614359172
96;0.6725120247241023;-0.165417349000336;1.343646422391644;1.8083493338012888;-1.4104097647647995;-0.9588786140804836;47;1.2566370614359172
97;1.6857595874017433;-0.6929393901020362;-0.8487321995450992;-0.1632665731526532;-0.7157739133401879;-2.459219427079276;94;1.2566370614359172
98;-1.5345928448947757;0.7775376170024684;0.2240276855519875;-2.490276833194644;-0.8001732300025722;0.3121647834179763;16;1.256637061435917
99;-1.2016921377437184;0.3255982735264019;1.429296789003333;-2.046933944030293;-1.5343653095557532;2.6398004413366563;76;1.2566370614359172
100;0.4962056871713054;-1.249432287120322;-1.2042023247896938;0.6560906875785886;-2.24340238954914;-2.200770351522328;94;1.2566370614359177
101;0.0708900102951014;-0.5909415984560493;0.3126908089332991;-0.3952477346890071;-1.4334660200213487;-3.0073337857293208;85;1.2566370614359177
102;2.88199645971501;-0.8414046767736357;0.8381107527653882;0.3521811047272937;1.7376496211463708;0.6192762942828889;84;1.2566370614359177
103;0.7760182412780237;-1.1319995893868025;1.3156249579669752;-2.733576228210054;-0.2138917845331711;0.4542655250677109;14;1.2566370614359177
104;1.2686102217106257;-0.3648732973956238;-0.0086365527797886;-2.472622497871103;-0.4639698518422225;-0.797653902007357;12;1.2566370614359177
105;1.837906939255581;-0.5146007422304405;-1.3204138388747635;2.359782139709606;1.4142071043043765;2.4435800284140323;65;1.2566370614359172
106;-1.7124226686055322;0.8580275749552377;1.898588178271509;-1.3883714252789332;-1.5831807477775564;2.0245865583286973;99;1.256637061435917
107;-2.5025226825548823;1.061006050828718;1.1481228602063542;-3.020639699716466;1.2247922961384294;-1.6287825959351707;67;1.2566370614359177
108;-0.2889776867117783;1.0729469829959737;0.4669389030261071;-2.507658501441228;-1.9811938901559247;2.480444876692224;76;1.2566370614359172
109;-2.705212805062586;-0.2798455678617084;0.14261576973637;1.4816778965896351;1.0506755907119898;-2.2259819638237333;71;1.256637061435917
110;-0.7306929702743429;-0.1415877499460405;-0.5721250004164413;1.460525237048381;1.4456429788463006;1.1131974246951335;18;1.256637061435917
111;-1.945828809485794;-0.1433797024921443;-0.1331885361959984;-1.4029762827033003;1.8104026366975807;2.1013491245925824;70;1.256637061435917
112;2.373911882207046;-0.4447813381225681;1.7180512183537693;0.5067615361601367;-1.2882799085224683;1.4613723258453248;66;1.2566370614359172
113;1.0097322560746884;-0.4318433756504889;1.7765776085436438;-1.176581084153803;-1.28004391055726;0.2227425540593015;14;1.239661928440808
114;-1.8893991748755297;-0.1951353186313124;-0.374017166848848;-1.1078957221759438;2.8193226943021776;2.7418825800264006;111;1.2566370614359172
115;2.426682915383294;-0.7925723365220376;0.9280939992715148;2.829903266961981;-1.2550466556193127;-0.9771446913074706;73;1.2566370614359177
116;-1.7898897689033926;0.0016204387931914;2.2980523898871983;-2.3496495419403294;-2.4171769248046155;-0.4583842837939153;26;1.2566370614359172
117;-0.5116802004081961;0.9454335273351036;-2.15940284436778;0.8042665909446232;0.4524847617507401;-2.965377683342194;68;1.2566370614359172
118;0.8453993194726248;-0.3299250687083793;-0.9814458011147112;2.164629115239197;1.9342069604567496;2.813142391858832;105;1.2566370614359172
119;0.9419132989255616;-1.1972729343393615;-0.5618185405709932;2.361940564082857;2.4645951604703416;2.246398227724816;118;1.256637061435917
120;2.3632653686684986;-0.7212245990608299;0.13518865004229;2.4222491216838047;1.146941989136931;1.7071592717365602;65;1.256637061435917
121;0.1558792168719363;-0.3478960422393216;-0.3802200092311512;-0.5679986041745637;2.3726328397851293;1.5863240614024996;87;1.256637061435917
122;1.9982173151232208;0.7105879911579637;-0.3147457322039384;-0.8216459334648372;1.2587068097587495;0.4157231402524604;50;1.256637061435917
123;-1.6079901781244983;0.5957649777236272;-1.911873697344261;-0.5071882849505277;2.3345634101259334;-2.4463588341832025;81;1.256637061435917
124;-1.0060947801639095;1.2776990239323591;1.5680984437757088;-1.99918036983264;-1.2520995930202052;1.4658489359083309;106;1.2566370614359172
125;-0.9996097669255816;0.3684584444603268;-1.2333368529089042;-0.9475389056762278;1.4975226083997597;2.5469442967543263;70;1.256637061435917
126;2.78888357125312;-0.2138067128188872;-1.4971462023148987;2.478202270369841;0.9816733908678492;1.0527616760988634;65;1.2566370614359172
127;-1.4414430933594071;0.2532651031730579;-1.4149427235017578;-0.6352825654406072;-2.1633704262564186;2.64188729008936;27;1.2566370614359172
128;-1.7028282869154785;0.2591902610173264;-0.7567072061629511;2.231997863437069;0.2272922877456702;-2.347874977590892;82;1.2566370614359172
129;2.6597678352949465;0.1805863515668329;-0.2584057751226107;1.8001657972811875;1.2221430152725974;-2.0314243393406803;88;1.2566370614359177
130;-3.0380544125349176;-0.0587970549715542;-1.1791744217673852;-0.9433480099905268;-0.3901444696962253;-1.3372450842831602;49;1.2566370614359172
131;-2.5964115481412016;0.394908105446879;-0.1624680145335333;2.3656149756484552;-0.1383583501830586;-1.8403789799976988;128;1.2566370614359177
132;-2.324644418282479;0.1444625128036822;1.4061026917280806;1.5764280353171771;1.51819572787577;-3.18863599446493;71;1.2566370614359172
133;0.8935682004476109;-1.2756055225801428;1.5802833031523575;-3.109997582109313;0.6874629615143443;1.175735270556181;103;1.256637061435917
134;0.0557464926528405;0.1076026145985167;-2.3797947390777936;-2.094025191669441;-1.175940230991183;-0.4243908040117912;33;1.2566370614359177
135;1.4471672357827257;1.2430528264983474;-1.4110306509484267;-0.009561599843907;0.1311022060911504;0.7700227209828548;50;1.0016722003516696
136;-1.7540673907415576;0.8407745329045806;-1.5461019868294203;-0.7975079935997791;0.7571061217055671;2.2029965779167235;125;1.256637061435917
137;1.6753588930090235;-0.707866077186819;-0.1719703681068719;1.0322644492586202;-1.9178087139613769;1.275951840024501;66;1.256637061435917
138;0.2050820008956281;0.3122292098971003;-0.4339215800728382;2.738814740104439;1.5997301912590074;2.9373265478972903;118;1.2566370614359172
139;0.3439523645738614;0.8855235683951054;-2.329398896367416;-2.515852982930308;-0.4630997509655381;-0.8741608483711747;134;1.2566370614359177
140;-2.839852222311305;-0.6215383203735366;-2.152049129272833;0.9839021699917198;1.061523077113848;-0.3411959538857114;77;1.256637061435917
141;1.001703523959149;-0.0998973574538621;-0.2547030092735675;-2.648599157497024;0.6863015292500259;-0.645849639164352;104;1.256637061435917
142;2.6414931672882496;-0.4378824274711639;1.0593785156032949;2.5861802729616308;-0.8336139987526492;0.096608689111725;115;1.2566370614359172
143;1.020967687780344;1.4676955490955377;-2.0905174708066285;-0.8878500736271444;0.02761881470236;1.0913084237555744;135;1.2566370614359177
144;-0.1155948301421777;0.4923314927335721;-0.7479257385619233;-0.8215482547058099;1.9785830877512889;3.0941124471177948;125;1.2566370614359172
145;-0.4526774584247403;-1.1425440950638102;-0.3808310984644805;1.910935179739313;-1.5729870808250586;2.6085462866632376;92;1.256637061435917
146;-2.130340623481972;-0.376428753485869;0.5454200417299155;-0.9833279336737072;0.9997603159366464;2.545224020722665;111;1.2566370614359172
147;-1.6895238519958942;0.5836577375242782;-1.4987703432947888;0.5192168271987144;-0.6920945468881167;-2.0712855878915537;39;0.6792471674294541
148;-0.6916020884228591;1.0481685614411071;1.9112589995638132;-2.4415417755324693;-0.5185095553120092;2.224762431689021;124;1.256637061435917
149;0.7690123582594142;-0.1385802629519189;-1.523027873093066;1.7447844113353563;2.967008380543063;2.7924201278860887;118;1.2566370614359172
150;-2.3714213683808305;0.6953378958069023;0.4412339709755045;-2.6966371230458144;-0.6061853070110425;1.1751268210351085;98;1.2566370614359172
151;-0.0334829519544463;0.1343414552048477;-1.190976186345997;-0.9043884979145964;-2.1210564217491408;-3.055126279614882;56;1.2566370614359177
152;0.4134307727149532;0.191427331494675;-2.658846265455196;-3.213253709593314;-0.3719261072819105;-0.4682812254016765;139;1.1200674441615217
153;1.792996565821918;-1.3615243360836695;1.773373967056879;-0.9745545973644762;0.0926250603946691;-1.8518427762909184;63;1.256637061435917
154;-0.20423297431524;0.5803967694952141;-1.7639269851938335;-0.8201667605569611;-0.1373417468222751;0.6627683756446787;8;1.256637061435917
155;-2.484771286693142;-1.3406971173096824;2.0129489302062367;-2.3395124165279944;0.1684888866091904;-1.411516029944382;45;1.2566370614359172
156;0.990840986490147;-0.0509617458867717;-1.8927686469251608;-1.938313290060296;1.207268752664594;1.9859901197378456;57;1.256637061435917
157;-0.4389107065530906;0.2957061189364888;-2.717965659734499;-2.843089810175126;0.439949833441153;-0.2630552936928952;152;1.2566370614359177
158;3.2271115328075237;0.3525297483806758;-0.7429324457032225;0.844034000773461;1.246132561719736;-2.311002049867491;129;1.256637061435917
159;1.6152185206332217;-1.0908884401157368;0.6831392812940686;-2.5423851459927724;-0.3744127123093035;-0.0586951433178191;14;1.0930048871123674
160;2.836281019516715;-1.3090973652102225;1.7995888414820804;-1.1557982582723934;0.758880768692965;-1.7493122321707202;153;1.2566370614359172
161;0.8577962476743639;-0.3093934927485746;0.8002841838247283;1.516783244228212;-1.4073535152964392;-2.0283713365340814;96;1.2566370614359177
162;-2.151781709362559;0.5424422095871781;-0.213003986214699;-1.8121215307950556;-2.2294772852096183;1.1576089890550314;16;1.2566370614359177
163;-1.856169154178384;0.2975731505061852;0.6946997935035939;-0.6973733045702983;2.9485168524190253;2.6530281645723424;114;1.2566370614359177
164;0.5246243328096571;-0.5292594496830925;1.5612257199006054;-0.495873381027024;-1.9813979391813528;0.7995269409616845;113;1.256637061435917
165;2.043719974084563;0.2310974982398667;-1.2116079685963097;0.1326735290953551;0.3477071905359873;2.1353206000478315;17;0.9993295946159666
166;0.903944531651072;-0.7806547391727263;2.032292188961155;2.1552043767208247;1.2191283080320516;-1.0984339527904503;43;1.2566370614359172
167;-0.3327431893547028;0.9914370496453816;-1.2304096331057737;-1.534026331361083;-1.3749028075412144;2.14627089588791;27;1.2566370614359172
168;-3.188001501119029;0.7825998556872624;0.7634591420916202;-2.9392927958276616;-0.5519391210857868;1.760267506888867;150;1.0874101664908953
169;0.1518367413370863;-1.2782093883523695;1.2241940497729882;2.470344684779759;1.19795720013846;-0.9838664405073716;987;1.1413885752835735
170;2.1601679326447294;-0.3408405995787791;-0.5328513839417839;-1.0248224665171577;-1.2704183216315492;1.546604392899957;11;1.2566370614359177
171;-1.789758980201118;-0.2717515757539989;1.5044630603299964;1.1475731829674851;0.2543576960229106;1.3250969970810815;79;1.2566370614359177
172;-0.2406735258448289;1.0599573720574849;1.596800745069497;-1.9966998949222;0.4502253832301104;2.599523003058469;148;1.256637061435917
173;2.081289061142468;-0.8448401293676053;-1.0906049535897355;-0.3966795725656098;0.4184694902742702;-2.470495459194149;97;1.256637061435917
174;-2.31564577102337;-0.1300958652255928;1.1994189648491744;2.0338471256199275;0.4923095741964152;1.9144686532955209;171;1.256637061435917
175;0.7819449830398917;-0.257724895781953;2.048401679332996;-0.9188912435523447;1.933992487698359;-1.3455903206691668;23;1.2566370614359177
176;0.3657738850657777;-0.6487798733617054;1.9878300627016563;2.0732204731048403;-0.4715869086055282;0.3043664839198591;32;1.2566370614359172
177;-1.4779147033337516;-0.8432340316400675;1.15125099585841;-0.9699854652452836;0.4957290856572793;2.9480697004324234;146;1.194616272363483
178;-0.9804485742627222;0.8201210868999305;-0.7455572386857703;1.2592203050608046;-0.4525885326942263;2.794396019240468;83;1.2566370614359172
179;0.5488792515637815;-1.092710562312644;1.6035100302189818;1.6907933373372552;2.632539803616257;2.497372243012117;86;1.2566370614359177
180;-1.9754602928028488;-0.0220624799730057;-0.8781550008131042;0.0932530350986124;-2.749831448914097;2.877079435478678;127;1.256637061435917
181;-1.6866591130352702;-1.2566858403106904;2.097903593831881;-2.4998819336150837;0.28077496050382;-2.3546766358314386;155;1.2566370614359172
182;1.910450865422348;0.0033729150052527;1.3760189140698076;-0.8248586485995446;0.5234373290497737;-1.8303353584176287;63;1.2566370614359172
183;-2.741084846126119;0.3019483099506603;0.3401733293543593;-2.869570198373693;-0.2522675849567151;-1.6811954034633116;45;1.2566370614359172
184;-2.074538896406694;0.6509303788253804;-1.078942729858984;-1.024847207914676;2.781235336015812;-2.0023259416332437;123;1.2566370614359172
185;-0.1291107410997521;0.0620399119026509;-2.68389506703179;0.7646238970479211;0.7125210988459245;-2.410300660067384;117;1.2566370614359172
186;-1.1194196904700011;-1.3351288933492498;1.848721194777731;-2.5810701021923785;-0.294415599774091;-1.431803263291102;181;1.2566370614359172
187;-2.519221470391616;0.1261603083412616;-1.5677911046201582;-0.5118262267883101;3.1251822359971446;-2.479460051329379;184;1.1494546131564083
188;2.4129748119701606;0.4941624802521924;1.0110375189745513;-1.6221087654230444;0.7797756166554267;-2.3315374182015765;182;1.2566370614359177
189;1.8573609814762195;-0.2817096563725407;-1.3144468152347624;-2.0449125956629035;0.3781804840197831;1.4173533350980991;57;1.2566370614359172
190;0.1046478445413079;-1.2559209590711635;1.5223840915915663;2.92057191037892;-0.5326455292856027;0.7559825063830113;176;1.2566370614359177
191;2.924604582551373;0.3097858506910586;-1.6697560713456916;-0.5446608095574706;2.3389332778282723;0.5263813715313476;52;1.2566370614359172
192;-0.4877813797683899;0.7252445893241525;0.8147579242027928;-2.4694852319230174;-1.54295181600877;-2.0976140380058754;80;1.2566370614359172
193;2.3949729722114377;-0.2746451793226612;-1.5526910556022002;-1.8409006327205524;1.266634001847475;2.0516476613566392;189;1.256637061435917
194;2.5146049986865844;-0.0345071475327817;1.612313255598372;-2.2562505914295;1.3890657065170449;-2.724492445441437;188;1.2566370614359172
195;0.7488418117098314;0.2589491690150546;-2.1374260597178667;1.3558725411992036;2.035016434000107;2.639601146523734;149;1.256637061435917
196;-1.8956684458306776;1.1226211812824602;0.007153985592116;2.8108546309514466;-0.3952615696730675;-2.355665550976563;131;1.2566370614359168
197;1.413955510821109;-0.4355169610956753;-0.5582227535957737;0.3917362844190852;-1.489099941802567;3.1415198723500515;30;1.2566370614359172
198;-2.841723515638039;0.8126179352047853;0.4710067513068294;1.855524843756033;-0.6778674081823531;-1.214339847333512;131;1.2566370614359177
199;-2.237075479863265;0.8940149038219505;-1.3319119401031634;0.2765623513328389;-1.602946716034571;-2.587645687927917;147;1.2566370614359172
200;1.6920890441488092;-0.4980170002539198;-0.9131921700797936;-2.3164311459587426;0.8561866834520355;-1.2551121107615126;141;1.2566370614359172
201;1.9135926167320088;0.0579181237108319;0.049857031843388;1.4568520196151105;-0.2114217736378699;2.6723248819500034;61;1.2566370614359172
202;2.205142771884235;-0.4993535311081507;-1.1389250431290487;0.7438938920287196;-1.317747337743959;-2.5079875242832443;97;1.256637061435917
203;3.1884445701597315;-0.786100997647324;-1.970547275231292;2.2059242392550025;0.1376004048836698;0.7676935155734484;126;1.2566370614359172
204;-2.7747628955349386;0.455057342882696;0.9641313528249272;-0.0407237496482102;0.9463294703409072;-0.6787754360317049;1146;1.2356456700998315
205;0.814106842162085;-0.6534643017111261;1.0980309100265244;-1.562893263403892;-2.484663742740831;-2.7736702522879835;85;1.2566370614359172
206;2.2209158666714988;-0.981695865712817;-0.3597122770406624;-0.6069545763165843;-1.4668641504424222;-2.916633993634779;97;1.2566370614359177
207;-2.738515737614475;-0.2492388992181566;0.7006706175358421;-0.2067221741699419;0.8778589517407238;0.3112419391589849;204;1.2566370614359177
208;0.5040282664921318;0.2991909048455593;0.0745744755603468;-1.580230597683526;-2.9849234433981198;-0.801152616882371;274;0.9310971224957912
209;-2.569342629217995;0.0972686487115921;-1.7411915092370909;0.9410466454610212;1.9538678467023507;-2.7054905849183486;81;1.1060331210737695
210;1.27463186021607;0.2915625426174271;1.2722352103623968;-2.3034528154449885;-1.572594675966143;0.0749917324006745;14;1.2566370614359177
211;2.9038866081042887;-0.6293384400645443;-0.7595537813126486;2.3253429116979727;1.8278498268711856;0.7213687590944362;126;1.256637061435917
212;3.08129155026821;-1.308464955011384;0.7194087421624591;0.2789445824545155;2.265226237059101;1.630949179347252;102;1.2566370614359177
213;2.098134822310966;0.3540052982152039;0.5328792147640069;1.989379641270824;1.085904094991474;1.6483054808405484;120;1.256637061435917
214;0.0825008762119364;-0.4521868783731723;-2.3741847185669056;1.125101339281353;1.7296214698570511;-2.5081290032981784;185;1.2566370614359177
215;-1.5035521995217347;0.5454778170097265;1.850870703220348;0.9940261499732862;1.0710815033755103;1.1881817730197055;171;1.2566370614359172
216;-0.287908189797101;-0.2698694037432041;-1.6473606969872927;-0.8903302553520691;2.57160448132226;0.8980368491909896;87;1.2566370614359172
217;2.8074622300639995;1.335333410834364;-0.0855647325107517;-0.3533785333573922;0.7881999976284049;0.2137885381523535;122;1.2566370614359172
218;-0.0501312732047423;0.6948597974880536;-1.761422002464497;1.980100595796937;0.0976333009264173;-1.593028244062744;68;1.2566370614359172
219;-0.4442482521146906;0.9312381905463116;-1.3599118854174488;-2.1735122323661087;-1.956270596374932;1.2521915561842425;167;1.2566370614359172
220;-2.389058138914726;-1.3602353795880426;0.0163615193117343;0.6245298204703257;-1.862001694516891;0.3626156898694918;55;1.256637061435917
221;0.4216158928688993;-1.0315414338893034;0.9825437448426688;0.4948295389959446;2.244572103804596;0.8568010295543207;34;1.2566370614359172
222;0.0176824496778854;-1.3340483453762029;1.123847867981865;-0.2172241969941686;2.903332094159007;0.2538815132808416;221;1.2566370614359172
223;3.2408153109332023;-0.8245080919338795;1.6156822317214;-0.5622904191018807;1.6675694469826972;0.6849530634970313;102;1.2566370614359177
224;2.1394548807715337;-1.5154376396017375;-0.8897310545468419;0.0116142133155746;-0.0397830052877309;-3.3125185778044823;173;1.2566370614359172
225;-1.528880791840884;0.9041841749557946;-2.27605222911417;0.8798150960950227;-1.5261542251188656;-2.215297830084584;147;1.2566370614359172
226;1.9022874096335072;0.4222278579992123;-0.9527450971837844;2.090308616528366;-0.0165461814277435;2.7151329212358237;201;1.2566370614359172
227;2.5742653726687004;1.5473373219837228;0.0916431427646077;0.3989794325156384;1.6198147329268076;-0.2229975235471781;217;1.2566370614359172
228;1.286430969348682;-0.458459322282007;0.1216868704003495;0.6699347147193354;-1.7769401096531232;1.0235891733287898;137;0.7172983679581417
229;-2.825701738181657;-0.8949594049644953;0.9993790714210622;1.783623422902676;1.102626946046297;1.4056973634485108;174;1.2566370614359177
230;0.3922850841280716;0.5893081086971205;0.8729543155726287;-1.767093074194392;-1.2372536722879937;3.24167615621393;76;1.256637061435917
231;-0.6140242044032034;0.098091249272805;0.79799973563412;-3.189307111843968;-1.484802503902204;1.986572048021084;1341;0.8230400191243331
232;0.3744173796558456;-0.5925446108166574;1.6756841944161929;-0.0831014823885869;2.5377075855481626;1.5523687364573333;221;1.2566370614359177
233;-2.4236552496664285;-0.0269251253159396;-1.0627202377349247;-2.056772557266557;-1.3647208699440732;-0.105599518474813;16;1.2566370614359172
234;0.1497728046843032;-0.4532304192894095;2.413563229395863;-0.4682499692411196;2.2405335227646246;-2.1887301130101924;175;1.2566370614359172
235;-1.6478013212854168;0.6534958253805625;2.1514123253172097;1.0400739230979863;0.9126686417322902;0.0106390190972281;215;1.239605959704001
236;-2.8377232970522384;-0.8576694509245375;0.8012556735244014;2.232676678871377;0.6377687276297914;-2.469702013097914;109;1.2566370614359172
237;1.3527779341795008;-0.5266142849402367;0.8729704808473157;1.6208878721700262;-0.5971930392023883;2.9363371526015625;201;1.256637061435917
238;-3.0296710527348023;-0.8884145624124211;0.2475845127773319;1.4993573879868194;1.890081984276224;0.8847341078496261;229;1.2566370614359172
239;2.5367041436770346;0.5278272496313614;1.2350609892179452;0.3764891787987875;0.2250751883852159;2.0158804183850743;61;1.2566370614359177
240;-0.5029031442924767;1.116937334274103;0.8174210073098042;2.67038563744977;0.947212126273659;0.8006116818656422;36;1.2566370614359172
241;-2.3282371183885644;0.3708489498863044;1.4761780436500689;-0.981636716268503;-0.8207767882853836;2.21808852755541;106;1.2566370614359172
242;3.294964953295059;0.8946813350824492;-1.3256872909906043;1.3316111962349293;0.534827745172261;-1.866800517614886;158;1.256637061435917
243;0.0349008985635157;0.3451732377789894;-2.3786002193721383;2.3733991292316468;1.004917489485132;-1.2915846220342186;218;1.2566370614359172
244;-2.37031963732;0.0370750590448415;-1.1902534970204386;1.0482094336753514;-2.1212746069824635;2.753407871875376;180;1.2566370614359172
245;1.740345719040006;-0.2192525936876408;2.393440837899732;0.1853869815602248;1.406929266475296;-1.8235672051568232;63;1.2566370614359177
246;0.3020217525166852;-0.6977941351892507;-2.4380951427176893;0.608353085763512;0.8148880999701018;-1.5614210892030322;185;1.2566370614359172
247;-2.2635754909442265;0.3566615252328724;0.306269035557503;0.3256421827692471;0.9953345239396614;-0.1427488240161336;1146;1.0852159564382338
248;-1.2259990650948729;-0.1641915067996056;-1.514694269390369;-0.5882384205858375;2.0822647209225726;0.3152494632575305;216;1.2566370614359172
249;-2.955785019359777;0.9641605353940172;0.578897276571165;-0.7615287475839271;2.0438742067408344;-1.8618094580369944;78;1.256637061435917
250;1.26896396390839;-1.1054917818165984;1.3633180612856532;-0.952479183570178;-0.6101176310093874;1.2939024777261692;15;1.2566370614359172
251;-3.061955769687665;0.1444238048113292;1.0745880422222742;-1.198023856442235;2.50646603127376;-2.357458181579186;249;1.2566370614359177
252;0.1423732978283883;-1.0084334174527168;-0.4154366940682453;0.5672557477405856;-0.2016881489421094;-0.0829683750450936;0;1.2566370614359177
253;2.520875206494796;0.2873380111675648;-1.4173837127690874;-2.440798835330079;0.7804205741958699;-1.2622374263666825;200;1.2566370614359177
254;-0.4190049257326029;-1.0394225794901075;-1.737553063207049;0.4747637783129843;-1.8912380156093436;-2.706794023337052;100;1.256637061435917
255;-1.897857565115344;0.5359611802408925;1.460871878217337;-0.0690813132881834;-1.3133243079417103;1.678594881292966;241;1.256637061435917
256;0.0221750230655558;0.9739332933440458;-0.3205232700679501;0.21028165116831;-1.6557641575168067;0.0515223698339355;40;1.2566370614359177
257;0.4481206027953044;0.4037466058677854;0.7309295773557876;-0.2691926814464807;0.6435582592222446;1.5584293590046507;28;1.2566370614359172
258;0.1364728445423356;0.5164886302704821;0.9306560711317432;2.583445686891361;-1.552749955860815;-1.146513419248683;96;1.2566370614359172
259;-2.3880327220522117;0.6736323870159748;-1.4559146979515527;-1.4710973981128197;-0.0711615851242035;2.16552206906332;136;1.2566370614359172
260;-1.8626065897014448;1.4056911704905488;-0.8389910715962233;-0.0120685974199462;0.860514789436296;1.855705784824114;136;1.2566370614359172
261;-1.1168448773838515;0.5612722071892482;-0.9728087769500005;-1.56348259333926;-2.700212928639356;2.825372263278114;127;1.2566370614359177
262;-2.970738076541408;-1.1841673487940425;-1.6935835913706423;0.7374986507601892;0.624510368749351;0.5439982184344911;140;1.2566370614359172
263;-0.1305596581884919;0.9437604669063068;-2.0206323127289534;-2.5915102776510777;-0.240722792489551;-1.9696384460439016;139;1.2566370614359172
264;-0.5690770931141506;0.2676913072281426;-1.1216887761387742;-2.15606539578266;-0.9881867181394814;2.8179649737483308;167;1.2566370614359177
265;0.4740831584849474;-1.610422742994355;-0.5952244851075039;1.27947118624086;-1.524384115729006;-1.7861757842123076;100;1.2566370614359172
266;-1.5886615660953547;-0.1444647860230925;-1.1328927186723912;2.547876681434708;1.031621018258401;-1.6302918166816682;128;1.2566370614359172
267;-3.1871177037598653;0.4835444016260457;1.4361986914060143;-2.996802858306076;-1.4790647471292726;2.177704835727857;168;1.2566370614359172
268;-2.461683391379913;-0.0999072070731937;1.4384169691835589;0.376362166792952;0.0348199359330044;-3.302494373018672;71;1.256637061435917
269;0.9407960031476752;-1.4093414236959598;-1.0290528808840689;-2.0325148452998985;-2.529214276692461;-0.4226957848278815;35;1.2566370614359172
270;-0.8577857521696479;0.7379641285860441;0.3069816448937037;-3.3458640360206;-1.64790812201311;2.2141777771429663;231;0.9015950534361656
271;0.122694275831269;-0.1205451914878089;-1.4825350920796336;1.864822552219964;1.4466965284309874;-2.720877527509196;214;1.256637061435917
272;-2.0023424813728004;-0.2230602252785387;0.9921398945610946;2.380882322057637;1.6343387543232324;-3.231409444727273;132;1.0357519824148624
273;-1.9595823549340656;1.391545144112157;-0.0629302093245754;0.3425385140714377;1.44710210678074;2.5609936329613965;260;1.2566370614359177
274;1.0497125212844438;-0.0727907538852323;0.2115070956599903;-1.603695640111533;-2.681562632643605;-0.2359347305814749;35;1.2553276583348152
275;-2.247943774319584;0.1548513533230973;1.517679253439047;-1.280046085579989;-1.2209917881125036;-1.05380233987243;20;1.2566370614359177
276;1.9970273497445172;-1.2541449724715572;-0.33959075054274;-1.6637175976118588;-0.9023676110821508;1.917278090841932;170;1.2566370614359172
277;-2.9725057842372165;-0.6864390664534505;-1.5794320382568414;0.8904153602799126;2.297646329871213;-1.9446702640147024;209;1.2257647294872644
278;1.9635950800439004;-0.1834174292792972;-0.9875177245003942;2.63016330227669;2.3810259253823536;0.5086337767757776;211;1.256637061435917
279;0.4442967794943627;-1.2455422178989537;-0.1849011183928898;1.71345816206062;2.3922607997299656;1.373840979510989;119;1.2566370614359172
280;-2.092920025348364;-1.4031713618598984;1.9638299063422613;-1.5557099630756277;-2.416787426228055;-0.4309996068314984;93;1.2566370614359172
281;2.637765353121788;-0.4285217337898345;1.2452585645118983;-0.1052227824738947;1.0847344481376096;-0.1208113129351981;809;1.171399973833011
282;0.3929296827475615;-0.5877966224646897;-1.113156750555542;2.190426323709363;0.820505894419727;3.0357785504675188;118;1.256637061435917
283;-2.151687783534448;-0.6948037000834857;-2.017168518694119;2.903306708266193;0.8509040270228332;-1.7656891465025049;266;1.256637061435917
284;1.6296023914836255;0.1381062490377019;-0.6065011197898884;-0.3860906624438194;0.7522595250968156;-2.2194021706685945;173;1.256637061435917
285;0.7735217352607773;-0.2937452454626722;-0.2330283323296377;-3.01324796606652;1.7911214462711462;-0.2778453218841119;141;1.2566370614359177
286;-0.9634909512790428;0.1014800369870375;-2.2063698751315237;-0.2673999047681807;-1.8615093434269188;3.3309773031143424;127;1.2566370614359172
287;0.4118038596378723;1.007215867662567;-2.550529680308567;1.4160965362389224;2.730117027488745;3.1377905730882154;195;1.2566370614359172
288;3.07469862965114;0.7409175362148787;0.1305455698358157;2.090749149659977;0.6163308026751239;1.4167225513655302;213;1.244851725658103
289;-2.370132003599307;1.4456455243118125;-0.2020372783881953;0.2181756381936251;0.877427314309551;0.1704121353199181;247;1.256637061435917
290;1.1280172795038566;-0.9197846118221148;1.6564564967050093;-1.9110219799616093;-2.311265723761497;2.296553616078539;69;1.2566370614359172
291;2.151599194789348;0.2022465978251538;1.6908053514154409;-1.6968879782920785;-0.0115886386586821;-2.9074462540575103;188;1.256637061435917
292;0.2203652189025222;0.1491635436038701;1.2725410040979512;-1.7623967346738263;-3.0673706281497166;-0.8336784104846116;208;1.2566370614359172
293;2.2269196305115826;0.8664779100495054;-1.9741362482747409;0.8972774524351566;-3.0333993434727105;2.4104493139872085;95;1.256637061435917
294;1.662695304446211;0.068571210798269;1.099546249579219;-2.9375057049852344;0.2709864341630624;1.5140489417508043;72;1.2566370614359172
295;-0.4893067690753653;-0.08852759554787;2.4394799131642;-0.1394220557721356;2.818474753431663;-1.4174387830617987;234;1.2566370614359172
296;-2.525930400208196;-0.2596743698852877;-0.0919507429964342;-0.6774905411966585;0.2343221649891247;3.113854178072975;146;1.2566370614359168
297;0.976491454778252;-0.516588160363031;-0.60541757263482;2.5056222033703555;2.805360018969085;0.1185184518290694;278;1.256637061435917
298;0.2914346134412138;-0.5692009955574899;1.1734161112648644;-1.2371092173142966;0.4855415144779492;-0.4979243210332397;23;1.256637061435917
299;3.367865633178672;-0.9963576862265606;1.3889688870424015;-0.5967174610483694;-0.7119110121773121;2.1940016533085105;64;1.2566370614359177
300;-1.268933859595902;1.1142795491335864;0.9513787834292152;2.5952436800781493;0.138295778948342;1.361316530296202;240;1.2566370614359172
301;-3.0382724739976257;0.2697891639647355;2.003089869032181;-3.284884376841913;-0.2872822053203671;-1.865209538520605;67;1.2566370614359177
302;3.2932906853586976;0.7068574631248906;-0.1713771047272158;0.1573502054180705;1.7582740449921814;-0.0819343439316446;1419;0.8177975542825396
303;2.282134922456484;-0.6896899764917545;2.619090603992973;0.030951200378757;1.8990842583206888;-2.688035289385874;245;1.256637061435917
304;0.0682108264229494;-1.335248176349297;2.1678580113174712;2.783456343007052;-0.3899337615470288;1.812255355589479;190;1.2566370614359172
305;-3.1689579225656823;-0.3434286739115093;-2.0737657281012405;1.3775620579069363;0.7384291157349505;1.0595629323172948;547;0.7813126388669288
306;2.853296224061726;-1.4337668019943424;1.3628755845613243;2.751596669805984;-1.3046125990771271;0.5451371109286534;142;1.2566370614359177
307;-0.8379826528965248;0.8078510716071261;2.198512406966933;0.5198588351895146;1.248375875228685;0.8285021926283107;215;1.0091157701459943
308;-2.5623219386148213;-1.0786368192311604;1.108266477854821;2.730898858948276;0.0455949700476853;-1.5971692147323369;236;1.256637061435917
309;0.4139365876578739;0.5833322063336507;-1.6719700612377772;-0.6788165798744888;-0.5545882256010074;1.4345962096001852;8;1.0144145567859058
310;-0.1463087026584749;0.071296056670888;0.1884096906622812;2.790885814325563;-0.7217146923080888;-1.0184737063050169;258;1.256637061435917
311;2.3335134555221337;0.7663345976239122;0.1866896508308749;1.791920881572047;0.7759028636723326;1.987446952234989;213;0.7716044512055347
312;1.9048883228953493;-0.588098619625059;0.0383080788420035;-1.5301942925661345;-0.9317355682644498;-2.751739703861221;206;1.2566370614359172
313;2.654484987746269;0.8879996891922395;-1.2577746600530455;2.138980558726013;-0.0014306460555775;-2.3409808613879344;242;1.256637061435917
314;0.153257004808109;-0.5220518768946092;-1.2361790161522097;-1.5426829697634374;2.396634310302047;0.3489125484697918;216;1.088581290368084
315;0.3940972096035703;-1.5166132823323646;1.892228276532925;-0.8560011005746864;0.6507171927511428;-1.1468691492019087;46;0.7236169914607835
316;0.9748025516366964;-0.4342992216358662;0.2409340164870191;-0.3945219017688706;1.0767043789913902;1.953402010885596;257;1.2566370614359172
317;-1.5404782941988746;-0.4408189744138266;-0.3300267587347612;-0.0060580140724937;-3.0178203002780157;0.3971041983991637;54;1.2566370614359172
318;0.0598940295717696;-0.2040138233206816;-2.075657537568149;-0.8348079265343605;-0.527822143939898;2.238252540950514;309;1.2566370614359177
319;-1.824368652603977;1.0496586983051226;-0.9502464121225216;-1.3066830379290515;1.135905979285796;2.8876763393377525;136;1.1292270194491008
320;-0.1601517138487152;0.6522929531918186;-0.1647179369625846;-0.6731011775417822;-2.0209295871981885;0.6778843154209231;256;1.211202356835912
321;-2.252297634177808;-0.0225984730130301;1.212343554061969;0.0841368119906536;2.882557269607895;1.9922367668499132;163;1.2566370614359177
322;-1.9604275936790807;0.8364284271008846;0.9253159046374038;2.2325580691527698;-0.9010676231029896;-2.600100977498095;196;1.256637061435917
323;2.0515623037287343;-0.0251830767592326;-2.1522386879626487;2.0707840417268684;1.8375304773744443;1.861082577994107;105;1.2566370614359177
324;1.4250895982107912;-0.317464365686174;2.248778321105288;-0.1306853735262893;2.334534788546924;1.7184264429554994;232;1.256637061435917
325;0.5131862689864708;-1.569498391365029;1.9521803733548315;-2.52827462842742;-0.7898669177860816;-0.2802764811678934;103;1.2566370614359172
326;0.3770545877139952;-1.1638010568695245;2.2563351266978358;2.783971483633293;0.4563985258548097;1.558234374481185;304;0.9557259275149204
327;0.658440425109596;0.3297258644996287;-0.6527724235572295;0.0612995275782269;-0.3321508448518632;0.0846813381056845;0;1.0438522505296437
328;0.839620301305805;-0.1261085880494359;2.4897396920526287;-0.0045207690283628;-2.401983831573713;0.6073667263214;164;1.2566370614359177
329;0.8778478413726776;0.1573992051912325;0.3661118036052627;0.5257583445140022;1.900335821864553;-0.0884848577443382;19;1.2566370614359172
330;-0.816512066368068;0.8475955512350406;1.8590820513244917;-2.5121903862928288;1.3300161205315195;2.293099334368173;172;1.2566370614359177
331;0.5684605336795372;-1.1686669673589931;1.5036713614044888;-2.467150278126894;-2.07892365584297;-2.4473102271213314;205;1.2566370614359177
332;3.179700846422266;-1.671126429887151;0.4882291002054546;0.3094206122592945;1.089313527725325;1.6589751320511192;212;1.2566370614359172
333;2.1586587788821707;0.9285526226605004;-1.751046132946618;2.024997983289498;0.5853713719691217;2.651833738647261;226;1.1532357072157726
334;1.187158399741162;1.2219255467522914;-1.8468091014322845;2.46292775714682;0.4942164818645274;3.2349236099013536;333;1.2566370614359177
335;-3.1733797084117805;-0.7208029953161439;0.7508493351492826;-0.6421681706060764;-0.1083066256850242;0.2564362028265432;207;1.2566370614359172
336;1.8275679302965355;-1.4573985837408672;1.077257837762454;-3.115515532601993;1.2103130657848589;0.7919447110237846;133;1.2566370614359172
337;2.137241252864787;-0.3151275027817674;1.9496458656445308;-1.7311014021712294;-2.4691191033041804;2.5240274529262483;290;1.256637061435917
338;-2.7012348685550847;1.155850910887498;-1.0022654302431702;-1.513001981630376;-1.8737662875629773;0.908548254238112;162;1.256637061435917
339;-2.1006033431448463;1.093056440802763;0.5804100453555415;2.7650077513388345;-0.6607841815271804;1.6477527818915032;300;1.256637061435917
340;2.993817828454681;-1.7926488606102091;0.4906455584868481;0.3377903121991842;1.4503007037748925;2.841639110626254;332;1.2566370614359172
341;1.035509562973715;-1.6501357877838592;-0.0030992682689221;0.7065317604516839;-2.137749223284512;-1.330905142303223;265;1.2566370614359177
342;-1.422033123985154;0.0375584829788236;-0.7048834530298269;0.7672702150101035;-1.5610868869042789;2.9804936556416743;244;1.2566370614359172
343;-2.1554471531274606;1.1379604047279708;0.3816676714435646;-0.3578819887106322;2.387536387362043;-2.628918115263254;249;1.2566370614359177
344;-3.0364881606714405;0.7661521611606332;1.1588024192355662;-1.1565255358508608;-1.136586403273553;-1.6108666289739155;275;1.2070566376210763
345;-2.253109621807943;0.111920931463754;-2.304678376012844;1.3640876747836048;2.897595394690033;-3.0085018940454638;209;1.256637061435917
346;0.3154721991866765;0.9865331151123524;0.2736880304802547;-0.5890863646897053;1.9543743074366595;3.3194197669885197;144;1.2566370614359172
347;-1.1000500665238206;1.252522787291498;-1.2708423058329612;-0.8973194682298219;2.5947968480313284;-2.955237699434184;123;1.2566370614359172
348;1.5695572332166172;-0.8803489548224126;-1.3887965938425728;-0.9147459403767542;-2.682820051434189;0.0986307174374353;35;1.2566370614359172
349;2.635300727021985;0.7418040840111204;-1.6728486618571692;2.22715675823043;-0.6417511995790038;2.8225635686753625;226;1.2566370614359172
350;0.5518763366289572;0.4807175077251276;-2.4760810319594824;-0.0896111375437345;-1.1153688055093034;1.878953040353002;309;1.239049034164056
351;-1.1584395564060723;0.954623758959326;-1.0921779324925776;1.6576145431226856;0.4901910973271844;2.193007924430221;178;1.2566370614359172
352;-0.6906053589652339;1.0643708082421803;0.6216871927433445;-2.173839242516774;-1.6924813375500831;1.1449194792412216;998;1.2170208835280216
353;-0.1871046977041309;-0.6430929146014491;-1.1719155700353103;-2.03910024131683;-0.7548765286768493;-1.472074915920082;4;1.2566370614359177
354;-0.1088302580071581;-0.15148390297863;-2.5993066079132725;0.0004547141353612;0.023515129142158;-1.2612849299201456;246;1.2566370614359172
355;-1.131745268330261;0.0917502389913791;0.4489304515140761;1.7926256248767456;0.9329086239268298;-0.5702102978107519;18;1.2566370614359172
356;1.398235807421557;-0.298468496998344;1.0451660740780917;-3.4639066900499333;-0.2675484568875085;2.8307915367325345;72;1.2566370614359172
357;0.9475327070392788;-1.231030102227347;1.4127905718048803;-2.4486732343803914;-1.7294322003876692;3.0517614403939204;290;1.1776075311238554
358;1.6228762676246398;-0.817718909877986;1.399674296871881;-0.81992507205869;2.569978355378139;1.5227229697433295;324;1.2566370614359172
359;0.9903910712213728;-0.5722237345873669;1.403640044040542;-3.102973096955248;-1.0307826459265428;1.4579522040766468;51;1.2236749528239677
360;-3.1061058100018863;1.4231982883069136;-0.3336568447078391;-1.962954138575138;-1.4222036326736247;0.2083065893453985;338;1.2566370614359172
361;0.8815523785105984;-1.505500777602117;1.0358221539761507;0.7216126361927558;2.065259629193652;0.9382418778036176;221;0.7274845480735361
362;2.464345885837494;-1.2335753683469823;1.50387042035468;3.222411318369611;-0.871498171001047;-1.8434841358694427;115;1.2566370614359177
363;-2.8340703668537754;-0.4408768143759269;-0.0450406170423491;-1.3447712151115183;1.290188897857509;-1.055918995547234;78;1.2566370614359172
364;-0.2241045307356352;-1.543692538472878;-0.0605769802845794;1.153087701306546;2.650742478550816;2.1783274344066754;279;1.256637061435917
365;-1.0177125563593488;0.237468605897089;1.646329244575811;-1.9600372583394607;-1.635896783055492;-2.4149425376530824;192;1.256637061435917
366;-1.8005210541384813;-0.3798262248805503;0.7684840138028752;-0.1559622855503163;0.9251158935175294;-0.7524921147406645;247;1.2566370614359177
367;-1.6692050598389554;1.114889081613862;2.029737076984375;2.0396555410477464;-0.8177121900752655;-2.991099908894894;322;1.2566370614359177
368;-0.1309601930473526;-1.0633726531396874;-1.8883685023518704;-1.3006276098924383;-1.2193784614000895;-1.1186053089467445;353;1.256637061435917
369;-2.833077461876479;0.0073079074121564;2.0843939760795664;-0.6767202439214058;-1.5096415211849938;-0.3855958695687471;275;1.256637061435917
370;2.784198014475193;-0.5734997534540577;2.3770027739267343;3.281704402759928;-0.579102250894806;-2.27909904814678;362;1.2566370614359177
371;0.7641573168856625;0.4393264675372373;-1.5380622134199642;-1.0489184049899756;-0.0942017999468166;0.0583633084744873;154;1.1950687580149415
372;-0.2701010711341789;0.2909023077928074;-2.31912746466682;0.8541950185028964;2.3493053517749725;2.244129476965902;195;1.2566370614359172
373;2.658894672466814;-1.3324598618433954;1.7745148731203506;-3.0517676531582723;0.8294689837217801;1.278924677105915;336;1.256637061435917
374;3.134020257801657;0.2979289311616706;1.7171502435559516;-2.8939890870208624;1.4144881596760237;-1.964247590684109;194;1.2208639288451049
375;-0.0800059153165705;-0.4809392100553576;-0.737675181867604;-1.9075422629963248;-1.7300145638094748;2.959243758735462;264;1.2566370614359172
376;3.020130366464296;-1.6639992104645247;0.1721645949531948;0.741774679209079;1.992552531861561;0.8483633962749295;102;1.1867883449143162
377;0.3363690583872549;-1.2929991966308676;0.3712547629568686;-3.111941951940863;1.8630890902363315;-0.3750455198090855;285;1.256637061435917
378;1.8321517379932808;-0.0086914629864922;1.276079988386495;3.233523200098098;-0.9090454335811068;-1.4326444330128048;115;1.2566370614359172
379;1.7138588934355197;-1.1174322684171958;2.3460911100197723;-1.6909272775145114;-1.129030680055536;0.1826473913419735;113;1.256637061435917
380;2.004732797116919;-0.9039660948480064;1.034954660959941;3.1533944448506315;-1.7379337646980335;-0.9576518451406446;115;0.734898731835451
381;-2.1440359844621293;0.1952668854711327;-1.7471441594477637;3.14946940014932;0.9971204353550384;-1.1661069765939378;266;1.1746211478112831
382;-1.5427648784632988;0.6940475297712921;0.6781279046707926;-0.0492164195406485;-0.7512311787368513;2.3850105989311974;255;1.2566370614359177
383;0.6222174650098857;0.2009184450531151;-1.1057038698799666;-2.812574876882926;1.538248542367286;0.3898181915516827;285;1.2566370614359172
384;-3.136644588691626;-0.0934828811311833;-1.141051227662109;-1.798652141809085;-0.0897243082332067;2.6382539729439523;259;1.2566370614359172
385;-2.2497760562695293;-0.8736255257372544;1.9847662384791172;1.1729592310835766;0.0026274949801852;-3.341110285718456;268;1.2566370614359177
386;2.280255246610408;1.5226312488987437;-0.4283500924617044;-0.1682554292236099;1.8832648721600556;-1.1343317273312312;227;1.2566370614359172
387;-1.8000401829580563;0.1833925794550066;-0.982128135698681;-0.0190504505740432;1.532486126332296;0.1331700665090147;248;1.180402026331067
388;0.1276381274236498;-1.1584439558084023;0.7768531582162008;-1.2404828225921367;-1.5708996638328248;1.396287398690575;15;1.256637061435917
389;0.5638761783196354;1.1189485955210363;1.9134757622791192;-2.257833979336487;1.102538873399567;3.177769963476579;172;1.256637061435917
390;-0.5178817673680806;-1.2216644598030104;-1.0298840470348305;1.169048979442858;1.657310477058503;1.2804622255598594;110;1.256637061435917
391;-0.3640692059021166;0.1979674530934925;-1.7301278743861497;0.6170328078617631;0.093954910984105;1.1541413730535652;25;1.256637061435917
392;-2.6258769448578767;1.055523437965319;-0.7157092319051072;0.1006724225168662;0.706335132416571;0.022356926736867;803;1.203778713998038
393;-1.4729737865465566;0.4712953233152975;0.3466050201841363;0.3240087739446332;-0.7081266051922526;-2.229748952083972;62;1.2566370614359172
394;-2.9684555561538524;-0.7644409714680814;-0.5362585364543739;1.0409245911056535;-0.0326790787036266;-3.0335698496498265;82;1.256637061435917
395;2.811017273872657;0.0082071952424205;0.374442217248227;2.0407304076442414;-0.2746899984313734;2.1436371455472214;201;1.240010200416194
396;-1.87494656859569;-0.5210760305300507;-1.6508885467721703;2.845358076802217;1.6580018666678282;-0.4915202061008065;381;1.256637061435917
397;0.4453332585035486;-0.1825850253555822;-1.5762873210541553;2.714108942676108;0.1815735847803763;2.31798594535706;282;1.2566370614359172
398;-0.6889887140945212;-1.5649080992225672;0.7774175788386339;-1.2422792026067349;-2.176912060464919;2.012558147291686;388;1.256637061435917
399;2.327967562658799;-0.3956885299340966;-1.272107479299456;2.9087738002984795;-0.0654067368520018;1.0181050938768088;1533;1.0866666311962718
400;-1.9861929620265213;-0.8650927467822934;1.8496433519255864;-0.1758897379297898;2.4099769134158837;1.673753840744839;321;1.2566370614359172
401;1.7779706472804282;-0.7650766941885968;-1.002711947932094;-2.2935133801608307;-0.7526605560376913;-1.0341229533649832;104;1.2566370614359177
402;-3.231005373607489;1.0454432468605483;1.8805033696113764;-3.09954368677805;-0.0674539737086694;1.7628579754164635;168;1.2566370614359172
403;-0.5350698253590513;0.8516198484187666;-1.0521098082443885;1.8052954180763607;-0.9986673245456072;1.6090670431599778;83;1.2566370614359172
404;1.2081795235056103;-1.0904115641428522;-0.3841234486958613;0.970929524720559;2.026711395781024;1.8707209015771624;1075;1.08493588074748
405;1.7378581406774796;-0.6016430769684196;-1.0609927949310332;2.66561500922093;1.5135302680089615;3.19355205325459;105;0.8664538540162886
406;3.17255079056476;-1.3358094444499402;0.1350020625218175;-1.1424470478397155;-1.3394767317455374;-2.9368634248180285;206;1.2566370614359177
407;1.7714714570397387;-1.0392359561307245;2.757224160968521;-2.708397479466928;-1.708046501383602;0.3563353720496632;379;1.2566370614359172
408;0.9201203365601682;0.2133883673680308;1.983461291202628;-1.374989851483683;-1.294266741531002;2.1593135503574232;444;1.202156333104466
409;-3.0519799753944707;0.1067983716197849;-0.9720134204641964;-2.1817938374541708;-0.6211688912738361;0.662342652132325;233;1.2566370614359172
410;1.927004859049044;0.5287948388406342;-0.9896350221188954;0.7015708858660867;2.251525466306044;1.154241337395279;41;1.2566370614359172
411;-1.5964565708682703;-0.1082125188252417;-1.387818869800661;-0.7422729414713204;0.6817466802621401;0.3363043460979574;387;1.256637061435917
412;-0.2809440869075014;-0.1725440610710603;-0.4258424073379186;-0.7557753146843821;-1.7340916816789025;3.10006130760683;375;1.2566370614359172
413;2.722993613213694;0.6095365574557334;-2.116044127735225;0.684065381922438;0.2702222086860477;-2.1048810609826414;242;1.2566370614359172
414;-3.079111046510234;0.4531303401115777;-0.3891848889948683;-0.1111427969605761;1.0533915126805278;-2.246378604166133;78;1.2566370614359172
415;-1.3285383662932588;1.3508136694611528;-2.143088814721953;-1.006312862101885;1.5430287725313896;-2.403556899512445;123;1.2566370614359172
416;-1.2792315132272631;0.4156487515643396;2.1435266499280856;-1.8665729120207173;-0.7377550199586798;-3.0602307713305126;365;1.2566370614359172
417;2.465914852044924;1.3379427909844157;0.593051305172749;-1.1627539318575462;0.2927379385752893;0.5321976611657081;217;1.2566370614359172
418;-1.4593799229026887;1.0536277817729518;0.9919097653473036;-1.185176502027438;2.3984231680412544;-2.454032504198848;343;1.2566370614359177
419;0.6152746335016576;-0.7550466221472281;-0.5971187250403491;2.336170009388968;2.415910192221597;1.3994900511255453;119;1.0118254983848964
420;0.7042744694214653;0.0995154969177875;0.8967869525702605;1.2424295417827764;-2.332101054251307;-0.5867563108625227;96;1.2566370614359172
421;-1.922625453202683;-1.3553440207351484;1.667242039186703;-1.621162097381986;0.0319234061901907;-3.057654681430586;181;1.256637061435917
422;-1.2649039754051334;0.40505729779755;1.7048027098851546;-1.3623896378351938;-2.6647636377980133;-2.680984466010368;365;1.2566370614359172
423;-3.0117746415232776;-0.1337896386229402;1.1009837216280312;-0.4968479188510476;-1.6583066297671338;0.3255612215630672;369;1.2566370614359172
424;2.256314815320408;-0.7709382852503089;-1.6965560821436272;-2.833577652595272;1.095591552328086;-1.4896987567907345;200;1.177404714805142
425;-2.9443642671803247;-0.4390799901444067;-0.0968841318508922;2.5379633357767606;1.59130785960538;1.173405130274632;238;1.256637061435917
426;0.764234227713251;-0.355095558787425;-1.2166267025861488;-2.180073380607582;1.1099472986440282;-1.9781163983347227;200;1.2566370614359172
427;-0.4903822580602232;0.8260915186767025;-2.5700673147286195;2.4719609825666358;1.4595633928771112;-0.3866785873367482;243;1.2566370614359172
428;2.7331341557536626;1.3696819477377475;1.4217653204832763;-0.8815158909702712;1.071044360649049;0.8997579043542686;417;1.2566370614359172
429;3.2883053672697145;-1.0933045253193856;1.5213449406236068;0.2452397154316674;2.9099927158378054;2.286713219699788;212;1.256637061435917
430;0.2689986679976309;-1.488199149903452;0.6082753980749179;-0.6343286279234505;2.213328929333317;0.485683018173681;222;1.0278860322495773
431;-2.8579934444201323;1.2004543140779136;0.43820565598249;0.3363804881189397;2.424667306037749;-1.48294727229825;249;1.2566370614359172
432;2.212900423021884;0.8262710076907845;0.2205355525436627;2.075500616327417;-0.694752864854653;3.176030351017576;201;1.2566370614359172
433;0.4225850822246987;-1.006533267975941;1.4602646126924756;-1.1244847870108023;3.4067185499454102;0.597725239729716;222;1.256637061435917
434;-1.0185414834213575;-0.2459036784150489;-0.2775895236481958;-2.650549073482527;1.8832534844641269;2.2238837731893644;70;1.256637061435917
435;-0.1142757719395887;-0.3544526578885732;0.9658819452736124;-1.4379952473981;-1.2562221749199114;2.927353175295744;1446;1.1870234224564469
436;-2.7422465857269;-0.4334563878214253;-1.1967284794109416;1.733038514703973;-1.2627640418123405;2.8688809016475973;244;1.256637061435917
437;-2.3918795403515087;-0.2003862362156448;0.7396649494854126;0.4215743198605006;-2.8739128264218268;-0.8674850759823989;54;1.2566370614359172
438;-2.8776442751759883;-1.6005028352480064;2.224586203215583;-2.567447822516887;1.1075209738409808;-2.0269527549944577;155;1.256637061435917
439;2.3206497390257272;-0.2960358679479394;-1.9138170621571335;-0.95790680223207;-3.0081565741200107;-0.4400916259457491;348;1.256637061435917
440;-2.6661158214636598;1.195868199827714;-0.2166220954727616;-2.055732238831066;-2.4885414087969084;0.2612253717566635;360;1.1863607031071484
441;0.1796454623346632;-1.55229317407555;0.5682569276855548;-0.7722499894511063;0.4866248013715576;-0.6315534559378535;298;1.2566370614359172
442;-0.5363141371861961;-0.7457991677694712;-2.281293404272598;1.2653771344959723;2.638222267662944;-2.002031184576432;214;1.2566370614359172
443;-1.79400557516473;1.4490849455389994;-1.317286579571063;1.5568553091040287;-0.6756594001170231;3.0319765913203;178;1.2566370614359172
444;1.15072471191065;-0.2275793970519438;1.601731577558888;-2.263190601645848;-0.8564060383543691;1.8924638552454724;51;0.9756679769873428
445;-2.4716033939620443;0.282018962781962;-0.8153513698824119;0.0610431133952653;0.6119559876714029;-0.057718427203214;247;1.237376819093262
446;-2.7069204074858946;-0.6271183490662589;-1.5247575164205198;-0.8843468457025407;-0.4643842033792866;-2.346243365153005;130;1.2566370614359177
447;-2.073308700407202;-0.3116403436482379;-1.7403079202406728;1.638369431507474;-2.923265859696329;2.479035653022639;244;1.256637061435917
448;3.209190738171552;-0.3124565809211584;1.4946000989167736;-0.841235957881723;2.4648317621792377;-0.0817549284525035;223;1.2566370614359172
449;1.2862667570320172;-1.429428482413352;0.6946101480731013;-0.6731225015169059;2.285896602136589;2.2243448403101462;358;1.2566370614359172
450;-0.573652624020432;1.1269199923061544;1.142825175829118;-2.431200901965373;-0.7720353686074235;1.2857474824718087;1585;1.0642751977139084
451;-3.0945957570279754;-0.6954652473270623;1.7746867592210036;-0.8551822355264193;3.0210705579795216;-2.3701588121654176;251;1.2566370614359177
452;2.2460104949013644;0.0051333093875808;-1.797822263503386;-1.712697875958102;-0.6220851294955952;1.3818620499156495;189;1.2566370614359172
453;-1.9917538504270125;-1.409416309892454;2.4846420495363257;-0.8160554364921653;2.679829209118505;2.303802973954619;400;1.2566370614359172
454;-3.166221422209437;-1.2737671982079817;1.326091516767619;-2.1866703356424297;-1.6338552593242968;-0.9971432884377603;93;1.2566370614359172
455;0.0846915611754405;-0.8226454605671916;-1.607642765713966;-1.5692825244737088;0.0840129748557809;1.5751298783873957;37;1.2566370614359172
456;-0.2853502158930294;-0.8000196164991402;2.61457447737539;-2.393844189467112;-0.1932890983971411;1.54101879737038;90;1.256637061435917
457;-2.608801884035807;1.081604116056263;0.6919033757600712;2.927488941290754;-1.5749070385119175;-2.927463898241954;1523;0.9889208460834996
458;-2.566938074940212;-1.1683154491553285;0.5798187679026605;0.2226558840981586;1.023861531275687;-1.1783200180389817;366;1.256637061435917
459;0.3648607916155499;-0.3112037352997561;-2.079484684328433;-3.4116032137388834;-0.6884561341569557;-0.8076527779895757;152;0.9194366255870138
460;2.794925201954303;-0.3180271667606513;1.0648537808832526;-1.1164992893320131;-0.0825772374501037;-3.30854198138496;291;1.2566370614359172
461;-1.4458322285339966;1.301409687358781;-0.84773027958989;-2.339060710335369;-0.5906712566900253;0.0268688272975942;98;1.2566370614359172
462;2.699619419327096;-1.6249669413964924;1.1346414310822293;-2.48869053299406;1.1119199389710384;0.171702753521308;336;1.2566370614359172
463;-2.4534816819312035;0.8318581998046363;-2.3085301416013677;-0.1623161250984154;-0.8981672066234081;-0.5391039825960071;49;1.256637061435917
464;-2.884890873926171;-0.4272748111504909;0.3859805227225446;-0.0367978931168417;-2.753638245033147;-1.8344051189087631;437;1.2566370614359177
465;1.0965887288797318;-0.0563378099717995;-1.4856970506661211;0.3252284032231084;-1.3572136563614547;3.0072178029263545;30;1.256962667493179
466;0.0038022692031242;-0.0356031608481293;-1.6112682178848323;-2.76081012625098;1.7040917862971603;-2.2078984314953245;426;1.2566370614359172
467;1.8597120330799224;-0.0244051196042177;0.3857176882989817;-2.1860279544826;-2.738447659744023;-0.976205062422484;274;1.2566370614359172
468;3.325003364386677;-0.3329952239451668;1.0122121693313404;0.833293335073424;-1.0498182200608557;2.9968398111757777;64;1.256637061435917
469;-0.364103128280976;-1.3148207070898774;-0.5103618779589906;-1.4331216156509243;-2.9324176288429067;-2.633206176993486;85;1.256637061435917
470;-1.1034672064708249;0.871895444452124;-2.7123104095019053;-2.470205659340384;-0.4577777512995201;-2.264895571435091;263;1.2566370614359172
471;-2.552762528230896;0.771344896884613;1.7549859617643446;-0.5431531807137832;0.4743178481168827;-0.1050739395385362;204;1.2566370614359172
472;-2.721416250336106;-1.116387255748107;-1.328992314938688;0.922612971335936;-0.0392592815619284;-0.1887397274168009;262;1.1006564725348666
473;-2.3311468385019936;-0.4178412562381195;1.1441550586138896;1.2938406109143807;-2.524874999655561;-1.5616561081942044;437;1.256637061435917
474;1.5057085175157714;-0.2370065168327243;-0.0472395044944386;1.9712703814984631;2.9333299615485537;-0.6608589777826226;297;1.2566370614359172
475;-1.9942231306569147;-0.1703694801182574;-2.360058169602232;-1.0115355398348174;2.3717665352735446;0.4215436138628011;248;1.2566370614359172
476;-1.2022464478153785;-0.9964892618369036;0.7717461946798302;-1.4962725595885065;1.4808645897927473;3.2449915591646565;177;1.256637061435917
477;2.716990049363009;-1.146555995327743;-0.2380663878555182;2.7533614132516;-1.307835568563661;-0.945861017773711;115;1.2566370614359172
478;-2.9269199339271963;-0.2440051819489142;0.9995580380913034;-1.4944724616403453;1.0310400758907146;1.868043370929609;146;1.2566370614359172
479;-1.562660315269334;-0.5204363954256468;1.8154287732480825;-2.025733671160398;0.7266399694299885;-2.915052388157474;181;1.1725460059090531
480;-2.178427739218853;1.3519090829823697;-1.7039426563570894;-1.3251729936658914;1.2196841116780694;1.4152948294912224;136;1.256637061435917
481;-1.2338599480161243;-0.3885643206416465;0.5787541011086411;-3.2906392980590664;1.322083174456521;2.4572731217984765;434;1.256637061435917
482;-2.9812024963989776;1.2891889638534604;-0.7954639958216712;-2.7504351995354783;-2.2716253185072417;-0.178671009491822;440;1.0799166372425373
483;2.874816807450472;-0.7257884777356824;-1.4720757504190618;-0.020666572283725;-1.3677557459169292;-1.8904458925182048;202;1.2566370614359172
484;-0.8731840631249196;-1.085572802896691;1.7651464621257524;-1.651447283787734;-0.0587359958900069;3.025658982055111;177;1.2566370614359172
485;2.3249788185417417;0.7155208928765096;-1.706223018184296;0.9544846037231342;-1.6162212069812087;0.6830048869543803;91;1.2566370614359172
486;2.290347851168264;-0.9127960362429518;-1.8898204386444009;1.6665930334382248;0.4694132343405932;0.1769206072567287;203;1.256637061435917
487;-2.300459459870319;1.1087959774818537;-0.8875680075800928;-0.2547743804103645;2.069919342757776;0.4781395598624898;387;1.2566370614359172
488;-3.243034396705057;0.3060879513516844;-0.3637469803535912;-2.881952252695454;-1.0441114956201665;-0.018706729713801;409;1.2566370614359177
489;2.1461708559844075;0.4628296174835875;0.1130084089023135;-2.3936551192117688;-2.306035551330045;0.0011488836093029;467;1.256637061435917
490;-2.673719395735351;-0.1270869629539871;1.3845485741145076;0.5903382116392653;0.2477431803630821;1.997323736101007;171;1.2566370614359172
491;2.9172507860507237;-0.0891931980103538;-2.2864932315365816;1.5828182675951368;2.336782936488681;2.426975644748698;323;1.256637061435917
492;-1.0456985500544411;-1.2737919411579568;2.555829716644608;-2.1612751460993245;-0.057750822797508;0.7039781960249034;456;1.256637061435917
493;-2.718379734488186;-1.4656822308948194;0.7584471409830896;-2.5263921650038155;-1.5108983745500044;-1.94000790911468;454;1.2566370614359177
494;-0.5399777942061903;0.0629225591438072;-2.6074250371884964;-0.5229063478916071;-0.2277717890090251;2.773390782961572;318;1.0897539443448077
495;-1.4113683563767527;0.0291831961329751;0.6071847039384602;0.3190509925753075;1.2302010444044271;-2.9918531341026378;71;1.2566370614359172
496;1.7925351985927285;-0.1537097242080263;2.4136525131356628;-0.2557517973678087;-1.9828701065960728;-0.0451403442341871;328;1.2566370614359172
497;-1.6028574492972958;0.997881305759005;1.6697422318626292;-2.8263778259925427;-2.075794598267923;2.7278127743190863;99;1.256637061435917
498;2.991357666964291;-1.3784750135680093;-0.4475713855029541;-2.012586252790337;-1.527185303616929;2.1435957002229555;276;1.256637061435917
499;-1.044220946900853;1.3130905338879235;-2.430278364192044;0.0819991754335408;2.6921472488803184;-2.391645574806088;123;1.2566370614359172
500;0.2746988362846932;0.5251062577094497;-1.9632439727053377;-0.1603305384461655;-1.5606185754530375;1.7067701886040376;309;1.2093888617101043
501;2.028914664700004;-0.9639993947509468;-0.2674286468967174;2.454018197139584;0.5268627767744591;-3.11181640010271;75;1.2566370614359177
502;-0.8224042957136553;-1.156611417071007;1.846686389192935;2.5154690707085696;-0.8783521396196872;0.1893650896691254;1562;1.193392085567213
503;-2.6102778509934725;-0.5346201066949814;1.0712612251997695;-0.3543080306634182;-2.3318077630158136;1.210132950835477;423;1.256637061435917
504;-2.5902565703791107;-1.2712370082302291;0.3027609669965569;-2.5150302533039257;0.0632472845407613;-1.9406233689898669;45;1.2566370614359177
505;2.370177180839088;1.558233377061401;1.0420720954705005;-1.691139053172527;1.478809546574908;1.5675290030752544;428;1.256637061435917
506;0.2705797742440716;-0.3877723581747475;-0.9915616901696248;2.7082620345061783;1.6305328483842108;-2.0140427584707;271;1.2566370614359172
507;-1.209377334892324;-0.901915465467099;2.251311262058408;1.3403664070501664;0.5517099341530236;1.7273624627458166;171;1.2566370614359172
508;2.2997224404031744;0.2361261365819521;0.1923554860911504;-2.7899387727320453;-2.122177482843285;0.1248016012298429;489;0.5360998358131163
509;-1.471924824463996;1.2917721222282978;0.7085075499677176;-2.4694042150595195;-2.575113110165964;1.352356134513612;352;1.2566370614359172
510;0.6306926585681369;0.2023895564284083;-0.9084064084412076;2.967634541215685;-0.7384922925378207;2.517264160948681;397;1.2566370614359172
511;0.4374116092156987;-1.560787858704897;1.6743148130475278;1.7953056861636634;-0.7838533297508381;1.6827945412476948;304;1.256637061435917
512;-2.11407805663329;0.9778032713622592;-1.052223667766288;1.442106121870821;0.8248708132052768;1.4821607283732892;1569;1.112438375402707
513;-2.1742706882590133;0.8368116674275194;-1.7245652925338988;1.145906892088269;-2.803789780201624;3.1279235872724813;244;1.256637061435917
514;2.032102283443069;-0.7144830015478338;2.197338152486393;-2.7915888126918027;1.5758772624249346;1.3067586897255823;373;1.256637061435917
515;-1.0196188474203876;1.5564227057135698;-1.7848746666494102;-0.7449197953441355;1.136237505265754;-2.184956131644224;415;0.740010464111021
516;2.670791991191518;-0.7308932506577449;2.460251917856539;-1.1544406205419238;-1.8921930113553485;2.966180416845096;337;1.2566370614359177
517;1.016708416620237;-0.5587912565461699;2.2694281583892604;-0.6971631505156012;2.5373382560265862;0.8799531680461574;324;1.1360035319007726
518;-2.8650208450548105;-0.2494293766031623;-2.39802438958628;2.4771430167662665;0.4186152438463959;0.8117319174955877;547;1.0042352621157908
519;1.9320714059607424;-0.7678588361765101;0.1475208699819595;1.0568335914260247;1.87659232570364;-2.754496891348293;88;1.256637061435917
520;2.636351173829647;-1.2041203858278162;-0.3567817032529808;1.9262936580362688;1.3271399747552022;-0.0564559002523145;211;1.2566370614359172
521;-0.054246091099708;-0.7356154510987647;1.8601415175011589;2.268216212300196;-1.4166342614858476;-1.4564225780172677;96;1.256637061435917
522;-0.1954433087850113;-0.2762494428604124;-0.2922582839041747;-0.509810536770302;2.4702624674134124;1.7408310436870649;121;0.4160382438103498
523;-1.5714216963954464;1.4112505492233571;1.8361883914526704;-1.227504400459522;-2.519641890389471;2.613202193578682;106;1.2566370614359177
524;-2.5083670665067737;0.5094195752819823;-2.118495714471168;-2.3704889372646027;-0.212479568191629;2.684945774426469;259;1.2566370614359177
525;-2.713896262727252;-0.2844826267407351;-0.9046885114434744;-1.0017094126567407;-1.3374648419484103;-1.3644505456496263;130;1.064385774280738
526;3.3414474234586558;-1.1602222365191304;-1.29582412820197;-0.7060251096331127;-1.3664379379524043;-2.7101270414643848;483;1.256637061435917
527;-2.8277770938789657;-0.4358850396566044;1.5734927900588074;-0.1423279975479349;-1.6607267280134062;0.2502433566488469;369;1.081740004998095
528;-1.4377763540326658;-0.0815028318954094;2.3773871818799166;-0.1217766702749097;2.3839666913358104;2.2920130644850416;400;1.2566370614359172
529;-3.1919090323410764;0.3322974274222341;-1.9070792415994304;-0.6877255088806501;2.2035842042164853;-2.7773454433718885;187;1.2566370614359177
530;-1.2199737168265927;-0.1033870092232888;2.1606246657432915;2.193399865753766;0.7603276152029897;1.639117851127072;507;1.1937162843350488
531;2.3453721650332287;1.3838661309391307;-2.2543624942410463;0.6651070222997136;-2.289233006801461;0.8178395068628749;485;1.141237386825152
532;-2.3365418001266254;1.1849740731270924;0.0563563562705664;1.2729422950856706;2.1588884828596555;2.472414019856117;273;1.2566370614359172
533;1.8577287326168337;-0.2588273797196542;-0.2703034976610269;2.4984727764405075;2.582188676035985;-0.7111443507388783;474;0.7602125448200335
534;-1.672034126873435;-1.327940513183023;2.138206198507679;2.7385895537582354;-1.6885522986032389;-0.002263061203728;502;1.2566370614359172
535;-0.1723471453081901;-0.1226569771177313;2.103279859139409;0.4191595033304822;-2.8769682260914675;0.6314567008553207;328;1.2566370614359172
536;-2.170194154916734;-1.031534286807167;1.861033098738944;2.7966382491077018;-1.4777471464277172;-1.0598467454334408;534;1.2566370614359168
537;-2.088039336836629;0.1921214721936068;0.2326053686431792;2.646913871644662;0.767610724248311;-3.2083020505107496;272;1.2566370614359172
538;-2.714411731467747;0.2854983239069481;0.3044421290525813;2.391830296387962;0.932510302920266;-1.5559651956310303;131;1.213358043499071
539;-0.6331299989929905;0.3465143738376933;1.1812863722303055;-0.976063607714047;-3.233372525464355;-1.230580719253541;292;1.2566370614359172
540;2.6728121598174965;-0.206780902916611;2.168987305037784;-2.3845354112416817;-0.6315073897112237;-3.140585744875792;291;1.2566370614359177
541;0.2697393164490528;-0.6489509274388662;1.5285738625018468;-1.778738392123533;-2.978257087859402;2.1223993441750757;290;1.1484999139780443
542;0.0794211486534082;-1.0782540649368153;-1.505800128090581;-2.7940455800690787;-0.4432490216546465;-2.2070595313319377;353;1.2566370614359177
543;0.026712935737077;-1.3008632850952768;2.020198915842628;0.7109618218321494;2.666941390795511;2.8555182906081797;179;1.256637061435917
544;-2.777510040942512;-0.6519705165213395;-0.8018999826652796;-2.185546476686599;1.210287100734046;-1.551149896875395;363;1.2566370614359177
545;-0.4084190714957357;1.2110639145246678;-0.1131076377125712;-1.221416662609756;-2.28575491122504;-0.2341623334257782;320;1.2566370614359172
546;-2.301330315959258;0.2169970626552943;-1.528460241852401;1.3938328581502346;-2.065068864351652;3.368391135299529;244;0.8076721534367131
547;-2.7890845493354184;-0.396339160500481;-2.1060580385574417;1.644542870611739;0.6696606674592289;0.4380361885424066;140;1.1192015966130766
548;-0.5702715489043453;0.1546377491878501;-0.8702108659135741;2.394951415626117;1.269408149443947;-1.5366497975620714;266;1.1332607792902736
549;0.1455258017082014;-1.404898969022153;2.231090608641101;-1.3226357455536055;0.273634331225294;3.08654170044919;484;1.2566370614359177
550;2.988362370951254;-0.3072669311097242;-1.7493019273206458;-2.303176684708629;1.350800300990944;1.068528849657484;193;1.2566370614359177
551;-0.8693108094494806;1.6345691692448614;1.193640669151738;-0.4755140706434482;-2.7033497892359546;2.768766253979348;523;1.2566370614359172
552;2.1028365724342875;-1.4321211023395568;1.8355333346171565;2.5289460780775226;0.3806120010611765;0.0626010869570984;43;1.2566370614359172
553;-2.26558443267373;-1.3314736177181532;1.1201066881459056;0.6842962643534678;-2.2538208498816177;-2.104354179423971;473;1.256637061435917
554;-2.4160507162912896;0.165667426635624;-1.7601128561128032;-0.9409651908986184;-2.076670026706031;-1.4414225469573798;525;1.2566370614359177
555;-1.0054063294095832;-0.8907812141558824;1.1666889368994091;1.133846903281093;0.4343577661865136;-1.4390908910119442;38;1.2566370614359172
556;-1.4133072717644857;1.3842071870176658;-1.38214389404695;2.479487606423936;1.17085232136311;2.5197829804450684;351;1.2566370614359177
557;0.1803626676962046;0.1754825375614582;-1.1296129011031553;-1.83515386056608;1.0094415517648634;-2.883696492607132;426;1.2566370614359177
558;0.361315041080076;-0.1583108113644286;-1.7708478521580155;0.429187875030978;2.357525995714248;-2.0928445162322102;214;1.2566370614359177
559;2.7109477691999757;-0.7469062674752431;-1.2977702425176376;-0.1705072754639985;-2.896674068598576;2.119366857360263;31;1.256637061435917
560;-2.669842778937708;-0.7251758710745262;-2.0878289438155857;1.8534649967896344;1.149291426775929;0.1884339059539614;140;1.0431293143022304
561;-3.0943249839100946;-0.7951094796961838;1.1178286810232314;-2.2874954306473967;0.2539588622171144;1.8422031034719517;478;1.2566370614359172
562;-1.8801972953822124;-1.024897666463133;2.807231751748448;-1.1103004946984896;2.8533162790545368;1.3072836611324092;453;1.1722168001837276
563;2.0337710254316974;-0.2242394927766647;-2.4112461639290586;-0.3928361138268539;-2.059687216220902;-0.5993017742255579;439;1.2566370614359177
564;-1.8622297383438944;0.6945379921038665;-0.5926322986926772;0.7615447965823641;2.5614147530132136;2.9909659928946115;532;1.2566370614359172
565;-2.598640709912983;-0.1773845964272217;-2.0448581654265667;-1.3004508905836731;1.4482934556420963;-2.727204679254949;529;1.2566370614359172
566;2.64427016284132;-1.3460668601601824;-0.0555792949136893;2.3440117574297434;2.486747805630141;0.9820625020885032;211;1.2566370614359177
567;-0.1658132721185178;-1.3219325417639591;2.155189573823412;-1.8347223166356188;-0.9512943590143332;1.9817350193040304;456;1.256637061435917
568;-3.361049971292186;-0.3484284665464059;-1.868880520810266;0.4826771283188242;1.559548001269084;0.9008835653140352;305;1.256637061435917
569;-0.2233530408222447;-0.2145248653610749;1.0684614884755923;-1.248148214059901;-0.2310820445977449;-0.5443513647084752;298;0.9579371662138926
570;0.0095105932626415;-0.4126678424272419;-1.64156717017131;2.518899148337058;2.6042781745559824;2.3654641833344274;149;1.2566370614359172
571;-0.0071952783052865;-0.956155563618346;1.037515137645276;-0.8812523975063011;-0.6439877880918441;-2.7732153689708987;101;1.256637061435917
572;-2.8747857534524464;0.1006599464220292;1.9346010991367149;1.381156217710311;-2.428860404320134;-0.9508352044261724;473;1.2566370614359172
573;2.9009923739345105;-0.2072750633003965;0.2850509806397889;3.1013414703597704;-0.919159061822442;-1.618698154333727;115;1.256637061435917
574;2.719807802233227;0.8566651030254013;-1.7723886759265577;2.795716348415865;0.4972042228532019;0.9217221782459052;126;1.256637061435917
575;2.609688895992352;-1.510578447374209;1.696236070123618;-0.6372088612448876;-0.542635897982055;2.7026237276653395;299;1.105738716923292
576;2.7301931392499923;-0.6217200840860956;-0.0474689645868488;0.2461060544177916;2.3343897791748165;-2.628389060862589;519;1.256637061435917
577;1.9070070830860535;-0.8784496497431542;1.7937211122551533;-2.8455380891290623;1.2753916040544984;-3.04796139777318;194;1.256637061435917
578;0.4271280444657065;-1.3569939963933138;1.041918316337259;-1.601818480345235;-0.3695687396971234;-1.9761659197899453;571;1.2566370614359172
579;-1.1659093983233846;-0.0293271955443545;2.021118200502767;0.4199793514292356;-0.2318379480717236;1.638891996004253;171;1.256637061435917
580;0.3622071740229392;-1.3601203832129878;1.20851928827565;-2.756536640707404;0.0260303798885688;-1.7368259245473654;578;1.256637061435917
581;-2.7411272864168987;-1.3747204001394564;2.7463352915041965;-0.0383937753776015;2.132527321388975;2.51258990621333;453;1.2566370614359172
582;1.491986005749147;-0.3031843549270233;-0.8791545476803191;2.792951845114528;1.493741480747418;-1.810011428626488;506;1.2566370614359172
583;-1.2393847258047117;0.8326776203343332;-1.104399363821169;0.073658792739047;0.0610677686582315;1.1077610104541844;25;1.256637061435917
584;2.1208948463863675;1.5160262886318725;1.8232694424992064;-1.223962817934115;1.8501037412297467;0.354346050912784;428;1.2566370614359172
585;-0.8526481193149069;-0.7593085312802856;0.2672263046614943;-3.433488635074574;1.5462270517862229;1.4936336087386248;481;1.1743384597224915
586;2.9633945394492125;-0.8935544633234295;-1.3751130479347191;-2.4955695828723967;0.9447859621775624;-2.3973456238679622;424;1.2566370614359177
587;1.0352182155302136;0.0113832494355039;2.054108438946354;0.1469595553032135;2.593374979190599;0.4640672343742609;517;1.1226969885753175
588;-1.9732914549164835;0.0510473286868021;2.153275245667404;-1.0291891013198793;-2.768653657399996;-3.474115902632389;422;1.2566370614359177
589;-3.030703656540861;0.3179161018924449;0.4008541313606335;-0.2723163127691012;-0.994387888987262;-1.5701762846971008;344;1.2566370614359172
590;2.1253029111317776;-0.5319721716264734;-1.5168433341296803;1.6506002623690037;-0.8631634867129094;-3.140532519357391;202;1.256637061435917
591;2.9171625515587536;-1.2818990825358048;-0.78089054906629;1.665323532347316;1.131547996018449;-1.1555474373433885;520;1.2566370614359172
592;0.4918671407059665;0.5845604976358694;1.3770882213754887;-0.8200592426834823;-2.970394390736712;-0.1953066982533466;292;1.2566370614359172
593;0.4360340886119393;-1.6768928428452383;2.2417936633581124;0.7223434311294926;2.7303538166768497;2.6111025221834505;543;0.6495660176301515
594;-2.523011319067306;-1.4885465777271514;1.7484630902299971;-2.277931700007346;-2.2169996486812047;-1.941392219390636;493;1.2566370614359177
595;-2.540984895712766;-0.974853236399616;2.618436694166124;2.1036233211503856;-0.8589997364076132;-1.0191044443860335;536;1.2566370614359172
596;-0.0567892770305932;-0.3265696006755034;1.3042762664650118;3.122140016467885;-1.086344998622604;1.2987503992094147;190;1.256637061435917
597;1.6102973011557355;0.0101510869284611;1.8630802851362651;1.282641775689949;-1.5474361897655045;1.1469197697975853;112;1.2566370614359172
598;-3.011100180330721;-0.9948952805204884;-1.3534751703710128;0.1866099345195044;2.3528689035889645;1.1377294938145692;568;1.2566370614359177
599;1.0703344496425855;-1.1220209991634484;1.4698339750894085;-1.050282578162018;0.5687255070096205;0.9349769739386986;250;1.256637061435917
600;-1.625039670934725;0.0774325706478524;1.7931599613735845;-1.140786268729563;0.9922781973094952;3.096672865782571;177;1.256637061435917
601;0.0830949503948068;1.1830017456331197;1.4887390795924658;-2.637388114594021;-2.500405213682876;2.1672343496129;108;1.2566370614359177
602;0.2421046187523913;-0.2511314555606462;1.2616599652080374;-0.3531302326838038;-3.0917393575917336;-1.4339392013997507;539;1.256637061435917
603;0.7315539709319743;1.341839864896068;-1.439646193111916;-2.883111353622719;-0.74225025382861;-1.911986608410867;263;1.2566370614359172
604;2.099925620285436;-1.0449256254298336;-1.605239469673563;-0.8640900266729706;-3.180346910485065;2.7982692511902263;559;1.2566370614359177
605;2.784532912730836;-0.9568048650814204;1.264983579928847;1.6743692960468066;-0.8398543061239137;-0.7605329097791077;73;1.2566370614359172
606;0.1369938889164632;0.3304679881286729;-1.5352767894475206;-0.0877172043716733;-1.9594213142106804;-2.218473472889098;151;1.2566370614359172
607;1.6914663234864449;-0.856367370650838;-1.817779192156324;-1.9180268310415924;-1.0429090320717231;-0.2132997205593578;401;1.2566370614359177
608;-2.4330439700666395;-0.9981952293588818;1.6996888401939998;3.4669368984570923;0.0909753140628554;-0.9600607939991748;308;1.150079373001709
609;-1.1278425865824506;1.7420853596030748;1.1988430371809522;2.872549039740215;1.004516300264923;0.0207778728919703;240;1.2566370614359177
610;-1.8890094566383864;0.7846883434460084;1.1782971695002882;-1.8375966874152632;0.6108376509244183;3.108839435053888;600;1.2566370614359172
611;1.0112200302948546;-1.0419206529521832;1.811238588842765;-1.565899450106229;-0.1223676618707635;-1.1673931409428264;153;1.2566370614359177
612;2.3077244075967247;0.4961928500134963;-1.6231431332959525;-2.1633438888988072;-1.5419403859211367;1.8863026355462216;452;1.2566370614359172
613;-0.9174755537285886;0.5471766685075135;0.19817957576344;0.5366128751333713;0.3804794796367756;-1.1364085781944608;13;1.225854295168672
614;2.685351133323437;-1.3265745303118428;2.362768472298451;-1.8925371169284224;-0.4274962735773261;-3.202292409544085;540;1.2566370614359177
615;0.8218627939018021;-0.3630375562769916;-2.353411161341317;-0.7710869473258453;0.0239576728386108;-1.3728685184031095;354;1.256637061435917
616;2.593704136953561;0.3057377573169084;1.0055070459231468;1.8830527598089437;-0.2144206650703576;2.342246977955777;395;0.775843251911423
617;-2.547917829930932;0.4554155127247209;-2.2804287842293816;0.1331879050692322;1.289734609017172;-0.6701054414508176;77;1.2511755637667443
618;2.3847547992423896;0.9120090177983092;0.5311863029966332;-2.956542745812005;0.1291395649791048;1.4605374124149677;294;1.2566370614359172
619;-2.005748257568162;-1.1874877968000723;2.53760872870098;0.4560608946130731;0.720111160729604;-3.046633193243597;385;1.2566370614359172
620;-2.767506146092338;0.3583222529630902;-1.9322953940047551;-0.850156595974858;-0.7474535883356641;1.649926080865701;259;1.2566370614359172
621;0.3570608190274797;-1.0439002123844032;-0.4057883121472638;-0.1014977321192591;0.7055452079650513;1.8509887595702212;316;1.1855710669392925
622;-1.4065833180263183;-0.3247672806446132;-2.0085862043030223;0.385522213915263;-0.0658596869879657;0.904396451172442;391;1.256637061435917
623;1.2405893233635297;-1.6864778798099485;-0.906717607195884;1.194225620198084;-2.390628496954038;-0.6848100114835969;341;1.2566370614359172
624;-2.2427120362276782;1.5909590224785055;-2.1466007910212017;-2.0489768745589734;-1.446972600827548;2.8235682146123;74;1.2566370614359172
625;2.7050431485552515;-1.4533769247689052;0.0058481464617965;0.0986419644738151;-1.732082348600497;-2.26822604843594;206;1.256637061435917
626;1.069226583928086;-0.585206071265384;-1.8179389390921727;-2.879180948902748;-0.8693188340721042;-2.471845155938336;542;1.256637061435917
627;-1.83693603978146;0.6709724801467674;2.0732507068401165;-2.987971109441199;-1.772005640958552;3.068790245889038;497;0.7477613336633241
628;1.0253913830909631;1.57974569923344;1.8559080307387363;-3.1692007315803146;-2.174195670041589;2.2660169783978104;601;1.256637061435917
629;0.0276272411294809;1.0903288479934312;1.6270587182793543;-0.4115874857028337;-3.0148596283156945;3.204042162923092;551;1.2566370614359172
630;-1.0651452347028425;-0.5571408236654103;0.975011364119369;3.168650275431553;-0.9349756841615612;0.76403824669602;596;1.220390577542963
631;-2.872431704818646;0.0394256288603864;-1.7932452147285192;0.6740382668943635;1.550975332004565;-2.5211550378123704;209;0.6045774040604845
632;-0.7547927088695952;0.1737219648843712;-1.0692426394544186;-1.655591033547172;-1.4980257550316507;-3.355137273681155;151;1.2566370614359172
633;-1.6383420999284912;-1.6662435099291562;2.1288875386144603;-1.2929690231871651;0.312161257550102;0.6753076627017449;492;1.2566370614359177
634;-1.729753857035969;-0.5320690931222428;-1.0421842667731755;2.7367492184141646;-0.3468017433921008;-2.883099522301553;128;1.2566370614359177
635;-1.168030563447058;1.7526984090023046;-0.4107562409171084;-3.268455493962094;-0.5824233638345945;0.5203386102868444;461;1.2566370614359172
636;3.116502610366481;-0.026000954591787;-0.7380756315874746;0.0905413223822546;-1.6862596350774557;-1.275259740525108;483;1.2566370614359172
637;1.073331637339837;0.8538853097650226;-1.9208829838882375;-0.9570869654297264;0.0609895360054139;2.1300035291477277;309;1.2287880958593094
638;-2.0415082900206345;-1.3747597568901138;-1.0172135128668882;-1.6923015077638466;0.7362958264316171;-1.577524070815584;544;1.256637061435917
639;-2.326662474343681;0.1847316837331478;1.898350538345372;-3.1580212552111764;-0.0529420601241515;1.8914172486979623;402;1.256637061435917
640;-3.329574057632036;0.0622029274779951;-1.303281745173889;0.8202697746420494;-1.7464747671579468;-1.123237793680489;89;1.2566370614359177
641;-2.038986396412279;0.2397067039647604;-1.0913504556894429;-0.9721741199475064;-0.3009013173751139;2.425783269791658;259;0.9013726184352636
642;3.199759093752357;0.0461504112792388;1.167811790093623;1.6989708649465691;-1.2458740130293853;-1.2358275973795247;605;1.2566370614359172
643;-1.7131845049061434;1.583845443659438;-0.2254899512490383;1.353890910599738;1.28587527910037;1.0983140524023245;867;1.110106272605247
644;0.0840250093420504;1.305457089116837;0.4855377253544249;-2.547109149379035;-1.049759961434097;-2.8445263456573904;192;1.2566370614359172
645;2.7568086842056623;-1.4696321336404718;2.37250569886518;-1.7747396051974371;0.8477238382774149;-0.8394582698233246;160;1.2566370614359172
646;2.501842858111828;0.2911869229972052;1.755541554035004;1.7593676095287754;-0.846721854570737;1.9815661352879164;616;1.0565961695934054
647;2.4001291519889127;1.0644506124399151;1.5965249673157027;1.8281908212736704;0.2431224972534253;1.7063519616637342;616;1.256637061435917
648;1.97262694056792;0.0535495330655404;0.9228687576600364;2.968269394960793;-0.9660693561232658;-2.113649035114596;378;0.8280965973876274
649;-2.84740364912797;-0.3844051346402923;-1.1759637603189197;-0.7431255652818631;2.086554752406664;-2.3365439608204364;529;1.1738600318426184
650;-2.4100295145082176;0.6619284177144336;1.91830448854666;0.6520481666629906;3.14091392984986;1.6620523218489929;321;1.220709011025065
651;-0.0399803167513248;-0.8005467873717934;0.0295537976796634;2.543101154851287;2.826145182477719;-0.1269688269856897;297;1.256637061435917
652;-0.5594906640885939;-0.1182903500744547;-0.0124357597354163;-0.6022334679635615;-0.6877152537112345;0.5008442091146831;0;1.1889740956679702
653;0.6598836319118692;0.3677398996668751;0.1778381487360025;0.5698738597246666;-0.4089326986001836;0.1236703729912677;0;1.0533669720262584
654;-2.723514596923725;-1.531753760354266;2.19736612655536;2.9580976447035927;-1.7461831810698003;0.611724453216293;534;1.2566370614359177
655;-2.0032016858253554;1.0664880911260544;-1.5873761907484298;3.2200654084175224;0.6648934893632092;-0.3540776227709394;381;1.256637061435917
656;1.6970474350327414;-0.6273542206155897;0.1460230053832058;0.8514069115519779;2.3784311309413293;2.711360584156083;1075;1.2273474049463666
657;0.2310567624164862;0.3751739543947382;-1.9246010992590368;-1.5463998967409252;-2.463668267630074;-0.2239297288339528;33;1.2566370614359177
658;-3.091740338547447;-0.0916862340388035;-0.0071675535668241;0.5931735643557058;1.2034120265176365;-0.4218794364836025;763;0.9068917556345608
659;-1.7561572876773044;0.3646355131239291;-0.0962572404165518;0.275105282856675;-2.039459146736575;-0.4395065943981386;54;1.2566370614359172
660;2.436286715673796;-0.076646293433993;2.65396617510314;-2.622125906266774;-1.5743550406868254;-0.0615164134920297;407;1.2566370614359172
661;2.6362574658566884;-0.0234322566977711;1.3076936641756314;3.474839758610297;-1.535001261190758;-1.086589461204215;115;1.1339707568061768
662;2.561367864262996;-1.5282494247887943;0.7542728284039548;0.1930065430960208;2.2051257949803644;-2.4027417790800074;576;1.2504130330197758
663;0.093032302630795;1.0371571408621256;-2.4520968444345312;-0.7617275680574725;-2.027833506700655;-0.4187369414711731;657;1.2566370614359172
664;-0.0960905875144181;-0.4105718015779908;-1.6695161975186292;-1.908907861046817;0.2785017636949642;-1.042703360712295;353;1.2566370614359172
665;2.0534921289153765;0.1293537575499852;-1.6208577620970128;-2.396910043265417;-1.418238493841372;0.0464087551545006;607;1.256637061435917
666;-0.1025078974765227;1.325517246893232;-1.947039049280589;-1.2395299734557903;2.551906354444948;-3.005521631638109;347;1.256637061435917
667;0.3456960358663196;1.0896953564834202;-2.5841013201708267;1.6425718701211398;1.7499515236227736;-0.1911938368754593;427;1.2566370614359172
668;-2.7864747802032377;1.5989785480508574;-1.521288076514801;0.8526966670017869;0.2323712212753776;-2.2809755526853714;39;1.255973456378605
669;-2.739031535501207;-0.2564408935583062;0.3015654278903108;2.7404769203549995;0.2198063254603463;1.8497116365418005;174;1.2566370614359177
670;-2.044048963255122;1.0977520805226209;0.7824939423590422;-1.43741237321286;0.4470130575484179;2.772932949458025;610;0.7606086355633772
671;-2.0441878199826817;-1.4395119762951545;1.0898746975644604;-0.4055892646082837;-1.827076039679072;1.141248978775339;503;1.1839605396025377
672;-1.990384580071376;1.7278141060078376;-1.200114708439928;-1.0453059543809493;-1.991019145370903;0.2193062564516648;338;1.2566370614359172
673;-3.1487989323891243;-1.1519399154216547;1.4135295536005026;1.941460652022285;1.5039015330121508;-2.0385391298136857;236;1.2566370614359172
674;-0.3605707942951844;-0.6970267313178242;1.0853384517765812;2.3541002788642507;1.5067933002742655;-1.1581636650997895;169;0.8711415853119244
675;-1.0387765605100363;-0.575141738758087;1.9107452530181843;0.3934772278723155;1.1952115494767055;-0.4970513810524506;38;1.2566370614359172
676;1.465475552968138;-0.768056158765222;-1.7495110184939684;-0.7296011404410758;-1.7960226262257917;0.7150324573666639;348;1.1636996776009343
677;-1.969705227090484;1.054484770519442;-2.066567287000527;3.2144324318636426;1.2494025988497532;-1.966477201739124;381;1.256637061435917
678;-0.978406552341894;-0.4928875908437909;1.8674257483502967;-1.887305048941298;-1.28002160837204;-2.2243821991032733;365;0.8672365057578343
679;2.5327982548138097;-1.3797241437167425;-0.5213591855114079;-3.088138960089706;1.1080766181479105;-2.172257590083212;586;1.256637061435917
680;-0.0850986440666668;-0.6326488638112026;-0.2134800524479055;-2.9699250627356037;-2.004153277020167;3.237641259218916;375;1.2566370614359172
681;2.702127176507987;-1.4952986803567463;0.9257436589710444;-2.788328802347568;0.8965293183656382;2.1486611218903726;373;1.256637061435917
682;0.8126419957308766;0.8025158628389046;1.9667606317574091;-0.8145681291864997;-2.0332068996203985;-0.6454972778297179;592;1.256637061435917
683;-0.0446394407345482;-0.3904357087929518;2.4472569542767664;-0.3324481480439196;0.3924586987003937;-0.8757371002072839;46;1.256637061435917
684;-2.0009026808084007;0.5564299017385054;1.3862580066121617;0.4918473163329337;-0.2251305564045407;2.847882762313493;382;1.2304712794245094
685;-0.1305394242610839;0.7204519036869198;1.5478510803796164;0.6039775267812285;1.5601101963879147;-1.669800379177066;38;1.2566370614359172
686;0.5072489451138923;1.2021308668767174;-1.2868086493780289;2.490067883909207;0.3844739897639395;-2.259014736356169;218;1.2566370614359177
687;0.2670891610834645;-0.1707399827431777;0.0732029314161668;1.9857410146001195;-0.0724480829410628;-1.5347871674047524;310;1.2566370614359172
688;-1.0371085036776162;0.7837745429722833;-1.655343192708119;-0.9484732580680292;2.105756038179869;-0.3881098536701003;248;1.256637061435917
689;-0.2178072178611352;0.058544594320154;0.1389162362611595;-1.1258973869757394;2.4014327088315635;0.7540270976137733;121;1.2566370614359172
690;0.145641827110894;-0.2454643800265018;-1.4532311840661307;3.1168148703369245;1.615862539720227;1.9620923052345192;570;1.2566370614359172
691;0.096737939808142;-0.3776664718260369;-1.4389690309135434;-1.504252377205881;2.851740938761554;-0.7936164054171578;314;1.2566370614359172
692;-3.477542187837278;-0.242286476067542;1.700771160614461;-2.316200467545792;-1.044924953751773;2.3342219416629004;267;1.165062236269328
693;-2.371547201208537;0.0831625010296009;2.116507436004964;3.055957681349391;-1.20124718336879;-1.3549379035497904;536;1.2566370614359172
694;2.8192045929005065;-1.5442954710847865;1.8074520737101287;2.921005504027507;-1.7161877043025529;1.6268099834324738;306;1.2566370614359172
695;-3.003058654460548;1.459811929784148;0.973699925696386;-1.0494298609830544;1.0834543134770525;-2.2742037458347397;249;1.2566370614359177
696;-1.9376264416427595;-0.3550539391187892;2.0191303050436638;3.2256284527301387;-1.1011788505209144;-2.4275663026898093;693;1.256637061435917
697;2.825706647544882;-0.923922886067094;0.1817335479557189;-2.143584722906999;1.279729161239705;0.0433105474375406;462;1.2566370614359172
698;-0.4113649285590971;1.6724765458047304;-1.5578058309064868;-0.8602084631808834;2.831186460466131;-3.1638843023636065;347;0.9131194465908123
699;3.191995245274728;-0.9587874328371152;-0.3259999946092642;-1.3844251463680388;-0.8294341467962899;2.826619085894495;498;1.2566370614359172
700;1.167954840798421;-0.9441172431356604;0.5681504443040216;-2.3589575020128803;0.9406918883875875;-0.7602849438767401;141;1.256637061435917
701;-2.505128012322287;0.7820407079099505;0.1613082629167526;3.4462181995887624;-0.7493391381706296;1.4111083771935586;339;0.9817879239169602
702;1.0221452543165752;0.1806248574829116;0.7367837421128514;1.8172476700537727;0.4937388870487545;-0.1548254351473211;1348;0.9932659918182922
703;1.3702661255228097;-0.4058863125963237;-2.584030752739417;-3.0385655048290494;-0.5460477447759541;-3.154963166295218;626;1.1429063383788312
704;-2.6955589073540973;0.260054884650457;-0.5768204600311884;1.4610937300091555;1.1982428957816007;-0.8916012642405597;658;1.2566370614359172
705;0.8015465914172744;-0.6824030253030803;-1.0684486629420833;0.8757642953451081;-2.8126286252987;-0.4154529768554313;623;1.2566370614359172
706;-2.288970037374229;-0.58557844835271;0.4509516909154644;2.070984469187522;0.59818248699486;-0.9210013062009392;779;1.0719830440010718
707;1.7905812568507116;1.4019036129071645;1.4421458504430331;2.363614530360522;0.1925634863994842;0.8899421751595078;647;1.2103783611122865
