Komment314/test_diploma/benchmarking/path_finding_for_benckmarking/pre_rrt_star_results/7_4_tree.csv
id;joint_1;joint_2;joint_3;joint_4;joint_5;joint_6;parent_id;cost
0;0.0;0.0;0.0;0.0;0.0;0.0;-1;0.0
1;-0.4953452039423223;-0.3094621564439569;-0.4911995485867902;0.8006617572393054;0.5963780351398713;0.0;0;1.2566370614359177
2;0.6563320303351856;-0.2345356324361996;-0.225019508708625;0.1663055559458196;-0.7812132470099243;0.6362173785008028;0;1.2566370614359172
3;-0.6893275405085472;-0.3958640609019944;-0.8374917774659728;-0.4141293672482163;-0.2726908161570435;0.0;0;1.2566370614359177
4;1.305090410859427;-0.6083672812632503;-0.0560371108629179;0.3457849710154074;-1.349590114414212;-0.1604500499744633;2;1.2566370614359172
5;0.156262487852084;-0.5517288781440591;-0.4715526673733295;0.2325952902095105;-0.5114247201943446;1.6804859384704527;2;1.2566370614359172
6;-0.8290282410086388;0.2329042182001542;-0.7695872726288777;-0.7946976800166374;-0.7540517568722221;-0.8849402533178318;3;1.2566370614359172
7;1.8764139932912067;-0.730392300361701;-0.7477174859322043;-0.2807218189639271;-1.7555501724849587;0.289105169270775;4;1.256637061435917
8;0.792833622147705;-0.2108710945870268;-1.0022046418423682;-0.3925840682841981;-0.2977460834455004;2.26326424833376;5;1.2566370614359172
9;1.4551289847629356;-0.5706709175484145;-0.2891931033468966;-0.7491964083868533;0.3092488732300139;2.3471984586352352;8;1.2566370614359172
10;0.9176292121653262;-0.8992290381984721;0.1901118084292027;-1.6672738564565712;0.4478948895224902;2.6479610611077598;9;1.2566370614359177
11;0.1724918527152737;0.1900501448999975;-1.0030464881588448;0.8156032400541273;-1.152464970531858;0.631634931556697;2;1.2566370614359172
12;1.9777514947297103;-0.3686146655128582;0.2945616472769576;-0.759634733241176;1.2705163298780209;2.331012151105078;9;1.256637061435917
13;-0.8124747187263156;0.6991440817308872;-0.4830653498490878;-1.5267676177039935;-0.9222675935243058;-1.7306147185404928;6;1.256637061435917
14;-1.2610507576172525;0.8603421441124917;-0.7502775159379982;-1.8204847093851495;-1.1709620392285751;-2.7947624654327683;13;1.2566370614359172
15;0.5610938185297945;0.2918438113395892;0.7334371634454271;0.3052466041250002;0.7402918740010689;0.0;0;1.256637061435917
16;-0.5059739619762649;-0.5795897427764835;-0.1349325750729211;-0.4257003106142706;-0.159876056986074;1.4432561096364027;5;1.0797518150740737
17;1.8082508838237528;-0.138664514993513;-1.5492112807662124;-0.93568863541182;-2.031414553779871;0.0118440431950988;7;1.256637061435917
18;-0.6703205395777497;-0.3164273872972514;-0.0671668028031202;-1.1687853141777729;-1.5343457519245245;-0.7849974511494494;6;1.2566370614359177
19;0.4653511658990952;0.2749804785613573;0.4809620769577114;0.6547445135287046;1.1433148499020485;-1.105154151949186;15;1.256637061435917
20;1.276960180302791;-0.3198958474400942;0.6884821227486013;0.2722734618545531;1.4686827811901582;-1.6260540494261269;19;1.256637061435917
21;-1.5689356820678089;1.0643870663186037;0.2965949884133566;-2.218242725551535;-0.755646266581615;-2.6680005768722257;14;1.256637061435917
22;-1.5689150154673523;-0.2479072219683106;-0.9949475736825142;-0.0285520876047621;-1.0308305142515903;-1.178456538315631;6;1.2566370614359177
23;-0.627861366853758;-0.5408646756643553;-0.3635872278878281;1.8816372429197692;1.1128193783241331;0.2377487725598809;1;1.2566370614359177
24;1.6230553506899283;-0.8083504335763746;1.6311583825504776;-0.0574399129062061;1.4328206415175335;-2.0973622512848937;20;1.2566370614359172
25;2.184956918407606;-0.5729978365533369;0.7781727267532115;-0.4226651028256719;1.964776520439836;1.5155339381804636;12;1.256637061435917
26;1.9381638907525136;-0.471003918637094;1.7739409938664412;0.6105627850741208;0.4968591320862702;-2.250340077364992;24;1.2566370614359172
27;2.281108102489711;-1.0173208664718756;0.3190831460291545;-0.0617540446329571;1.0504922207385423;1.0733429349675374;25;1.2566370614359172
28;1.6456122714535322;-1.045442787821328;-1.1241984658780493;0.5897877459803678;-2.466950680110701;0.4340014996310052;7;1.256637061435917
29;-0.3384374642914038;-1.0205400080195224;-0.789594018780767;1.184189253631738;1.8515834823340636;0.4648923379704434;23;1.2566370614359177
30;1.5979818926504463;-0.2429688001908414;0.8495130383201732;0.2570199660890595;-0.158419284302177;-2.2999739796987377;26;1.2566370614359172
31;-1.0168751802440266;1.1255825032253088;-1.1326770011443288;-1.9363814755549196;-1.454713687032211;-1.0361870580566144;13;1.2566370614359177
32;-0.9785237735531171;0.2303902721267596;0.1125879708965335;-1.2012335020022111;-0.2368493376800616;1.2668397905269024;16;1.2566370614359177
33;-2.1214802891951976;0.1872090256696247;-0.4420987532432298;0.7257749660086971;-0.5737854438435815;-1.2091298985377996;22;1.2566370614359177
34;2.383680260123085;-1.1638586691544048;1.5499047044097818;-0.4021077562596328;2.222515109288151;-1.7435474538562394;24;1.256637061435917
35;2.0228014243883106;-0.9811115641659808;-0.6667688979703645;0.5024033533265975;-0.9421182380875216;-0.7617264767022581;4;1.2566370614359172
36;-0.9824413449692282;0.2969508860493888;-0.0632804791256878;1.7950098208451195;1.412312421277327;-0.5133106734625108;23;1.256637061435917
37;2.0225159641567867;-0.1417734296103398;-0.8870290739585607;1.4051435474368228;-1.0063272847287943;-0.8458152019174104;35;1.2566370614359172
38;0.7047774352007454;-1.2991372489717792;2.2021220546106406;0.0702240726166142;1.5431232124610528;-2.472284124165672;24;1.256637061435917
39;1.8623110544997967;0.0835574833235633;1.0866620578811903;0.1811408264400744;2.253403217492288;0.8077777480053736;25;1.2566370614359172
40;-1.2485410443504297;0.8186100392683988;0.3185037324591594;1.7150258094102002;2.391251347505975;-0.8678827175381447;36;1.2566370614359172
41;-1.7979037869022518;0.466566661595415;1.0650814537958586;1.843227043214495;1.821298903242449;-1.372603533870924;40;1.256637061435917
42;-1.2245565983278228;0.5061470095134529;1.317598681591775;2.5653804620632883;1.300231579644381;-0.7464554402250243;41;1.2566370614359172
43;2.460364201077155;-0.0311086746503686;-0.8080543495860915;1.852540364669733;-0.9635004530471794;0.2344365654673691;37;1.256637061435917
44;0.6525558155097422;-0.7326887435138935;0.4775997294516008;0.757020087596152;2.1422912378340984;-2.160524713279555;20;1.2566370614359172
45;2.3804464523513733;-0.0097723594301989;0.1607988123427277;2.276071895336618;-0.3263208190663397;0.0147974832045284;43;1.2566370614359172
46;2.5370636681823115;-0.8484678265911012;0.3029918730953143;0.920005976331649;1.335299269957316;1.7365814896177758;27;1.2566370614359172
47;-0.0833126692692586;0.7028850376315645;-1.676127671383354;-1.5873698163493368;-1.7095413687380003;-1.252611821540803;31;1.2566370614359172
48;-1.059243080634707;0.9348485175787328;-2.191429403642682;-1.8406054305939148;-1.2198295310908516;-1.310986857250631;31;1.1397322883896488
49;-0.9112874392082636;0.4951983613101566;0.7295235065578423;-1.5704816984501977;-1.057579315525169;0.7065351652151219;32;1.2566370614359172
50;-1.6638602350237552;0.169868552277934;0.8264689180332221;-0.5440902789338911;-0.3694559779514982;1.649906386337959;32;1.2566370614359172
51;1.3856007831516703;-1.221005574757143;0.8858553255975263;1.034082662730727;2.6554668885140407;-1.615967185429426;44;1.2566370614359177
52;-1.4798580607732337;1.2164478427927468;-0.2140828172222355;-2.226878657748436;0.3772532336353913;-2.6067492607129736;21;1.2566370614359172
53;1.1129389775968213;0.4491152077258379;-1.1565663023296204;-1.3206482635245735;-0.1396267329806811;1.901387273880399;8;1.2566370614359172
54;1.3107840851254096;-0.4270829058836478;0.4729114872003315;1.3146755630422304;-0.0937115388523802;-2.74506378773596;30;1.2566370614359177
55;2.260410338121186;-0.944301336178092;0.1641766795711354;-0.5880343647011578;-2.15143124772407;-0.2615423042988478;7;1.2566370614359172
56;0.3187679394626255;1.1367812518359384;0.8137480180789078;0.4411394495440924;1.5822042749819332;0.2697450730276296;15;1.2566370614359172
57;2.637997575853817;0.0124501668528047;-0.1854634665549457;1.2283035717540534;1.921560022546115;2.124436569278857;46;1.2566370614359172
58;1.242796800869264;-1.4089716663120622;-0.2044228568062647;-2.520894534343199;0.8343432259491649;2.2238183775688665;10;1.256637061435917
59;-1.1032611707557336;0.2845363813084085;1.147781412876132;-2.289009961499514;-0.8812289905697486;-2.57408832346529;21;1.2566370614359172
60;-1.4767472388339375;0.5048352858704467;-0.4535249710759395;-1.9224092714084349;-0.478268468938483;1.86410729078465;32;1.2566370614359177
61;1.5531014601675823;-0.8043146441358481;0.1948388772855294;-0.8528464277287636;2.618697802822117;1.0990720277807533;25;1.2566370614359172
62;-0.6187546129331982;-0.6101409296070038;0.6804836697623549;-2.331871782487448;-1.4401410934930454;-2.680650763952773;59;1.256637061435917
63;2.5062205000674678;-0.8810342305494259;-1.2999717763917773;-0.0658112293704455;-0.8384643473647624;-1.5368841396633506;35;1.2566370614359172
64;-2.7966888542198878;-0.114504184302028;-0.2293225564743707;-0.0747192575860927;-1.0711016790433645;-0.8947875897295976;33;1.2566370614359177
65;1.663492244582377;-1.1629193062153276;-1.184421865518678;0.3855272825419551;-1.6163030340277715;1.3262266202067796;28;1.256637061435917
66;2.0328251114301747;-0.9208051918973466;0.8991927937193163;1.530922840042966;0.732436911431111;2.2135820265061685;46;1.2566370614359172
67;-2.100904284898833;0.9510075966264422;-0.8069032065353068;-1.6226521156563;0.976315178835246;-2.3886235514344687;52;1.256637061435917
68;1.87092824606801;0.4840544769781988;-1.3795152715672578;-1.957977830685818;-0.5919516890073296;2.4869426808354973;53;1.2566370614359172
69;-0.2542663402835819;-0.0034357167375435;-1.5022457895048589;1.5738044070341444;-0.979581908200774;1.3427044534136288;11;1.2566370614359172
70;2.164827100753022;-0.3193048906058354;2.193100096907539;-0.8717422392281441;1.3251145380450025;-2.333978307788687;24;1.2566370614359172
71;2.5344838313214577;-0.1803641296731929;0.5838908723119254;2.707180239558851;0.6733640486841326;-0.3877897837369303;45;1.256637061435917
72;2.185179305607546;0.5291056393241506;-1.7792039949355651;1.3281373232358966;-0.4995239902778816;-1.0552023766336711;37;1.2566370614359177
73;-1.7838405319581785;-0.2222614710954227;1.520494083611925;-2.868201311168637;-0.3147187941674341;-2.8266615148219607;59;1.2566370614359172
74;0.3898258231340112;-0.6637151814071183;0.9742027747048116;-0.1928841707685565;0.000601184902181;-0.0194673768903044;0;1.2566370614359172
75;1.2681422877686206;0.4558075756233139;-1.6147117503992112;2.082310595942912;-0.2164068456995373;-0.816839492331854;72;1.2566370614359172
76;0.2289989272484548;-0.805108075679788;0.4427410781256855;-2.7241121976399016;-0.7092231803189413;-2.4016823566373056;62;1.2566370614359172
77;-1.761712696210378;-0.1747801586363959;-0.9413369315829714;-2.398031701437662;-1.0967035790075186;1.428888897632915;60;1.2566370614359172
78;0.9798325246910544;-1.22665836650145;0.814677018044039;-0.8602343891991251;0.8496388008788972;3.16299981107502;10;1.256637061435917
79;-1.975199466124946;1.0843410018193584;0.0425464309127551;-2.3463870897216963;-0.3089075146960928;2.5991773876807702;60;1.2566370614359172
80;-0.2706844276362334;-1.136990560635598;1.5477728857723083;-2.911192063625255;-1.576531075428575;-2.408605699580063;62;1.2566370614359177
81;2.7750982444361814;0.178242963565214;0.8943968243838111;2.355309483619153;-0.5684688333672644;-0.8711802851396508;45;1.2566370614359172
82;0.8014460913434172;-1.2473120884091835;0.6034634751318017;-1.2969073259389403;2.2841554988730155;0.5144170195549035;61;1.2566370614359172
83;-1.9249888937754835;1.1688321401080637;-0.2832454372046964;-2.4219650901802345;0.88196995293409;2.7977606995558304;246;1.001731171130657
84;-1.814738107473431;1.030902884823859;-2.483556596726777;-2.318409511997445;-0.6802618886517133;-1.9389751128868316;48;1.2566370614359172
85;2.391640099067237;0.4530602410144644;1.9189490902212183;-0.9430623345023984;2.108684732510864;-1.8472370096488575;70;1.256637061435917
86;0.0150973235568391;0.8173613828818738;-0.8229110512060518;0.5972628812861307;-2.087204267295425;1.086591452819747;11;1.2566370614359172
87;-0.4182287258584439;0.8744106877133202;0.1571881755183182;1.8514901289200527;2.454186982827317;0.0475397706956572;40;1.2566370614359172
88;-2.343210891559766;-0.1827416580984005;1.1672809535374131;-0.5647802061017673;-1.2068125175003328;1.2309331912277863;50;1.256637061435917
89;-1.5605305957088655;0.8958822046004169;-0.3369428512116481;1.3182565313131935;1.1952810022693443;0.2194535233978859;36;1.256637061435917
90;0.350007768997611;-0.678776148154583;0.505088236551736;-2.2923817243120324;0.4541451733226958;-2.471177050406196;76;1.2566370614359172
91;-1.7010033384713508;1.323660491565274;0.1408141254457605;2.1325079944641123;1.118081536936935;0.911691140463474;89;1.2566370614359172
92;0.7947356406822221;1.0944711964861524;-2.131610297863132;1.3970105467959462;-0.4759132349354579;-1.1949503203567475;75;1.2566370614359172
93;-0.339932083305755;1.059183082657415;-1.964548308508044;-1.866848058788514;-1.6822986284872257;-2.1942919779829584;48;1.2566370614359172
94;2.070180405252513;-0.2397949464641043;-1.1706529190984174;0.7746940204363371;2.0504332533667933;2.113275221661447;57;1.256637061435917
95;-1.2010296798200988;0.7144407790387323;-0.9313982521995212;-1.693797565230273;-2.2683764768911683;-2.6158198801412524;14;1.144588567359236
96;1.8333417966163796;-0.430455536585697;1.4381996070600702;1.0976082624760446;2.698337137921879;0.4170979580368356;39;1.2566370614359172
97;2.0001663776595637;-0.2524248227149797;-2.018341817810524;-0.8087716532410473;-2.129935167777865;1.1447456484785443;17;1.2566370614359177
98;-1.9634968441979823;-0.6927319352370686;0.7722053303929164;-2.087033772421033;0.0298754102954146;-2.635313903181263;73;1.2566370614359177
99;2.223443204620849;-1.269458053494876;1.8447938288133048;0.4883142188958381;1.641380155191552;-2.8841698166124967;24;1.2566370614359177
100;1.1407444247129217;0.7624596639547437;-1.2553911120724042;-2.216679830470368;0.6683439026351277;2.022727098481109;53;1.2566370614359177
101;-1.3262788504278344;0.8734111571661631;-1.4221994312729072;1.7499572434139623;1.0110051802054782;-0.1350220724368772;89;1.2566370614359172
102;2.9472329379223936;-0.2882009301077814;-0.2003748465684452;2.757914167729417;0.1022663823786386;0.8110775459842056;45;1.2566370614359172
103;-2.2919239995490432;-0.1401263789226788;1.7538979906022136;-0.0490302342437391;-0.62118489345915;0.4425088123704443;528;1.1183660746040636
104;-0.3052302232136916;0.2067088455831102;-0.8834251785126903;2.141424591266104;1.364431179672326;0.9554884327494966;23;1.2566370614359172
105;-1.9357716076322629;0.4080893786404407;-1.0180809369800494;2.1348547569015124;0.5355100142126752;-0.8085036381224936;101;1.256637061435917
106;0.0549375438919363;1.1349248982640705;-1.2965716168562582;-2.347191352090139;-1.1042254133689613;-2.8317766264354383;93;1.2566370614359172
107;-2.202564937430437;0.8178293999201305;-1.0960102730467056;1.093422731576248;1.100571290445303;0.9441140301158394;89;1.2566370614359172
108;-1.267495091516635;-0.3164764077140509;1.543622490847615;-0.3481437760845212;-1.0395544046552652;2.078583160407956;50;1.256637061435917
109;-0.3256532239282973;-0.8819114613881516;1.7971892176615507;-0.4108550413739583;-0.2268383218685236;-0.5124887819310789;74;1.2566370614359177
110;-2.3821808444382118;0.1325561556679653;-1.4435777226556523;-2.225161082872644;1.1515888430159056;-2.5648764595310034;67;1.256637061435917
111;1.196261068174808;0.9131170525557422;-1.575459896322179;-2.3798623964464305;-1.324491706103609;-2.515619565155456;591;1.2416526908147232
112;-2.373008771580399;0.6748806305959275;-0.8760631128798579;2.580368524548118;-0.4764859306283557;-0.5364826414744411;105;1.256637061435917
113;-1.0893021625533943;0.2057107293216379;-1.3352638911750636;-0.849294248176393;-2.8179896771136868;-2.975652377083353;95;1.256637061435917
114;0.3975256301740017;0.2506591739190762;-1.2424583123961308;-2.473800029948613;-1.361154128834522;-1.033017430176426;47;1.256637061435917
115;-1.8040072344509948;-0.1672203960132044;1.921066676137226;-2.756216679054209;0.8438997655346352;-2.5810916434201268;73;1.2566370614359172
116;-1.3750967295501682;0.0358817485123955;1.525543158325008;2.16982704860102;0.4865961265684385;-1.434655192153098;42;1.256637061435917
117;-1.4861842231094102;0.7342012514593563;0.6030775980650596;-0.0090547810805243;-0.9830202064060376;0.9312487381077424;50;1.2566370614359172
118;-1.5407680496207905;-0.8173424032129032;2.179517529580559;-2.0895172682839838;-0.6381121710400997;-2.6828312692192;73;1.2566370614359177
119;-2.6507432674585027;1.1265929944238993;-1.6023680222698526;2.604322955268006;-1.0112606913228432;-1.232097127743675;112;1.256637061435917
120;0.5888717141514116;-0.9315736892281312;0.1585706889450553;-1.7875947051474936;1.3595741781311237;-2.984487964806309;90;1.2566370614359177
121;2.33211834951542;0.2948052170926944;0.8500230093283356;0.3007799464470797;-1.0235262921649506;-2.2743977757949967;30;1.2566370614359172
122;-0.1909984871543182;0.3452806822743485;-2.000362618538737;1.726411135315966;-0.642081260044728;2.3762492659909524;69;1.2566370614359177
123;-0.399034168658226;0.5365984768191614;-0.5192717557938126;-2.102818933286336;0.018950123225211;-1.3271971560586149;13;1.256637061435917
124;-1.931334933399934;-0.3772622404925604;0.6165386535102458;2.6608979057105344;0.4958861815749552;-1.2571115989047852;116;1.256637061435917
125;-0.5077474415457843;-0.3680322755777055;0.9625356952484718;-3.332201823893498;-1.625140205707742;-3.308153196918978;62;1.256637061435917
126;2.094818777028665;-1.094791278528891;1.647225126542634;-0.5954019520690064;1.6469300725623408;-2.9593144252290617;24;1.1760419986378412
127;0.0506421996221196;0.7214202259572037;1.0788209112162883;-2.0034154007402614;-1.5140011353959382;0.4151752555918098;49;1.256637061435917
128;-0.2305412882608182;-1.4206370262246368;0.5806083605247414;0.6879461582000302;2.303930633352325;-2.693904587122214;44;1.2566370614359172
129;-1.7927506686436268;0.8332834831264826;0.3212125928165431;1.9081036094803183;1.9613275853098535;1.6440057504836156;91;1.2566370614359172
130;-1.9920751443381912;0.5266250749453665;1.436786036392993;1.9094906014747723;-0.0253172921570207;-2.2220160285897967;116;1.256637061435917
131;1.6266484229573597;-0.1567323537498161;1.298196568864017;-0.3656655560723395;-1.4392689642017802;-2.5187573312998683;121;1.2566370614359177
132;1.1987967214503583;-0.5643758306853355;2.3541818867776847;-1.3820231997399344;1.4313858080173203;-1.7971034059194846;70;1.256637061435917
133;1.884185047248771;-0.6312439595237974;-1.252075276801372;1.545836008310733;-0.4777825955322725;0.8343098384127613;43;1.2566370614359172
134;0.0763846361133273;0.0515207454881494;0.0623756660308818;-0.0290289998558481;0.9142060082150232;0.0032087200401509;0;0.9214148510502695
135;2.02187955576947;0.0046664049528001;0.0247955724017995;0.682539665021138;1.7563821561281223;-2.1028370688790226;20;1.2566370614359172
136;0.1708502183490307;-0.6477778948247858;0.3684577953355816;0.9057490063742378;-1.3028718376290027;0.6756551144544941;2;1.256637061435917
137;2.699565321601286;-0.7703313054278554;2.375690575350527;-1.7144285589750992;0.8191037284132321;-2.634412088679284;70;1.2566370614359172
138;2.080032795721994;-0.1534901967747712;-0.9780912967344224;2.472660827616429;-0.8367492251689581;-1.4775184910058738;37;1.256637061435917
139;-1.6429068479010156;0.0464645429191192;-0.180895897727563;-2.42662733271873;1.3151584302340296;2.593535385875624;83;1.256637061435917
140;2.4014557652157458;-0.2559793694881736;-1.4043077734379483;0.3751392783486367;3.064041908787588;1.6363157734042977;94;1.2566370614359172
141;2.6972157693847687;-0.6368440872531669;0.9392795398131628;0.1084180712643923;-2.508254956280505;-0.5455390665528572;55;1.2566370614359172
142;0.8754338652654094;-0.029026270988299;1.917769934224381;-0.6373538496009953;-2.16064177089584;-2.3757883179803745;131;1.2566370614359177
143;-2.172687703476904;0.1219552668557788;2.0051382816580774;2.6721340309286425;0.0107478908694661;-0.9583975290261736;116;1.2566370614359177
144;0.1884744570135696;-0.8910758334012161;1.8103769362049051;-1.0323263532280544;1.538773647857976;-1.6484128631482564;132;1.2566370614359172
145;-1.641050126347784;1.1313093612168803;-0.1191066597067839;1.5945920019392013;2.287020426873714;2.677958276655988;129;1.2566370614359172
146;-2.746586225259788;0.3049040021247258;-0.7025865135856788;1.0240214631795608;0.4602229231321527;1.615262491169787;107;1.2566370614359172
147;-1.39481788457836;-0.0201566906261356;0.0799543564269794;2.4230000686719544;1.44672743196862;1.9669436009018613;129;1.2566370614359172
148;1.339305131579937;-1.5553553590376648;0.6415812333943892;-1.4176474512560686;1.0415250889772611;-2.5900675814995875;120;1.2566370614359172
149;0.2096851571397123;0.7849634163902566;-1.0447003164726238;-2.8495238276208847;0.4253049775402604;-1.712092861595411;123;1.2566370614359177
150;1.2289285406678043;-0.947737196223919;-0.2989863764495238;-2.452593154779957;0.2684811256922619;-2.6373700454877955;90;1.2566370614359172
151;-1.8974923205733296;-0.0995408001801818;1.3792180317258165;1.12024265932096;-0.7583682025228379;-2.1015292496151967;130;1.256637061435917
152;-2.9656778064829665;-0.5146266132639203;-1.0626949104101715;1.5870340131440974;0.9622593926814068;2.016265418856829;146;1.256637061435917
153;1.1897894594072562;-1.29982434011522;-1.25727960388654;1.1349323566500067;-1.619620343129052;2.203194217958173;65;1.2566370614359172
154;-2.0657970688960257;-0.3409195394807971;0.5264130034968387;2.1168974541016405;0.6155519635712363;2.1722678316334063;147;1.2566370614359172
155;1.9085421721676337;-0.5474370442920287;1.413076678018135;-0.2540757676556216;-3.277047837667687;-0.5925394495090499;141;1.256637061435917
156;-1.0356760131270637;1.5329948922243162;-1.75175309772328;1.425130802140582;0.119414175943487;0.0898859902724436;101;1.2566370614359177
157;-2.239852509664942;0.4626288866222742;-1.693259355418516;-0.7541700904057589;-3.0412036597998835;-3.023920622420695;113;1.256637061435917
158;-1.2118812643899766;0.8945324207185607;-0.3111872321572264;1.0076731019870817;-0.2703411990774548;-1.4596835613753534;33;1.2566370614359172
159;0.6897232005507776;0.7902641135213462;-2.248772930961608;2.149476455967462;-1.1707085004083364;-1.8375191137808995;92;1.256637061435917
160;1.527699283343113;-0.2211804997385339;-0.6069037137354728;-1.149616976980053;2.583727113982196;0.3874828815826341;61;1.2566370614359172
161;0.1174781498012708;-1.3536849769219614;-0.5319973342282723;2.0250188547746584;2.2686231444704865;1.0243738272534502;29;1.2566370614359177
162;-3.0068816097376114;-0.543595386060345;-0.795084607663002;-0.7215393921630362;-0.3981072925450022;-1.2941020284344302;64;1.2566370614359172
163;-1.6527791186706442;0.4137233582934418;-1.868002572789628;-2.635216680878421;-1.5887622290775585;1.176210940054706;77;1.2566370614359172
164;-1.8611560111907388;1.4560086062749087;-1.2928239161242423;-2.551368858052315;1.2647888389759427;2.2409416941260343;83;1.2566370614359172
165;-2.864991457439837;0.5430077181361737;-1.2825468914066571;-1.0029101417690676;-0.2358408567467993;-1.4816605787930033;162;1.2566370614359177
166;-0.0401778221309476;-0.1531525925168255;1.815975123391003;-1.830247325647962;1.9222580719235305;-2.094007531597959;144;1.2566370614359172
167;0.1949656827228971;-1.5036803577101563;-0.4115288213537588;-1.4189809799200763;2.4824086698426;0.7617586252515062;82;1.256637061435917
168;0.8318075524050028;-1.223710515794412;2.040973832984424;-1.0051145169051805;0.9162417817818383;3.3302915775430915;78;1.2566370614359177
169;1.9554308789563863;0.2259607286129397;1.6263953217824696;2.117141044320763;-0.955330021755601;-1.2746620620361997;81;1.2566370614359172
170;1.3827070764867782;0.5456759208536371;-1.7446407815779257;0.4001125538265765;2.1890272485249715;2.0893794875243623;94;1.2566370614359172
171;0.8398418661367084;0.82706111739141;-0.1476329682768208;0.4347821366517055;-2.517669574160243;1.5673597928065948;86;1.2566370614359172
172;-2.00185938166084;-0.4002814986598374;1.2582075355069413;-0.0160167270311174;-2.035386383446653;0.5833618684895767;88;1.2566370614359177
173;2.2743032101148275;0.3015549172810876;1.609456849073312;-0.0476344833570345;-0.5846204303849206;-1.4467639026195696;121;1.2566370614359172
174;-0.7326571320996489;0.4919248390607933;-0.6665345540944085;0.1729972679049056;-2.5008777323863787;1.8204241169189568;86;1.2566370614359172
175;1.4365946599919712;-1.4482190362513232;0.4915005735891309;-2.976254034838957;0.1768820161082453;2.6803749437429407;58;1.1710929948022422
176;-0.7233592950200707;-0.1274275247197731;-0.1159978565552555;0.013933642830542;-2.9384468929655374;2.6423695174355006;174;1.2566370614359172
177;-1.947223352066524;-0.6299835917278367;0.5835569303067226;2.079350744313646;-0.4514658058942442;2.7539179390070787;154;1.256637061435917
178;2.2539645628320506;0.4503803135370945;0.7215388940159503;-1.3026146273582808;0.7053146609725633;2.5194282021543675;12;1.2566370614359172
179;-1.6252747142675463;0.9834871303615836;-1.2257654875566402;0.5701278083068156;0.581871773006178;1.75572171672074;107;1.2566370614359172
180;-1.518149073513243;0.7265097304397612;1.0208335215299875;1.105272236379893;2.5070879116424973;-0.0808115099155729;40;1.2566370614359172
181;-0.1116582813890309;0.430885684958632;-0.2341251033366995;-0.8488515158448127;1.6552833511515457;-0.2978585745638263;134;1.2566370614359177
182;-2.3119534435516798;0.1152645424190753;0.8586447649930269;0.9503952781873484;3.150312654647417;-0.4145187340867188;180;1.2566370614359172
183;-1.988832752391564;-0.3745512161217227;0.6271505609444716;0.5166932571106558;-1.258366973807742;-2.6630332727627954;151;1.256637061435917
184;1.9242446624774667;0.50899853119632;-1.929622346975817;-2.949870517685853;-0.9018785887997216;2.047456301159089;68;1.2566370614359177
185;2.349217767508637;-0.3085922455572478;2.017914963159108;2.9546762378797014;-1.1297028751783849;-0.771509017386619;169;1.2566370614359177
186;-1.8246150965440568;1.655665721300836;0.2310296589826431;-2.4617304816259424;-0.0719269776497199;-2.593439147952914;21;0.9754993507665966
187;-0.3358523969159051;0.7650342693750214;-0.7992777364923985;-0.9210661934761007;2.418576757129386;-1.011993816820139;181;1.2566370614359168
188;-0.7116955965488891;-0.918195969832614;-1.709652225613317;0.8778148463157269;1.1626080790976074;0.3453880240627655;29;1.2566370614359172
189;-1.384109779768237;0.3622728172481897;1.250372458106164;0.1806818238668399;-2.3982041145159467;1.1661045753892731;172;1.2137055376551258
190;-3.016307435592994;0.4807836212885906;1.4822130194013672;2.3761639386239097;-0.5386192729471159;-2.010694139099662;130;1.256637061435917
191;2.5571787252533853;0.9557797071008692;-1.399060003751183;-1.9117647919591636;0.2529793517576948;2.0755472675102045;68;1.256637061435917
192;-2.5602158558843726;-0.5412010657563413;-1.1376505418377194;-1.930361560922845;-1.5524349217440014;0.8438079832821406;77;1.2566370614359172
193;-2.375915564380016;0.8966699588843077;-1.0092650974041495;1.4481691566083663;1.21665598793395;-1.2679863341266044;315;1.2531046781161097
194;-1.412502660839987;1.6445668738696926;-0.5745600444047497;-3.040134972040046;0.6931304990401256;2.5233789317751025;83;1.032913148768959
195;-1.3272626001850518;-1.149064716972294;-2.1039916716888016;1.040685456780616;0.2050836261350541;0.1262303700844371;188;1.2566370614359177
196;-2.1647335354355945;-0.390694080462445;-0.5427495525086593;-1.829374966775036;-1.418613214492623;0.2453674710492963;192;0.958750955006177
197;0.7602838666685285;0.8067735616470556;-0.9807589826022662;-1.6253084256132238;1.0341461634580504;2.9573224694171003;100;1.2566370614359172
198;-3.051285713960701;0.1673477618769873;1.82295894390365;-1.159891975913223;-1.335378813101997;1.624129338327308;88;1.2566370614359177
199;0.4774106087064586;0.8658950470622258;-1.5218688773724338;2.0214486777005902;-0.0665834094758654;2.8389862108746806;122;1.2566370614359172
200;-2.0993092892002463;0.4220920920207398;0.449067941157048;0.6873600210855249;-2.614455525071524;0.8219075050050407;189;1.2566370614359177
201;2.303306757587753;-1.126176468358952;1.9322833221845936;-0.6121397459696789;2.0160136943248506;-3.0042142957841973;126;0.5140324066192574
202;0.764214722298759;0.3505323415193599;-2.604252492792528;1.3023120069269547;-0.622500153061577;-0.3169332502838979;92;1.256637061435917
203;-1.4751271330564486;0.0554611909136982;0.1249957035929992;-2.6830509159051394;-1.4591476563172343;1.12176125399022;77;1.2566370614359172
204;2.4549620030148693;-0.451593864978025;-0.9348129095464782;0.985898949933708;2.082975374866951;-1.8501229235508525;135;1.256637061435917
205;-0.3931380962456026;-0.5641743794926943;2.516149689366804;-2.455326721423906;-1.8257995017159163;-2.2403147802313192;80;1.2566370614359172
206;0.9339676522648844;-0.0206310486099578;1.4647879165530222;-2.293992828373986;-1.6056380900361222;0.4953603707095022;127;1.2566370614359177
207;1.09102760917796;-0.5209266959464988;-1.0929092479457014;-2.887966698621124;-1.222144163513509;-0.4948499542548145;114;1.2566370614359172
208;-0.9686194073779054;1.4612539974999663;-0.9206733164733708;0.4442069385454466;-0.8835710210206434;-1.5464207848378608;158;1.2053593826903597
209;-0.3633721497506983;1.4444661360408677;-0.359219247203284;-0.7597017278824186;-0.5451347947665658;-2.006262206658524;13;1.2566370614359172
210;1.2321196365649238;-1.1368121037209464;1.1423324520402138;1.829353743241927;1.527304613137595;2.1934629683061786;66;1.2116870803084063
211;2.9740530932998386;0.638779308989616;0.053244738912803;2.069640961894213;-0.2610785369300022;-1.537384320920391;81;1.256637061435917
212;0.1291943911928243;-1.5241690474337022;-1.2894120546682477;1.116071270288501;-2.071020181471745;1.757330776169188;153;1.256637061435917
213;-2.508017722594956;-1.0712444120165516;1.2800547721573765;0.6241476623682857;-0.7788671640598035;-3.058573202360204;183;1.2566370614359177
214;0.0735256002658468;-0.1368891283613991;1.0936978099952488;-1.8065176236585536;-1.164549479678603;-0.0244766393091785;127;1.044805677074188
215;-0.9692441630336588;0.709737699921612;-0.021972088129368;2.733319771117096;0.963538978992618;-0.2930468370051431;36;1.1413206496926769
216;3.2156240246447703;0.1565159026456157;-1.1898368115901097;1.322338766132246;1.466701662946007;2.139432979014443;57;1.256637061435917
217;2.2636072396764515;-0.2074810719087489;1.0331246055530798;1.8033312720331125;1.080273652329213;-0.9540917517709012;71;1.2566370614359172
218;0.2512338673308018;-0.0785751163279055;1.159198414084046;1.1706829072648108;-1.1477925119618226;1.4030979471725833;136;1.2566370614359177
219;-1.1277871197480949;1.3017530642193522;-0.8176661658242453;2.0570444608470018;0.903549810148874;1.440535975870146;91;1.256637061435917
220;-1.7132890961054532;0.918766355207804;-0.3914780385940034;2.296514819442552;-1.0092057870762166;0.1601093063109608;112;1.2566370614359172
221;-1.0596342251019142;-0.3010057391572109;1.580344307711053;1.1062933661538212;2.512688125774544;-0.0755131382553223;180;1.256637061435917
222;0.6005262469425585;-1.415911188138821;1.376289182918572;-2.692323915899469;-2.24565023785953;-2.8747618625360225;80;1.2566370614359172
223;0.5082013656861962;-0.751764802960404;-1.9339099410746976;0.9600824136980816;-1.1705046029488728;2.5554711751586145;153;1.256637061435917
224;1.486584407197337;1.2900298528925194;-1.9101173269034455;-1.503616465858828;-1.7529742781173598;-3.053565624441408;111;1.2566370614359172
225;0.5793296028179122;-0.6546670292891157;2.4459018006508497;-2.042641732955339;0.8205379555299659;-2.404787702775362;132;1.2566370614359172
226;-3.023654126216053;0.4229855247408216;-0.6817031660827542;0.0496903361074774;0.6451384361881735;2.3255271109400493;146;1.2566370614359172
227;3.0761767417504395;0.6513939070062961;-1.407142917765938;-2.7236943357683434;0.4110586763451772;1.3455862704178774;191;1.2566370614359177
228;-2.7718625706164963;-0.6925364584883015;0.7845988831704604;0.1333280301017583;3.323243688221075;-0.3045595640829327;182;1.2566370614359172
229;-0.3783874306688571;-0.3607010411395321;-0.7376077210422537;1.7798432943942537;-1.2396590574478827;2.2037088812004386;69;1.256637061435917
230;-1.1415359821007305;0.6750443076493288;-0.9579744248362224;-0.1294953182350293;-2.877496689604989;-2.1437056245605124;113;1.256637061435917
231;2.6387203558609422;0.3046254150115634;1.3323413861980762;1.5731764975431322;2.644508820843395;0.0299423326948806;96;1.2566370614359177
232;-0.9502636206410526;1.1118834189263835;-2.077342040631505;-1.232600357592648;-2.630034998800173;-3.051319609986578;113;1.256637061435917
233;-2.103130616355541;0.0657513165118921;-1.7893881338864084;-1.2557046762781965;-1.207750050953622;0.8993699540755746;192;1.2566370614359177
234;-1.7995356648228145;-0.817482252980253;1.92342761040892;1.4562072893761648;0.4849106053183907;-1.4911364846952944;116;1.2566370614359172
235;1.8858475854711905;0.8928436571413001;1.479720824632175;2.1056165017261623;2.5291143816266324;-0.5597946102517466;231;1.2566370614359177
236;-3.1396574978461853;-1.2111157535309516;-0.5268115537720981;-1.4456748521710914;-1.1188483952074275;-1.283448682898692;162;1.2566370614359172
237;-0.4473693481291964;-1.2714676235706448;1.6270277622651614;-0.7836436104009832;-0.1301511022159838;-1.6239262427202508;109;1.2566370614359172
238;2.564137616873109;-0.040135008104948;2.318809703472541;2.420876249560982;-0.8460290306553656;0.23095093285534;185;1.256637061435917
239;-0.9247106274211236;-0.2681119728112486;1.2795497944796432;-0.6027130672449585;-0.2705041569334269;2.934923163149618;108;1.2566370614359172
240;-3.198550651908238;0.3806188574595133;-1.732356554920055;0.3758326736126913;0.1458241376518981;2.620818218945587;226;1.2566370614359172
241;-1.0952820519390882;1.0498911782985956;-2.201457768184337;-2.0705485326840143;-1.1178236043487844;0.7159951685220045;163;1.2566370614359172
242;2.562074845457204;0.0320687816690516;-1.2561090359332794;-0.830485304310083;-1.2150143537437716;-1.4193273569429523;63;1.2566370614359172
243;3.0803260690918464;1.1364997419533218;-0.4893022708387283;2.4462747690395608;-0.3816828792532772;-2.469779859057867;211;1.2566370614359172
244;-0.7873384287983212;0.4516476569258945;-1.6969588444770964;0.9743257577309544;0.7649662847609047;2.1611358537627634;179;1.252307401831991
245;-1.1454744430576274;0.6902288774517942;-1.9172093759134956;1.734738204029017;-0.0373861034923703;1.8097848033041484;244;1.2566370614359172
246;-1.454935273513589;0.99103317768418;-0.2598322120164806;-2.197840322858695;0.0866880028329006;2.537666501894529;60;1.059764656288201
247;2.480462551957637;0.5409687059036646;1.018998697252514;-1.048609662209963;-0.3705526005698357;2.976744161797724;178;1.2566370614359177
248;-0.6569510042001777;-0.1600579843938828;-1.746397754766569;0.2225782741545454;0.1562546068676208;-0.3270826901955993;3;1.256637061435917
249;-0.0682819527141885;0.156458266184861;-0.6335807313785472;-1.2399822693610072;0.1892139250615766;1.1938227570156668;32;1.2566370614359172
250;-2.473759980129508;-0.0259918042352594;-2.6678776254716867;-0.7234803038295442;-0.7397924917071586;1.2985728247670931;233;1.256637061435917
251;2.1096924735028075;1.5177163279606063;-0.9675154810971864;2.535615355850152;-0.1714946262377273;-2.928944671753754;243;1.2566370614359172
252;0.8151993437516925;1.1513209829646756;-1.0581633817798328;-0.8541116619163722;2.253992437556153;-1.0920343347022596;187;1.2566370614359177
253;0.8731838245285178;-0.179806876014106;1.5584392200147643;0.5021946066267132;-0.8552478729494173;2.1032514237202395;218;1.256637061435917
254;2.0527663619456185;0.263222230612018;1.595098903922216;-0.6022496910695065;-0.4906355688310671;2.6917474668288373;247;0.9417212129174588
255;-1.869180726771914;-1.2713489975067918;2.5818043363319925;0.7582491116311987;0.0724635390196637;-0.9642843857940916;234;1.2566370614359172
256;0.7426397367208906;-0.6714444298986526;0.9494732748687552;1.0088118107463742;0.4070137524308866;-3.464271474539096;54;1.2129096592758208
257;-1.1857655498382775;1.1520935204778184;-0.0616426589886097;-1.3092702485940475;2.523624834597308;-1.0455568656364775;187;1.2566370614359172
258;-2.731345857474615;0.4205241610549107;-2.362061640956977;-0.4188525239272728;-3.197221177968657;-2.156901388601762;157;1.2566370614359177
259;1.667990497017127;-1.7094222941121162;-0.6913201975331087;1.303595889784624;-2.437702210141591;1.0973309804010372;28;1.2566370614359172
260;1.8942752269342384;0.5705513486498737;-1.3404570488341452;-1.269610830295132;2.47892284272076;0.8918998781832861;160;1.2566370614359172
261;2.562050481950525;0.3952808123231072;-1.9340257615872836;0.6399931032016563;0.0071203187230748;-0.2397301003081382;72;1.2566370614359172
262;-0.0850673114128558;0.0730027328248888;0.278136053667549;-1.628871886609434;1.5898784822678582;-3.136935412082874;120;1.2566370614359172
263;0.9884099841101636;-0.1946267991988584;1.2399781537447687;-1.6085270316721458;-2.3970288027966022;1.1271800976166455;206;1.256637061435917
264;3.240377765143357;-0.7180242611386267;-1.164245124061881;2.523344448484884;0.2764674756143771;1.3533319444386391;102;1.2566370614359172
265;-0.3809891026438144;-1.0707544560879751;-0.1147928282014334;2.269156681900791;0.1100302890039386;0.378289454846748;23;1.2566370614359172
266;-2.806616775958494;-1.1366698435728266;-0.7733849105266879;-1.4330303301153955;-1.920557224285904;1.64897777437408;192;1.256637061435917
267;2.0429606198869763;0.99535667126725;-1.4948367997699328;2.782045470056034;0.8098092336001913;-2.920511801577607;251;1.2566370614359177
268;-2.2356268664779577;-0.5746046258895614;-0.2991153350841165;1.813291117872935;-1.2201190832117124;2.9823197199748828;177;1.2566370614359172
269;-1.4210326389655914;-0.0674516461080263;-1.3729887497725657;-2.5677211200826053;1.3771196741452667;2.325021659998136;139;1.2566370614359177
270;-1.4554607026520747;0.4310530812676654;0.7211873811806716;1.9223222379301277;-0.3863279513292336;3.158472442691905;177;1.2566370614359177
271;2.955858601242663;-0.2156019316214965;-1.4778680466095715;1.327634497195771;2.122022618889341;-2.7287119106601114;204;1.221361926872648
272;2.5728509210900734;0.9698329535424848;0.4424304963440431;0.58456421340242;-1.3423477059286797;-2.061211116061182;121;0.9525625588739388
273;2.4538567210940445;-0.7528934337650561;2.153776435343844;1.0546835813729332;0.5859568814259773;-2.2874716158161483;26;0.8344076931556369
274;-2.829327456668564;-0.833337549478069;-1.6378274967640474;-2.911225235900104;-1.5068521166693194;0.388809523802731;192;1.2566370614359172
275;-2.5398792287040983;1.2405657486409172;-2.1788576008189;0.1339651119251678;0.3083516351829357;2.9693891815010502;240;1.2566370614359172
276;-3.1698788290284483;0.7920590157467101;-1.810076105056985;-0.4286870787372271;-2.267823200245159;-1.8736664375876373;258;1.256637061435917
277;-2.2462947121772068;1.159697242410622;0.7790218635322868;-0.3698549922440788;-0.4951244025940958;0.2822907903452971;117;1.2566370614359172
278;-1.2852119933360766;0.6036216424519187;0.990605772739594;-2.329427140094179;-0.8431099184904878;-3.055977309557004;21;0.9721073426771804
279;-1.208681615652002;-0.4073531838793048;-0.6403533081312578;2.9556085490710204;2.0407493035400246;1.4778710497835377;147;1.256637061435917
280;-2.9089069126510427;0.6401870784743697;-1.111634238560887;-1.3577516581798963;-0.8498964504187377;0.8539641028971041;233;1.2566370614359177
281;-3.295204634632777;1.087737808589016;-1.7434779774883091;0.159738117397172;-2.742020569455855;-0.9247399224773089;276;1.256637061435917
282;2.7296364920029075;-0.0032818924317464;-1.8069292423119068;2.2560365020172632;1.2555110331532324;1.9972307469075803;216;1.2566370614359177
283;-1.7964752061968705;-0.6588953580771739;-0.0920848081091976;-2.633225997444778;-1.2957906223162852;1.4952541835794686;77;1.027697176468505
284;0.5401139284576297;1.3880555400179877;-1.1993330074485642;-2.918982784235741;-1.2816675001303692;-1.2754409995083325;114;1.2566370614359172
285;-2.050426561705071;-0.1957517760142618;1.1948717566018807;0.8810453446229366;-2.295447214581192;-2.5499915036247685;183;1.256637061435917
286;-1.678205591184497;-1.2681346727039595;1.107490496236315;1.4989197430347945;-1.1169151009264675;2.541079847159847;177;1.2566370614359172
287;-2.7851726538098576;-0.3305238839980423;2.1274144323449606;-0.5727969690545849;-2.13003156861258;2.0618480542445004;198;1.256637061435917
288;1.48351820738439;-1.269168223162413;0.1028146602204636;-0.8413337849087857;-0.4842801294613803;1.80076949774333;9;1.2566370614359172
289;-2.1036414075403864;1.3534461624184264;-0.1976239491645862;-1.9084753124346172;-1.4131850259449443;2.7452747059159;79;1.2566370614359172
290;2.5993896558331087;-0.1863120492229777;0.4652341161921992;-0.4567682123811392;-2.919276902506952;-1.3539288235594862;141;1.2566370614359177
291;-2.4304640043304278;0.716771808839038;1.7264796929500033;1.0934637742919098;2.128204312912129;0.2433714687581207;180;1.256637061435917
292;0.647604805774407;-0.6583664582917051;1.880971927904656;2.3231284648415707;1.1438169970457306;1.924940383710195;395;1.2552863719294434
293;-0.6126031041668034;1.12662694098527;-1.8938979402696567;2.476081926249892;-0.210813568603566;0.054427263755745;156;1.2566370614359177
294;-1.0798279344275583;-0.8466815972045474;0.9416582828079404;0.2947059527260534;2.050823642645533;-0.1079786184662396;221;1.2566370614359172
295;-1.6782221941297213;-0.3478598984144059;0.5683534343911462;1.9726029682926145;0.1851055374163593;-0.9973678538574028;116;1.2150592561277591
296;-0.0973976052661568;-1.0784006606992933;1.053829966550301;-1.303168508661971;1.5745593904077864;0.7049159084698974;82;1.2566370614359177
297;-2.8415981661478016;0.4940139575940998;-2.028188949008928;2.45289021864616;-1.2403227566994628;-2.1732826083051684;119;1.2566370614359172
298;-2.6223083690915336;0.0588694006465397;-1.2467551268839432;2.090654476526219;-1.1229986107045815;0.0485861714489526;112;1.2566370614359172
299;2.7835511356893505;0.5246731955781938;1.634352938261562;0.3632791000102728;1.80373451524248;0.8307723659033226;39;1.2566370614359177
300;-3.174231589961729;0.3983994950712342;-1.3029317534688247;-1.4519293604913266;0.6413131816236846;-2.6202822699691506;110;1.2566370614359172
301;2.492211625972516;-0.8535224987072372;0.863747168769597;2.491232935094621;1.2955941594331506;2.564261105814591;66;1.2566370614359177
302;1.21910145345582;-0.1047186917826415;-0.5638667711727782;1.1920821763105536;1.5100846659240394;2.159931726827046;94;1.256637061435917
303;-2.543034450922708;0.4644925891844945;-0.9822276966181088;0.9460875247883048;1.6613166594262152;-2.2239625912742724;193;1.2566370614359172
304;2.6885533503624224;-0.4490366995882158;-1.6971914047184922;-0.8292585346623033;-0.2647281878775342;-2.0749000941967326;63;1.256637061435917
305;-1.600466089307645;0.7947787462851588;1.941495477942924;0.8649018178945932;-0.6005425394407417;-1.5678244068674765;151;1.2566370614359172
306;1.19980493524372;-1.0818104230266703;0.5023657308063215;1.3883900968860383;3.466550165624183;-1.4401518928084305;51;1.0076013666639634
307;2.246571698722149;-0.6703438916567555;-1.3286954644901765;-0.0131466374924296;-2.2271955656380524;1.9922439354875645;65;1.2566370614359172
308;1.1682281810831592;-0.2038901489987987;-1.4130914099046852;2.0088821617550887;0.7634673436822554;-1.174270414221554;75;1.2566370614359172
309;-2.962568403064729;0.3546964529378769;-0.6289085611850505;2.0258911859713087;-1.230354922019785;2.873967102821516;268;1.2481393815205744
310;2.7985103162537155;0.8136922571048586;0.4574322414363787;0.854144764173026;2.4756903423612555;2.3502979452809827;57;1.256637061435917
311;0.5625379734984859;-1.406377884331974;1.024704448661418;1.086811417369807;0.8467675524948491;2.366075965453904;210;1.2566370614359172
312;-0.2160096782881578;0.4235354132646368;-1.5365310702468655;-1.2600429573897292;1.1767405969237652;3.0857027316767223;197;1.2566370614359177
313;-2.2823663112053008;1.6507631648181502;-0.1936260285377184;2.103160663649525;2.6478937954370685;2.690593844789336;145;1.037161110320443
314;0.8252103886454556;1.0848317311178637;-0.7195149709724005;-3.325318087247465;-1.701166656739367;-2.189004771382875;284;1.256637061435917
315;-1.586491933548021;1.1127763735868192;-1.895885616670209;1.3911208829580437;1.485369641887491;-1.0709528232870202;101;1.2566370614359177
316;-0.8636120940580321;0.8348886391420103;1.318734653481814;-1.2347996745470144;-0.6381580938445275;-3.0512124158619023;278;1.2566370614359172
317;3.2022115999204184;-0.40130787439538;-1.2198688840438536;2.2230179217813206;1.0541798671060951;2.5052857740733203;216;1.194778065525661
318;0.2682923174773589;-0.1328306178903475;1.2896633826977522;-2.550997183163351;-0.292294285047323;-0.4577256598128383;214;1.2566370614359172
319;0.6317272535996046;-0.8965440212514679;1.699026119679441;1.2253905294393976;-0.39199022278592;-2.9455980336649805;256;1.2566370614359172
320;1.3089485858571497;0.0964903315823507;-1.6232742860759386;-1.216868435317123;-1.8094950382013169;1.2478748924569756;97;1.017576865097099
321;0.9425602741133112;-1.5779887217706294;-0.6663873112740084;-2.0340468914117844;1.298484957855795;-2.851570984376204;120;1.1426465728759851
322;-2.348953763596525;0.9113164462550232;-2.3932879891479155;1.2270996088181498;2.245051175202142;-0.7457230137728399;315;1.2566370614359172
323;2.7293982947180067;-0.4301862924979246;0.7570804585808162;1.716688720114657;-0.0249696973144974;2.687761265910222;66;1.2566370614359172
324;2.207508645818811;0.0166170507231108;1.5180293487146936;-0.8170172359879997;-3.006535541878136;0.2852439336075624;155;1.2566370614359172
325;-2.419186685550684;0.7801982781154185;-1.5719833252728068;3.066307064162763;-1.8934400001940128;-2.7281139778940524;297;1.256637061435917
326;2.6112202915258846;-0.7894984651208049;0.7999958944610204;3.069360012513072;0.7437275606036108;2.961245798544369;301;0.9048264314990372
327;3.1400513703889352;0.9785909355891774;-1.162174288495066;-0.3670328740996005;-1.5496679753680265;-1.5358207671858872;242;1.2566370614359172
328;0.8143161991210259;0.0970589797076774;-0.1333479411168537;1.8227531588763013;-0.642993728712322;-3.106349497666565;54;1.2566370614359172
329;-1.5281411964362124;0.434575170530594;0.8987052741553821;-2.784892400542945;-0.1707696290017978;2.711885081392204;79;1.256637061435917
330;2.3989466818090226;0.987449786046185;-2.2307743759459457;-1.1456038967384792;2.330281370700865;0.3257707674889953;260;1.2566370614359177
331;1.9811040995838312;0.0230270134724022;0.5700343685800926;2.521897669730785;1.5896861555345172;-1.6292979193110244;217;1.256637061435917
332;-1.3479271198777332;-0.8950856325092035;0.7003162930873265;2.097797591691334;1.2690228868848674;-1.4779960490972452;124;1.256637061435917
333;2.5911700879531567;-0.5813501092996937;-1.1961049519267484;0.7273762831888254;2.717399664864404;-0.8470547810698137;204;1.256637061435917
334;-0.5047999239287108;-0.5513898438201823;0.8009026247835658;0.1547096746648879;-1.104627000319136;2.056036583158449;108;1.202549551725021
335;2.5632924221090434;1.4741827682819564;-1.4949118802737416;-0.857862692338774;-0.7457860002791822;-1.4808652415904413;327;1.2566370614359172
336;-2.7652920602881;-1.0977120797827289;0.4225813823045508;-0.7822617905972606;3.282957885614352;-0.9708492247294632;228;1.2566370614359172
337;1.6242322590249296;0.0958437704376126;-1.4233234298440691;0.8849113029788059;2.541289921564349;-2.2112926550648453;204;1.2566370614359172
338;-2.802526794266269;-0.105988646334559;-1.5636134664506942;0.6281817926039268;2.5006226323502245;-2.0169756261397733;303;1.2566370614359177
339;3.0565301653445207;-0.7832623295012858;1.878538798676847;-2.4459676217399;0.0037843143829336;-2.7014237057823447;137;1.256637061435917
340;2.0513399900672704;1.3170079067376252;-1.6575107398070412;-2.82482967164289;-1.5744741172417345;-3.16186216405078;111;1.2566370614359172
341;2.4248582228558395;-0.1207002402560483;1.3010570342307983;-1.079639560562071;1.3445048396210666;1.0388258959450338;25;1.256637061435917
342;-1.9000892864765548;-0.8599922200391018;0.5258766938060797;-2.168731942972736;-0.4446974896658448;-1.9556262509594269;98;0.886872962426383
343;0.3811153891265805;-0.9416186189085598;2.3781256034545333;-0.7650019024401944;2.6083878790631605;-1.6883639273726605;144;1.2566370614359172
344;-3.1869801755974687;-1.2602779838227591;0.2828766307487196;-0.2240793496792885;3.021366681738306;0.4789509067341221;228;1.256637061435917
345;0.6623720666349491;-1.5938865387578427;-1.1120151237188676;-2.7789086168423687;1.1150036413728477;2.712679363431347;58;1.256637061435917
346;-0.4442327807143372;0.8917992517012832;-1.1582564995992115;-1.3033009837358664;2.6068646376654505;-2.125950513749798;187;1.2566370614359177
347;2.201908102188187;-0.4359733075455824;2.022874724016358;-0.7048940525849042;-2.155553943348563;-2.388607715102633;131;1.256637061435917
348;-2.111003219172157;-0.5570323964208325;-1.2290480096361758;3.100808808285511;2.2208737093496143;2.063071180425938;279;1.2566370614359177
349;1.2147521345413952;-0.5756643803723098;2.128150376498487;0.7140048685181926;2.06677939976062;0.0254997952495234;96;1.256637061435917
350;-1.6295165349969545;1.2655366998107107;-2.214122762890486;0.7835472720568647;-0.6043712323863877;0.0145480621241648;156;1.2566370614359172
351;-2.1088949210163905;-0.7109628869696143;0.8810981092761611;1.5704838925826332;0.1989026238054084;0.003688879740131;295;1.2566370614359177
352;0.7391428999410306;0.8373739345942912;-1.2610413141606422;2.9459170251346958;-0.1225540206632454;-0.2933929613698918;75;1.256637061435917
353;-1.4812070446313874;0.4136739679977123;-1.0335304146264168;-2.023817888966908;0.2031707705776187;0.9924669010512088;60;1.2566370614359172
354;1.4952581855465206;-0.5836864656387188;2.24069929084959;2.9375737333745726;-1.3894866564935864;0.0389229299525018;185;1.2566370614359172
355;0.642556297116329;-1.170654800823956;-0.2578831852856315;-2.534573224754687;-1.5409074597697;-2.638292745948677;76;1.256637061435917
356;-1.2580744494834373;0.5681086130814906;1.8677661037819957;-3.0180659320900314;0.224011297265627;3.29418114784794;329;1.256637061435917
357;2.675095103051134;-1.038517001395676;2.357733475888211;0.35750671652614;-0.3612647271169125;-2.44150612227968;273;1.2566370614359172
358;1.276584753561064;1.1912066065833893;-1.912558314116336;2.807036075558485;1.691703232082766;-2.8961249187642326;267;1.2566370614359172
359;2.259513218504187;-1.512790487101436;-0.283714031182093;-3.0610445338853385;0.2292251422454324;2.144758137684138;175;1.2566370614359177
360;2.811026681057994;0.5122603717442359;-1.503760446922466;1.325359759085563;-1.386435639399759;-1.6250083676722988;72;1.256637061435917
361;-2.4543944945920853;-1.2453279847350809;2.3326983295259778;1.716831640543436;1.3393329953020388;-1.533320043262245;234;1.2566370614359172
362;2.834983619193086;-0.1318074055495552;0.5227900001893588;2.556292434779449;-0.6889339351181948;3.215287149255108;323;1.2566370614359172
363;2.40598099221532;-0.0210180564019161;-1.7467945723047296;-0.5691255585394538;2.843876066038462;1.6468881130144832;140;1.0548674601987629
364;-1.0150552108892583;0.7543833941043789;-1.2796513333771866;1.2489268859529814;1.6274795341534072;-1.9099952550264652;315;1.2566370614359177
365;3.0595004700974524;0.3145595353923156;1.453321163598769;-0.6064659913279827;1.4864405180174822;-1.217457320579537;85;1.2566370614359172
366;1.8074463226715087;-0.1865780302351609;0.7662939288735573;0.4594593198783308;2.6262798387555506;-0.3922884285664401;96;1.256637061435917
367;1.4538335778194893;-0.3187346582470221;2.293437956086056;-1.3084397037397295;2.0526732953707323;-0.7681958189470756;132;1.256637061435917
368;2.8167069787646963;-0.8070778084285399;0.1328448710147312;1.410368851079658;-0.9799069191312288;2.872313845201885;323;1.256637061435917
369;-0.9015194357361108;0.1023350375370907;-1.847737856289234;-1.08779857300688;1.6364482346953988;2.2682710884217023;312;1.256637061435917
370;2.613818536692257;1.6838872924607096;-2.1648051078956487;-1.1749877510616786;-1.5783037596942011;-0.9421660960246816;335;1.256637061435917
371;2.1556367346654213;0.2355523972714866;1.2013851542225833;-0.8439026439041933;1.1071625350981984;-2.823272682612215;70;1.2566370614359172
372;2.666221445273484;-1.7116322432631743;-0.0771888784154224;-3.2559538391175167;-0.8935724594191367;2.3260599527988477;359;1.2566370614359172
373;2.9135305479274245;0.5120069138579556;-1.9286065793549347;-2.7193423529954424;1.308500120504876;0.6703753773311723;227;1.2566370614359172
374;-2.2119178089804485;-0.7783645742545977;2.331248067028436;2.518807488827125;2.1435242322294474;-1.4219826086814222;361;1.2566370614359172
375;2.0494835864000347;-1.477577725116265;0.1450987716699611;1.270159670664242;-1.1856055461567585;-0.916907572284429;35;1.256637061435917
376;-2.2972014292918703;0.4034022387899167;-1.314698519145418;1.5089036775306444;1.312419123484472;0.6642980243654025;107;0.7241073154890081
377;0.9115974234797014;-0.0302011962158007;2.186321269621984;1.33863255307717;-0.6411631758507419;2.7479084458249794;253;1.2566370614359177
378;1.711311929138872;-0.0240350527596504;1.536858521749665;-0.2053931786385529;1.9791923991122005;2.171596395723292;25;1.2566370614359177
379;2.218133425973937;-1.2719642037264534;-1.8572266278432423;1.9380228659940293;-0.9965078111069904;0.3166243982952267;133;1.2566370614359172
380;0.3792660243876657;0.4584487385756166;-2.3472375314546245;-1.4299937632763815;-0.914972708612193;-1.6986090525108597;47;1.2566370614359177
381;1.842407670487806;-0.6999353655243683;0.0628194261013794;1.5867667549488345;0.4414014414044786;-2.872445529352783;54;0.9496595317648392
382;-1.115948535852499;-0.6459919672808975;-0.058231263015742;2.980611106890376;0.2068359842797099;-1.7054251866930812;124;1.2566370614359172
383;1.3011073935760986;0.4675718227815263;-0.9339551404145529;-0.2544673063777651;1.6711295620919144;-1.4930168596234423;252;1.2566370614359172
384;-2.718673826992257;0.9301527948952636;-0.1288442394841337;0.5618553280860931;0.3649454669357794;2.5988481937052894;226;1.0350894207078016
385;-0.7218521277806056;0.9335983412501014;-1.4098137284254704;0.8936364173163608;-2.881630192474584;2.229309581319247;174;1.2566370614359177
386;0.7913645061911985;1.5398207914631306;-1.9788403121417344;1.7734899742010226;-0.3517576395514822;-0.0993687222004708;92;1.2566370614359172
387;2.8089772158059176;0.423768494126301;0.7578634206220898;2.9681231873920693;0.3967980183592316;0.8740402745057639;102;1.2566370614359172
388;2.528526277595807;1.188645239399872;0.8879868851357813;-0.9033852540495404;1.5295687328403718;-0.8659557484252309;365;1.2566370614359172
389;-0.948772624697073;0.4942990602355872;0.5686550337751132;2.794390878521446;-1.107772163860577;3.0395091740996625;270;1.2566370614359172
390;-0.4645665628754803;-0.4483387390045395;0.2073386265041595;2.2418999640970005;0.8152081263262172;1.6795611335319824;147;1.256637061435917
391;-1.8670747240411567;-0.8283378841860668;1.6438018882696992;1.3314201803368129;-1.1586953964749171;-1.2227779425911662;151;1.256637061435917
392;1.520063871210181;0.1679961879958138;-1.0020042658935482;-2.6522237986036017;-0.2480524255362216;3.2701280521267435;68;1.256637061435917
393;-0.546689235149916;-0.4608146442749575;-1.62038308075234;-0.5002658918354872;-2.5423808740412444;-2.226400828259738;113;1.2566370614359172
394;2.6721056423785736;1.1171435332890145;-1.4846686748870108;0.0428374763689226;-2.3547600861963107;-0.887132061321257;424;1.16442659369538
395;0.3865744684477529;-0.4732724168994476;0.8295334825669483;2.1300272119002406;0.8280255987221652;1.4445112745680042;390;1.0863320941995698
396;1.335885272887592;-0.7664759816994828;0.7626684969131794;0.5924412572910587;-3.4087647784024897;-0.8076010586616524;155;1.256637061435917
397;2.4166487942764965;0.2336457500678339;-1.838666344569784;-2.918871680945743;-1.8495676393392728;1.4528915340219293;184;1.256637061435917
398;2.8737315162476897;1.258859486811836;-0.8267848645272186;-1.0497542776916284;-0.1034626752624945;1.6402751669678983;191;1.2566370614359172
399;-2.5906191262424567;0.0596375963252541;1.7814973277634951;0.55799197049747;0.0964693953448538;-0.3096526868819729;103;1.256637061435917
400;2.3217255988042838;0.4569098845468113;-1.311213071482087;3.192244121122411;-1.21626109206884;-1.0347325359819244;138;1.18315787726213
401;0.3684717353186316;0.3995918685960319;0.3473423050881639;-2.6663291299091982;0.0014263276846886;-2.2561342352986777;90;1.2566370614359177
402;0.3887941513390087;-0.85110352544013;-1.8157416237042343;2.2783460441113443;0.2733234036594618;-1.4531163973342949;308;1.2566370614359172
403;3.1503256726760767;-0.5146293094427827;1.9041476390321568;2.3361787582617315;-0.8911549979511127;1.141566537687273;238;1.2566370614359172
404;-2.4522621852441917;-1.1009615513944164;1.2190045741207742;-1.7729883473621664;0.8347977731329049;-2.158407599316204;98;1.2566370614359172
405;-2.563461922401688;0.2061578556075835;0.3303358555963278;-2.867112900998657;1.3055913481219863;2.0927997926347466;139;1.2566370614359172
406;2.788156355237229;0.7985368492854004;1.0154737519776518;-0.8172581393194837;2.7171775897392747;-2.163780112980623;85;1.2566370614359172
407;-1.8400210114110829;1.467247303933343;0.2528943525440378;-3.414760325754524;-0.0625364333858534;-3.390035489277849;186;1.2566370614359172
408;-2.6187897547426293;0.4523513014489707;1.0980306427948576;-2.731281597196625;0.8838169497833719;1.23853680626039;405;1.2566370614359177
409;2.666006556773347;-1.163160357702127;1.5693239816689246;-1.3050087124951777;0.8130172390807013;-1.8560759725205216;137;1.2566370614359177
410;-0.5692322082890464;-0.2324061093357025;1.059536135134047;-3.3333227155334493;-0.6059047604994071;-0.6443271630223717;318;1.2286277099836111
411;2.341575796640232;1.193309170119826;1.3348128717499033;0.9039557315011204;2.5239222037421185;3.022335394345469;310;1.256637061435917
412;-2.8508782140854363;0.1301155775293506;2.109386234465231;0.4326579777592008;1.926519404844932;0.9023589802235708;291;1.2566370614359172
413;-2.9168808675496134;-0.2821266970756205;2.275883214081387;-0.6439031804553315;-0.7445837321105151;-0.2833230262203636;103;1.256637061435917
414;1.9869763387838524;0.011837397606806;0.3234258962847564;-0.5690099125556267;2.003689777175959;2.9501698103399367;12;1.0501901485083296
415;-2.453696330569511;0.4076788010098439;1.5499232933203442;1.9678524933902464;-0.7340377441078724;-0.5576555847391229;143;1.2566370614359172
416;3.027706887127143;-0.4066447282091292;2.1366311860211638;-0.2306340305458456;-1.1047879077822589;-2.11299952699499;357;1.2566370614359172
417;-1.7774899648978963;0.1303633912072644;-1.1705753874700466;0.2228073714121174;2.8903862426331584;-1.9739536297149431;338;1.256637061435917
418;1.6948489538341038;0.2579542044967912;1.7138099040394343;1.6764848654929878;-0.2640530981091729;3.012591100905678;377;1.1163317557995782
419;0.9709689811263018;1.4180031725861029;-1.5651680855481258;-2.5057266623705403;1.4157854305825888;1.4043445072054368;100;1.256637061435917
420;-1.623508963481004;0.1246677331643809;-1.9598632481645;2.7319989964563662;2.644857165574276;2.2270755305117227;348;1.2566370614359172
421;-1.1975750034638752;1.338462043947939;-0.4244965820668855;-0.1142137140693856;0.1003053393046343;-2.011260426433274;209;1.242845575273778
422;1.0350066594778031;-0.5184634407322612;1.2577936096014783;1.9946326562888197;1.7223527480832532;2.941335763395414;210;1.0291814637563974
423;2.367146749460721;-0.9025324687345194;-0.8960867391475991;-1.1867522969285356;-0.6370959974984891;-2.6765210941102007;304;1.2566370614359172
424;2.870522522138674;0.094417674438406;-1.5503172842719115;-0.200254934439297;-2.0211952325896565;-1.1967813466445485;242;1.132356172895338
425;-1.001791137207826;1.3763808621242135;1.7710372552911342;-3.2346581834462405;-0.6661015310466853;3.186561359487733;356;1.2566370614359172
426;2.49241543141166;1.0173785446284525;1.5556581940382213;-0.8418433849502164;0.2667468049811017;-2.973780031885481;371;1.2566370614359177
427;-0.7757802585652958;-0.3291776953156659;0.3934267583498149;2.617992041599856;1.8289710526117575;1.5529622607629046;147;0.9656495821665466
428;0.190367370891848;1.2607890018140029;1.0118596592894349;-1.7743095915511673;-0.7927300976010832;-0.4067412107621052;127;1.2502774366294829
429;3.039018808580908;-0.0288172362800802;-1.2414354130821592;-1.6595269732366986;-1.515041549710244;-0.6640708901128148;242;1.2566370614359177
430;-1.4915838173000728;0.4304266340561505;1.344607190929067;0.0996495176605363;-1.4742605335968073;2.814763472071759;108;1.2566370614359172
431;3.1327428801849657;-0.4044963360048024;-2.559704304366772;-2.483474914403328;0.8572901160013322;0.8536680266226944;373;1.2566370614359177
432;2.2100176508823437;-0.4517413375559397;0.4039514996819875;-0.0759924478103193;-1.2229038357605069;-2.1638852688557453;121;0.9824164019076898
433;1.5152645578176265;0.6534151652077436;-0.76673897073154;-2.2165369704676614;-0.7707319305580054;-2.2295752707447614;111;1.1128271448580709
434;1.2592623573681658;-0.9650425722916156;-0.9865865692219186;-2.364429179922082;-0.2065918411556905;-0.6868194755621725;207;1.2566370614359177
435;-1.4851533727327535;0.5586104358207225;1.1319753465296136;1.4468110199408413;2.565381399049581;2.061219387533551;129;1.2566370614359172
436;-0.3828583409641637;-0.9208372277647452;1.0120279425242211;2.552932261058257;1.9450713138651776;1.018429776857391;427;1.0911246870952107
437;-2.0257852524411253;-0.4401744758632128;0.4625557863123499;-3.2894808157456654;2.113632094379803;1.9395405124890568;405;1.256637061435917
438;-1.3371087837166904;0.8233296176478146;2.1309834679998776;0.9844480667936494;0.1426178933836948;-0.6157319488608292;305;1.2566370614359172
439;1.3973917998858525;-0.1666140341817856;-1.4106382003970956;-0.0463119232973796;2.063089516138552;-2.813607166856229;337;1.2566370614359172
440;2.3770380167618;1.1068167752939584;-2.017936485294637;-2.4905890643923327;-1.6939610416341635;2.46048750707412;184;1.256637061435917
441;0.4535703836861515;0.0329398011312468;-0.9204755119193004;-2.2676125716731925;-0.2127640977234847;2.0168795079868898;53;1.256637061435917
442;-1.7354266643122096;0.6661019426343837;0.1859774723691879;0.4162264227204396;0.8529344753310415;3.028016118915679;384;1.2566370614359172
443;2.9294518316365856;1.5492605982728558;-0.6751423945534528;2.7063514703479568;0.4917790226776861;-1.7480527583706809;243;1.2566370614359177
444;0.8668424076616266;-0.7124504920617342;-1.0275655467168243;-2.5415795823017056;-0.8353744040584654;3.409445815444105;835;1.0898227733582646
445;1.4459465461905452;-0.4241692428459975;-0.0019391585552152;-0.1213613894660197;-1.984380776779077;-2.6618000524567886;432;1.256637061435917
446;-1.9920330705942504;0.6423001279676802;1.2253311062494443;0.8459272241570196;-2.3183133414355512;2.800116642425058;430;1.2566370614359172
447;0.654194371507088;-0.1232485879829433;2.2188141214156643;0.9539228719754452;-0.0757328060222623;1.6035597635671106;253;1.2444453187616975
448;-2.429063979946362;-0.1349402898368455;-0.6180089268977844;0.6700251599381182;-2.721081585597746;0.9208560630301412;200;1.2566370614359177
449;1.1045883994585717;-1.1323712729585684;0.2133455701332736;-0.8889015372254425;-0.7044198773540922;1.0388780889329976;288;0.8976196329446245
450;-3.214665969530614;-0.9213139837868852;2.61326340932254;-1.5094653819727908;-0.3477507323945381;-0.5311144692099636;413;1.256637061435917
451;1.4606256281894052;0.5363595175034885;2.043782679812957;1.6286657939703575;2.7408215852115667;-1.3848851236246358;235;1.2566370614359172
452;2.586543060627534;1.0342422110913874;-0.0987534181247568;-1.3034138610262358;2.7802183189142093;-2.130492575533568;406;1.2566370614359172
453;2.4280314576218247;0.8555483265709533;-0.958353569588805;0.8184773303221006;2.844055926657392;-2.0024509868308;337;1.2566370614359172
454;-0.0176169549680267;1.0472490084176047;-1.832095588411448;-1.7582023296118996;-0.1537409115179865;-3.0022779643776865;106;1.2566370614359172
455;-2.179640439104148;0.9804656458051332;0.680344154569207;-0.1596103962044895;0.6308646692292595;-0.1875799116121389;277;1.2566370614359172
456;0.3325464552669112;-0.5285730004215463;2.054788224072873;-1.06636718556974;-2.1444047375422057;1.2528304164263435;263;1.2566370614359172
457;3.3360056473093693;1.4037627024940944;-1.122409453461043;-0.5002007437847062;-0.727023618435607;2.053803584972295;398;1.0880860722957215
458;-1.437627420773847;0.9763243421382476;0.7854308732292619;1.4572630971814695;2.197219510583001;-2.2786917378771854;41;1.2566370614359172
459;-2.1439091349756114;0.7277198525711828;-1.952735045963724;2.200910827328105;2.0079205864919367;-1.5046614144278936;315;1.2566370614359177
460;1.9065270712308244;-0.1285876866340921;-1.8386178135981248;-2.939491550590464;-1.137111238490164;-0.197008110406147;207;1.2139380990725228
461;0.7253288055040732;0.4975191940648787;1.41504878902409;0.326974847205881;-2.4324478419136835;-2.22473163033835;142;1.2566370614359172
462;-1.0963075518745986;-0.2979157026968063;-1.4220864709097505;0.3237695088740494;-1.845427435108715;-2.44185467898018;393;1.256637061435917
463;-2.893731485474333;0.6090215085050367;-2.073674965648713;1.612951844668853;0.5653654967903321;0.4744324835777168;376;1.2566370614359172
464;0.7726908538623819;0.6536917791010948;-0.1919382634229665;-2.0439461025828947;-0.0051437640790848;1.6543107165945663;441;1.1146866985459227
465;-1.635333400020586;0.5949718961052333;-1.54636705853032;0.5778545414138513;1.9600375487553363;0.923975062331022;107;1.256637061435917
466;1.3036366368963668;0.4634387160637434;0.0281344847156665;2.965201079788368;1.4742831770064342;-0.9791280734702644;331;1.2566370614359172
467;1.891298715164156;-0.7116593344763167;0.0049113921409726;1.845406070703223;-0.7578776924041486;-3.213401363116482;54;1.2566370614359172
468;-0.160765198878488;-0.2862901120752182;-2.695592748797597;1.368810099493987;-0.5754424280199907;-0.6462051613149694;202;1.1766605931812084
469;2.2546500969223677;-0.5117116099230992;2.3841594410562283;-1.027627123059751;-2.5970602112401684;0.8645325545116199;324;1.2566370614359172
470;-2.983142173858269;-1.5486136594943247;2.3667381169174755;0.83360742585905;1.951308363065774;-1.7609663128356432;361;1.2566370614359177
471;-1.0346293597221887;-0.0674250795713606;-1.7488243884125356;0.910784053143954;-0.7609122827132264;0.0092010036700882;248;1.2566370614359172
472;-0.9262261296023966;-0.5911478193067192;-2.447399538882572;1.654368879342471;1.1856227244228708;0.8729445835463054;188;1.256637061435917
473;3.435233687560642;0.376271049476156;-2.050860549322437;1.8318333647067997;0.833552632752542;2.6764102138508763;317;1.2571637650128027
474;-1.798680842592424;0.0822915445235461;2.338360366860845;-3.096866816138174;-0.3550205290062895;2.5956707240198664;356;1.2566370614359177
475;-2.4012634555300605;1.0612263028135769;0.0665741153449046;0.3072898316235354;-0.8002913259217433;2.619785886087944;384;1.2566370614359172
476;-3.1492143834590025;0.7129486623959855;0.5333834285259851;0.5039807814369638;-1.5949047599232016;2.51780537489586;475;1.256637061435917
477;0.0059974250067935;-0.5609913482996938;-0.6054263286811621;-0.5473766184710758;1.949374528024094;-0.8138357599299761;181;1.2566370614359172
478;2.301370225414839;1.7836145468154163;-2.272951172042628;-0.9580989237615152;-2.4803035417906707;-1.7162638225378517;370;1.2566370614359172
479;1.5209691109078;0.6240865007079636;-0.4481584434433751;-0.0388920265543911;-0.7779592659337521;0.685205490291294;2;1.2566370614359172
480;3.14740173411722;-1.423181345680591;2.2359447921646263;1.1781720823218058;-0.9491376679658984;-2.8588522280229416;357;1.2566370614359172
481;-1.0815309103202886;1.4186821572039847;-1.67445006441848;0.9270785751420376;-0.9271001949285536;-2.4189665675553806;208;1.2566370614359172
482;-0.3864025165892734;-0.7191241299961001;1.0350895020387911;1.3358121577088296;0.7212153130583164;2.724486825706471;311;1.256637061435917
483;1.8232346870908311;-0.8112991394497382;1.5404251488590894;-2.6436777720637648;-1.423798789945979;0.5413900704958873;206;1.256637061435917
484;-2.50458575608208;1.633955786821116;-2.669096187955465;0.7764747559094697;-0.5932842724905936;-0.6713704316711585;350;1.2566370614359172
485;-1.50692927874498;-1.4816235239745186;2.401597625188154;-2.490368580146849;-0.6291658424800086;-2.1359207775134266;118;0.9755034267671784
486;0.3980853678490683;-1.6322039948293856;2.02469232401146;0.3899986828515558;1.729312045276421;-1.3742222722260289;38;1.2566370614359172
487;2.3317935078067054;-0.8827119695029666;-0.8024535918958937;0.8869094230803491;0.4563949752278428;-3.019103996092225;381;1.2381990862932053
488;0.4493492544173283;-0.1602862107640499;2.3221725182867523;-1.883946191585804;-0.4733875685760268;-0.4156024785272024;318;1.2566370614359177
489;-0.4663683425837312;1.0831558772792782;-1.666789151187479;0.5847198784273926;-2.350023490721404;0.3828022198110796;86;1.2566370614359172
490;-2.042013999706504;-0.9767623146201824;1.643051880927293;2.4365103833635224;0.2620030139413745;0.4153406970526624;351;1.2566370614359172
491;-0.8505087445615078;1.349372932781894;-1.8136493809948704;-2.851344702335773;-1.8711778951924365;-0.8717083915603101;31;1.256637061435917
492;-0.6948032792234409;0.459162827760839;1.0406144937941026;-0.5517751333210821;0.2829503344743789;-3.182194548264231;316;1.2566370614359172
493;-2.6270685381209424;1.6325726881072562;-0.017021043538409;-2.882541282801047;-0.6041255570635716;-1.9509240269194184;186;1.2566370614359172
494;-2.703097011417199;0.550282241399477;-0.7927646202754939;1.1534437048728254;2.140741341286327;0.1093860836367724;376;1.256637061435917
495;1.3621746618661232;-0.4792097549945325;1.271479506617263;2.2854670952774496;-1.3015812640084496;-1.949739491713828;169;1.2566370614359177
496;1.5550225053977966;-0.1649149046309095;-0.4976898554010429;0.1122623675329168;2.8259078589395425;-3.150911283872116;439;1.2566370614359172
497;2.2037349026325064;0.1074166406850394;-2.0123583575179067;-0.3240673205322911;2.6296873871397874;-3.1195586964446225;439;1.2566370614359177
498;1.9750898136081816;-0.3532045803013932;1.1396311765706535;-2.080995167430791;-1.6928477174276932;1.4339096794933737;483;1.2566370614359172
499;-2.7283490723006065;-0.4538989431236691;0.8836060117516004;0.7139584128527168;-2.8771557219859574;1.2188245732931824;200;1.256637061435917
500;-2.5069073974304743;0.707279440142528;-2.067899207907104;0.6599820062418752;-3.1221726611288467;-0.3653054723437083;281;1.2566370614359172
501;2.499442262546595;-1.0956868373112354;2.262066816924763;-2.4058371503959823;0.3984154260950343;-2.4201246990088414;137;0.9272321137347792
502;2.433350499585192;-0.4275835743844111;-0.082550572508951;0.9999738334900604;0.4961346542070277;2.7234738796044606;323;1.256637061435917
503;-3.085705336500776;-0.1194445413849399;0.6683266185098868;0.324078361581373;-1.2692010276204138;-3.130690593327436;183;1.2352431311939334
504;-3.084482343693443;0.2987093360341906;1.4847347203200012;2.9628337983302644;-1.2510001140115663;-2.841153948331758;190;1.2566370614359172
505;-0.6907317968202304;1.4481324430144404;-2.1475984263015424;-1.2434349321004992;-0.4825211821684314;-0.783996924207545;48;1.2566370614359172
506;1.721770209553818;0.4173089065521529;-1.3458115153246508;-2.8436922469562727;-1.3421480081654813;1.783703950758866;184;0.8154227539459374
507;-1.8319334103508624;0.4776282157298609;1.255398570104644;2.4934048592686464;1.720649414604119;1.2222193440171711;129;1.256637061435917
508;1.6866249320919997;0.7127505052722907;-1.1250815467138122;-1.5030520650619916;-2.493192597134907;-3.2576841999066453;224;1.2566370614359177
509;0.0344504387273357;1.098294677472886;0.1048751888427431;1.4516250680352984;2.864652654351764;1.0440253221525018;87;1.2566370614359172
510;-1.736547678663338;-1.0366281379486817;1.794180517260795;0.8592188271108431;-2.9374269320093616;-2.5919241858228754;285;1.256637061435917
511;1.894740028586016;-0.7066494700321692;0.7651222074811342;2.3486783853368403;-0.2660159472450946;0.7101197976309197;45;1.2566370614359172
512;-0.4205726031196326;-1.4973037740493798;-1.4232728297380726;0.9611834482734192;2.753053333077598;0.7497756791219505;29;1.2566370614359172
513;-2.148969896968521;1.3407439484847743;0.2873716936481462;-2.186188877091572;-1.7228721951017312;-3.147255594821111;21;1.256637061435917
514;-2.2534226267735216;0.4677066086166605;2.133647446766635;-0.3741837196564784;2.31193573256142;0.3473022765327932;412;1.2566370614359177
515;-2.7684027590864133;0.0865574021086701;-2.375921802250553;-1.4718356807409754;-2.677713148458181;-1.861307970532484;258;1.2566370614359172
516;0.4449329893897258;0.2010076965141984;1.8798785810758416;-1.4687530291227429;0.3416126725871262;0.213814704331039;488;1.2485805793203697
517;-2.2016136831035653;0.8200138262131945;-1.3466845875616853;-0.4673198474046777;2.838840811920371;-1.3307654042398989;417;1.2566370614359177
518;0.0476186511330937;-1.0819734543147856;1.3836750583492718;2.0847309379892094;-0.7948830988371041;-2.494671353559095;319;1.256637061435917
519;0.3337115246160407;0.8476738703518757;2.060373583213538;-0.9741650589985048;-2.2731037814460624;-2.984594671997767;142;1.2566370614359177
520;2.5814427464667937;-0.5846211085239567;2.379437489028448;-1.2761165976430375;1.2930318263586091;0.6710782696558015;341;1.2566370614359177
521;-1.241881423914817;-0.8970445216962742;-1.5390085556504147;-1.2016989761788337;1.9962065360341985;2.744525011729434;369;1.2566370614359172
522;2.3263628822511357;-1.181554766276944;-0.3888134135415567;-2.716025771325677;0.954635128231944;1.2455099798202434;359;1.2566370614359172
523;-2.4534586391212363;0.1865056183243812;-1.85834851048064;2.611123857098785;-0.3192275253716524;-2.8302627822382966;297;1.2566370614359177
524;-1.9276176188130465;-0.2747819903681429;0.3369441434683311;-2.725945812345226;0.7975741297285059;-2.170399922404341;98;1.2566370614359172
525;2.921252271683478;1.3661931773355704;0.6853583297267958;-1.8051023953626923;-0.3798877838581283;2.8347533060863945;247;1.256637061435917
526;-3.0832669936921264;-0.6831995718542467;1.525229536445897;1.1303692374870165;-2.367880893432927;1.964580311857573;499;1.2566370614359177
527;1.961350621800204;-0.3100506547575299;-1.1216670549253849;-0.944925848052982;2.195691420691379;2.23489074049125;363;1.2566370614359172
528;-2.400910144851361;-0.1542881177682365;1.2455916410932082;-0.7132543015048526;-0.414786906924882;1.1471328658804327;50;1.0523481105721395
529;1.3378512893358794;-1.1794808918553013;1.3261325076135726;1.8313353548422056;-0.1403681730222128;0.0413310779412248;511;1.2566370614359177
530;1.614020407954185;-1.321126754330387;1.8906743800261532;1.6845355072754868;-1.0528940378436664;-1.9725383822352376;495;1.2566370614359172
531;-3.356485070445548;1.1466258695761942;-2.0267718714647547;2.2316201638690303;-1.1838245976010335;-1.2070488701687416;119;0.920817312747668
532;-1.7801741714528725;-0.0536392882619651;-0.7322718742331276;-0.2476149311822761;-2.934209009735659;2.5495522981395786;176;1.2566370614359172
533;0.4581779609524285;-0.8386376938982087;-0.0732631561099087;0.7336354725003893;-0.3100840291949148;-2.7355361820375617;54;1.256637061435917
534;1.7394101688209562;-1.0339975947507458;1.613600503932086;1.4819285038813026;2.641865752313076;-2.445798316003305;51;1.2566370614359177
535;-3.191598167371792;-0.7403769912157703;-1.3784733760602763;1.4217009253001889;0.920586739671528;0.85508249517446;152;1.256637061435917
536;-1.9659099667069293;-1.4654836449233062;1.947897450095431;-0.0550404748433922;0.2061963064331554;-0.4478773418271732;255;1.1810518139399335
537;0.3075527556427071;-1.0520589292117863;-1.4118362881484428;1.846006074545672;1.275335840981125;0.5248223566035709;29;1.2566370614359177
538;3.1705569264064213;-1.560252336161601;-1.259541742692348;1.9081704927861256;-0.3057464315205531;1.725380529090815;264;1.2566370614359177
539;0.1464784743041592;0.4099598103775396;0.3323708474859552;-1.9313225380746788;-1.16445746070455;0.1714762426157179;127;0.9220342997690518
540;-0.9630834610111244;0.9028933768781018;1.6841353626208162;1.577608492200442;2.804235046761306;-0.7797824595226996;180;1.2566370614359177
541;-0.8157442187385666;-0.1439409309797672;1.9247533623839563;1.995286388894092;-0.4074497755871098;-1.929401564233246;116;1.256637061435917
542;2.153135819706661;1.4259550719711065;-1.7004638147032636;0.233825594043639;-2.9911963353975373;-0.0348719143306772;394;1.2566370614359172
543;-1.0593857685123442;-1.355927554582455;-1.348945785226435;-0.0678571064537221;1.608928883218102;0.5528307140390378;188;1.2566370614359172
544;-1.8767054691518548;0.7176348565219162;2.0093323132920773;-0.3425548161256945;-0.4283291716205135;-1.636136383445547;305;1.2566370614359172
545;-2.4450941576213068;1.3670420065815352;0.7140146429560883;1.2766418294003048;2.0820486427248377;-2.879107040719901;458;1.2566370614359177
546;-2.324901047089277;0.0900934703232315;-2.637484612047297;-0.0167159340230011;-2.733445711809358;-1.2338111731014667;258;1.2566370614359172
547;-0.2665627117768296;-0.3470422040446343;-0.0092802688573691;1.4009979968735438;1.2550079453362717;2.9399820216471824;482;1.256637061435917
548;1.118864063099246;-0.5953796715021531;-1.4099745840779323;0.5588887981088762;-2.82977084497913;-0.506665824001961;28;1.256637061435917
549;2.377632104639092;0.8605189058984879;0.5421117476327346;-1.4153056124909091;0.5500319443221213;-0.5380588472279089;388;1.256637061435917
550;-1.3080057465795225;0.400582078221175;-1.9544732740516104;3.013475885555583;-0.1888070779600655;-3.012221641275884;523;1.2566370614359172
551;2.5386664297563986;0.2655341828050744;-1.2575814661648788;0.9931729343093768;-2.423429299951503;-2.0697271060121167;360;1.2566370614359177
552;0.5269107159911822;-0.8951460461837503;0.4152534843572983;-2.891430282153485;1.1627168526378069;-1.6761784109954512;90;1.2566370614359172
553;2.1433883183306666;0.4286640766638265;1.4879956131787513;-1.237304025120658;0.1459107513951274;-0.0399894058469407;549;1.2566370614359172
554;-1.9959125630257772;0.9511421850681416;-0.9704116609797676;-2.014487189218615;-2.9257532576665355;-2.020200674907233;95;1.256637061435917
555;-2.968513011815098;1.3611054612977989;0.850979287110597;2.947464937260984;-0.4528302706736567;-1.7467145063695884;190;1.2566370614359172
556;0.3757733558499023;-1.2648307534511507;0.6876550050064536;1.0021266750507074;-3.185252530850972;-1.2383416326854872;396;1.2566370614359172
557;2.170142643037265;-1.0955042258956462;-1.5485023744958213;0.8767152993030171;1.3320003466866035;-1.4883291127222869;204;1.256637061435917
558;-1.538100576043645;0.0027925783138279;2.2466551385368243;1.252159383894831;2.2004454954716626;-0.097240279184528;221;0.9404456464466716
559;1.204721200859027;-0.6858116093139647;0.872959750525832;0.5155935995953448;-1.8274457391154364;-0.5506149485198996;4;1.1351283571425947
560;2.5628892239035665;-1.6217230809369785;-0.3911921794169334;-0.716038169976636;1.4989173786618135;1.045590636577599;27;1.2566370614359177
561;-2.894725307318012;0.7686147228637455;-1.5966675640749886;-1.730357501727095;-2.871189968312452;-3.279800476292713;157;1.2566370614359172
562;1.790830242060394;0.6674641345305334;0.1338366557783971;-2.373116412643622;-1.050887951913389;-2.305200067721345;433;0.9979448415952384
563;-1.530143323505554;0.8636715412730984;1.9878548459828111;0.7856462224692771;2.612057971456047;0.8348077423707501;291;1.256637061435917
564;0.3326430992214179;-1.4259702931266065;1.738542617738131;1.9930705912521265;1.1023995094025434;1.0532865167820955;292;1.256637061435917
565;-2.8583336512056228;-1.2246793798513258;1.6388102083948235;0.4468654529003661;1.6901327876001409;-2.604153744220737;470;1.2566370614359172
566;0.6862427285440994;-0.7230987614854113;-1.9127613762869955;-1.980786544162093;0.1931736365183811;-0.5211254225176652;434;1.2566370614359172
567;0.0216942801019906;-1.1827182752591816;1.0670617179643618;2.0428638465111604;-3.2744434074204785;-1.698758755365251;556;1.2566370614359172
568;2.556543529368867;-1.496116249860726;-1.3081282113669064;-0.2928802627798643;0.8100465057113808;1.308158684160218;560;1.2566370614359172
569;0.6239772996631515;1.531297172833719;-0.5052977343414466;-0.115480332344242;-0.2350087549729635;-2.2596390969507314;209;1.256637061435917
570;3.348984393250199;0.6778349474912453;-1.7593117045390718;1.509579149699408;2.295033547099841;1.6453845557829618;216;1.256637061435917
571;-0.3393604796068654;0.5243726135006965;-0.6492902603862145;-0.515950970723547;-1.9969769774043624;0.7863853106191816;86;1.256637061435917
572;-1.2999582520755224;-1.634057986897536;1.8837798819847849;-1.2523868667172473;-0.605874896477105;-2.0808748981681924;237;1.2566370614359172
573;-1.3269405210798932;1.698625882885509;0.2009723876725751;-2.97627479732694;-1.4866242081838197;-2.6832030461126752;21;1.2566370614359172
574;1.4250785557159602;-1.0695199670243536;0.5775017252272971;0.5410217905550453;-0.4034891663256412;-0.0282310151462039;4;1.2566370614359177
575;-1.9012749599235133;0.0967930457072746;-0.005775164711748;0.8288140283294644;1.376432721105593;2.235648343160148;442;1.2085168549887966
576;1.711937147486355;-0.8403236151904949;1.7903980523257566;-0.0153342643766191;-1.10809856505398;2.335140836937949;253;1.2566370614359172
577;0.0735569490723325;-0.7630041121256406;0.0963470908021196;1.2797105405935705;-2.2984405755368984;-1.3894663289013949;556;1.2566370614359172
578;-2.2522931856075235;-1.4638205415431789;0.7795186548495274;0.0603262803756962;0.2164270981025426;-0.7922542047337101;536;1.2566370614359172
579;2.6301794435858445;-0.6706477588982968;-1.5887245915729142;-0.8065026254561405;-2.694563317479366;-1.5338434026727674;424;1.2566370614359177
580;2.546282737122404;-0.9951928086058616;0.2136190095978418;2.3982859192642207;1.4245451790183523;-0.7316817289563603;71;1.256637061435917
581;0.6289263076033542;0.4063826837528214;-0.8369352404079653;1.4883328232144986;0.2963889790603237;-1.482113749115627;308;1.2566370614359172
582;-0.8645605023508496;-0.0955855776835009;0.4312916189944044;1.429770454932511;1.3669813277408;0.7779994952558887;23;1.2028237905259864
583;-1.338923024968916;0.971946732893846;-1.4753042369220013;0.7498967113234017;0.2486846576522162;2.882491836481327;179;1.2479348834325046
584;-1.0417569164544775;-1.128103058612378;1.561251089157774;0.6454425940142856;1.1440044118150428;2.9484885632814546;482;1.2566370614359172
585;-2.7431493127146034;-0.1616747197453471;-0.2275112207638463;-2.598574776020249;1.2837687474940356;-1.5959148831740164;524;1.2566370614359172
586;3.1589433934237;1.1625367350368812;-1.4533519786483695;0.6148622949096909;-2.6068455868611218;-2.4876900781314646;551;1.2566370614359172
587;3.1594948029648333;-0.6375926635841881;-0.7392549855338517;1.5228035075258726;1.7824901710203642;1.394565678290788;216;1.2375454240226218
588;1.309371309226883;-0.6697631830233253;2.116008298214985;-0.1012112275380241;2.7084609445158367;1.8215754389290328;378;1.2566370614359172
589;-2.630284798617602;-0.3663747701492628;1.7607047027532954;2.624840014610012;2.4295928162844422;-2.3251837521948504;374;1.2566370614359172
590;2.0390775389543863;-0.8369374053030572;0.7985061930117641;0.9376854585615066;1.8626409407370668;0.9051035364183936;46;1.2097168946700234
591;0.8877990275224104;0.6924888377408551;-1.8296865893136276;-2.351652137443388;-1.06789478088781;-1.3901833151888006;114;1.0044436905124057
592;2.59892931128996;0.2018721584696656;1.774221150712553;1.1750982773226035;2.987758731656928;2.802753327230717;411;1.2566370614359177
593;-2.077048680119512;-0.0424399490824497;-0.7883822210197261;-2.4385098556348312;-0.7392233368807745;2.3101310614532955;60;1.142539207723431
594;-1.7740692945274383;1.0422937622384794;-2.387247717294685;2.260845413772148;2.768554316570885;2.769741720319644;420;1.2566370614359172
595;-1.2861766165592057;0.3762980153892886;-0.2879473465261663;1.8923657341110796;0.2638840053880951;-1.945926598598997;158;1.2566370614359172
596;0.2307798111895295;1.0222534895990136;0.4325111215787054;1.7930219945790618;-0.4333379837160132;-2.973680154463379;328;1.256637061435917
597;-0.9676326201423866;0.4846266071048005;-0.0191207984410216;-1.836664578582957;-1.4967237151408608;2.157740382318781;60;1.2566370614359172
598;-2.582188433911043;0.7427972451856145;-1.2830249518645145;-2.5947328073450424;-2.0636272589378124;0.9820181278790394;163;1.2566370614359172
599;2.4969007527421425;1.5683930248397042;1.1047257061757492;-0.46005825035395;1.7871156099526386;0.194272154972799;388;1.256637061435917
600;0.9503720180300675;-0.3950361165042377;0.8741531535098537;2.927166022483186;-1.6169154645580517;-1.2736854070400598;495;1.141401395819205
601;0.9989836955992956;-1.370153685150896;1.4362943650347355;0.3924135616793517;-1.589980720351707;-1.3749788618261882;559;1.256637061435917
602;3.2450433722932424;0.8497770433539785;0.6999799331111793;-0.4756408708446239;1.2261594218234828;0.3500816292143782;599;1.2566370614359177
603;1.5618403865002115;-1.1122669396472262;-0.9262039619225614;-2.6376335732880927;-2.0329210718934565;-2.815190553757768;355;1.2566370614359172
604;-1.7014201237011306;0.5724067496087692;-1.6991407703012702;1.3245029012334235;-3.1489623201751877;2.6144087231588027;385;1.2566370614359177
605;-0.811140232462747;0.9689989010049228;1.1959339854885742;0.5070051813100528;-1.084799898127616;-1.4824335254566934;305;1.256637061435917
606;0.1837724734304073;-0.8216345032572488;0.1670827647813059;1.248146552083789;0.1092336702510342;3.052947360378637;482;1.256637061435917
607;3.010675679779409;-1.6359737912008354;0.6755563676208839;0.723337181889173;0.6300425466011991;1.4920559097252442;46;1.2566370614359172
608;-0.4986832725227542;0.5606908864146767;-1.5935724378866911;1.1207466167991067;2.696003285669001;-1.7748646178748129;364;1.256637061435917
609;-2.7729102298548205;-0.5299808215137674;1.2783081535352396;2.550079110336303;-0.8787110329969745;2.777884355803756;177;1.256637061435917
610;0.1992946107124674;-0.6764990196893794;-2.348277563737064;1.98044803932592;1.5192730248462978;-0.1621051347650555;537;1.2566370614359177
611;-0.4989078599957907;1.2083987136712182;0.5755409908141378;1.833977358142556;1.1024919882595337;-0.6081520698712;36;1.2566370614359177
612;-3.1219727670539936;-0.3467000775831024;-2.1139162362106303;0.7470215150578474;2.6529813887965803;-0.9782361146134146;811;0.999207741664043
613;1.1676370386684942;1.325362970934389;-2.2656048793352155;-2.39523170658768;-0.2250830817604661;-1.835202672766157;591;1.256637061435917
614;-3.323910862811132;-0.5015914799991087;0.2697375865839733;-0.3485135303573576;3.0194741383323245;-1.718083642551994;336;1.2274756516650032
615;-1.3615222284203754;0.4949456105851177;-0.018716623894271;-0.5093653956387899;-1.7794677411671995;1.2813879775997334;117;1.2110527663032806
616;-0.2252515213583852;-1.6395403335715588;2.218881406275528;-2.6520585294231145;-2.4326908539338734;-3.192016710562108;222;1.2566370614359177
617;1.2826530572704662;-0.2333799966541265;2.504940325140335;-1.2362714138268696;0.9321878381255704;2.975090501777002;168;1.2566370614359177
618;-1.1163013070127257;0.2170220360086444;-1.3544718447751631;-0.7127677885314152;2.6908973116430133;2.42328734896182;369;1.2566370614359177
619;-0.3811046536105226;-1.0930584953893887;-1.320782731578179;-0.3664930662162915;2.2058926016202483;2.6414769182656723;521;1.2566370614359172
620;2.4816379588345647;0.6460907404015845;0.8355320640130142;0.1612547329326117;0.7342677889357052;-2.67809056493382;371;1.2566370614359172
621;-3.304415672197968;-1.333312033268474;-0.827565630682007;-0.7766974601718394;2.9669713410543843;0.6152740186051081;344;1.256637061435917
622;2.7656785945480995;-1.211870999582747;-1.2328283907363256;-2.4798295115435574;-2.0345632312015915;-2.782541735600331;603;1.2566370614359172
623;1.0703764505675106;-1.2017911049058565;2.582786130866626;-0.8978219558171587;-0.1509836842148543;3.051546767085489;168;1.2566370614359177
624;0.5965697565146836;1.2178181097412393;1.173508145589798;-1.664529055096729;-2.129244701468872;1.1448016494148892;127;1.2566370614359172
625;-1.0899519291998103;-0.1840326817953823;-0.1892553704136309;-2.742907831156708;0.1931813827611405;-2.471324908631148;524;1.2012240935711314
626;-0.2362464065407366;0.6632906991911651;1.6948720232982557;0.0744475177502136;-2.996821299672268;-1.816759658924383;461;1.2566370614359172
627;-1.427870813388691;0.1690750512878513;-1.7348521957505698;1.3689799869635495;0.692199467525904;0.6873364382021713;101;1.2358059315716523
628;-1.130146688262557;-0.3216491225856767;-1.786110131744117;2.143623278009085;0.7086318081408962;0.5494452038696874;627;0.9754145212134046
629;1.0322675699128925;-1.6087975338852951;1.905040982097949;1.76817851951834;2.225957694444888;-1.8063962964652625;534;1.2566370614359177
630;0.8264285059387065;0.3129564523648306;0.1499017858757906;0.637966464766795;3.119691547370884;-3.3455336541205565;496;1.256637061435917
631;2.9087043551386653;0.5795407353178879;-2.068355707722886;-1.1250561858188166;3.057264456607633;-3.297639011462577;497;1.256637061435917
632;0.6495693195341279;1.1758002731162045;-2.293589332445136;-1.461138806478523;-2.0195867872665354;-0.6824797820765391;47;1.2566370614359172
633;2.1218505440972817;-0.0663265469978106;-1.1156686070151245;-0.1778091188449884;-2.606850548536189;1.084467001823587;97;1.222069574751016
634;2.8298237078088677;0.541647993275179;-2.062787472637853;-0.4193456585392834;2.3137607261509463;2.471262523136667;363;1.2566370614359172
635;-2.8240795435161066;-0.4614853496044308;2.164559984089605;-1.965674779684453;1.0331069077692816;-1.9105585803478016;404;1.2566370614359172
636;1.5049493299683503;0.7091118388211393;-1.2714576123112609;1.6402967151741563;1.7526379231361586;1.886628947425232;302;1.2566370614359172
637;-0.3079398266540895;0.513345061621286;0.5877666407354408;2.2254731488355617;2.2356591777869164;-1.3617971063616046;40;1.256637061435917
638;1.136013236353319;0.0090370659205399;0.0492518679026722;-2.4278868126791773;-1.3153050016326973;0.4710279006479156;539;1.2566370614359172
639;0.8849229679882701;-1.6291908320710975;-0.5204456064830356;1.7701638826595858;0.9810477311620354;0.3815841100623779;537;1.2545475948265428
640;1.7210515656118035;-1.3286460093535184;1.6226108627315092;-0.3476743164949422;-2.45451527027633;-2.8055659496438583;347;1.256637061435917
641;0.6067452406039924;-1.3075646106793002;-1.5243663814675592;2.6393929265995117;1.0655282436467346;1.3840036302829202;537;1.2566370614359172
642;-1.0853086930864695;-0.4740073985568152;-1.96234245828032;1.115562460870928;-1.7235777493373616;-0.6208864221452015;471;1.2566370614359172
643;2.390009357565202;0.6647849677142355;1.7953485535241414;-1.5511494084795685;-0.3621882794450819;0.7131421499773676;553;1.06532226687389
644;2.2389035605854297;-0.1556281171782074;1.634894600915051;-1.984387692063024;-1.4386599845940848;0.0882575810566168;483;1.1188489160247677
645;-1.1727208155748436;1.0795027676050868;1.356580121155815;0.9037706062454888;-2.692068080004983;0.5340135034721529;189;1.2566370614359177
646;-0.2463114310851621;-1.431354390119124;-0.0202512232279455;1.1426455734094088;-2.536301587686519;-2.3368044616897548;577;1.2391195445630645
647;1.9974867503270823;-1.3521201303728692;1.6480140790458924;0.2795991210279134;1.076109926178015;-1.1475568034966188;24;1.2566370614359172
648;0.1045592573496799;0.919513173138411;-2.3118441745819305;2.895512585140673;-0.3656914268789037;-1.7306820047677367;159;1.256637061435917
649;2.3711529081445;-0.6627243656512434;1.8462833266586391;2.245011947027341;2.0488002253501056;-2.6782411011630707;534;1.2566370614359172
650;2.4444278629583005;0.2831744911324568;0.5615029115574435;0.6321633471139496;-1.5188784513843827;-1.842782267832956;121;0.7984191969185653
651;2.6863260006376604;0.5288214659382704;-0.943794521991562;-1.1097679589857707;-2.6048613641294773;1.175081946298665;633;1.2566370614359172
652;-2.0799955727182646;0.147323070770541;2.075426686604811;-1.7416820471915893;0.4998536066742059;-3.0633304403990067;115;1.2566370614359172
653;-0.4970274075807023;-1.345735147777086;-0.0522469891231378;1.1699952550120671;2.9791067387510592;-2.050653809919021;128;1.2566370614359177
654;-1.7172738957420934;0.7297420333270757;-1.5546200013430864;0.6256406495589933;-0.4705900765611935;2.5268565388647057;583;0.9313300518433764
655;-2.485052050427928;-0.0849453225563783;1.6889683498667007;2.2272156666178886;0.8238288146764559;-2.498598522859492;130;1.256637061435917
656;0.0533414203368907;-0.6113469990410321;-0.7582239372044361;-2.6976583317117795;-2.2521412903072324;-3.007543520054666;355;1.2566370614359172
657;-0.332596431337967;1.3078698360698295;-0.2458634070982021;2.7651514868008187;0.8541565577376402;1.7810611729798709;219;1.256637061435917
658;2.4168962706879302;1.082013771397485;0.2333760995918568;-2.590688483718606;0.3357326136631442;-0.6140078862527341;549;1.256637061435917
659;-0.301080173863823;0.612646079645484;-1.812678201410046;-2.673307576185907;-1.43872350878816;1.0898294098725347;241;1.2566370614359172
660;-2.490211799146068;-0.809751748295641;-1.7101311101415333;1.765916223838997;-0.6001189805083234;-0.4135925360883426;298;1.2566370614359172
661;-0.1877296378707137;-1.426991315074525;0.1670181375028997;0.1920933805734594;-0.9630996472217572;-2.931362022083544;533;1.2566370614359172
662;-0.190945777487219;-0.5394888001094849;0.7327277569307111;-1.9483699978328004;0.3069514112742035;-0.8705621635694869;318;1.2566370614359172
663;2.7460511735654483;1.6580583530277213;-1.885387739696201;-0.4891919500684212;-0.0564816663527085;2.4206013179191324;722;0.9285008754160756
664;-1.083047308781043;-0.0189239053018827;2.143277315591721;2.936451188911912;-0.3613610433548518;-0.5781836922928285;143;1.256637061435917
665;1.8979181891508925;-0.3655680374669292;1.819304951876768;2.670405368091736;-1.3117037509992606;-0.3616056903670607;185;0.7268551923061856
666;0.8408718706779073;-0.3574267638711414;0.0511961129510824;-0.6453423056154667;-1.1893298934939376;-2.114916593072138;445;1.2566370614359177
667;-2.414433921363477;-0.1323115667200968;-1.2173976059457825;-2.84189512409296;1.6869836538144838;-1.077688491648272;585;1.2566370614359172
668;-0.7652925640915901;-0.5961599920473253;-1.642169730703558;2.1912914603767377;-1.2980017624870754;-0.7657544614625689;642;1.256637061435917
669;2.2917750100164533;-1.2589871073898122;2.2501066399015826;-3.0647785996527426;1.3839068318330436;-2.742310744682211;501;1.2566370614359172
670;1.899881475947566;-1.2602891835590604;2.2013837317845235;-0.3588676668681403;-0.1317291202658931;-3.023462771239405;357;1.2566370614359172
671;1.6825426940883257;-1.1454926273352957;1.5728937628166912;3.3562118833947445;-1.7858241285862713;0.7098398681839662;354;1.2566370614359172
672;0.5712084801270173;-0.976312968167974;0.2410409452810861;-0.7789865526252363;1.169782245562402;-2.265662266131466;120;1.2566370614359177
673;1.0473556422298602;-0.8296869200213394;0.2686668786077835;-1.1529863898079733;1.4728704061599216;0.7334357613415469;82;1.0362610657075395
674;1.005314921428057;-1.2890778986562217;-0.0124785069459804;-3.389382843675539;0.6022122339229485;-1.2357748498617862;552;1.1502543294170324
675;1.1520532395529508;-0.2268655921134845;0.5102075032380666;1.2574304786518118;0.6505876181786326;2.511941727169617;66;1.2566370614359172
676;-0.5789824523316374;1.1521349878989675;-1.1727575463477364;-0.1078444326896197;0.150792914477622;-1.6713856620690928;421;1.0466008815410135
677;-3.2325751765618134;-0.6834862707432638;-0.125977279370254;-2.940853324513227;1.3944916122347988;1.748714190540566;405;1.256637061435917
678;-1.9993026713050432;1.4310526953636922;-1.8740804324502411;1.239183029144315;3.0228803497549115;2.84361120334086;594;1.256637061435917
679;-2.23589454483593;0.2528875868907217;1.694882750414637;-0.3348565425047937;-0.5340467176240299;-2.2243875123094927;544;0.8950755263516577
680;-0.2596725790563331;0.0901733358724629;0.9899152123136336;-0.2282166781480768;0.8830382738497826;0.7540292450632544;134;1.2566370614359172
681;-2.7528935389355467;1.5902397185300592;0.0093934768455384;2.1390271792244198;2.3478379722241507;-2.5273463558503906;545;1.2566370614359172
682;2.9559454194874606;0.1652144977956991;-0.5161829349863211;1.1788658775439198;1.5673440421846951;-2.4561358117424863;204;1.2153400851686558
683;0.6443564562001456;-0.0034020666232306;-1.6392411928718602;3.2485740906217;-0.3237770253224313;-0.1773431575862243;352;1.0022392210690276
684;2.1256830470293187;-0.3426313292665355;-1.8797623726814112;1.0603500432570816;0.2346420413184846;-2.9475647579640363;487;1.2566370614359172
685;1.1031149326811465;-1.362793363644311;0.0904366365938333;2.0032340026935413;2.585127626310523;1.3700617773781614;161;1.2566370614359172
686;-2.5738223736587886;0.4654151670670179;1.2335390251032718;0.1756446553862657;-2.6460461307387595;-2.053960343776548;285;1.2566370614359177
687;3.3963145678812143;-0.0280752706500249;-0.0085335931071847;3.3706337766681864;0.5248636716542627;-0.3894880194572658;71;1.2566370614359172
688;-0.6588664987221938;1.0087917322071254;1.122280893934435;2.9904962577142897;-0.9361473195361476;2.114320310780818;389;1.2566370614359172
689;-3.1354456067697183;1.344847961262786;-0.7567281344830094;-0.4806392027216474;3.1151554025090133;-1.4148367934017916;517;1.2566370614359172
690;2.007767211274252;1.2766102433250488;-1.880051023618532;-2.433829732093365;-0.070962789395781;-1.0003095532275814;613;1.2566370614359177
691;1.5025816550907474;0.0003632371185893;1.999468817204615;0.525642154887005;1.3140960220133628;2.2959005198657105;378;1.118208055008432
692;-1.4198608607574026;0.7843602428224958;0.3732624610154614;-0.0703063985797369;1.940628369915613;2.9245654507369574;442;1.256637061435917
693;0.9003718873414448;1.1060250097882354;-0.5597945472057022;-2.24645100599283;0.3732334741508822;3.313200795644401;197;1.111602541264463
694;1.088266886732675;0.613102753246113;1.7529584515669636;0.9367119503170016;-0.6647537644953119;1.929833687817366;253;0.9838552605507688
695;-2.6581097740069364;-0.632634352546191;1.630781490186835;-0.3001830621280772;1.6796921575602024;-1.81025523815136;565;1.2566370614359172
696;-2.655138909954946;0.1120894345424961;-0.4394632647248874;-2.791579492570167;-1.0327249132471024;0.2245679010255811;196;1.256637061435917
697;0.1228253926767852;1.0493037343155611;-0.5500523114397146;-3.2263911831798984;1.0347010586234424;-2.574442585084829;149;1.2566370614359177
698;-1.8687105120862324;0.5112110403442298;1.596427671943866;1.1677031422673203;2.8082692601748307;-2.527752207566092;458;1.2566370614359177
699;-0.0075743647806766;0.3541909936579626;-2.097699488454217;0.8893151737958377;0.2735335198678968;2.801993453441467;244;1.1989805191666625
700;-2.9248912326105456;1.0565454198408748;-1.7133611634907822;2.843794689188344;0.3942516185675673;-2.7049263469182563;523;1.2566370614359177
701;1.0268917637277275;-0.7772422281602639;0.7907146741881915;0.5687989699920231;1.1833317244314083;1.7558816046778438;311;1.1916949384458535
702;1.5505454781458294;1.1907499313775416;1.493023943650442;0.6099983124241667;-1.5688957270320405;2.129779949801492;694;1.256637061435917
703;-0.4501652136074685;-0.5031964517551614;2.092904942356277;-3.383318441533281;-0.6009826212671386;-0.1944806788294068;410;1.1662937494146528
704;0.3346730947305222;1.1676520849098084;-0.8194746872860679;3.2079735109279937;-1.0061376816580787;0.2185469282447741;352;1.256637061435917
705;-0.6832612852018691;0.8201728921295739;1.6968200918582448;1.472389587576638;-0.6846304730869144;-0.414025322224023;438;1.2566370614359172
706;-0.7516586253501685;0.3321224244399992;-2.0683820217092244;0.7116254719204761;2.483853854307599;1.3294228967525257;465;1.2566370614359172
707;-1.1780663852507245;0.0327875704839498;0.2547821135024758;0.3400557537423981;2.066121698240708;1.716453072143475;575;1.2566370614359177
