Komment314/test_diploma/benchmarking/path_finding_for_benckmarking/pre_rrt_star_results/7_5_tree.csv
id;joint_1;joint_2;joint_3;joint_4;joint_5;joint_6;parent_id;cost
0;0.0;0.0;0.0;0.0;0.0;0.0;-1;0.0
1;-0.5028383095268694;-0.2912515698409567;0.4580714950454792;0.6475655535266146;-0.616656409415097;-0.4816919075005152;0;1.2566370614359172
2;-0.8171251227906404;-0.5421225410692954;-0.2904242311753582;1.362173843856051;-0.0526125837239488;-0.3132639974053461;1;1.2566370614359172
3;0.5559421805090755;0.0093362345723806;-0.3561733868724948;0.226858920678984;-0.6669467693023109;0.8042607701103373;0;1.256637061435917
4;-0.6969856036531328;0.307935232143529;-0.0232718288788959;-0.1528227525701053;0.929569448938765;-0.3324574155534743;0;1.2566370614359177
5;1.0111432932630575;-0.3049279565741865;0.2171554708976941;0.0849358144612322;-1.0395656862407048;1.690530291640849;3;1.2566370614359177
6;1.0063319791889576;-0.3623512368193233;-0.5121988127555909;-0.8670220127390965;-1.1612353268651558;2.0410031793454717;5;1.2566370614359172
7;0.9645160585084276;-0.8064291125598817;-0.871262706850282;-1.576758792984563;-1.9407658588325096;2.414984389681947;6;1.2566370614359177
8;-0.8325308099509992;0.2842140982008467;-0.2046568457254251;-0.5989307378263553;-0.5846544041385545;0.2506556912308184;0;1.256637061435917
9;-1.2489248706315743;0.503194759398956;0.4504538009797729;-0.5361585921925417;1.465250755973315;0.4278429630649448;4;1.2566370614359172
10;-0.8759487737597269;0.4167530686763387;0.8991650334593407;0.2612582518514877;-1.0053446928057583;0.1844757102122309;1;1.2566370614359172
11;0.5776264212286385;0.3861363187898903;0.8908227721833594;0.4038288788878963;0.3738183918963645;0.0;0;1.2566370614359172
12;-1.9201546533644551;0.7459593007752706;-0.0653523027893844;-1.2943899841153828;1.5404490388500889;-0.0444144860733765;9;1.256637061435917
13;1.2573471490863977;0.098610420625093;-1.3655287377488754;-2.163299825679349;-1.909388874387277;2.12347745588835;7;1.2566370614359172
14;0.3037341136147338;-0.0575500778120622;-0.8868283860435521;-0.2057030408016197;-1.7886982118699084;2.186569058066499;361;1.0009601106353565
15;-1.723004818297022;0.1165163284334691;-0.4038371101397109;-0.4318270711289163;-1.4027389547797973;0.1050141535578198;8;1.2566370614359172
16;0.4866995314734822;-0.6171221298500285;0.5007850831528263;0.6076903860729478;-0.8098575862687138;-1.15475859750675;1;1.2566370614359172
17;-0.3289012132384209;0.7938553641507894;0.5376135543646428;-0.2945858552284408;1.3660948966595;-1.1584650148514568;4;1.2566370614359172
18;1.2050507603116358;-0.1489803083378963;0.2865774591294293;0.7459955969551679;0.9566645112767316;0.2778948327958263;11;1.2566370614359172
19;1.116312209576536;0.0887109908226062;0.2043599269335384;-1.4630205924371942;-1.376061377782583;1.3711054607995048;6;1.2566370614359177
20;1.431193402521175;-0.7709904525526027;-0.7032491126102145;0.9142262863263372;1.1252888897666236;-0.0455355338266196;18;1.2566370614359172
21;-0.200600605334382;0.7355349388793441;-1.0055785120336045;0.2538201207552781;0.9487882334515406;-0.471176269870246;4;1.256637061435917
22;1.8294534412932864;-0.3115771938140258;-1.2556539562703803;0.8450615703506725;1.112470840991696;0.902813522047394;20;1.2566370614359172
23;-1.236440046076318;-0.0608332042752757;1.0372049550031877;0.1261002383238685;1.860251750533983;0.9952615285656972;9;1.256637061435917
24;-0.9084434417617452;0.1186399835727129;0.9045301761626684;0.1399572793668108;1.2137458032424675;-1.8223067956417165;17;1.2566370614359172
25;0.5047693729911128;0.0168986649695589;0.8285097983190159;-2.243358708585814;-0.9319714122705074;1.4365922389881374;19;1.2566370614359172
26;-0.0144650513519953;0.9409761760789368;-0.9264159547244772;1.0846993744946254;1.0544238093787135;-1.362522576364095;21;1.2566370614359177
27;0.3271376916603847;0.5916304323017046;-1.4681969560040906;-0.4744919114843964;-2.210519420967703;1.4322590167626763;14;1.2566370614359177
28;-0.6440080355938512;0.0935545774645045;-0.2850159941912106;-0.1626152650530465;-2.223254364143697;2.510937899135653;14;1.256637061435917
29;2.229230728704464;-0.183054998703053;-1.7357742932192175;0.99333787550976;1.87626506597388;0.1498767044666068;22;1.2566370614359172
30;1.6514725354661697;-0.6243241354530372;0.1824059231372604;0.9933240409017478;0.1778250744065845;-0.151426577807293;18;1.1349779581256447
31;-1.90061161732726;0.3484320273279087;1.3567694104244117;0.9035290560740696;1.8713441009762508;0.4815741233846191;23;1.2566370614359177
32;1.1307864392343754;-0.7232062212077912;-0.7674065191714962;-1.1418701587812523;-0.1317915900966353;2.523708667010865;6;1.256637061435917
33;-0.8155369375156055;1.194084389722302;0.3733820958207821;-1.2398679003239998;1.3046700294825753;-1.666240528300466;17;1.2566370614359172
34;-0.1009304389866053;1.089557646468059;1.1158984421210436;-1.5359410509661109;1.0607620168153842;-2.265462909959883;33;1.2566370614359177
35;-2.4358752525837786;0.8902163397953465;-0.8385177056658666;-0.9103459500938096;-1.5374741248861254;0.2954337869897862;15;1.2566370614359177
36;0.52630107795943;0.3794370669022496;1.427981450296392;1.127066192817489;0.4412109748048255;0.8719541933917369;11;1.2566370614359177
37;-1.5685642792875027;0.7782612746579675;-1.2189303274234664;-1.5163723833320744;-2.087201422245001;0.281557868037693;35;1.256637061435917
38;-0.9075351450150676;0.3932820586796348;-0.9846041383960404;-1.3868526462236308;-0.0276316520807694;0.3996596324747821;8;1.2566370614359172
39;-1.8683884038221423;-0.3467005830646549;0.4852671446274015;-0.5481177801631414;-2.112133242031184;0.2951726414007965;15;1.2566370614359172
40;-1.5392369705924078;-0.7416270673791658;0.1451360340515253;1.6525291357772;-0.78931938785196;-0.7617428396943124;2;1.2566370614359172
41;1.8916698580611877;0.6396973637287767;0.1695287352838643;-1.7298074751178905;-1.463112325973153;2.1420820607811524;19;1.2566370614359172
42;0.9750979947431224;1.0617685991451664;1.5229999525050684;-1.757881532883726;0.6253644007076753;-2.3918234316637594;34;1.2566370614359172
43;1.3647787361435002;0.2475631002837886;-1.7082513903075145;0.5403564521825721;2.1676858411193747;0.7461583168831096;29;1.256637061435917
44;1.1248541049910494;-0.814391248012406;0.9761108780013285;-0.0674383252975145;-0.3859308110602156;2.2198543621837605;5;1.2566370614359177
45;-1.0551464373708754;-0.3941720828679082;-1.647427471322097;-2.0024866855228063;-0.1937771903975792;0.097468956600498;38;1.2566370614359172
46;-1.89082762744703;1.0014434273486614;1.1007529161585092;-0.890397477349716;1.8664477131331525;0.8855685298179958;9;1.2566370614359177
47;-1.7821133397844688;0.6243976743607424;1.700953461540433;-1.392212296523112;2.336059513527887;0.1157891084917803;46;1.2566370614359172
48;0.8969759693781717;0.7943140899942778;-0.8069881536512659;-0.3038506666541618;-0.1889162381861645;1.169284901927435;3;1.2566370614359172
49;-2.436002593156373;-0.0001383488020963;-0.3870124932995757;-1.2112764509362473;2.263354036429237;0.3068847188792913;12;1.2566370614359168
50;-1.6110279679301736;-0.3980150301467253;1.2780984309038224;-1.4150087471720167;-1.762638747764846;0.3848461549355369;39;1.2566370614359172
51;-0.0578618222956874;0.2193178444073915;1.2815829995197316;0.082292840228404;1.357276792348312;-2.646573995742612;24;1.2566370614359172
52;2.420586412210009;0.8261651671925735;0.1820222095526153;-1.8573535536722048;-0.3850078911792325;1.849028345880937;41;1.2566370614359172
53;-1.671093985916596;-0.4439939424250549;-0.6365544134550477;1.5741857227880431;-1.424525180770514;-1.4344247178321432;40;1.2566370614359172
54;1.1989600283187902;-0.1750851786146842;-0.1463504086045316;0.7119008968036412;-1.1376266863365847;-1.7372946602122663;16;1.2566370614359172
55;-0.9228264236117526;0.4698586413017206;1.0657837109573862;0.5615867688001471;0.2330769341901;-2.3609065811024776;24;1.2566370614359172
56;1.6224818148396372;0.2606641092962343;0.1398621151126925;0.5092060796983089;1.973422636381549;-0.0766298029797163;18;1.2566370614359172
57;-2.2052654637635944;1.6717354092777188;1.094118031382291;-0.8586525919139467;0.9944980406283588;1.137517915485303;46;1.1717461234040838
58;0.5254488398363827;0.3110867406752828;-1.3211675009977104;0.7298923086037112;1.3034242097240587;-2.1022191065571296;26;1.256637061435917
59;0.8072568696040493;-0.2327687177992584;1.2112495661524465;0.5451175502469364;-1.611974884371394;-1.5749785999900991;16;1.2566370614359172
60;-1.2087994066606162;0.8447428750462959;-1.3247530026579657;-1.8482261504768571;-1.9107447433676643;-0.8554662374787527;37;1.256637061435917
61;-2.648463667106747;0.2367446716631747;-0.0326615908223388;-0.941294420902068;0.7280658700870954;-0.1051728095773659;12;1.256637061435917
62;2.0764756340178083;0.2335070141981611;-1.068104442575074;1.559113858361808;0.7628128875743168;1.646919544172116;22;1.2566370614359177
63;-2.205228889566671;-1.2230220815669912;0.554480443314293;2.1007136689847328;-0.9905257062992824;-1.4652583722635062;40;1.256637061435917
64;0.6586081038984354;0.8653892825090583;-1.231250744475267;1.726642105054058;1.4681869199658757;-2.576994923308377;58;1.2566370614359177
65;-2.1520549743701247;-0.3416554597367967;1.4874587157239345;1.368096703528189;1.8938295101823763;1.3795072029412978;31;1.256637061435917
66;2.107780689464704;-1.1513877068618446;0.6782046472540165;0.2952411794243846;0.6369622320427649;-0.5376655952771501;30;1.2566370614359172
67;0.6201029546809818;0.6384464636102033;-2.004865308405956;0.15531837524378;-1.3149983352709;1.499224570476141;27;1.256637061435917
68;1.1231982669915128;-0.4415887703027089;-1.833287506470199;-0.0610641870763636;2.4748930776884928;-0.011554147376006;43;1.2566370614359172
69;0.8097556800564016;0.1781330648026456;-2.34104982759701;0.6505410382106381;-2.1183956891379525;0.9268896180663472;67;1.256637061435917
70;-1.016500242168464;0.78792148866801;0.0717388594500683;-0.8114459406985071;-1.595231879905357;2.386144706704632;28;1.256637061435917
71;1.9526342171454472;0.1771535805511111;0.9035762670318784;0.6911592436502711;2.286070186920998;-0.9421050114303242;56;1.256637061435917
72;1.8252416583142457;-0.4294254681902229;0.342774701803711;-0.1753071086450648;-1.246021597089387;-2.027274255980508;54;1.256637061435917
73;-2.010179240983931;-0.2839514856602795;0.564611795627783;-1.575618186724525;-0.8288732026607626;0.3795727121671893;100;1.0904864869166722
74;-1.214717293658218;0.5590004561826477;-2.310040243140549;-2.022563197908803;-2.3870828602041323;-1.3744754849236809;60;1.256637061435917
75;-0.6293804496008386;1.275675197047351;-0.7089642771227229;1.5889421890641586;1.1782578840057742;-2.241221271229398;26;1.256637061435917
76;1.9424142736726957;0.2619690348056123;-0.8264445441744601;0.7256201626517568;-0.74829968212808;-2.2075119887669805;54;1.2566370614359177
77;-2.007561128621664;0.4549659671424892;0.6144239709869015;-2.0616904219830507;-1.4521564557650102;-0.2575311752028248;73;1.2566370614359177
78;-1.9957975482731836;-0.2252603272481987;1.5459059183816914;-1.817318591509382;-0.5186831909335776;1.0562632874033786;73;1.2566370614359177
79;1.89981999717666;0.1352361480798524;-0.4289169191213755;-0.8912161425337374;-1.6180261088392178;-2.118438806582462;72;1.2566370614359172
80;-1.4960927069356922;-1.2385127374496654;1.4608963587658126;1.788326718704293;2.2659264568280766;1.549042653879754;65;1.2566370614359172
81;-1.7025618286856643;0.0852078176976018;0.9069598248048034;0.4418976977826486;1.476473982829849;-0.9350667119024876;24;1.2566370614359172
82;-1.557843746657944;0.9385902357136516;-0.3200735875406849;-1.8391241121585864;1.2151064859513605;-2.0051057256933182;33;1.256637061435917
83;0.9314708463988108;0.5748491444666282;1.331318506489133;-2.50917310767244;-1.240082847809079;0.619678981223361;25;1.2566370614359177
84;-3.0174896639142625;-0.9913198110975046;1.877213359911611;0.9212105754576636;1.8658108824138209;1.143509755393116;65;1.2566370614359177
85;1.0015954895699857;0.42370944766469;-0.5959641235299837;-1.5920463867860926;-2.598207947561864;2.0009763825360376;13;1.2566370614359172
86;1.7678935500820216;-0.4958980788638067;0.6745594929862913;-0.0071926650999632;2.576800281080588;-1.625728442104478;71;1.2566370614359172
87;1.8560052232531132;0.3700538803421763;-1.212180207147657;-1.5398983549021052;-1.9678324756464944;1.268198061507083;13;1.256637061435917
88;-0.7344669952347934;0.4764071820526909;-0.7459957781128129;0.8427431198693791;-2.667039042437485;2.5756300930114544;28;1.2566370614359172
89;-0.1754069362818916;0.2061295906083642;-2.490333425003465;1.276215507211125;-1.6796747218102557;0.8871744156875154;69;1.2566370614359172
90;-2.979451521903335;-0.5331825520934856;2.1427579218919;0.9159932787590072;0.8283738336933635;0.6734211560855157;84;1.2566370614359172
91;1.211387657800716;-0.8666610507474537;-0.0325561812783402;0.7961380349989313;-1.7925931910645403;1.3934109573586724;5;1.2566370614359172
92;-1.844778865126851;0.6545302642395138;0.538793792511488;-0.1200262313681372;-1.6317560326874108;2.8077635742686584;70;1.2566370614359172
93;1.8015643893693103;0.5729388339980028;-1.3976755582864695;2.06355360839856;-0.240605331833211;1.7826466478769751;62;1.2566370614359172
94;2.296123150985637;0.2956883072262237;-2.2237780968496232;1.9069187768096352;1.9827973349818084;0.6610909991864906;29;1.256637061435917
95;-3.0358069596961808;0.9156253286404636;-1.2495172901373452;-0.7301619672518502;-2.5032787060770376;0.5859636806384273;35;1.256637061435917
96;-0.4486581202006175;1.2259377106063496;-1.07158153729626;-2.056489680702538;-1.5384294512336332;-1.6364427163072;60;1.2566370614359172
97;0.2989446456936487;0.2685719452271368;0.9572066089584428;0.476559382736502;-1.1798674251395609;1.8397896936789375;5;1.256637061435917
98;-1.349280745225384;0.0241127570025247;-1.253187542603751;1.5072781023886;-2.20142737582846;2.860105148198469;88;1.2566370614359172
99;-0.3742740333104811;0.388864923697214;-2.290820325159443;-2.724975818645775;-1.809976641046133;-1.5050176148574204;74;1.256637061435917
100;-1.3119044773582549;-0.461339174933104;-0.1557476044162212;-1.278502433552858;-1.0795627501995575;0.3714452853856653;8;1.228569491994326
101;-2.044881472248776;-0.0080577273060715;0.4773763741120749;-1.899305827343412;-1.9725485904582076;-1.280953952098606;77;1.2566370614359172
102;-2.1596080084891405;-0.003559978467702;-0.8861340228441578;2.189862014621709;-0.5854139169996442;-1.4019641790029278;53;1.256637061435917
103;2.346225966947802;-0.9217032807636478;0.4925624230429961;-0.9772596488120636;-0.678900169855029;-1.7476608474373143;72;1.2566370614359172
104;-2.202577611354754;1.641345630807875;0.2936588368362808;-1.4136060920105329;0.4516526819895062;0.5588845702745053;57;1.2566370614359172
105;0.4992984978186282;-0.402504811635511;-1.706051440990901;1.298770270764431;1.9900713935961432;-2.45718082567772;58;1.2566370614359177
106;-2.570641534603299;0.445901000747241;1.5909294707734678;-1.969509350953584;-0.2915659483418598;1.9056525844545893;78;1.2566370614359177
107;2.489316217573912;0.9044438477155312;-1.4963257036528428;0.3243643634575034;-0.6970851172424289;-2.712379463298848;76;1.2566370614359172
108;-0.1741714669709328;-0.6334944509101931;1.297262530973319;-0.6411509046812949;1.8091203765969377;-2.3140974773195016;51;1.2566370614359172
109;2.7148066393867247;0.1551716288854437;-0.5347685989489083;-2.159054142292302;-0.2899536656647932;1.1944359387065735;52;1.2566370614359172
110;0.7235236240522712;0.0288897050278063;-2.0983810164590757;0.9976109048017744;2.578534543898704;1.51429314579121;43;1.2566370614359172
111;-1.9220467047407148;0.5837980045457739;-0.5288740205422576;0.1597222706839289;-1.7923243029311746;2.2383714600504283;92;1.2566370614359177
112;-2.154271308292332;0.0471432862072081;1.1083340953652798;-1.8651581403588773;-0.2403720728331176;-0.4706916752819584;73;1.2566370614359177
113;-1.3938805779129688;1.3644899334017544;-0.5967093224417837;2.330349794729002;0.6015693322117734;-2.5444243421785075;75;1.2566370614359177
114;2.280443140296534;0.0148743886857878;1.6284499360170273;1.2670989996730664;1.6068766654530315;-1.298322921991707;71;1.2566370614359172
115;-2.1981109882975987;0.6652912403088577;0.1515872431612999;0.9299796570233152;-1.2098133432482745;2.55561123889486;111;1.2566370614359172
116;-1.9766821814795803;1.5340665498657673;0.2340297307705566;-1.6329269711738863;-1.2188856584842744;-0.0821117134534782;77;1.2566370614359177
117;0.6627736612768127;-1.0111943408179431;-1.11663197008071;-1.1583719610633452;-0.5617615987493839;1.5608844148740804;6;1.256637061435917
118;1.9287763471369608;-1.309034840336036;-0.443634754250379;0.0578223180981667;-1.230370394561339;-2.198838724759232;72;1.2193853240994768
119;-2.878781049953182;0.0094629948339899;1.992175768450883;1.6095253230971664;1.5210088346568935;2.069216858044177;65;1.2566370614359172
120;0.1600754762200838;1.3319643702163977;0.026530056073482;-0.2607409517434155;0.5746016604723682;-1.5605394312026626;17;1.2566370614359177
121;-0.5470081309080014;1.2216322163261908;1.7660883535771774;-0.967550458008396;0.6171964801398853;-2.9136469366782087;34;1.256637061435917
122;0.8930140924725404;0.0572119328515254;1.609242382804667;-2.5995405541055105;-0.3441770891082489;2.0238456259553987;25;1.256637061435917
123;-0.0567552817688793;-0.6100207596564393;-1.7508742007766285;2.2182803204354085;1.9557829935585975;-1.8422056033477088;105;1.256637061435917
124;1.927011396078516;0.0661824010573305;-0.7054487219128885;-0.8840273501201491;-2.7009517831084104;-2.687981938697431;79;1.2566370614359172
125;-0.653771016125047;1.4913132583986577;-1.386623346571941;1.018379003146076;0.4439657012812863;-2.6973932320002327;75;1.2566370614359172
126;-2.46200868164784;0.1891503451269449;-0.0709458559199537;-1.918768476312409;-1.6564848117157729;-2.2634600317924494;101;1.256637061435917
127;2.3147581874392555;-0.6705729504230149;-1.9654557997002209;0.0477826593970141;1.0377071529638882;1.1667758800529626;22;1.2566370614359172
128;0.0428715418024833;-0.2783794279239767;-1.9810269726077;0.8921312836248525;-1.7113938122200407;-0.0555993467730449;89;1.2566370614359172
129;-0.9120239711431094;0.7367850822574256;-1.8868734686127333;1.8151518675184188;-1.3656641915042274;0.8457272838469314;89;1.2566370614359172
130;1.4846569868676014;-0.7484482346117585;2.155213352395708;-2.953703725460721;-0.4747982822037815;1.650443247035681;122;1.2566370614359177
131;0.4189105485514726;-1.1598546597349555;-1.0431022750526342;-1.9145474970917715;-0.1665475093888229;2.9791877210794;32;1.256637061435917
132;-0.7207502967309898;-1.233609056338533;2.023161211473769;1.061932896244925;2.542304967048804;1.7894214678675144;80;1.2566370614359172
133;1.723184021432101;-1.0905017235501808;0.5031835439273191;-0.5081833591073541;-0.0798156220466015;1.42406666218016;44;1.2566370614359172
134;-0.1250076155230726;0.7897745149015162;-2.1591952576350724;1.3432679638460363;2.3382794808714538;1.829390076965265;110;1.2566370614359177
135;0.5166599683650636;-0.835857773589842;-1.7524413185800332;0.9983944951290642;-2.680358264232429;-0.259176714211531;128;1.2566370614359177
136;-1.4702782680873732;-1.4610117607808235;0.9126357415642268;2.4105219866960925;-0.3057715473660216;-2.0030320525279346;63;1.2566370614359172
137;-2.0369668247588075;0.688562671756534;-1.7596656970642233;-2.279042498230804;-2.7642610546416875;0.1429226263185258;37;1.256637061435917
138;3.103055211970736;1.2321539523301213;-0.4288547790620162;-2.4502022865102746;-0.3581273978334647;2.321451113855656;52;1.2566370614359172
139;-0.4099424238906902;0.4531928052440624;-1.878748061699277;-2.780380930932004;-2.0177066054676573;-2.6702220513595343;99;1.2566370614359172
140;1.951623122871452;0.3400715410083387;-2.7096052593578297;0.9426685759596656;-2.2773821213774577;0.9779100738614082;69;1.2566370614359172
141;2.954544032974179;-0.1775118192126422;1.1899691374804648;0.5966549663202195;1.5685422443278036;-1.965017827693908;114;1.2566370614359172
142;0.34272472533534;-0.1345927650944212;2.271714096033281;-3.044103138025009;-0.0750896084827872;1.295411318445581;122;1.2566370614359172
143;-0.2160374791758544;0.4341274678258272;-1.6785691779225398;2.262318572064721;2.364035095243543;1.222721596355518;134;1.256637061435917
144;-0.9756141232168568;-0.3274059202075514;-1.6009995954676648;2.428305540041611;2.325013313416421;0.6005033775650676;143;1.256637061435917
145;-0.135977180769717;0.8321187702167857;-0.1426806351101963;-0.7766830378355961;-1.7654457128781236;2.367084132934714;28;1.196325067658372
146;-2.174943059568028;-0.0110707249733453;2.13044507889833;-2.1948400903256773;-1.0484219160594972;2.4525111342962167;106;1.2566370614359172
147;-3.08705636055802;-0.3538380585816666;0.3794147772855138;-1.2382871079454476;-0.549481624294812;0.8136676258237134;73;1.256637061435917
148;2.2083810184459227;0.178401934251276;0.7322997712777441;-0.6124399274754824;-1.629400120978971;-1.2702453198715422;72;1.2566370614359172
149;2.5116039282981686;-0.3772541975686509;-0.9803708527036707;-0.2216124711429647;-3.363495850956236;-2.9836370869987614;124;1.2566370614359172
150;1.870302405944187;-0.1982891013403614;-1.0929392670987437;-1.0780741368275917;-1.7035449654496024;-3.256622581880422;124;1.2566370614359177
151;3.197088557928572;-0.4893413873387485;0.2749798919350503;1.1340826602838414;1.312283147724504;-2.4460257358788664;141;1.2566370614359172
152;0.1928997170936573;-1.2866824148550309;2.2243148335747227;0.4540367684695134;2.7953760723260666;2.306642995699997;132;1.2566370614359172
153;-0.9460409629144596;1.0669917502159765;-0.7890151718012963;-1.351193851723929;-1.598374241543427;2.67047195597592;145;1.2566370614359172
154;0.3207060613464114;-1.1061219491195586;-0.7180211046197714;-0.4999171308022879;-0.2008720854292806;2.362934099262691;361;1.2351005339875314
155;2.5397595474745853;1.475222151893369;-0.5454584033468951;-1.2403974772514403;-0.8640707137291883;1.9145681680498712;52;1.256637061435917
156;1.7338355160328354;-1.029238255533983;0.2869817147501979;1.7937149964902912;0.0758432786277209;0.7125384297687378;30;1.256637061435917
157;1.2503564844272692;-1.1189807325303334;2.314158039862872;-2.1385689862464097;0.1832049789475897;2.164514543922468;130;1.256637061435917
158;2.74462941756019;0.7311552719415664;0.4787336827755736;-0.0035151532768451;-2.327957379100262;-1.521184996983068;148;1.256637061435917
159;-0.3562336007600122;-1.177310759010749;-1.6239203435543144;0.4186732101495802;-2.881533579930461;-0.8137373177306652;135;1.2566370614359177
160;2.759898381705042;-0.1249068414291172;1.0847468664394424;-1.193500941883692;-0.5603179538714731;-2.349011675099012;103;1.256637061435917
161;-0.5246165507949043;1.3643077506173826;-1.7846893177962522;-1.3682482732842232;-1.0713963848223422;2.8797035147270016;153;1.256637061435917
162;-0.9747315345245744;0.8995687285915382;-1.9369316319382557;2.025213854728539;1.9336025011641835;2.2378462202496974;134;1.2566370614359172
163;1.3371996387779526;-0.2438144088254967;0.4370835678907864;2.218048882822373;0.1588879254855138;1.4841859135931394;156;1.256637061435917
164;2.3657387095221534;0.2601494054982829;0.24552350990934;1.4689418987367613;-0.0152895647895189;-0.2899099768391642;30;1.2566370614359177
165;-2.1513372158138773;-0.798717424909269;2.2691874023199112;-1.0827402889834363;-0.92283794853405;1.059198844743794;78;1.2566370614359177
166;0.4980176217623657;-0.2978246603397451;-1.081412579222955;-1.5598076329661874;0.688071976644976;2.294922633050232;32;1.2566370614359172
167;-0.7543670902743798;1.252316359640456;-1.7477420637004002;0.1137863434212704;1.1166965618121478;-3.030013432566744;125;1.256637061435917
168;-2.1592431984049822;-0.4371472396026714;2.473729162462885;0.6939256009950765;0.5216683450243067;-0.1292294258122478;90;1.2566370614359177
169;-1.914614445000682;-0.8873280704402259;1.3976330670512267;1.7285667360339332;2.937554252789497;2.455678298824021;80;1.256637061435917
170;-2.620135972382668;-1.0379273396418545;2.5786560995121057;-1.248665473735479;0.1199355440966563;1.3616297431278943;165;1.2566370614359177
171;1.5963424771438113;0.1159416021945656;1.5008439217706449;-0.0549211869403228;0.0578386800962781;2.0824374794238385;44;1.2566370614359172
172;0.8659681049991516;0.539717977314105;-0.6497704254576843;-0.0726007395562621;-1.1434577752532686;-0.0894829231921812;3;1.2566370614359177
173;1.5790378089400652;0.661446501398105;-2.0144825976611487;0.1319342034837668;-0.4033355051864084;-2.1649514362732782;107;1.256637061435917
174;1.0768831381230597;0.3429214576112461;-1.0495732914643017;1.9535727367728304;0.0929088060459462;2.652453025395015;93;1.256637061435917
175;-2.726145151791601;0.8631181501006724;-0.9654622956083332;-2.060953491164439;-1.1784682510123456;-2.1843401509456863;126;1.256637061435917
176;-2.3712844035956584;-0.9621796246744712;2.27344162368182;-0.0753779282580489;0.2281170857507534;-0.8643490527900749;168;1.256637061435917
177;-0.7711842363211177;0.9073394892930844;1.1567848242433707;-2.247103235977556;0.5159418986079813;-2.8062408530121914;34;1.256637061435917
178;-2.3141086106712985;-0.0502906856425998;2.5367909750870816;-0.8456949558576541;0.4131628546719593;-0.6467644594522343;176;1.2566370614359172
179;2.4282627527421723;0.8527988965167559;-1.1522948691475663;2.950637489501213;-0.5985511928762683;1.418216302303523;93;1.2566370614359172
180;2.740040686056452;0.2495895392382992;-1.052980333282941;0.7446327186711821;0.5686839824749013;2.308179841548923;62;1.256637061435917
181;0.2046514393487009;0.6702275382996724;-1.6523385205002197;-2.999494291269907;-1.969259648449364;-0.6948160367026348;99;1.2566370614359172
182;-2.244521719986924;-0.2114825102943656;2.024371396858597;-1.4214905043397974;2.713981560715689;-0.5310014781007749;47;1.2566370614359177
183;-1.660544232541311;0.6796504304103806;-1.1469821546061654;-2.4479256791546766;1.1867399728078265;-1.3370355899500588;82;1.256637061435917
184;2.735844811027828;1.0759662593906696;-2.6348148227906827;0.9277840088039636;-1.7291670970282609;0.6369743925475451;140;1.256637061435917
185;1.0486676130245294;0.2323701479613849;0.8055910439489032;-0.6640233321987603;0.7350208578481111;-0.235738946473481;11;1.2566370614359172
186;-1.1152526934716032;0.317134425241185;-1.0032774664160296;-1.8709058465081847;0.7567098375134007;-2.5700282278084066;82;1.256637061435917
187;-1.3369057763530592;0.287744890810674;-2.265982055079573;-1.2907469981029984;-0.2662624880313727;0.4720358344351148;45;1.256637061435917
188;-1.089311980003417;0.267780118221815;-1.017741800635904;-2.2251765043258214;-1.813736276119968;2.4310381793323703;153;1.2566370614359177
189;-2.198909653005815;-0.9850002090108996;1.714249287741436;-1.763389909543155;-1.4707990170614988;-0.3167326330052518;50;1.2566370614359172
190;-3.2715505195487;-1.4397775549293694;2.3428215513449064;1.2408532911202368;2.1274773935288422;0.1811981524490411;84;1.2566370614359177
191;2.4715235464852654;-0.284821518093559;0.590069165529222;2.248030809395886;-0.7326482508230213;-0.1148150284934895;164;1.2566370614359172
192;-2.655356707584108;-1.3033825235591725;2.3851506569263883;-1.7803134089072052;0.9169812033459744;0.6186263224717347;170;1.2566370614359172
193;-2.412819994652639;-0.2820223671275546;-0.1136188107637309;1.1190652487666657;-1.659519573761642;-2.117744398334318;53;1.2566370614359177
194;1.3511666128057307;-0.9028907643922046;-1.468771352128354;-1.0430129938601158;2.012332357188739;0.0459758592346846;68;1.2566370614359177
195;2.364805676541125;0.1331363760260343;2.10236889039518;0.6828357268359532;0.193437535956037;2.335025590160081;171;1.2566370614359172
196;-1.2360282766474155;0.8311608496716494;-0.3883172945050337;-1.2266385389937773;2.0264328179376667;-2.077710748297176;33;1.2566370614359172
197;-0.3583076177876574;0.3886119479080513;-1.2513284692981173;1.0010975959866852;2.6892691722759112;2.376454952900835;134;1.256637061435917
198;-1.120276315412094;-0.2849738525946599;0.8527806495452552;2.200702945880433;-0.6341670597961813;-0.1536730721588238;40;1.256637061435917
199;-0.5893567221644007;0.7519352706052405;-1.790557000848155;1.316495680814508;-0.3589297914160537;-2.334583955217365;125;1.256637061435917
200;-0.8952072693906111;-0.9875504157173864;0.8054481258857327;-1.842319179292559;-1.917593366016494;0.922602615544268;50;1.2566370614359172
201;-0.5014364055858076;0.0950063420753287;0.6172877798216331;-1.41578022282554;1.4336433185384132;0.6541460675195485;9;1.256637061435917
202;2.777685630376068;1.3356328419187409;-1.51464139061597;-2.7527134202435755;-0.1047987361608053;2.6791416173211933;138;1.256637061435917
203;0.4974303465500465;-1.0461367456383954;-1.005619884429369;-0.8229363992852605;1.3545786714593742;2.4568190827801977;166;1.2566370614359172
204;0.8436116484961241;0.011790011542408;2.119401570420464;-1.825556075859046;0.3433712219980411;-2.5318167316564484;42;1.256637061435917
205;-0.6860335855665367;-1.0222076544772354;0.7151759407106004;2.201838264688413;2.6407160974038466;1.4563333237576537;80;1.2566370614359177
206;-1.7284528067745013;-0.9059577264353114;0.6099213321636493;2.360640070442501;0.6222675327915119;-2.5020479612695747;136;1.2566370614359172
207;1.4133134645220204;0.3967628911347979;-1.9086915296094185;-1.5198109106440374;-2.548549763197679;0.5200782556783047;87;1.256637061435917
208;1.934769999343364;-1.0799389730547804;0.6336356578557544;1.576993166944637;1.153073267348268;1.1692984527160069;156;1.2566370614359177
209;1.17943246459054;1.0749885284979452;-1.7882826223740798;0.3658923029547535;-1.4705438675364522;-2.1049618124543104;173;1.2566370614359172
210;-2.03775107749136;0.6557315426934224;0.0890327952241117;-2.306316027562641;0.2884492004731109;-1.848623858367401;82;1.2566370614359172
211;-0.6095252364632642;-1.6978423787727823;1.7524655153510706;-0.6001162128204354;2.0275478894927184;-2.3268688008752907;108;1.2566370614359172
212;1.0641384507705458;-0.3504152168957073;-0.6978451081623167;-0.9551922828134244;-2.10462786766522;-3.213373757297498;124;1.2469419925551015
213;0.5992339991497166;-0.2742996273428628;-1.4508198402083126;-1.1920279809227057;-2.888298673668899;0.3368598903604193;207;1.2566370614359172
214;1.4102930735727497;1.0564633134549657;-1.3598196693870963;1.2304164403340156;2.2401295239353822;-2.921859915203828;64;1.2566370614359177
215;1.6658788356186045;0.1397698285405551;0.0653810867079911;2.3032606332766457;1.0481768643022074;1.5842984509507358;163;1.0961058321906396
216;2.3191181765568603;-0.1053524436295974;1.8916874049756536;1.1352624373339788;0.4910876116511127;-1.1723058108166595;114;1.1676860103489064
217;-1.41461495916576;1.4038807396846944;1.069426038747998;-0.7240120043424947;0.4555679282700817;-2.442046021314594;121;1.2566370614359177
218;3.1686032356978715;1.1476954850136951;-2.101899487636575;-3.0184231739694867;-0.6686298686409987;1.868203649158361;202;1.2566370614359172
219;3.108574645586542;0.2417501119294617;-2.034386375105396;-2.770631716875027;-0.994457909793044;2.631534320988854;218;1.2566370614359172
220;-2.5613202333534297;0.3692458524926305;1.314569689295036;-2.257070278826118;-1.6643891495690832;-1.7771589784064958;101;1.2566370614359172
221;1.0767465632330002;0.5587007994022644;-0.2047058389854409;1.9119057364536352;1.604278435424956;-3.028216765247397;64;1.256637061435917
222;-1.0349571544776024;-0.5791436853739326;1.5254977625309516;2.507143561800172;0.313128433732597;-0.3573849696644409;198;1.2566370614359172
223;2.7683543231666268;1.368549243086025;-0.3158928308587155;-0.5690562203139579;-1.6200918956218688;1.2508403922120988;155;1.256637061435917
224;-2.4487587449093025;-0.1287436879065959;0.1059913377152314;0.4059646274844614;-0.4541759445537228;2.7509630317501403;115;1.2566370614359172
225;-1.6915994055018817;-0.0061966866621041;-1.4381660578521405;-2.7820054891822803;-1.1163180345389716;2.021018675498352;188;1.2566370614359168
226;-2.23700322645691;0.32560855336316;1.1544745964470011;1.5029804645245737;-1.2731634978779165;2.907908782606872;115;1.256637061435917
227;1.672598173332289;-1.0803017931300396;-0.7619009764506008;1.45937949399127;-0.4258368211431352;0.3821429750126999;156;1.2566370614359177
228;-1.855906199535969;0.0224794355567668;1.370889136380098;-2.5139721451885118;0.1033955052344796;2.5286712440747903;106;1.2566370614359172
229;1.7787596578850278;1.3602644115040403;-1.9485597901726368;0.0917047524411727;-2.482414917740737;-1.9874429437078245;209;1.2566370614359172
230;2.1780852238201067;1.567331734741071;-2.389124447695833;0.0197465880414931;-0.1171509846510684;-1.7589875385423062;173;1.2566370614359177
231;-2.4793113069556;-1.220075032092002;2.5114217510338435;-0.436118492699853;0.8737765376140991;1.903015038831397;170;1.2566370614359172
232;2.5465154037532582;0.7157429615527094;0.1577411474937924;-0.8941938901478989;-0.5150305010527304;2.627432831525487;52;1.2566370614359172
233;2.005515467225257;-0.1317669124783272;2.0689824764696745;2.001721987789502;1.217043793902754;-2.070552347705911;114;1.2566370614359172
234;-0.2560708255616209;0.3783748336424974;1.4069443613831312;-1.4576796802095484;0.3215257084873739;-1.623602892084537;34;1.2566370614359177
235;2.461942175274561;-1.6014930223923525;0.1979857594545733;-0.7290204684102288;0.2883957939047274;-1.88756362638676;103;1.256637061435917
236;-0.7362366917806278;0.6225971757893414;-1.2053318945184812;-1.9640355203190751;-2.5836347500359147;-2.7317613533778395;139;1.2566370614359172
237;0.7088732332479765;-0.0572061459625361;-0.9662731671721002;0.952676466251187;-1.6058006369083948;2.00383208563697;14;1.256637061435917
238;-0.3435290132628141;-1.0461892998066828;1.1613513852049873;-1.8948215752026047;-1.1007917042830102;0.2335738055646666;200;1.256637061435917
239;-2.9135719347787554;1.441981804097829;-0.6859755950392528;-2.8817457153228543;-0.6178054641733199;-1.8064918696283807;175;1.2566370614359177
240;-0.2201489105942666;-0.3794462941574985;2.302413763312054;1.7694166016423587;2.6674547743427266;1.8584379637128652;132;1.2566370614359177
241;-2.743931391693329;0.6694496204106509;-0.3119925247571596;0.1859807544020086;0.8900924546956877;-0.1932712740154104;61;1.2566370614359172
242;-2.3595193661543528;-0.6569855390080703;1.086804820355873;2.26161136008028;1.5502096441474913;-2.6455869555543567;206;1.2566370614359177
243;0.3267183416308165;0.262415396903472;1.695832076579558;-0.3627226782683988;-1.8063489493928464;-1.4960054857162577;59;1.2566370614359172
244;0.7494350806176916;-0.3544779009149234;1.0431354231743932;2.895042453119473;0.4985286102413681;2.0137594963989707;163;1.256637061435917
245;0.8700468679136597;-0.872259761947889;-1.6459588355892671;1.5997133403270394;-1.6956280314820154;2.0160419853387928;237;1.2566370614359172
246;-0.5104582494161051;-0.5249640329027567;0.6909885529199553;0.3720019054782808;-0.0419085352320635;-2.7700351680908386;55;1.2566370614359172
247;-3.0949741524824987;-0.3977504777791965;1.4968192550866983;1.55948935391797;-1.2697083179535933;2.4614009459612385;226;1.2566370614359177
248;1.1344785636271908;-1.1242762207721986;-0.0287360274910074;-2.3892074259146416;-1.7342230193682289;2.2235719143491437;7;1.2566370614359177
249;-0.9817416365020512;-0.62806010122466;-0.5470112093341978;2.5488579232428195;-1.7426190470455516;-1.53864611779549;53;1.256637061435917
250;-0.2546311981450009;0.7382384206060237;1.565510026680033;-1.4370268714203505;1.672047941149639;0.2693568092139484;201;1.2566370614359177
251;-2.230456661324748;-0.5048407612906438;1.9208024994023252;-1.837976160137056;0.3067326347972362;3.1287219076441173;228;1.2566370614359172
252;-0.0684074753215395;-0.1891155637572854;0.9820554282967752;-2.259682700432795;0.9104857533801796;-1.3971952163679324;234;1.256637061435917
253;1.8754013341814115;1.6059204584256648;-2.4705392620289985;-1.137212930439076;0.2565908752014525;-1.7248788837730435;230;1.2566370614359177
254;0.6603691863408508;-0.8516338009979609;1.571401692151407;3.200738374755462;0.4585479171436638;1.0391178810350217;244;1.2566370614359177
255;1.553643358463735;-0.5577685455464299;1.44332277928527;0.0292757444519519;-0.9141174462199512;3.1269373657228337;44;1.2566370614359172
256;-0.4901154676881645;0.599302820917318;-0.0109542757780655;-1.7810848071705143;2.082512420355761;-2.6148998409158186;196;1.162615421926345
257;2.338012355472461;0.5748515046186204;0.6827044000481678;2.654746595737166;0.9331670526764082;2.232541815000048;215;1.2566370614359172
258;-1.2361224651710865;-0.0599321359982001;-1.6527421596540468;0.6109047396158107;2.279466591794418;2.7315104862232804;197;1.2566370614359172
259;2.489179137240571;-0.525374020811681;1.0371660919650303;1.152509083750465;-1.0476211835216838;0.0324534895378858;191;1.2566370614359172
260;1.4979574318052238;-1.1961832603695657;-0.5546303972556437;-0.7655769252598759;1.937567600630752;2.3618950029899515;203;1.2566370614359172
261;1.3518376016366398;1.206192130606074;-2.399615726125259;-1.747634482895875;0.8556204111565278;-2.3642175901574083;253;1.2566370614359172
262;0.6270060778080371;0.2393089621402301;0.6838563402631866;1.1433308845741834;0.2006979699161893;0.4736332754565132;11;0.9316620114755648
263;1.5984993702850163;-1.0456636278814202;-1.5902631004377006;0.6061940723810806;-2.6379292676799078;-0.6867495738983754;366;1.137314801311859
264;-0.8178172430327078;0.8616321002375508;-1.7249650105853198;2.60784172024892;1.771346981303355;0.4734422161323357;143;1.2566370614359172
265;-0.1749612626225665;0.1753050628557616;2.081762370675537;0.8094902558350676;2.8677166522209228;1.3494239498013103;240;1.2566370614359172
266;-2.8089432590006105;-1.037482654832186;2.694376848976757;-0.118106702924471;1.9575764343104616;2.260664618382961;231;1.256637061435917
267;0.1180522955286106;0.1629701931286705;-2.115970674516262;0.5958665838283805;2.9931523940799734;2.9215608205140358;197;1.2566370614359172
268;3.066825072874135;-0.5377158035136289;1.300834768570783;2.713042678153569;-0.8457380494422672;-0.7679491603155529;191;1.256637061435917
269;0.4686735386294595;0.7524240752240154;-1.0028021002127736;0.8754480227566452;2.3180620353803403;-1.623573397406251;58;1.2566370614359172
270;0.908435633978552;0.0161563224590726;0.2908358591186291;1.2463538845152156;-0.3705408779377187;-2.3641650635079694;54;1.2566370614359172
271;-3.149188065626184;-1.6437079935924284;2.2468071572591466;-2.0591370437456407;-0.1321015285418857;0.4703369201354003;192;1.2566370614359177
272;0.681465182212365;0.375439650167061;0.6106699586913861;2.176298718275872;-0.499161282715311;2.0326103526397614;163;1.2566370614359172
273;0.0870848131281472;0.6581579300442435;1.4545506956778436;-0.9994598684605416;0.9655610915145904;1.1371433399473494;250;1.2566370614359172
274;1.3685116439649678;-0.4932535253462443;-1.0484389408852466;1.859486822808644;1.2357190853140188;2.132194610022371;62;1.256637061435917
275;3.196563023479609;0.2020601201962212;1.1326064567245964;0.4581631231548811;-2.63779784820177;-1.822861968508383;158;1.145378632000022
276;0.9097109066693267;-0.5869415442830901;-2.032404019985909;-1.9652698963898036;-1.5162662009406418;1.532021355055844;13;1.256637061435917
277;1.3974229671413558;-0.8583339428924973;-2.029597655680719;1.9081768122445;2.2584371313610583;-2.3281448236059945;105;1.2566370614359177
278;0.9076297488004031;0.4885559022861265;-1.8513621810724152;2.107904366855202;0.690873489634853;-3.0679188003495;64;1.256637061435917
279;-2.0350293997057785;-0.074302138880087;-1.4606104038084156;2.9024722751385457;2.171247646254421;0.2476190427059826;144;1.256637061435917
280;0.7736677940124812;-0.1493548590264813;1.1359837542783362;-1.516637034696737;1.2098880242917605;1.301493096602063;273;1.2566370614359172
281;0.0769917149373584;0.9374957772209755;1.5582699637899182;-0.3511258210505917;-2.4994826919574096;-2.2453702761560934;243;1.2566370614359172
282;1.6747804149666397;-1.3018410427593148;-0.1009705854152473;-1.7675866264364697;-0.2207801348062326;2.847455619186978;32;1.2566370614359172
283;-0.8727703307305116;-1.0319135216471116;1.3785386045877532;0.275247218752892;-0.8804190141702118;-2.6946527462077685;246;1.2566370614359172
284;-0.2339114008790216;-1.1023874506144618;-0.3741149967971808;-0.3811898473525181;1.1860837348737303;3.103953402630864;203;1.2566370614359172
285;1.9824299257647853;0.1934231819715993;0.3279129061433091;2.51711578659117;-1.2334403663136562;-0.962919249081638;191;1.2566370614359172
286;0.3341990752699881;0.9374001759574032;-1.2606140731562565;0.7930740642939017;-1.9361022249415856;-2.514990747766132;209;1.256637061435917
287;-0.955840928084698;0.4956445335001824;-1.3258824497462018;-1.4533274437651322;2.6385335073018856;-2.365768071886486;196;1.2566370614359172
288;-1.6891295481506372;0.9954836828532004;-2.0139363172202773;1.5359343710797666;1.955575003566844;1.3357566580034708;162;1.256637061435917
289;-0.5200493176308956;0.1272167378960761;-1.569203010282081;0.7267906018084997;1.113460578986163;-2.1400794348378445;58;1.1072151530308578
290;-2.870667578458897;0.5652003453456947;0.6738601911139871;-0.575411883979771;-2.1694927093113185;2.745078172458153;92;1.256637061435917
291;-0.2195199661378034;-0.6269716196990439;-1.4490734457701853;-2.214043242132427;1.2969484827543485;2.4432784502125364;166;1.256637061435917
292;-0.7953260510389216;-1.3088355895546089;1.453217695689714;-1.2495634931788862;-2.453186970690155;1.5614383183003149;200;1.2566370614359177
293;-0.0151737244653615;-0.2567418417593713;-0.1201276605677551;-0.862079716398249;1.9073608789106;3.0909654971095923;284;1.2566370614359172
294;1.1067078926015292;-0.3254917736828444;-0.49176956187465;-0.2999801283908445;-2.6990093471363688;-2.4083929966652997;124;1.13633190009941
295;-2.565484793416502;-0.1820981712840529;-0.9471701290950736;2.634391333275599;-0.6700542883859839;-2.4854904313196924;102;1.2566370614359172
296;2.428051899896132;-0.1040925600647987;0.7249595494292961;-1.8725530270599289;-2.0480396363396984;2.4012883846243183;41;1.2566370614359172
297;-2.510169971575917;-0.6425195333916458;-1.0583348108786184;2.476421565265514;2.0398772840359305;1.0660957385208074;279;1.256637061435917
298;2.724414866201659;0.729563377013617;-2.510205753004126;0.9285771070478932;-1.9623112909327207;-0.5416378588681531;184;1.256637061435917
299;-0.093079441025997;0.4159945938162871;1.5345580557331333;0.9863763075656196;-1.7731989519563494;-1.7246666994602746;59;1.2566370614359172
300;1.812684373017728;-0.6968958938678411;0.0903254874902068;0.4899932454616716;0.0617404708179758;1.902976263231716;133;1.2566370614359172
301;0.1812967761156475;-0.657212621763422;-1.623156691247812;0.2257971646323868;3.000637683338504;-0.5041116113952714;68;1.2566370614359177
302;3.082394831731616;-0.7610367121824715;0.2553143775426471;0.5593551992075843;-1.48657074159478;-0.0936202636924597;259;1.2566370614359177
303;1.538748507996133;-0.2363667032649803;0.0654781143022752;-0.1117330676743457;-2.424175504911387;-3.065736682699331;294;1.023815736547097
304;-2.3447955793732893;1.182890747417416;-1.5689996865051703;1.8101222404505743;1.0426477808089576;1.248960087150628;288;1.256637061435917
305;-0.9475462906384622;1.0323220843562888;-1.223937362574007;-2.1134249007940467;0.0544072992539341;-3.2324350077878075;186;1.2566370614359172
306;0.8112557281897843;-1.260549251322488;1.6262178406635082;-1.8683793355019864;0.7471682913438187;2.873010699000381;157;1.2566370614359172
307;-2.992365382785977;-0.2709178541929993;0.7857003339704475;2.4482273665428487;-1.302323577425231;1.9555229963078211;247;1.256637061435917
308;-0.8492855704416504;0.1397668249837901;1.7374271140079345;0.0081010712116087;-0.918582445110764;-2.7588856172802845;283;1.2566370614359172
309;-2.163145278133041;-0.6537067122343154;-0.9919271606983348;-3.081000158094483;-0.3551150089079259;1.7572859521562003;225;1.2566370614359172
310;-1.640683071354105;1.594079271055477;0.9489361605185392;-0.0121986502220536;0.6579269776690645;1.7727429300251027;57;1.2566370614359172
311;-2.8205568787956468;-0.022033789483567;-0.2062013083526828;-0.1450617199499034;2.739880273964297;0.121975273434704;49;1.2566370614359177
312;-1.444206792319238;-0.8717749593067797;2.807896305049779;-0.0193573463666185;0.3442274579452344;0.3472502451308109;168;1.2566370614359172
313;-3.0677553032140628;0.8629851677665873;0.1631972978809588;-1.998851343753348;0.5834876481963347;-2.3854584168511983;210;1.2566370614359172
314;1.9445416909694972;0.6046704462378181;-0.4263611262251801;-1.7026861825201929;-2.871133372814664;-1.9725757081369664;124;1.2566370614359172
315;2.265318617900186;0.4837736633287323;-1.5636076948936095;2.5458889815885213;1.6252779445791543;-0.0944774537068633;94;1.2566370614359172
316;1.73733996982932;-0.0597958411233245;1.7089144895296942;1.0333739550331766;2.360495652069025;-2.0518740177420023;114;1.2236909204328457
317;-0.4323447730470669;1.120294585494597;1.5579458053559727;0.3345389336621652;2.024316616323816;-2.4411633900788114;51;1.256637061435917
318;-0.8525647044364231;-0.9743968794864626;-1.586483100594433;1.6569283828856467;2.50537804222611;-2.2531301233457723;123;1.2566370614359177
319;2.707283843509356;0.8150927919382049;1.961439106187338;0.4714576982055742;0.5327812059713681;-1.5383717887162165;216;1.2566370614359177
320;0.3989937967573299;-0.2781898466404924;-0.1654283247814821;0.0144416360410398;-1.0979172340692536;-2.400747697026781;54;1.2566370614359172
321;0.2345243257105902;0.8973348847242;0.6544787810488134;3.0167143804124894;-1.1059291011849646;2.207599082274037;272;1.2566370614359172
322;-2.1407216902104285;0.5215930141393704;-1.3199037019830695;1.5530811749339644;2.3704544476201;2.0404045406489475;288;1.2566370614359172
323;-0.1856810156699988;-1.190725405983993;0.0446100547815402;0.2419366484716954;-0.3303940340052508;2.7713723898475293;154;1.2566370614359172
324;-1.334616232772192;-0.7962556417604452;1.900307934618028;-1.276316822866092;-2.5497086326932767;2.4645677373480783;292;1.2566370614359177
325;1.097344286015023;-0.2474892182041167;-0.2582523320985456;1.8838392191683628;2.5307275084022938;-3.2866877546533915;221;1.2566370614359172
326;1.8944052534601843;0.495496220005677;-1.9184266190481167;-1.9881123281777315;-1.049920709690218;1.4084998470672625;87;1.2566370614359177
327;3.1548957118895773;1.0151349405547605;-0.6420909190752142;1.181001363766362;-0.09726297225065;2.443232418718355;180;1.2566370614359172
328;-2.533581811207773;-0.4547237800113446;-0.8362106954867737;1.5425988089539715;0.2553531482644676;-1.7296839818416008;102;1.256637061435917
329;-0.580462816388078;-0.1521675101405087;1.5557810616530807;1.3996351056108756;-0.118128611661783;-2.264783859605888;55;1.256637061435917
330;2.104155390497424;0.8341070758672613;-1.351872342871271;1.617829151937218;-0.043987608895977;0.6963963152895238;93;1.2566370614359172
331;-0.2869435557064763;0.5374965941617884;-1.9961932269828844;-1.4816809635581552;-3.143699807893905;-3.176991449405433;236;1.2566370614359177
332;3.3282401308007645;0.8471113539684731;0.5638039400717206;-0.2997669015713155;-1.3026648183831249;-1.802009754617123;158;1.2566370614359172
333;-1.825241114844994;1.6868049639805491;1.165813376071074;-1.3370758612193143;2.798356026099262;0.7041652999436407;46;1.256637061435917
334;1.6356762053040936;-0.8145590835689542;-0.7165056938872978;1.302607500234643;-2.37457897228488;0.9474161473326872;91;1.2019369624291214
335;-1.748735121327651;-0.3924193546237031;-0.3544638951858164;0.4712930333637898;-2.1892184835415254;-2.724163690232897;193;1.2566370614359172
336;-0.8182726863617111;-0.0659421342470324;2.0133611303852006;-1.203728537407202;-2.1089103559212257;0.7526079917624267;50;1.2566370614359172
337;1.6833478980282917;-0.4211074945515512;0.8193378618236151;-1.1484676705463268;1.7180333957877587;0.8728390436209981;280;1.256637061435917
338;-2.7912197126750184;-0.3381013506407956;1.9158616984262065;2.6955218202354594;1.2386255870604133;1.638268816466626;556;1.182741192995236
339;2.370152986226309;-0.5151168647788205;2.059388855683689;0.7227790671077039;2.9164867095210973;-1.3863369157206369;316;1.256637061435917
340;-0.2904056213973821;-1.3341369891121166;2.399116887687901;-0.887131561153723;1.8061939568536396;-2.211032435911438;211;0.892787977996356
341;0.1043173044198838;0.8515827757734171;1.5647370085366437;3.028050178554885;-0.9581821817919594;1.3652441172571987;321;1.2566370614359172
342;-0.5061814030385503;-0.6524803652894325;-0.997031290691627;-1.888670183174892;-0.0410291501198338;-0.7695659761981418;45;1.256637061435917
343;0.0779022598234575;-1.0323978246070595;-2.136494624052692;1.3304894034214232;-2.4732064276246124;-0.0226955015802076;128;1.169418680198425
344;2.544415698283068;0.0829021498509653;-0.2506068439229597;2.270805994126289;0.2563791827391029;-0.6230869341753323;164;1.0664352791892049
345;0.1017346162699558;-0.2999335271401164;1.6720047489427237;-1.3671130555457516;-2.2801191620729826;1.4635511400576162;336;1.2566370614359172
346;2.2879715025417817;1.138741609192647;-2.332501115079117;0.9129101707172204;-2.884442792060092;-2.523495140592651;229;1.2566370614359172
347;3.006595700124288;0.6792463656336702;-0.452291873503706;0.0722578790801788;1.2830782168071944;2.322548818800345;180;1.2566370614359172
348;2.2084329966955103;-1.522366547552536;-1.1429278906498492;0.6541304379072496;-0.5297702948186127;-2.545225331173085;118;1.256637061435917
349;-1.5494743801061464;1.5237065737455;-1.0327147946130455;2.346890740653318;1.750684443661231;0.2331523625271678;264;1.2566370614359177
350;-0.1162009451075339;1.0458198632252482;-1.4336744042506957;3.1113666755749025;1.0706870253727994;0.0005424690334142;264;1.2566370614359172
351;-0.4245291512352463;1.1834806503842576;-0.8269547971306634;-0.9717371891567158;-2.104054202979715;-1.7788868294236355;96;1.2566370614359172
352;-3.315895438256868;0.9322096560512282;-1.5952007598753817;-0.0792124276537507;-2.280566968574034;1.5386332067918975;95;1.2566370614359172
353;-0.8392743934105673;-1.2459128555658114;1.5097650086481864;0.1139250420767269;2.7507660080337097;-1.846963770191817;211;1.256637061435917
354;-0.7236516347504608;-0.6958118382720533;2.43949488795892;-0.8435839428049149;1.0804754825166485;-2.1563060420736067;340;1.0622382813792624
355;-2.653540210883349;-0.1026639686809369;1.0737967109358777;-0.2644628473690906;-2.801111220808252;0.3351932401666962;39;1.2566370614359172
356;2.9953984803111444;0.0805042367519957;2.291744380045374;-0.0983613409882319;0.0308577017785223;-2.058740695739781;319;1.256637061435917
357;2.7748038257400487;0.0967634344945216;0.0581360593528599;2.0828614835349666;1.4892666277946844;1.26121322157074;215;1.256637061435917
358;2.396489617043282;0.6577074907636333;-1.575146480650606;1.018835870336542;2.819064611292016;-3.067630512612324;214;1.256637061435917
359;0.7625899993502656;0.4110257304369963;-2.2202665953558616;-0.5826449070636958;-0.5271071627107133;2.0426893219979947;67;1.2566370614359172
360;2.1206466364595524;0.8762186421467799;-2.3780677866977613;-1.6477284474790403;0.7123478370479732;-1.0109914766533947;253;1.2566370614359172
361;0.5605363820742886;-0.7265597952194406;-0.5001998100352941;-0.0514591427136853;-1.23383213708461;2.271719156014139;5;1.1355800848864237
362;-0.0288850635128243;1.0481756270983722;-0.8874644886792546;0.538291837223346;-2.909935804590623;-1.9834562001733047;286;1.2566370614359177
363;-2.7021419619501725;0.9630569677539884;0.91352451038762;-1.981397850096574;-2.312760837472005;-0.3021380542839197;77;1.256637061435917
364;-2.291249598268962;-0.954537450527992;2.333332139327416;-2.4292471907742126;-2.3268667567167536;-0.2157346723624225;189;1.256637061435917
365;2.387782617782213;1.4907872604633925;0.4013964518312957;0.0303600308022991;-0.3779862708416375;2.769903742408644;232;1.256637061435917
366;1.5283596925434848;-0.5705649868663708;-0.9643575049755514;0.8524221993723442;-2.607947094166272;0.0939947046678817;334;1.0573249820275394
367;-0.7420924995487359;-0.3706523051593275;-1.6466699270088383;-1.2906924643836393;1.0213428741330557;-2.1876599287613887;186;1.2566370614359172
368;-0.6596788827441205;0.0486187164200749;-2.041693317946963;-1.865721218990144;-2.0851197378545128;2.7395614209391965;188;1.256637061435917
369;-2.6296141166693805;0.358119931710561;-1.744947974967886;-2.814039561083581;-1.3435103917763636;-2.5202267413218062;175;1.2566370614359172
370;0.1720389834564135;0.7212093463386904;-1.282231599241842;-1.5521538875019092;2.708414594201032;-1.8762900892480228;287;1.2566370614359172
371;-1.9352533935770344;-1.1781938251984951;1.2041066482200928;-1.884834801492549;-2.75809479460499;2.047339052695916;324;1.256637061435917
372;-1.1642733266402447;0.1470760881978655;-1.7789229081430755;-2.591052592984784;1.4795681433016927;-0.5997203959731392;183;1.2566370614359172
373;2.5168824773211664;-1.132774827576352;0.9502707552629768;-0.6424148158267404;2.868795340952667;-1.844258307539236;86;1.2566370614359172
374;-3.0221753625829235;-0.8359604138680357;-0.0919868572236154;2.8577855108093675;2.1914691922740017;1.4871905928913258;297;1.2566370614359177
375;2.652977810196872;-0.8742590177063451;1.266881147708434;1.9220785598033765;1.6956688606949832;0.714857869285487;208;1.256637061435917
376;-0.5935402334381468;1.0702079032605454;1.3800631734381046;1.053002905499992;-2.4892298742960968;-1.1249396021700822;299;1.256637061435917
377;-2.4051148067063464;1.1598250489591884;-0.941439708107707;-2.935127085606604;1.8884353582267144;-1.1880578121310572;183;1.256637061435917
378;-1.7858831357290366;0.5985730946999882;1.2624588013295277;-0.0288432505884789;-1.311912719867117;0.5920428185552052;10;1.156406161980438
379;-2.0586148917410214;0.3098213254620055;2.511200466043044;-2.5650570642154293;-1.9955411297115675;2.9850171681089663;146;1.2566370614359172
380;0.7430814723575396;-1.1215578809729654;-1.7351296588007157;2.297991040101991;-0.6966892083563607;2.1023263193355617;245;1.2566370614359172
381;0.3778266597263021;-0.8077834405400279;1.2364450238969191;-0.4624090692852317;-2.755559716495955;1.5672480809306244;345;1.256637061435917
382;-1.6269924845953068;-0.1393781212997307;-2.4255853205528046;-0.3519997766215723;0.2249829834777225;0.8776349923906022;187;1.2566370614359177
383;2.3149838497566497;0.0944220436320163;-1.8155397532020987;1.4096808055364185;0.962163890642566;-0.5425860560119169;29;1.2566370614359172
384;0.5129411168339904;-1.253512305546047;-0.9254467686155052;3.0239499070743894;-1.2141366394803783;2.3439989234883867;380;1.2566370614359172
385;-2.139191315467764;0.6114763270613932;-2.7426483821850747;-0.5732199703684625;-0.0185275947214949;1.6153625154880804;382;1.2566370614359172
386;1.3428825306538108;-0.7760246207144385;0.7863533569744487;0.4547437470093795;-3.06361462096482;-3.0758892694172264;303;1.256637061435917
387;-0.5035510501068943;1.563040965447022;-0.5388010755384532;1.9150437665631936;1.919919971623828;0.0764658515526325;349;1.2566370614359177
388;3.1060922868440404;0.3854803353099285;-1.4974919045066375;0.9607310877608168;-2.3324799155913656;-0.9307623672996618;298;1.2566370614359172
389;-0.2882059404210216;-1.3880174770851212;1.351200159931529;-0.5336003112345858;-0.3240515529256187;-3.076863004341923;283;1.2566370614359177
390;3.0789655891447367;1.5503478520372471;-2.2795994002191104;-2.4700361252880048;-0.4202782449419625;1.9611538134468989;202;1.19036681978215
391;-0.8495900767043553;-0.238457561122425;-2.170159766861262;-1.9332741495165449;0.7910374034319444;2.8633527296192933;291;1.256637061435917
392;-0.5405811811658008;-0.3343526040890425;-2.330605288210687;2.280599330224266;1.180360311360856;-2.4147474293026727;123;1.256637061435917
393;2.0567504805826946;-1.185412517465695;2.141859555144385;-2.487357648486534;-0.4637460588748126;2.5686637080810315;130;1.256637061435917
394;-3.158494618824169;0.9324177335657908;0.164208915885958;-0.2729624104684802;1.5702911910158088;0.4685858441040343;241;1.2566370614359172
395;-0.2403667275074609;1.3325082513616655;-1.009175506219153;0.9545132081176636;-3.3645518398580667;-2.0912582754791766;362;0.7293287076268663
396;2.978043340860268;-0.4039428929979655;0.2517918720894698;0.0418070745568712;-2.513717475552487;0.2496472593465401;302;1.2566370614359172
397;-1.188058294753235;0.4281507807517787;0.2398219893955636;-2.9111321518668003;-0.3028021101038336;-1.5893019765776677;210;1.2566370614359172
398;-0.187301032534761;0.7388661030801458;0.235261308069142;-1.1115681222928275;2.2941951800711635;0.3594232382145715;201;1.2566370614359177
399;-1.1711777913958132;0.6903606781178887;0.0733017573189736;0.0144824836717521;1.2052973858415448;-0.97542369221824;4;0.9475528905484668
400;2.7585084957974897;-0.4025404293894719;-1.7617074164871167;-2.667579315475284;-1.906580676547013;2.9844345048578966;219;1.2566370614359172
401;-1.5883796312376717;0.4753606071089196;2.431381627026934;-0.6464922629579151;2.772770070998728;0.6047186765576016;47;1.256637061435917
402;-2.6479277384362314;-0.641003542383306;-0.4459348369246275;-2.970831005410941;0.2260936412455982;2.591499920509833;309;1.2566370614359172
403;2.851609306555379;-0.6544973906977122;1.416326646988826;-1.282360407159333;-2.295368377177674;2.8587848891320844;296;1.256637061435917
404;-1.8800433014081988;-0.1037933829286379;-2.552905055604188;0.1638705814870309;-0.7920992365657631;0.4337353066028703;382;1.2566370614359172
405;-2.2073931818426686;-0.0040354615632848;0.2610732175530346;0.2146818609934457;1.8289927581662413;-1.785508722430568;81;1.256637061435917
406;-1.6575394300075126;-0.2969751916790684;0.3559593446668386;0.5820566123164334;0.4406358240121825;2.925966941002556;224;1.2566370614359172
407;3.1022600282517594;-0.6287274466623796;1.0963938165649187;3.0455506910766474;-1.2630842656979997;-1.8828762445614025;268;1.2566370614359172
408;1.3557284065138115;-1.295443256265263;2.184160437084876;3.068369953853797;0.6978739380357296;0.3695106798419515;254;1.256637061435917
409;0.7417759108309399;-0.053462349582667;-1.844846918054068;-2.0510841989215565;-0.0719999547872395;2.5359862488275247;166;1.2566370614359172
410;2.2161687255874862;0.7982092362820044;-1.9302808490515695;-0.0500349196125259;1.8246419717392752;0.5576842491720433;43;1.2566370614359177
411;1.7945462503862202;-0.79401144693118;0.8223649795970793;-0.2806118256845793;2.532585366601405;0.9778934526085308;337;1.2566370614359177
412;0.1008713349806698;0.8634980958869064;-0.9253423903631854;-2.709183234208651;0.095079024586765;-3.1568406371068383;305;1.2566370614359172
413;1.6115511661600337;0.894019316642729;-1.362960912850505;-1.6099620891644433;1.2064348628346069;-0.8020623257928285;360;1.2566370614359172
414;1.1019525555216354;-1.6682589234867284;-0.5607528179321544;1.0183178651002902;-1.1653368831593562;1.843739141353656;91;1.2566370614359172
415;-0.5341424511959734;-1.3457645678309116;-1.4210057062907075;3.260530355450261;-0.9350637329950068;2.036084049795082;384;1.256637061435917
416;1.6737756889594162;1.1798368604056506;-2.386683102439612;-0.934221287920312;-2.860924537843955;-2.371910315136532;229;1.256637061435917
417;3.012811215319501;-0.3488630478126567;0.1301815627930315;2.052228594216577;0.5371198099143345;1.5688773355536876;357;1.1236548302456688
418;-0.2267228256043393;-1.189078957242015;1.1217837410583509;-2.951931136096825;-1.5108726093362177;0.7413759260904266;238;1.256637061435917
419;3.0960719702394672;-1.5733111554076924;-0.2456517136448107;-1.0014872642274857;1.2333631141050256;-1.777081541513866;235;1.2566370614359177
420;0.5850691531818382;-0.862724204320049;-0.6538145486682108;-1.7745559112751843;-1.6040425696965293;-2.8092849956019843;212;1.2566370614359172
421;3.1386440578457;0.9525164471276806;-0.7583950637257775;1.0901228599909625;1.8418897301190156;2.534692185699101;347;1.256637061435917
422;2.3366350846015576;-0.0874929124890864;1.0368514118569363;-1.7742450375182892;0.9479759314619992;0.7771525197918943;337;1.2566370614359177
423;1.4201287366823514;-1.334188587201344;-1.1758326865509705;-0.0214203624307656;1.9724170148791795;3.14493917304358;260;1.2566370614359177
424;-3.048044621120449;-0.5649892661739632;-0.0479271948327394;-0.1452209991320016;-0.9095937649159702;0.9747096163088936;147;1.2566370614359172
425;2.1262138117375797;0.2899345547781716;-2.3782445063371447;0.7668203695960674;1.6428345939709843;-1.101208154785413;383;1.2566370614359172
426;0.6993283811636857;-0.3588452937512185;-1.997575037825778;1.950814245698933;2.1506073936533663;-0.9624163483894012;123;1.256637061435917
427;-0.5709946061010976;-1.2568271645341085;0.3161164242285739;0.8408131061989033;0.6962171732116934;-3.1370580474812626;246;1.2566370614359177
428;1.2137166281517824;0.4701713092725476;-2.321695008036317;-1.5222114974518688;-2.609101971408837;-3.0430933202796417;416;1.2566370614359172
429;3.042992877506373;0.8272420964110943;0.8771456686389164;-0.6606688300884378;-2.787777677122575;-2.345117943409359;158;1.2566370614359172
430;-0.9558768288678084;-0.3914080314100148;-2.0748064218710027;2.565875182236488;0.1842376914651727;-1.900611978514183;392;1.2566370614359172
431;2.566876107279869;-0.0111376655247352;1.849933165574594;1.010566663636402;-1.206967865092244;0.8086825307512152;259;1.256637061435917
432;1.3607077406259989;0.0737449021604228;1.9515108008137896;3.010776871831104;0.255612523862622;1.1420051415169223;254;1.2566370614359177
433;-3.1761741504019576;1.0813293485145092;1.160735628182455;-1.9216516260338097;-1.2397330863452627;0.0505237237639749;363;1.2566370614359172
434;-2.1639592423691485;1.5358371856516404;-1.7767639890580522;-1.1043566733825696;-2.533861499673816;0.710098476346407;95;1.256637061435917
435;-2.0808468107609364;0.8069986122643549;-2.482926793115378;-0.8699028427883467;-0.400753932682161;-0.2447634702149062;187;1.256637061435917
436;1.7685446699022689;-0.93065925904509;-1.629737939206962;2.6831125498341803;0.9468886328143368;2.490099084011972;274;1.2566370614359172
437;-2.1724322551399347;-1.271469103727251;1.866804267534258;-2.499948263970892;1.592368149436174;0.9383095720688728;192;1.2566370614359172
438;-0.3993045183075337;0.7194524927841464;-1.7593042663635263;-2.212244335490068;1.0224622691776264;3.261603747523219;391;1.2566370614359172
439;2.8211082776824323;0.2529988861736177;0.5105747396772218;0.9642001762496432;-0.1899691451081735;-0.913749773223213;164;0.975765331258807
440;-0.5713980768490204;-1.101913421442613;1.5982550761554324;1.1366169490382925;0.310311045740525;-1.6147883934628298;329;1.2566370614359172
441;-0.965688369206638;1.5648418257426675;-0.6325981577975651;-0.7522655924113452;2.7559405770548078;-1.6892768919736936;196;1.2566370614359172
442;2.4585633514531096;-1.4018215021245386;-0.9506535702460056;0.1718418509435598;2.604632082045541;3.236940451017341;423;1.256637061435917
443;2.086205384757795;-0.4006505537951506;1.7184317140129366;1.5176477579759564;-1.6188746065595467;1.676023893128229;431;1.256637061435917
444;-0.2545084498630908;-1.3266383630204066;1.9434951239272789;1.0253213065645306;-1.13578066174419;-3.098422038893174;283;1.2566370614359172
445;1.9642566344482275;-0.0012235617221556;-1.748869278171345;-0.1712308130269454;-0.2049969758077905;-1.276236682749858;173;1.2566370614359172
446;-3.345197087798057;-0.4792436738788706;2.790034369173415;0.8526884086305786;2.2727586654761645;0.3896951101347833;561;1.0175042959056846
447;-0.8009800436983459;1.1028908276384526;-0.294646646948882;-1.3790050166796155;2.836661737182612;-3.261435476121497;256;1.2566370614359172
448;3.154905111831319;0.5266565833010404;-0.2670855518066989;-1.1354189356390412;-2.218427061230272;1.0513959258695431;223;1.256637061435917
449;-0.920359194700798;0.1566613847524341;0.9417306883564676;0.995601970712335;1.449173124938765;1.7008049139589474;23;1.2566370614359172
450;0.8430737624392572;0.615855940346638;-0.9839364282951631;1.128047509170686;0.8866143907481081;3.018797117402728;174;1.256637061435917
451;-1.07883448843483;0.245740498909902;-0.5990159732756951;-0.9236832567152948;0.7447450460957584;0.2840749444756474;4;1.220514728775756
452;-0.5346430534510072;-0.3302609077474291;-1.1620040995676186;-1.0162536240607325;-0.7064576895990298;-1.262900992564297;342;1.256637061435917
453;0.6408679746331526;-0.633292765535961;1.0679040758964145;0.0955321154912756;0.9376890142695782;-2.269638114528385;51;1.2566370614359172
454;-2.68002766956885;0.1039575036969652;1.1568596431818818;2.048269684355082;0.9139396995514544;-1.9806696477808232;242;1.2566370614359172
455;2.6752594753833288;-1.0766704305001673;0.6259699819532789;1.5894630118339372;2.550550819906512;1.2491297684301443;375;1.2566370614359172
456;1.6669067239677235;-1.0208119275903726;1.5867298070107454;1.3778355306150147;2.305369419568968;-2.7688134631619308;316;1.256637061435917
457;2.568280821592844;-0.8976520262870402;1.4774628843226736;0.6671909392877706;-0.8969406893718727;3.2873442189388578;255;1.2566370614359172
458;0.3544768432408252;0.7507235346495699;0.2414613427005539;1.268755011048196;0.9753278289175376;-1.3100584771661086;26;1.2566370614359172
459;-0.739315015351151;0.8949961516692034;-1.7670151717991875;0.3877161959775912;2.811430793449813;1.655031272491052;197;1.2566370614359172
460;-1.095138243213106;0.9011895208275892;1.943966752380521;1.17550841500006;1.5338328206108809;0.1780594669157386;31;1.2566370614359172
461;2.0585408512606937;1.158936979597834;-1.7223426613317063;2.096322844151538;2.651816275746209;0.8674773961707412;94;1.2566370614359172
462;1.3901157222731833;0.9616142804731772;-1.5671402980324876;-2.9667455335302364;-1.890242816583803;1.7626523600286976;13;1.256637061435917
463;0.7235287600016261;-0.0608193568041881;1.5316537571593316;0.4148285304961369;0.0522291280773079;-2.64848494039544;453;1.2566370614359172
464;-2.61550759258008;0.2634244142043519;-1.5395664826546307;1.0887651946179704;0.8189548182374561;-1.9255586520402557;328;1.2566370614359172
465;1.3469754264133496;0.7753097704070888;-2.3691775365263497;-2.490964659528543;0.9731216223089704;-0.5736613386739622;360;1.2566370614359172
466;-2.8028031321114217;1.1623554064273525;1.5158039045397165;-1.3764568457449904;-0.0219244477788939;2.6684560440274714;106;1.2566370614359172
467;-2.080252232827611;0.0948563438506047;-1.1622306906357045;3.0452579916008764;0.0613499679321696;-0.8215174352830898;102;1.2566370614359172
468;0.3786983996011664;1.5454651293876034;-2.055520403414104;2.8749024058651496;0.7484179631968566;-0.07460503962103;350;1.0230752892183383
469;1.7666064473907142;0.9654506462379864;-2.415053377728253;-2.4038343856167304;-0.092522957146036;-2.5032663808618585;261;1.2566370614359177
470;-0.5147694624280938;0.4061491480623412;1.430059180018783;1.2130946204698754;1.1384558046490454;2.6857295342279794;449;1.256637061435917
471;2.2466781001383977;-0.8867343660945965;0.3187582632268961;-1.8859661314798015;-1.522639430690233;-1.7352994758156537;103;1.256637061435917
472;-0.5617180727313041;1.118043666622261;-1.8103748356213232;2.793890253595469;1.7661799733710373;3.089852648818534;162;1.2566370614359172
473;0.3210934684092028;-1.4296664552236835;-1.778929124676612;0.8350125947930465;-1.872818306863305;-0.6516307569633027;343;1.1603189794419129
474;-2.86848028609817;0.4482670799762211;-1.3456201541651436;2.5620909582619986;0.676281999653751;1.1239007183886351;304;1.256637061435917
475;-0.4020020057995074;1.098021869784605;-2.15966107955444;-0.1039712506115212;-0.9751266903219428;1.8405792600486763;67;1.256637061435917
476;-1.2842156145333623;-0.2873261202946131;1.3354976457614691;0.4802714844940791;0.9911414724512466;0.2497505080010547;23;1.256637061435917
477;1.962059231751785;-0.9989352841829752;-0.2664550824529098;-2.6304338589268745;-0.9590146200498182;-1.2145692447253684;471;1.256637061435917
478;-0.3972381383970318;-0.37387598563328;-0.9062600283319528;1.5040466905588972;2.4379704217120617;-1.5316254100634683;318;1.2566370614359172
479;-1.3959972372886813;-0.952201052537905;-1.6284465695080033;-2.0744378744123813;1.4667685338707592;-2.206458218722664;367;1.256637061435917
480;0.5315077387560632;-0.91042030505884;2.399601335736247;0.3335031098108665;-0.9626699631630968;-2.8310923251384845;444;1.2566370614359172
481;2.0962829977101647;-0.6662794340068015;-1.8671848628364611;-0.2756142139823807;0.2423307555127929;1.527197402975886;127;0.961519550171701
482;1.7269256293310586;-0.6544867416892108;2.511274435416108;-3.011110652893221;-0.8258030290231165;0.6958126511676315;130;1.1100098262129552
483;2.7647532695636605;-0.3792619798440607;1.8686610682143647;-1.6400171754103023;-1.0469785891163488;-3.0299520552762647;160;1.256637061435917
484;2.989317942214063;-1.3649777251171509;2.098388429126927;-2.888520448593847;-0.3130320310229089;1.8674683567677897;393;1.256637061435917
485;1.1071382118853792;0.7145574039242055;-2.336712706315168;0.5621733868449141;2.498499685977648;2.8762427736987406;267;1.2566370614359172
486;-0.0040554536093991;0.1758624338779629;1.7014964598786824;0.3413673180732126;-2.04719600594564;-0.5428780690968684;243;1.2566370614359177
487;-2.125927054988977;-1.1892902505069023;1.1918363008947;2.526518476672386;0.926748728043958;-1.562886562874778;206;1.2566370614359177
488;-0.284556257319185;1.593370530506425;1.1327899039332616;-0.5733672504977397;0.7850025988042737;-3.446565333451128;121;1.0371492653735257
489;-2.444002232826821;0.6001832218348045;0.8430043464043608;2.807795881755657;0.7044508993126947;-1.233730570770485;454;1.256637061435917
490;-2.946750356603663;-0.4171992785312972;0.6615371356935702;2.1233468792109345;2.5362601751096303;-2.578254218955013;242;1.256637061435917
491;1.534611325211255;-0.4020326741059364;-2.034380490849123;2.63228852325897;0.4041293094701439;-3.0211627894366857;278;1.2566370614359172
492;-0.784391436407629;-0.4822423048394137;-1.4697844795285897;-3.2248434602691205;-0.8419584134289699;1.513955977719153;225;1.2566370614359172
493;0.5223319062718191;-1.0423501569151352;-1.530009830434113;-1.5342865106581791;1.4525513301538948;3.3444563059579795;203;1.2566370614359172
494;1.3612812974695307;-1.4831534339562669;-1.1297523213534686;-1.0498799606135074;1.0453155979616415;-0.3924613204761927;194;1.256637061435917
495;-2.50306865797518;0.0969821078992426;0.7653882496022324;1.4755515683366585;-2.376270276847446;-2.2355578621858085;193;1.2566370614359177
496;2.324579862785521;1.3675822733190488;-1.8338888767950523;-1.6244896152007018;-3.0863630622892;-1.835749943999021;416;1.256637061435917
497;3.351795955944964;0.6091381399744897;-0.7633079767094184;2.212148678576077;0.4211109068329579;2.613125789886399;327;1.2566370614359177
498;0.5769661010775352;1.736862141973182;-1.9603207734959909;-1.762828897186897;-1.2593893689170292;2.9502297629614898;161;1.2566370614359172
499;-0.2875108745780769;-1.4588186797425609;0.9471001996921316;-3.175297038726012;-2.0441205833954785;1.8081101626562603;418;1.256637061435917
500;2.6051058426165783;1.2194452897239434;-2.1686309012202054;2.135805224042241;1.0136341954735262;0.0244290641711461;315;1.2566370614359177
501;3.012979115172386;-0.557139624368437;-1.5042335083540368;1.35318509381677;1.438248596631208;-1.1262355361141232;383;1.2566370614359172
502;-2.845385136615763;0.1341348988762099;0.5079468916223954;3.081822426929582;-0.9881869239370872;2.8589577013605405;307;1.256637061435917
503;0.7442598382362718;-0.6586854876352273;2.029771191111169;-0.0749300128567143;-2.4787723191421;1.2783541421763065;381;1.0469388099663754
504;-2.6523311759905592;0.1123294487903665;-1.8994974236848396;0.8164467038144345;1.9804060181617844;-1.973250441224412;464;1.256637061435917
505;-2.419663220856952;0.1994768924802366;-2.515183131421716;0.1485926449574861;0.679810584784176;0.2689491945278419;382;1.256637061435917
506;3.1588399921166848;0.9275462949108172;-0.5881504238573615;0.1471403014998112;-1.6160369969625574;0.4476617388522111;223;1.2566370614359172
507;1.573146627459162;-0.2495986405486505;-1.3702437420112894;-0.9029517181331383;-1.9261615972493769;2.8570635999216747;7;1.2566370614359177
508;0.6415559179586147;0.4064946969240253;1.4542976046961669;3.218279523830156;1.2078559760984746;1.5536099115601192;244;1.256637061435917
509;0.0651741641124128;0.0152624512185937;-2.1137941545365004;-2.0614782610628533;-2.600848238859028;-2.170726247669128;139;1.2566370614359172
510;-1.8098904468412476;0.5621129418737738;-1.7770657070451723;-1.94597037506108;-2.2772770112410368;-2.690712481442459;236;1.2566370614359177
511;2.4538105614129693;1.4212494014953478;-1.3403317476366292;0.7038407335174953;-0.0822185406831823;2.89846697795086;327;1.256637061435917
512;-3.080853101672516;0.9519473582037756;1.5804573626373797;-2.126720043061042;-2.613631821563871;0.6354918487981711;363;1.256637061435917
513;-1.910334927412212;-0.3548687830802183;2.1113276119330533;-0.7354051325640393;0.2493419919063047;0.6434488994388379;312;1.2566370614359177
514;-0.2396027200939024;-0.483341481399281;-1.66922078470534;-1.873542702563873;-0.6017609702481056;-0.8581057153016299;342;0.9348792287140816
515;0.2137581532738216;0.7978640813714357;1.800172419999657;2.357734863462561;-1.0146930105165763;1.8072201602454372;341;0.8474383449448616
516;0.9651818512718288;-1.8056121116665644;-1.2383791204660444;0.839489303117384;-2.0105439164159136;-1.3005582087640548;473;1.1351099113009204
517;2.813984049048111;1.568192288753233;-1.8980164799204624;-2.415706533995776;-2.4799514820749438;-1.2866558703993292;496;1.2566370614359172
518;-0.2668665313089674;-1.1570582629062018;1.942626447503639;-1.6768142071624657;1.4656967610991227;-2.9851804814645604;340;1.2566370614359172
519;0.5338680482563356;-1.2473366238695016;1.3335130986936214;1.6229406276918965;0.443566764115742;-1.5051550612342628;440;1.2566370614359172
520;-2.844244412837788;-0.7257375151934435;2.639652776787646;-0.0957192718033354;0.3002644641116771;-1.9412942879694088;176;1.2566370614359177
521;-2.5186939552130547;0.5128329543396823;0.2769527435409026;3.3654414110651985;-0.6895837661028805;2.787733362813717;502;0.6915013536487987
522;2.6290364817940386;0.117786246078941;-2.243954873794966;0.0235968307549006;-1.5554492939704363;-0.1670008421489095;298;1.256637061435917
523;2.405249791148777;0.1994481629495228;-1.197841340306414;-0.3434974558041317;1.7582514260051687;2.503732156775196;347;1.256637061435917
524;2.018521492289294;-1.557782373182127;0.4119488824320772;1.2295625386591476;-0.1120924928938036;1.828953424188716;300;1.2122689790320949
525;2.66872101686943;1.5788824020808567;-1.9920437975747287;-0.5075285388229873;0.7765029925134197;-1.7894604440422626;230;1.214946513357357
526;2.5076472792978843;1.762329228238025;-2.121977539319838;-0.4855740096308002;2.403785917870628;0.6105989699741519;410;1.2566370614359172
527;-2.5290679429277367;0.8156319430743975;-2.205337993858735;0.2093607253476139;-0.0073793199101692;2.3112031015729664;385;1.256637061435917
528;-2.855786708901704;0.8591451073492715;1.8267704599192336;-1.7473524265689;1.9837934753337223;0.440150099692983;47;1.2566370614359168
529;2.428891590752144;-1.047025396200093;1.8917777994937133;2.551335467636188;-0.9947883023183008;-1.8396167297657828;407;1.2566370614359172
530;-0.1161678722350239;-0.2369133390337818;0.9664777686884588;2.921559637941849;-0.4470020284981261;-0.1853112013559107;198;1.256637061435917
531;-2.18554657973229;0.3736028718414211;-0.9015231039451131;-0.6996852904818818;2.6810968786907496;1.1289371644831578;49;1.2566370614359177
532;0.8147421815163362;0.0698157668851114;2.150363135246375;1.6605916248318997;2.641600709462337;-2.261282448419549;316;1.256637061435917
533;1.3903838058592997;-0.5272931552840198;1.2662338137244624;2.5897191819475407;1.109862333414426;-2.277131033107153;233;1.256637061435917
534;1.8588315162966087;-1.1096764189079156;0.4088723630596504;-0.9096212071081164;-0.7131507603021773;0.5118573788130732;133;1.1924990693746982
535;2.7488680055877914;1.0672257464354973;-2.080589867131366;-1.6784290285051895;-2.5493437278287905;-0.6139529271023105;517;1.135545362875933
536;-0.1721975127508871;0.0230292064162971;-0.89461677659359;-2.9575606963029086;-2.152342028120497;-3.235500378408611;139;1.2566370614359172
537;-0.5368741593281942;1.2403623795929224;-0.3264484662546069;0.8241098279303183;-2.168106175338465;1.8468193636747048;88;1.256637061435917
538;3.063838391052853;-1.1596116680714887;0.0279092423798295;2.9653870112617544;-1.0028455925757005;-1.6000109805103224;407;1.2566370614359172
539;3.2622427848809865;-0.4635720584354454;2.5466166594136683;1.0998763178531608;0.8506115588840353;-1.2157731607648117;216;1.2566370614359172
540;0.1199495377788032;0.047630599604311;0.4408095322430089;-2.1541687920533894;0.6547677174283082;0.7422499808780834;201;1.2566370614359172
541;2.862905911087932;0.3655680325714008;1.6655057078604667;-2.4500401111379126;1.4278070517164252;0.6556272465040507;422;1.2566370614359172
542;-3.043288660337225;0.4720640973404522;-2.605661608636635;0.0205129581035491;-0.8412675602185409;2.8638176329349254;527;1.256637061435917
543;-3.0044117347923054;-1.247120247084127;-1.3726253503205033;-2.9036842961508817;0.2040553588487213;1.5834345700051804;309;1.2566370614359172
544;0.605737009039869;0.265190096509058;-1.054915115320618;-0.4060013849174378;-2.015651462439228;0.7856729255846316;27;0.9031726297396452
545;2.7732653971651526;0.6768229500632632;0.1071642620738129;-0.7258369369450243;-1.297821114674569;1.8840702236444744;232;1.1176678949523815
546;2.7152278704487163;-1.3866578678680852;-0.2835993445696635;-0.4665863447865378;-0.4139196528377956;0.4513011658578104;534;1.2566370614359172
547;0.4409518819667199;-1.688090720163625;1.9243975545833407;1.4575797658287082;2.56410659598259;2.1457680507217365;152;1.1828244774543448
548;-0.218091725815243;1.1954546654109854;0.2897573573447104;-2.4626075552773843;0.7521919006426534;0.8833953689056004;540;1.256637061435917
549;0.0412714939330653;0.920321179547684;-0.7828215084039954;-0.8137253533266087;1.85229593514018;0.7759415219052838;398;1.2566370614359172
550;1.0538712378542765;-1.4461125355271565;1.793534489747575;-0.1162535776857616;-0.7751270782433318;1.6257261543424175;44;1.2566370614359172
551;-0.5540408577100964;1.3822407652427278;-0.9678395793482522;1.590885725477251;1.32607520903314;-1.5926645400832364;26;0.9330363516249912
552;1.3451275749281038;0.3800301963093913;-0.8002286799615752;0.0483491986240163;1.5745473851586431;-1.797056472774884;58;1.2566370614359177
553;0.6854924037301537;-1.30712354175441;-1.594104148198356;-0.5557595674348328;-2.8304418841527017;0.6130041617503258;213;1.2566370614359172
554;3.310149862646155;0.7484257621923005;0.6781490327535187;-1.662744250221449;-2.150049729456577;0.4772545355622574;448;1.2566370614359172
555;-2.3409260168913533;0.7986529298673323;0.6871162988373143;0.9331121798611725;2.0504175035242733;-1.1438487299291944;81;1.2566370614359172
556;-2.4062538249115897;-0.4645753065935933;1.3904349237476157;1.771050793445301;1.2728194011670322;1.317655121367361;65;0.8006192569833491
557;2.356098187904844;-0.3403861487242379;1.4894244031588968;-0.2482305565291069;0.4591679223734897;1.5363297364208828;171;1.132369860842003
558;-2.8046111144596515;0.7620642718439393;1.4479807455991938;0.3360807801946276;-2.595685189892673;-0.1802610853788884;355;1.2566370614359172
559;-1.6047748279261411;-0.5538314274193015;-1.9268690844724723;-0.5208751711053873;-1.361604150771344;0.0935940123681347;404;1.2566370614359172
560;-2.7118791354510057;-1.2484216664755663;-1.842102175703756;-2.9476910142710704;1.32252991854885;1.4412049412478585;543;1.2566370614359172
561;-3.241581789721269;-0.7290205059394136;2.69400613459492;0.7699746201284213;2.4511199614141645;1.345893129283252;84;1.0920561822917831
562;0.0825122186896123;-0.157158863750406;-0.1054262198915011;-1.1235669905540704;2.066840541110401;-2.127560409506979;256;1.2566370614359177
563;-2.0598061259159763;-0.8885377843802336;2.401798196141228;-1.6980804122159143;-2.03427486275566;2.1515460281544296;324;1.1521492717034798
564;0.8553708767224005;1.0993531531401866;-2.6809687715373984;0.6403661543769946;-1.6132686345167522;-2.834223815343896;209;1.236942776225436
565;2.193396146951227;-0.6207232329678223;-2.125306760995968;1.3032774060257006;-3.093381943151553;-0.9417518439160388;263;1.2566370614359172
566;0.1179944747126028;0.398942164403344;-1.268757049952327;2.6178259087687628;0.3765653317611039;-0.5938086935680481;350;1.2566370614359172
567;1.5557609753925703;-0.8102501412490236;-1.7563511578083637;-0.9516406852308944;2.5201663755410912;0.059318108765559;68;1.062609971780296
568;3.100820475704032;1.493461759478541;-2.6952002516687785;1.4803288028866897;-3.2358227337968124;-2.9878273866338567;346;1.256637061435917
569;2.814842293785623;-1.18205179629894;-1.448936031513591;1.7997029315072977;2.4080577084527928;-1.206220396339254;501;1.2566370614359172
570;-3.3190779809097317;1.249683400388965;0.2290621135507667;-0.5162645315099613;2.481889776879981;-0.2785944176472025;394;1.256637061435917
571;-1.154014207760849;0.2913751563355914;0.8143398130150302;-1.2982649454064046;-2.4073447261730374;-1.1020964980111017;101;1.2566370614359177
572;0.2348292899285144;-1.604595767895285;1.7860922539382798;-0.047198915319401;2.572253241849652;-2.830808272623358;211;1.2566370614359172
573;-0.1567829773567918;0.6144939575516675;-2.021294198342096;1.8278236976645228;0.147396168348961;-2.827737985165045;199;1.0100856543578365
574;0.7872603255612127;0.4738387701796039;-0.347579330138705;1.2822021383053663;1.958600757447348;-0.1041357062211939;56;1.2566370614359172
575;3.2549552238234987;-0.3173332650247886;0.5267179543773766;-0.8431760123572997;-2.7047893986690283;0.4865165913104892;396;1.0176327400681977
576;2.846716022751593;1.018822776705262;-0.4108185175577789;0.4384201480393091;-2.4409546018943065;-2.2187408269288453;158;1.256637061435917
577;-0.2267130820533039;-1.2431465624996196;2.4858462757714634;1.5668120324553012;0.9641047210030776;-1.414663329668118;440;1.2566370614359177
578;0.3998541755443793;-0.8913232021993054;-0.7863568287529821;0.2444040158522572;-2.9363176054175435;-1.2505386606663618;159;1.2566370614359172
579;0.6699829845280005;-0.5337484438613775;1.6989291447211188;1.9983743602229096;2.8027248481322737;-1.3393058161909253;532;1.2566370614359172
580;2.331066679501152;-0.8009239842939854;-1.4858249372741688;-0.7891218749920139;-2.747342370321058;2.8660166039157318;507;1.2566370614359177
581;3.3902594793101857;-0.8553511285650907;-1.0110812739110018;1.87628393172114;2.625291232302713;-0.2593695114337597;569;1.2566370614359172
582;2.318775275910028;0.5069028645826666;1.1902222467545869;-0.8515391913573365;2.0150335445750125;0.8881585682042819;337;1.256637061435917
583;-1.6584757414551552;-0.8580039929674239;0.4435622554894976;0.5006215668018937;-1.8572693145795487;-2.917137015612331;335;1.0050127691897526
584;-2.6233448515174365;0.6439365618754772;1.0435339296613015;-2.3746603967312545;1.2269082213156055;-2.326817992342052;313;1.256637061435917
585;-3.12858079335622;1.2829536565143114;-0.8423138657188026;-2.1556320751581977;-0.4950803687971514;-1.8209726487051332;175;0.98051048303501
586;0.4997762571344303;0.3771030939705855;1.2644716884559823;-0.5193220663189572;1.0324538787834878;1.773017572496399;273;0.9616543409544968
587;1.2630057140287556;-0.2557224249483392;2.8731003663577868;-2.6080415606818943;-0.0060920219580995;-2.7027332330860183;204;1.2566370614359177
588;-2.081551955371112;-0.7246840754553125;-1.1272788908081457;3.181900315011068;1.1925245964632711;0.3306067366538562;279;1.2566370614359172
589;1.028160593735779;-0.27916104013066;0.3017752810196878;1.1312159055812787;2.997964130043912;-2.597511161623724;325;1.256637061435917
590;0.4280650641724266;-1.247490878617917;-1.07385387157057;-1.5959509617236536;-0.6012800267085399;-3.248119301633384;420;1.256637061435917
591;0.8407862032745368;-0.0251727633760532;1.525347391234463;0.2165385172294058;-0.9344437877159854;3.116449043120447;255;0.9133138228415536
592;1.386026873729725;0.0212028271840309;-1.7396133392155817;2.720027602383756;2.31085247957396;-2.5720339897016555;277;1.2566370614359172
593;0.453927819890203;1.2193928428270884;-1.214727446300742;0.8567579933303415;-2.526798802507678;-1.0029474595439185;362;1.256637061435917
594;3.1917450697104237;0.7265236963771434;1.6332143981228116;-2.7123964707118065;1.5899467702531638;1.2071619859714966;541;0.7992356528190104
595;-0.6445458185123318;-0.2639892126366082;-0.646459457258783;-1.35758301937884;2.7200268660355937;3.091472371926103;293;1.2566370614359172
596;-0.159181067965177;1.4658459913835429;0.0528377250441604;-0.8450318546588731;3.224483118987189;0.6424260983922417;398;1.2566370614359172
597;1.135074563564337;-0.0402256021155197;-1.0226749775471276;0.9865753337488414;0.2643745676680786;-0.3756754025289376;20;1.2566370614359172
598;-2.7916761460400767;0.7599784081949835;-1.1802238291276297;2.9638105736113323;-0.5803161122663901;-1.2818787781418168;467;1.256637061435917
599;-1.1647792681794478;1.1250473589641954;1.5164484569167294;-0.1728296616149188;2.841109529318961;-2.7822766286650573;317;1.2566370614359172
600;-2.962449019389963;0.8720689093847875;2.115881189619873;-0.8174740630944588;1.8157480039315288;-0.3286767765879028;528;1.2566370614359172
601;-0.6688433812081476;-0.5950909704496685;0.051320931042519;-3.168071461653684;-0.6988518048949677;-1.525090780772497;397;1.256637061435917
602;2.6453782792610365;-1.0650256832037124;0.8628227929134876;0.795076426749838;-2.7953620612995698;0.3561509194825282;396;1.256637061435917
603;1.1849827459521445;0.1528344682585015;-0.1827214327932634;0.379445784310521;-2.8516902390622145;0.3033982524503614;366;1.2566370614359172
604;3.2002909320063377;-0.3190980775841173;1.6447793599322764;-3.078640611294632;1.6332394487255968;1.7146588487140946;594;1.2194645408949274
605;-1.710963555759123;-0.39781215813164;1.2214985232227669;1.3738856756199374;1.2665595253990627;-2.5486371493101942;242;1.1763721434102767
606;2.781502942039929;0.3400868883324278;-1.0902787693353306;-2.5112846491382457;-2.6438271655770054;3.07573505283515;400;1.2566370614359177
607;-2.6691905706843158;-0.1306850422557499;-0.8888945102841297;-1.7121573404966517;3.035909246815396;-0.3319492615451495;49;1.2566370614359172
608;0.3909884921826629;1.508373057753022;-2.0036513627071826;-1.3597432695520972;2.3727819296509844;-1.483573496155064;370;1.221437483034138
609;-3.004763109943615;-0.086166091085263;-1.2984338670890194;-0.5114072972375393;-2.5706675596142867;1.8322705157741568;352;1.256637061435917
610;-1.5888831235499865;-0.5416616031041342;0.4429363931421796;0.1543977591899927;-0.4439047331430181;2.1734035034335317;224;1.1917993350528655
611;0.8787618544103297;-0.8297896117638608;-1.0114348120033765;2.2981132484104063;-0.1703153716421245;0.5541841691234546;227;1.2464201874834444
612;-1.0327721831388423;1.1432384284999235;0.7450181265799245;-3.438885808133378;-0.6454270806380182;-1.3971287368882348;397;1.1061345323410323
613;0.6666096523340799;-0.8262015169749896;2.10281096808438;0.6320722151327312;-1.563757724424894;3.187044379842799;591;1.2566370614359172
614;1.838315667012845;-0.216144219599137;2.517573164244728;-2.3584516236419977;0.050856968238133;0.2714913533741274;482;1.2566370614359177
615;-1.3409178231710508;0.3660324538705607;-2.61867793145698;-2.301494048607063;0.2491886175254479;0.8736548598668445;187;1.256637061435917
616;3.0275698224989247;-0.8539503300383919;-1.935963937460484;-0.4432928218959258;1.888844045972761;0.9004112712232637;127;1.256637061435917
617;-0.4418532598368945;0.5659731582921765;2.228215964656684;-0.8654966005322041;-2.726245054021444;-2.8833996079577973;281;1.256637061435917
618;1.0063193322930404;-0.4111772553074663;-1.0256614428568036;1.548221813968378;-1.2394497114155845;-1.6798638509667354;54;1.2566370614359172
619;1.135559197239306;-1.0074328715167566;1.4233105819217566;1.5392096093408514;2.731012422251352;2.7354740236049158;547;1.256637061435917
620;-3.011484373737922;1.162864336023281;1.7429258120219382;-2.9709288715411546;-1.8868836281133472;0.1230552845155885;512;1.2566370614359172
621;-2.842854386606989;1.046164151575772;-0.7402350041216705;-3.190482388897238;-1.031781959269793;-0.7351258430386406;239;1.256637061435917
622;0.7547337614495224;-1.276666427093657;-1.457635600592791;0.3559171152481279;-1.340628274542837;2.6521960305001837;361;1.256637061435917
623;-3.090560361016625;0.3708345772902892;2.18521224070622;-1.7844438807950893;-1.8915331382611456;-1.2613581337422466;220;1.2566370614359172
624;-3.1766843619578813;-0.9928311898291402;1.2115571143310273;1.3343158898403504;1.9044976131122255;2.112292789327773;84;1.2566370614359172
625;3.391884311843412;-0.9886410485405568;-0.8612808675604219;-1.1791064791833563;2.0923976062100165;-1.7409632695924049;419;1.2566370614359172
626;-2.029717346619438;-1.5180059172376272;0.8250525275042376;2.8688134345959693;-1.350597747366479;-1.1059402014708632;63;1.0196899971607418
627;1.478938659649451;-0.3794319989791299;1.667543567500088;1.2699563933896854;-0.7287612980053209;-0.1237852671111699;259;1.2566370614359172
628;-3.184083344780881;0.0525730182124205;1.7178452438246716;-2.0862108250095464;0.0104470737497632;-0.2827661104754658;112;1.2566370614359172
629;3.2735512510769187;-0.4002150259751865;-2.210262840904957;-0.3511460452994377;-1.4140592437618555;-1.0236533831298589;522;1.2566370614359172
630;0.7763551405217022;0.1241202916488321;-2.699511836964041;1.094457108878506;1.9183202810089752;-0.7176149853052395;426;1.256637061435917
631;0.858780079974093;0.1385988763097589;-1.2443351795286826;0.3504456351963175;1.8742148663690537;-0.8452054882152913;552;1.256637061435917
632;-0.8310109631533846;-0.4315690416321971;-0.995440449069206;-0.3547912002704739;1.3662488078421564;0.7221554485190551;451;1.2566370614359177
633;0.0814266753261117;0.4649193552203598;1.1049040684354785;2.077505182118525;0.8563393791451318;-1.214518694945538;458;1.2566370614359172
634;2.6119911431096634;1.2508014005165369;-2.2798567432416204;0.1334369350312499;-0.5203566114459812;3.2520633678714583;511;1.256637061435917
635;2.0173380331431905;0.7345137262711061;-1.1172451272384427;-2.069707592053329;0.1610679430176542;0.7401730433151081;109;1.2566370614359172
636;-3.092095250850268;-0.1478128625436451;1.2613242114620349;2.1543128097029025;2.0097984508600417;0.7683625509997524;556;1.2566370614359172
637;-2.481855908520756;-0.6944117883568525;0.8864486511343757;0.9017798907703636;1.222564506638606;-0.6390120727030109;81;1.2566370614359172
638;-2.9436331141036467;-0.5076974313009535;2.5123147165409283;-0.3248915092891375;-0.6794113840671463;-0.5448583823167646;176;1.2566370614359172
639;-1.7604174174786764;0.2013555163398158;1.3728549947341464;-1.8005905096484245;-1.160758606685753;3.24002957133584;146;1.256637061435917
640;-2.945640190361061;0.4025330053662389;-1.9734328826175185;1.9583427713061;2.2928650529791343;-2.016432527029836;504;1.2566370614359172
641;2.014948662403949;-0.8392804084174686;-0.8094809841932237;-0.1436195930801165;-2.2886042996128686;0.4839871294280545;366;1.2566370614359177
642;0.050394860444336;0.3640465066031441;1.295871879199139;0.0811300250568783;1.0193906434709734;-3.061271811124037;51;0.5648121341877722
643;2.240438774950879;-0.3563138854338212;-1.1305420609229728;0.0698368222307119;-2.67820700145708;1.225911501634342;641;1.065358319423826
644;2.09204757612474;-0.5217871462302394;1.9080709149091293;-2.392538713287645;0.0741916785625216;-0.7522956330354073;614;1.2566370614359172
645;-0.5047681839411645;-1.0684043952397986;0.6627491819177436;2.0881090027396336;-0.6030405988521303;0.5789692811259447;198;1.2566370614359172
646;-1.9402709668334013;0.9883340628289728;1.1184798703992878;-2.16715505847943;-0.8414654970619524;-2.0711402682389197;220;1.2566370614359172
647;-2.570033950067888;0.8555373164081842;-1.8300495986979493;2.036235730798411;1.6194395789271834;2.51537653656779;322;1.256637061435917
648;0.7799327595441514;-0.3519718014949841;0.2684188172917056;2.507996800065103;1.3571089968841612;0.9728688612356846;215;1.256637061435917
649;-1.790944714475044;0.0318948032587632;1.1411897215387143;-1.5297943020642453;-2.3193534173790797;-0.9025775280660516;101;0.9522128519518864
650;-0.9644798412205484;1.284452733541534;0.3646636763351762;-1.3011933020759796;2.241509711976009;-1.0630480628820818;33;1.129467566112
651;2.3907457655603106;-0.1790672496945307;-2.3917245425207563;-1.314831135575534;-3.0294806144898283;2.976664704771142;580;1.2566370614359172
652;-1.4568479365711149;-1.2582260806458323;-1.5779217135689505;3.364610006081407;-0.6233790657136713;2.802560250247744;415;1.2566370614359177
653;-2.541448238564267;-0.1069998570741551;0.8089684684304855;-3.263164339614393;1.5047498791808156;-2.6215516766904723;584;1.2566370614359177
654;-3.307867861754437;0.8964944171601421;-0.7151758198511681;-0.9715592049508248;0.3203363292842252;-0.380977227867496;61;1.2566370614359172
655;-2.3730076497476054;0.17145216355489;-0.8710216876940159;-1.7430618465949252;2.144606503165962;-0.5442777937027521;49;1.135363762677544
656;2.772698004340881;-0.2848184255727045;-0.1463810038701532;2.3218396119659777;2.099010203559469;2.242438247012913;357;1.2566370614359177
657;0.2667819964639542;1.5339335560003469;-1.419097751633048;-2.4072491652237007;0.9506710255043934;-2.9694094775517046;412;1.256637061435917
658;-3.104850368743123;0.3314808042962233;-1.8020692538145155;-1.5190547269548715;-2.5245778671456;2.18378738656212;609;1.2566370614359177
659;-1.449260467682782;0.0883008946119318;-1.3223374713597362;3.482013060665295;-0.28987083896279;-0.5282211892210573;467;0.907723248756257
660;0.4227344144503956;0.6391285146685213;-0.5849703794008073;-1.5105391459125086;1.39776464766907;-2.1715987056838792;681;1.2150449701609771
661;3.0203620866965237;-0.304374163540027;-1.2877240835352164;-0.0394888916733286;1.4100287230724196;0.2903463055189392;616;1.2193448291368103
662;-2.820232826476477;1.04111075570686;-2.329959668251859;0.0236972143827464;0.9590742242602428;2.989056379018985;527;1.256637061435917
663;-2.211520506328376;-0.2434285102655054;-1.9785495665471644;-1.3321496424118884;2.878267529226455;-0.3508918965306787;607;1.256637061435917
664;2.1788885712794035;0.1406122222338175;1.3284837368086082;1.2628099036919616;1.155874966642338;-0.175998226745862;114;1.2566370614359172
665;2.973724730451219;0.5603162633103571;-1.964750081182245;0.4248281657300649;-1.3578921571494895;-3.1474359005691728;107;1.0993315343100494
666;2.2799352170963387;-1.6727923994379432;0.1324301171630635;-2.2340816834946726;-1.3610906922937005;-2.6174235181785277;471;1.2566370614359172
667;3.060116474920548;1.2866219206263718;-1.0612968626160275;-0.3165779267295627;0.7406518948033796;-2.4501364737045805;525;1.256637061435917
668;-0.3364486754315827;-0.6680869010813936;-1.800641912565605;-2.9631965410789074;1.464459413928112;-0.899989017336388;372;1.2566370614359172
669;1.7191439503713384;-0.4505376405855006;-1.9638624168841043;1.1660027964873654;3.053468409136623;1.807572928773091;110;1.2566370614359172
670;-3.120138311852085;-0.9634603666260178;-0.1541089910638459;-1.0759391397901137;-0.237873836309761;-0.0798081950672321;147;1.2566370614359172
671;-1.7532947266979844;1.4570183738782547;0.2899576394294835;2.033437497278562;1.118418461221551;-3.0920815577074703;113;1.2566370614359172
672;1.4846089030255711;-0.2225719178072624;-1.2732288461953505;2.522647091731048;-1.434819982587111;-2.1954606249800515;618;1.256637061435917
673;1.7156249390941112;-1.216619643065605;0.491428930702159;1.002030257254822;0.7468849725162535;-0.7965753864628244;30;1.091121748286208
674;-1.9488405795078616;0.8278786411309491;-1.9964417304387343;3.239696840361251;-0.3583583597892301;-1.042766551319637;467;1.2302079041692693
675;-2.831570446625541;-1.504393380919732;1.7466824723001064;-0.7451646626499818;0.207357746430519;2.4027785572794182;231;1.2566370614359172
676;-2.417882616561044;-0.0614875557749428;-2.324702800287967;-1.559244327458139;-0.4826347935514533;-0.6968081095346192;435;1.256637061435917
677;-2.8208670719475206;-0.70689999530311;1.6283397191000044;-3.436411773943931;1.2101849680954757;-3.0811374083471565;653;1.1988855290673095
678;-2.629345312507179;0.6187461096294686;2.0391748498188296;2.4804942424615084;1.3657776744237475;-2.3576377446129744;454;1.2566370614359172
679;1.1933901730146086;1.6610361002729563;-1.595999736825529;-0.1346758875892293;-0.9674078472108424;-2.493579091433347;209;1.017524957894084
680;-3.0830262695559214;-0.5804156656576467;2.0893079867011948;0.913123371619738;-1.1486952453416204;1.588388152527089;247;1.2566370614359172
681;-0.495735095870129;1.320194979640518;-0.6282715246434867;-1.850892504721276;1.2150057660873224;-2.0382559084023435;82;1.1704359764300931
682;-2.552635674050476;0.5850687396562914;-1.8785623714263933;-1.1516253532516754;-1.5373053768663278;0.8720445436025609;35;1.256637061435917
683;-1.022274522237165;1.0700000520113695;-1.5831405502906652;-0.209099674442598;-2.336837828321478;-1.7423048522454128;351;1.2566370614359172
684;-3.144978528083499;-1.072656671680248;1.3537059658011654;-1.969408398932912;-2.505897123881646;1.9404400441791017;371;1.256637061435917
685;-2.520214998756344;1.60100151863687;1.379557581346915;-0.5173376222079151;0.6400561975500072;-2.0612614894734467;217;1.2566370614359177
686;-2.9947979845739665;-0.0101572791248548;0.0330514448239146;0.4473783350724472;-2.490191550204434;-2.1796821977554326;193;1.2566370614359177
687;0.1646604754824983;0.5713763189066711;-1.439112765645351;-2.863315797112057;0.0003272019876625;2.3744946772818536;409;1.2566370614359172
688;1.6691328011202629;-0.2524340901267563;-1.955726456889024;-2.613329440156161;0.4436464153964657;2.8279639640135072;409;1.2566370614359172
689;-1.3752195928175086;1.6265552933525549;-2.30360960688914;1.126889930624665;0.7966348360325195;-2.445710285130002;125;1.2566370614359172
690;0.5112990855274249;-1.4865364807378;-0.7391298192998311;-1.1200805978917974;-2.3416848257010585;0.1352159254830745;553;1.2566370614359172
691;1.916473729825292;-0.7110889202581165;0.8881921224568597;2.3068639705075733;1.6027101738932654;-2.4189546520128937;533;0.8924612120648987
692;0.8973400385166191;-0.0868746986935656;2.01554440155167;0.2757753571519372;2.808319543512767;-1.9864539991268717;316;1.2566370614359177
693;0.8423887504066064;-0.2166415463966184;-1.3737014260735978;1.4721474622658326;0.116915172870074;-1.4156778067963915;597;1.2566370614359177
694;2.3760302690661304;-1.2995637715367818;0.5438072559496733;-2.182139240772309;-1.9673124144424303;2.5112991801529683;296;1.2566370614359177
695;-2.7663359174539788;1.1390407755644043;0.0617660909951225;1.1870858450655113;1.723995233690716;-1.992484241718805;555;1.2566370614359172
696;1.4621743164514918;-0.9652152402042636;2.228517776569716;2.9035471575647134;-1.6224716888118855;-1.7591916481342618;529;1.2566370614359172
697;-0.4446201436240148;1.0782199659305436;-1.4568990724241706;0.4645180104945013;-2.9346308976446958;-0.392216617184264;593;1.2566370614359172
698;-0.3674080807195659;1.0198099949199606;1.0910753200124472;3.281327091334993;1.007244604118535;1.6475372896933265;508;1.256637061435917
699;2.7658795628984443;0.8478605864442359;-0.1268737784129531;2.151541880122441;0.7001365939443884;-1.470715750780485;344;1.2566370614359177
700;1.3751911508493533;-0.919610972788298;-0.3149990563305331;-1.4198782446850415;2.8441835314759523;2.786261674583313;260;1.2566370614359177
701;-3.170998943603582;1.6844835611533302;1.6838544267221882;-0.8347533314659805;2.43632569976939;-0.8796429219451777;600;1.2566370614359177
702;3.1014064805781127;-0.4869531733755752;-0.9988667045329552;0.4871760494800954;-2.174984815354692;0.6126728108946473;643;1.256637061435917
703;-1.8948902497924855;0.9467131823496868;-0.4084981220020998;1.5587424827117773;-0.476591591162021;2.957286647007292;115;1.256637061435917
704;0.9114689105846892;0.0543892590441408;-2.6820053787734506;-2.831874573478461;0.1673267813459407;-0.6533999184475783;465;1.2566370614359177
705;-2.523760314513408;-0.173917582638663;0.3728182598303299;-0.0668088099535695;-2.7689596375807546;0.3939907547384965;39;1.069979119642014
706;-3.078432081887707;-1.1168643505826596;-0.6803025584883925;-1.7951104558590518;-1.0729596402222483;-0.3296264492265758;670;1.2566370614359172
707;-2.420084270573381;1.071154571366136;1.7366689827068176;-0.3795931004834805;-2.0786224526090087;-0.8679057037901706;558;1.2566370614359177
