Komment314/test_diploma/benchmarking/path_finding_for_benckmarking/pre_rrt_star_results/8_2_tree.csv
id;joint_1;joint_2;joint_3;joint_4;joint_5;joint_6;parent_id;cost
0;0.0;0.0;0.0;0.0;0.0;0.0;-1;0.0
1;0.8581313140649273;-0.2062033136381509;0.7442218761922342;-0.4036916359429965;-0.1608875175956176;0.23981162229684;0;1.2566370614359177
2;-0.4282522161414422;0.8545382491512671;-0.4143911578075699;0.5655926107446466;-0.2451567486640005;0.3373192254648106;0;1.2566370614359172
3;0.0546303419967547;-0.132777060956322;0.7467557327800711;0.4930549286284089;0.8504746237229738;-0.1856558895107189;0;1.2566370614359172
4;-0.6081916908056973;0.615586454996469;-0.7547797805231363;1.3309496286075888;-0.1722391298824516;-0.5473885066744667;2;1.2566370614359177
5;-0.7902497603470372;-0.1319270665474541;-1.1297522315929571;1.915747479564484;0.4938161297436931;-0.3004216583376587;4;1.2566370614359177
6;-0.2916657386595852;1.1664088865890423;-0.5884732379521251;0.7779241504654469;-1.2532176965143271;0.9469432209562856;2;1.2566370614359177
7;0.2986301183606416;0.4706978416371615;0.5467846190775005;0.4962680370547132;1.8518529295009385;-0.5213068593953645;3;1.256637061435917
8;-0.5423761837805948;0.0810563650236718;-0.5619099156126431;-0.7038099770755425;-0.5742643373625922;-0.3708421212182685;0;1.2566370614359177
9;-0.177256973231726;0.3773820925956559;-0.8957137229358647;0.910051116926888;-1.846125440913945;0.2540577955938399;6;1.2566370614359172
10;-1.4089478524748964;0.0275519095657371;-1.1829584433282632;2.447689103844497;-0.1457429970323827;0.3895690386272152;5;1.2566370614359172
11;0.805428710417362;0.5533630669850195;-0.4466385459304797;-0.4450634775817986;-0.1475617162841644;-0.4526241960013069;0;1.256637061435917
12;-0.383419475881572;-0.7927230852440227;0.2292404451676698;-0.8337804795066939;0.2365908918430969;0.0;0;1.2566370614359172
13;0.944493864037781;-0.7099892035359607;0.9892728988357196;-0.2346682229577779;-0.3128197714071832;1.338071911887747;1;1.2566370614359172
14;-0.0031054673286771;0.5628591063950541;0.3585434758967606;0.7387410916638466;0.5264939669485471;0.5575203715929025;0;1.2566370614359177
15;0.6835209030264362;0.8961379588987789;1.1418896210142004;-0.3978333526680759;2.0922733280460104;-0.3247686488428284;7;1.2566370614359172
16;-0.8265290621684104;0.3191101668564812;-1.1828544794903793;-1.4346063470171255;-0.0813774237349275;-0.8991897699843537;8;1.2566370614359172
17;-1.0139513203445154;0.0265587673451127;1.0954247434987336;0.7407591829216039;0.8167723676122279;-0.6629594723637374;3;1.2566370614359172
18;0.8135892128799707;0.1099858252900239;0.8054589793061195;0.9018137730344152;1.5930183545015155;-1.4622986609445492;7;1.2566370614359172
19;0.0393247065045474;0.9316206904597591;1.0926798481685418;1.147753580895151;-0.2902947531356187;0.8182118289607678;14;1.2566370614359172
20;1.234674030661074;0.2686678878583903;1.01568979960813;-1.1996646286661754;-0.8656782637244231;0.1512012711820277;1;1.256637061435917
21;-1.2554459999334575;0.532115321952287;-0.1308030565761732;-1.0516375671143965;-0.0553447932672402;0.1686940771000962;8;1.2566370614359172
22;-2.4788021963538407;0.1386448264621952;-0.7314341917750782;2.093469618735626;-0.0353806447760273;0.673613592713491;10;1.2566370614359177
23;1.1651083140022078;0.5969647885046944;-1.3562244199245583;-0.3458805217456773;-0.0368609431599717;0.3209569534275105;11;1.256637061435917
24;1.4923241656105568;0.4488236933855472;-1.5751097085909669;-1.2068187758351716;-0.5783812257961313;-0.2854678507418368;23;1.2566370614359172
25;0.1008122146393471;-0.1108285590404148;-1.2368621252839769;0.5112759598933195;-1.903117765161436;1.2464350460611997;9;1.2566370614359172
26;-2.858422813942446;0.0121448655798777;-0.7970715918793307;2.421340506146312;0.0418911859651958;-0.4671072880644049;22;1.2566370614359177
27;-1.257320948812328;0.6930723462973505;-0.8246549498965314;-1.4611922128357324;-0.7457022812728283;-1.725849382714148;16;1.2566370614359172
28;-1.3907412632835343;0.7538873527697134;-0.0417447084411924;-1.6652536673494225;-0.5184553641242321;1.12405869522073;21;1.2566370614359172
29;0.1644912225509995;0.0204206644479472;1.2536312628906243;1.6002728267142825;1.6801674617147735;-2.1357139657600324;18;1.2566370614359172
30;-0.980190672805852;0.4106581277840445;-1.543591052076498;2.3846000996261063;1.2185346127669194;-0.8769268469765078;5;1.2566370614359177
31;2.105500790668116;-0.2353300357085685;-1.3576891632273398;-1.774723771348014;-0.8886987377484318;0.2331843158640762;24;1.2566370614359172
32;-0.3672766012801514;0.2361856473092622;-0.4944585205528483;-1.553084045468286;-0.3138946502467173;-2.2495675195204075;27;1.2566370614359172
33;-0.2611626616422111;-1.2941742114429675;0.4634190282841665;-1.697622696117214;0.9372162908141874;-0.1442144580398304;12;1.2566370614359177
34;1.9534884008021327;-0.375731236686494;0.5919907728890544;0.0714307039232574;-0.738660357161317;1.2097422760205812;13;1.2566370614359177
35;1.8593119863897205;-0.3436307668339288;1.228327424330284;-1.0186237081727194;-0.5115559857885899;-0.630246950921233;20;1.2566370614359172
36;0.4997719769741139;-1.6509991043229932;1.087481569681929;-1.2317834399446252;1.141876531136672;-0.6179708232880207;33;1.2566370614359172
37;1.4365673458518515;-0.6467099172320984;1.5878200604836996;-1.242397427586142;-1.2041506678159013;-1.4362058054191311;35;1.2566370614359172
38;0.101200149534623;1.3240258880264049;-1.029873108294421;0.9754284644078518;-0.5034611693752584;1.7241004311614514;6;1.256637061435917
39;-0.2041461914649157;0.5036436883297987;-1.9785681729739688;2.532576625522469;1.562513334979767;-0.0776635340259055;30;1.2566370614359172
40;-2.085715061078775;0.4698201843742724;-0.4741698927069102;-2.198754108644148;-0.2183200976066981;0.4504426849183496;28;1.2566370614359177
41;-1.5984024955601277;0.0061205059693831;1.1532453476851097;1.1283110606293676;0.6487007346075363;-1.6902608163865962;17;1.2566370614359172
42;0.7731952573630075;0.8780455530222717;-0.4842100321980536;1.207539293191631;-2.2395575765915057;0.1422990687154944;9;1.2566370614359172
43;-0.2372773730288217;0.8508823001401755;-1.1033358857501123;-2.101959117661249;0.3340639906350466;-2.5537698186719555;32;1.256637061435917
44;2.395072589086406;-0.7672516081044845;0.1925082066776635;-0.1767789423934133;0.2657338993243294;1.1805920461158614;34;1.2566370614359172
45;-1.2371196350928535;0.1130971855972316;-0.2216150985081455;-1.2880766897460094;-1.500091571818183;1.0422076886981568;28;1.256637061435917
46;1.8330984688644567;0.4239489839339647;-0.6968483097498026;0.9894852566779868;-2.570535764459824;-0.0750233452246613;42;1.256637061435917
47;0.0631565219716205;0.9103504119220472;-0.2065623093373874;1.4734003177440416;0.019610861059738;2.179227885429201;38;1.256637061435917
48;-1.7990028798255646;-0.4000601107536263;0.8711702267540617;1.1119992398085297;-0.33471953404499;-2.262069895067592;41;1.2566370614359172
49;0.6585332973611059;-0.996470326017424;1.4337757891487828;-0.6904902283357928;-1.1631420978740603;1.8736904757655024;13;1.2566370614359172
50;1.7546880043500068;-0.0032282323418444;-1.7049513738557316;-0.8402752953349018;-1.0942950832839802;-1.228108231405843;24;1.2566370614359172
51;-1.3611895927072328;0.856117549887978;-2.0493298073239137;1.8528352983692864;1.6880906200275203;-0.1866268440084649;30;1.2566370614359172
52;-1.6749569136559463;-0.4110603844089386;-1.349243782526933;-1.153305719416008;0.3790142715779634;-0.9851077232446952;16;1.256637061435917
53;-1.9208558187392133;1.0937602897446044;-1.8271541387389572;2.221738346141831;2.055202110066052;0.7563546061386196;51;1.256637061435917
54;-1.119888986827746;0.39774251242015;-0.1905015484386751;-2.809470326761796;-0.6731708767323689;1.2778096309608034;28;1.2566370614359177
55;0.6535325195246952;-0.7075603530438499;1.2441138786335126;0.9047749780558064;0.3987606807036373;-0.7044555063169222;3;1.256637061435917
56;-1.0215172041657543;1.3118614239358326;-2.520962456559308;1.8224603824240937;1.7392980224308396;-0.235371914482617;51;0.742588770161198
57;-2.0126211120145547;0.1442330769217776;0.8609823300096082;0.5134178162607903;0.9976188861115526;-2.5864914283285825;41;1.256637061435917
58;-2.40891094595515;-0.0183585770477751;-0.3673125617359338;-1.1695728411560664;-0.6151895062621325;0.3597524262761675;40;1.2566370614359177
59;-2.061788504552853;0.1980947353205381;1.4186953818364318;2.0035921633265263;1.0585458800829348;-1.1219279619168945;41;1.2566370614359172
60;1.65080780485783;-0.7949233246449781;-1.0679318972296432;-1.5651810320085773;-1.1493536171599448;-1.1429559775604832;50;1.256637061435917
61;2.0469530071041016;0.8697133423797099;-1.5805562500959145;-0.4778474333108882;0.0155976513690799;-0.7438734202683539;24;1.2566370614359172
62;0.7102123557232514;0.8368881889038325;-0.8627468482959271;1.8308215670758607;0.7107011919940217;1.8340832638305269;47;1.2566370614359172
63;1.9707439361790424;-1.1277405903372306;1.8223691066122576;-1.4145883324082913;-1.709676987988186;-2.2860185747527733;37;1.256637061435917
64;2.2835798967972143;0.4701421287831166;-1.809388380123977;-1.99133955727718;-0.300564840764525;0.9061460526825628;31;1.256637061435917
65;-0.0514761210941926;0.448698640249412;0.3037275394933897;2.3377896560494795;0.572700213948072;2.377725272704888;47;1.2566370614359172
66;0.976804735069272;-1.2016385596848131;-0.6667244683639632;-1.968755890708737;-1.212200539517285;-1.9377197666668684;60;1.2566370614359172
67;0.5461553793247284;0.1990522961680103;1.7963947612825493;2.295822429354489;0.8922331709011659;-2.184066878784875;29;1.2566370614359177
68;-0.101215646646035;0.6503683807989208;-1.307296134801136;1.9342636607304744;-0.7866648590396019;-1.0709542548939874;4;1.2566370614359172
69;-2.069104368063744;-0.5452327617391425;0.9369710527597548;1.010288190113444;1.8880620683614464;-2.821096816303751;57;1.2566370614359177
70;0.5905431272735788;-0.3453599510281176;-0.1842900929509089;1.8039609391846487;0.4703747841808116;2.3246768003915683;65;1.256637061435917
71;-0.7084354802106249;0.0519952298127632;-1.489549057019531;-1.5871717419703024;-1.2523404198189687;-0.8260589374874611;16;1.2566370614359172
72;2.500050605961324;-0.4166274115765833;1.208668883712349;-1.4072828938078557;-2.146127263146444;-1.8104988330122784;63;1.2566370614359172
73;-0.5337218284818791;-0.6321242403716166;-1.1439435949736438;2.0615815063866574;-0.2094082863411131;-1.1647939011208324;5;1.2566370614359177
74;1.4283616568536124;0.2093740954515045;1.3625536547960235;2.1265683614656314;0.2839876166353436;-2.646575850658898;67;1.2566370614359172
75;-2.6157818263671926;-0.0631243234480684;-0.1230206046576826;2.050863933528748;-0.1483332700454053;1.738940707887017;22;1.2566370614359172
76;0.025671873218632;0.7414970060997806;1.8585366515846455;2.471463904624548;-0.0944362923274589;-2.259956197398357;67;1.2566370614359172
77;0.4986071343872635;-0.1139563044619236;1.1196530225574763;0.2419370320947353;2.1808942217457115;-2.203931772118094;18;1.2566370614359172
78;1.6874010874891523;0.3307310817890083;-0.0893813520560772;0.4172649291043217;-1.7168364837725294;-0.4271095990463322;46;1.256637061435917
79;-0.6055953621858066;0.3488571347554686;0.5351225081626566;-2.872091087167521;-0.7828634220532696;2.155172102249719;54;1.256637061435917
80;0.4519055192702551;0.5912172182499009;-2.0380613686607734;-1.972998445615307;0.7101917114462146;-2.62393423047583;43;1.256637061435917
81;0.6021616986957693;-0.1480067640454953;-1.73108440869611;1.4412779811272582;-1.7284735674487084;1.6785729399888418;25;1.256637061435917
82;1.3144362486601484;0.7869976153704726;-1.1398402528011258;2.5221668116490106;1.0681752520886088;1.1067357427676603;62;1.2566370614359172
83;-2.6734123660819846;-0.893726985178129;1.148697373132202;1.095939121235627;2.267651303107673;-1.874392944937752;69;1.2566370614359177
84;-1.619017627220546;0.8698414435392249;0.8747547978694071;-3.073672865752368;-0.5502699306988982;2.420883090012689;79;1.256637061435917
85;-1.9582172661439927;1.0238546173389442;-0.7356515423813662;-1.821440826266916;-0.9636568632938396;1.8169655206672408;28;1.2566370614359177
86;2.6617232548528125;0.0949017640980264;0.6476827693129333;-0.101781238856423;-1.4447755336013268;1.7792526413947096;34;1.256637061435917
87;2.78224047528665;0.7058937083840067;-1.1204872252848048;0.1191798202607406;-0.092295807722218;-1.401069070902852;61;1.2566370614359177
88;-1.2122149372333006;1.0203679884405483;0.6069517221119346;0.3664854023375655;1.0131232264827432;-1.0302891052870164;17;1.2566370614359172
89;2.9803642777638677;0.4146202252010533;-0.8779577030122416;-1.8830051192164623;-1.2716242393506427;0.2862519846544927;31;1.2566370614359172
90;-1.5610060220097792;-0.5191193876277669;1.0959170459481202;0.4053772477588027;-1.2573583757189015;-2.589531165881059;48;1.2566370614359172
91;2.405283922525212;0.4854108037158112;0.8733329882502233;-0.9524643315807878;-1.8475976187588397;1.1280745665624237;86;1.2566370614359172
92;1.2224558881808092;-0.919527350709763;2.043723326484338;-1.123278717979176;-0.5934854043365353;2.483081295130775;49;1.2566370614359177
93;0.8818100811747056;-0.7009127979686924;1.0968197705582483;1.088799793549279;1.8835248129828692;-2.734636794776365;77;1.256637061435917
94;-1.8708036660181813;0.8872672603265588;0.7901400210588682;-1.0725828385863134;-0.4290213517852282;1.6528282451286955;28;1.2566370614359172
95;2.145998367170552;0.8713486730294173;1.110688352421449;-1.8103609542229124;-2.2302607813691475;0.4767648200302121;91;1.256637061435917
96;1.069481503582855;0.7397481308330222;-1.379550677110155;1.192866308781543;1.4512310413353384;2.3011685085778204;62;1.2566370614359172
97;-1.9848437268535872;-0.5564811824663776;0.0448373741285574;1.7970171842294855;-0.6818990550482308;-2.7595868744396377;48;1.256637061435917
98;2.1085386591305637;-0.0878426343758342;-1.506308142974417;-0.4231095219225971;-1.802130991795936;-2.0838235650264934;50;1.2566370614359172
99;-0.1583153278859048;-0.4283719773330501;1.0510720334942305;-2.6274313437496954;-0.6938687289555615;1.49108639673095;79;1.2566370614359172
100;2.0474838035056315;-1.1810689798886231;2.075839269060375;-0.2919031460123372;-2.191830056333914;-2.170853269711466;63;1.2566370614359172
101;1.168326361163442;0.1644197321883181;-1.80924846005323;0.8304105473870518;2.3007245009474606;1.8531616665998616;96;1.256637061435917
102;-2.496011780727565;-0.1477949945538057;-1.9991316160455628;-0.6721666146477205;0.2662429406211188;-0.5738528915913905;52;1.2566370614359172
103;1.385031920205677;-1.143168160164939;0.3865006800877244;1.2430646861912569;2.542894122656166;-2.3257408109644757;93;1.2566370614359177
104;2.0157329190539497;-0.5793458351037858;-1.0561461528749012;-2.247047154380394;-1.4484269703097945;1.1417096614592348;31;1.2566370614359172
105;-0.118681976388315;-0.9944056360467336;-1.9832516310877253;2.517787983191488;-0.714914760550581;-0.8368736497423983;73;1.256637061435917
106;0.2115019304855918;-1.441573280219611;-0.131051330174076;-1.3144754416700837;-1.6666488105752373;-2.0574185691360367;66;1.2566370614359172
107;-2.791539527729175;0.4185568224365301;-1.0835543373323515;-0.5269626299413289;-0.9703063075275664;-0.0758837740899317;124;0.9082756075753156
108;-1.5088714294815373;1.2090089074574648;-1.3882796285277652;-2.4252668770279957;-0.7377618721034792;-1.775776711005363;27;1.2566370614359177
109;2.329456101415148;-0.9620750300944314;0.7868685282011557;0.0174482811354129;1.2893840863471693;1.4936845299141643;44;1.256637061435917
110;2.395819566636924;0.7977149885779197;1.155739435426124;2.3747566322020277;0.7181954254040932;-2.710692386644179;74;1.2566370614359172
111;2.56009241100915;0.626299339050613;1.1989281243785197;-1.1903070853494429;-2.3588544193706498;-2.439314586475307;72;1.2566370614359172
112;-2.013444550674546;-0.8970695826246391;1.6781825567224449;0.041645954054712;-1.7346656622195935;-1.859850477324625;90;1.256637061435917
113;-1.7531402111417218;1.0885539413881695;-2.164940634786929;1.3538195877656216;2.53213200414492;1.4317332119291424;53;1.2566370614359172
114;-2.2206951940808866;0.9008705233512498;-0.7584040233144793;-2.6844635843223066;-1.4410484130027408;-1.638095198661635;108;1.256637061435917
115;1.7306342071974428;0.7399399232148983;-0.1767622108355599;2.8089331867816894;1.6726104819743624;1.2758668195769571;82;1.2566370614359172
116;2.449604458187925;0.515936976212512;0.0912640951848711;2.8733254350124584;0.9896654973452989;0.5905618891131068;115;1.2566370614359172
117;0.1343411578872544;-1.1637212850712764;1.0690702729199828;-2.466499569364307;1.4842464191218356;-0.5295304702863312;33;1.256637061435917
118;-0.4331049371445881;0.942821943971377;0.8875413473622946;2.130695568913249;1.438406103613069;2.1407334984440105;65;1.2566370614359172
119;-1.49498923855472;0.6122706620741771;-0.8529863702292232;-1.50190089443764;-0.1614708049187139;2.4771014493120145;85;1.2566370614359177
120;-1.5334995957791528;1.0232567027575443;1.2140445075662274;-1.298158222813146;0.5135395919966879;2.2254268301152327;94;1.2566370614359172
121;1.415066046101898;-1.5338630654540184;-1.0927063803643275;-2.786177110173801;-0.9772622398175376;-2.5475201939737238;66;1.2566370614359172
122;2.210279044290424;-0.5550491467931546;0.7194473768033502;0.7359824606992329;2.8745595105597697;-2.598196493007824;103;1.256637061435917
123;1.633104885917771;0.6138250833692631;-1.8815486012001488;-2.3582079183964573;0.5046281373407842;1.4954158967021582;64;1.2566370614359177
124;-2.8113860872628664;0.113700531207382;-1.844450422757686;-0.4480475938261686;-0.6625748299865934;-0.3033573705330973;102;1.085295696193434
125;-1.3552185386740054;1.8010371170167356;-0.4526723270561281;-1.744465676260191;-0.4954802619229021;-1.972305965452454;27;1.2566370614359177
126;2.898662555476028;0.4739776221336796;2.150704429836372;-1.2908657139761353;-1.9860827560651004;-2.394425031650649;111;1.0930670641305902
127;-1.7752420483497615;-0.1685916155335466;-0.5890458330831618;0.9615070121341838;-1.203918519688113;-2.8707445772077964;97;1.2566370614359172
128;0.4979722967553635;1.0438231012970078;-0.9856638155800712;1.5680767680296306;1.795596004153876;3.142808653247318;96;1.2417566067079155
129;-2.485146754728393;0.10569589663186;-1.2112017202179028;1.2574984590613545;-1.8876046469170904;-3.111208228494343;127;1.2566370614359172
130;-2.848812354722422;0.0059893446087695;0.2452249833643682;1.344346762566744;-0.7709301171946825;2.4443899391392945;75;1.2566370614359172
131;0.3971123958754471;-0.5064308972720406;1.6598716675474985;-1.5950551816988734;-1.7961974485299006;1.8504311412953425;49;1.2566370614359177
132;1.3645393130485832;-0.6596834169117078;-0.8356141592085081;1.1956986783407633;0.7644819098038559;2.300962906163249;70;1.256637061435917
133;2.530913151382729;-0.1931340808357053;-0.0754414896215897;1.16879914633929;-1.635473190264313;-0.5739816816839292;78;1.256637061435917
134;2.5530006308369746;0.0562777617955704;1.8611474661627956;-1.4791939950518866;-0.1632294683958303;-0.1784855313104016;35;1.2566370614359172
135;2.582055762932953;-1.252217547554167;1.1460172953492418;0.7155197220581546;2.166831809492752;-2.0770286901923742;122;1.2566370614359172
136;-2.5729386970343;1.2083801084333623;0.4114744186335494;-0.6685651480067675;0.3710581217158803;1.4623432207938216;94;1.256637061435917
137;-0.8023989106554645;0.0104951819368331;-1.0605572409235973;-2.2334753100073645;-0.0744339275450726;2.866279305157141;119;1.2566370614359172
138;-3.088539965618065;-0.0544468698016154;-2.344192587937159;0.4941920452722801;-0.7225087609945051;-0.8803314065071464;124;1.2566370614359177
139;0.1870009794616618;0.0782292926637385;-1.4503357794165992;-1.3197288196475954;-1.8302943458158345;-1.4339634418252112;71;1.256637061435917
140;0.6127469874345456;1.172129290721937;-1.944582253601085;1.8475773788987344;-0.4337910909595466;-1.5798664372156443;68;1.2566370614359172
141;-2.17672355055814;0.8214118298958923;0.9854222510427786;1.033775656422628;0.1638750411616851;-2.921528225714096;57;1.256637061435917
142;2.675661061807395;-0.6232379342557685;-1.992517261743349;-0.0300696711695008;-1.0406600318103896;-2.095786134459748;98;1.256637061435917
143;2.2356818041550515;-0.2102921212212664;1.1163391726808334;-0.4024483240470669;2.8555616824198657;-2.6738624068489805;122;1.2566370614359172
144;2.526490158332046;-1.29870522404086;0.0923354915056924;0.089992961645024;0.148467080413269;0.0922585254020694;44;1.2566370614359172
145;1.2144008380523652;-1.317793225544431;1.5947585198413563;-0.6393646632788508;0.1387900095217389;0.7036290381007382;13;1.2566370614359172
146;-0.3017772633183;-0.6993984452620573;1.8574713992735212;-2.6553544247030936;0.0709809859246367;0.992042000903566;99;1.256637061435917
147;2.3204582596140155;-0.4990239424187257;-0.7571906081572095;-2.312242365943228;-0.5760273803533847;-1.3874652187188936;60;1.2566370614359177
148;2.015242110219051;1.0385907513400063;-2.084362866793878;-1.4286051788098624;-1.175702333921513;1.0669288845531717;64;1.2566370614359172
149;1.0190646339830045;-1.2754806247811743;1.0919446975552405;1.4914394869751566;-0.0042045189961459;-1.474700846815025;55;1.2566370614359172
150;-0.5972471522080919;0.7599632997816275;-1.8607507652107311;-1.6412749854337416;-2.299611448544791;-1.3488789222243447;139;1.256637061435917
151;1.5548362325483975;0.6039443139697951;-2.201803634688118;2.143283934827271;0.0165612082553456;-1.6909879522012636;140;1.2566370614359172
152;1.5167232942097848;1.6105958673830214;-1.7458489692153851;2.7887395988489843;1.4861469719985114;0.9051838183220138;82;1.171693339425096
153;1.5412557091200798;-0.6705321039856044;1.0797065586790229;-1.368155772006577;-0.2562100617057694;-2.0647148901337213;37;1.2566370614359172
154;-2.638623226828241;-0.981112394459618;2.375591063034736;-0.0650341341697483;-2.54098710067942;-1.6773358071864797;112;1.2566370614359177
155;-1.634765050764191;0.0001828095560863;1.786167710165418;-0.4395095849821585;-1.1825268760289414;-2.9183807438254448;90;1.256637061435917
156;-2.8572701387903097;-0.6716138846154952;-1.1411330440650218;2.0361766119175906;-0.0905842729223413;1.4065900651513488;22;1.2293066135977972
157;1.182555929015143;0.7660227491087568;-1.7315146765375395;-0.694125613233004;0.8798945931708322;-0.6758384645421167;61;1.256637061435917
158;0.980828585583682;-1.028089349347966;0.2163535565608463;-2.5276529730855177;1.511557987182324;-0.8650722084400374;117;1.2566370614359172
159;-1.9494702869903475;-0.0249409985950092;2.040130456129012;1.6901885604037956;0.0952130275623783;-1.905442439083284;41;1.2566370614359177
160;2.593553737192814;0.5652607413958918;1.6205531487307256;1.3081535459662117;0.5741409006090079;-3.044694313552078;110;1.256637061435917
161;-1.2686482643894248;0.6638849663967772;1.0211393223603866;2.745984254673679;1.2128714922524029;-1.1123628195061883;59;1.256637061435917
162;1.281560422698318;-0.7097276471152382;-0.2373091003835345;-1.882976459938896;1.3970066759724835;-1.7327145754685402;158;1.256637061435917
163;-0.7089450586308047;0.8275941937457644;1.3378903816700085;2.980454389137691;-0.347400336676157;-2.921716941519429;76;1.256637061435917
164;1.3151759199843105;1.2762726743419732;-2.3833372377622;-2.22447505515265;0.1030086356437393;2.275317510607181;123;1.2566370614359177
165;-2.0770672790769718;1.046301024179992;0.6464187062054424;3.1984720015770285;1.7922089292108545;-0.7984188874344537;161;1.256637061435917
166;-2.782333317093216;0.7583898388684219;-2.1291819082144414;0.3442349615355192;-0.870087854380686;0.3375973982870234;124;1.2566370614359172
167;-2.509218323509235;1.3875836536449908;0.1463792920505394;-2.347594157008058;-1.5613622778667997;-2.197033613747198;114;1.2566370614359172
168;-0.4905912477942761;0.8200723997710823;-1.4215665934421104;-1.2467917841076914;-1.6903382600915946;-0.0327016305859895;71;1.2566370614359172
169;0.207766298448613;-1.1875208870227691;-0.8629258249307353;1.622191681034594;0.4262344108201888;2.802011765468487;70;1.2566370614359177
170;-0.7918167029611971;0.99751816792266;-0.3884660970303711;-1.1212663434053671;-0.8444581898331998;2.807458733164202;119;1.256637061435917
171;0.0245201074606084;1.351101738166047;0.6025872524807037;2.571274765712203;1.0560866977858618;1.3290480339853925;118;1.2068236648014556
172;0.9901885041566774;-1.1789197316701416;2.0039225065284967;-2.1510096114878223;-1.6084413457407736;-2.4577796059403894;63;1.256637061435917
173;2.718416374940655;-0.6507146565934829;0.8626448193049668;-0.8227731349856635;0.8467675629258407;0.6736276049845721;44;1.2566370614359172
174;-0.1859706482837041;-0.2235190224036961;-0.2476131163854358;0.3620263355324822;0.5849039894322485;1.2013797628692382;14;1.2566370614359172
175;2.0851119637178845;-0.2038084552223921;1.3117075583902382;0.4030363563962539;1.2064617817159329;2.210241693007641;109;1.2566370614359172
176;-2.9128894360584274;0.2101475886720322;-1.677275194245336;0.1894271239592687;-1.8323101135408149;-3.266785866003016;129;1.2566370614359177
177;-1.868146682845389;-1.3219459572533083;1.6608474140535343;0.2620611260520367;-1.0001815403513696;-0.9715065013972256;112;1.2566370614359172
178;-2.6941592970997834;-0.1587154815332621;0.9853252496981642;0.3812536615999207;2.476398815951328;-1.1980623471611254;83;1.2566370614359172
179;-2.061426516389768;-1.177855622461384;2.240332759607948;-0.2830289251287891;-0.0801703061380847;-1.1756399990197908;177;1.2566370614359172
180;2.18278503123831;1.053555674705655;-1.7626079111117223;1.8967257676250733;0.869771257316075;-1.7228538188194185;151;1.256637061435917
181;1.4498602066413293;0.2904767105866672;2.1429899997569937;-1.333360341325461;-0.6840304997399979;2.5166607021221856;92;1.256637061435917
182;-1.0398587493770348;-0.3758255893681855;2.2371487746936904;-1.9893779633657196;-0.443927592143898;1.2692831068210488;146;1.2566370614359177
183;-3.2161815153912263;-0.5372473452505967;-1.0923992121006902;0.9267719792796923;-0.0920217247250765;0.9603734479621276;156;1.2566370614359172
184;2.4195767571644544;0.0003594157436749;0.1223620559142683;-0.8551008550937027;-0.9705306385499146;2.4449875778246053;86;1.2566370614359172
185;1.14574174148075;-1.0144478604626004;-0.0223360241409387;1.3176103421511296;0.457040341906113;-1.5765173018689584;149;1.2566370614359177
186;2.8920745948836952;-0.385322727547514;0.6316839887982975;-0.2137544239353774;2.399936859768571;-1.87413777856545;143;1.256637061435917
187;-2.047497295550867;0.3333531629509559;1.5964545939597825;0.2755614564264486;2.5742558760449303;-0.4737644200756715;178;1.2566370614359172
188;-0.1093221242187682;-1.1200300803584695;-0.5306119724258158;2.4048733317247653;-0.7126740864881884;-0.5216235781552852;73;1.2566370614359172
189;-0.4709641850616468;1.4007526420675267;0.0072514158748955;-0.5403342282785473;-0.0270740783733395;3.1965616330766142;170;1.2566370614359177
190;-2.4791757044297307;-1.370353341822124;1.9808415477000445;-1.0872893984288277;-2.7342323893049847;-1.2723321900010776;154;1.2566370614359172
191;-2.528466452538827;0.8850491279128465;1.171315408533607;-0.148386335199973;0.1134771873116995;-3.050991522713262;141;1.2566370614359172
192;3.1329894028308103;-0.1772883145725107;0.8227430673597279;-1.1121584847293078;-0.6007770640244592;1.8573733395104384;184;1.256637061435917
193;2.506986931517654;-0.2987750152623787;2.41647217935256;-1.4110370372085406;-1.2960731447205007;-2.911525953918546;126;1.2566370614359177
194;-2.54924419768428;0.0177122697611219;0.1045997065419004;-2.499817535203281;0.5506770024284854;0.072413715727464;40;1.2566370614359177
195;-2.2695186353945034;-0.326776353068501;1.6775672885289847;0.8661676131867951;-2.373957181877825;-2.1757593369530914;112;1.2566370614359172
196;-0.808214472213095;1.2260955447575108;1.0738892543036815;3.0091440381184373;-1.490468243414843;-3.1043505373276683;163;1.2566370614359172
197;3.178241401772512;-0.5019047636280988;0.4925722131264567;-1.2059817000594688;2.867105648296263;-1.3627278049796554;186;1.2566370614359172
198;-1.8604001530162864;0.1839917328811724;0.0241097639608239;1.2504339407668994;0.3137267292477942;-1.413156125436662;41;1.2566370614359172
199;0.6622645791106854;0.0929827818209473;1.773984903075771;-0.8661427560938764;-1.6511084690296025;-1.1986127961448203;37;1.256637061435917
200;-0.363054206146529;-0.2532321862198945;1.2561140258355306;2.0612871442552807;0.4974959022012282;2.391852163395548;65;1.256637061435917
201;2.688724588251692;-1.0664338932652095;-1.6971362424383791;0.5569205590240885;-0.0749434460533147;-1.961148140363833;142;1.2566370614359172
202;-2.7091404588121826;0.4671932144829268;1.962834067503651;2.8739914101531894;1.0383240487018994;-0.938713662739824;59;1.2566370614359177
203;1.573952740283626;-1.3891745460819849;-1.342494240570484;-2.005611882690385;-0.1532753383241172;-2.1205231311584325;561;1.220871483544726
204;2.060257480726173;-0.0304507745860852;-0.6922462379178701;1.0027568688508284;1.5650442564332574;2.323284277633816;132;1.2566370614359172
205;2.0477974933591536;1.414570680227304;-1.274725294431794;2.1706769040197376;2.277540601278226;0.7366366824014778;152;1.2566370614359177
206;2.7568405658237527;-0.521632510573896;1.922587909541102;-2.4804969427832173;-0.4626180399263668;0.1495231030083638;134;1.2566370614359177
207;0.5441278049737933;-0.2201366327057617;-2.478222155385441;-2.6575133232551598;0.6094757100301866;-2.1341477117641534;80;1.2566370614359172
208;2.9233386025778625;-1.3049156273825795;1.1441986561678226;1.2505907023296603;1.1862106621632265;-2.537423677082488;135;1.2566370614359172
209;1.1555640616411498;0.2801111757366723;-2.246437953862754;0.6899149270859984;-1.826767214873332;2.178373101932959;81;1.2566370614359172
210;2.6066509993830307;-0.8490617561462791;0.8797719511294577;1.081526236424495;0.8161768505073439;2.5128019389911995;175;1.2566370614359172
211;-1.5316788058217714;0.2640778339096439;1.2918797665164394;3.262961011518618;-1.6192631893366471;-3.062794205804417;196;1.2566370614359172
212;-1.136939499021456;1.5261548500216175;-1.126018202858713;-1.3396438126035404;-1.7657415166805277;-0.7818092425361141;168;1.2566370614359172
213;-1.1175524478125956;-0.2173433842587342;-0.6432483106691245;1.2392248773117522;-2.2556701100677583;0.2922905941850799;9;1.256637061435917
214;-0.4638264592413178;-0.864699652142261;-0.5570988636226287;1.958618322581111;-0.4773786909594667;2.8276373228260763;169;1.2566370614359177
215;1.7414163213124656;-0.7174845808010722;-0.8698039702607421;-1.0764417920308729;1.6792137947910506;-2.219972513108864;162;1.256637061435917
216;2.3107284074203167;0.6796286082233348;-1.3860331985519374;2.623502182606864;0.9683948000094852;1.8097112560750537;82;1.256637061435917
217;0.480176221168989;0.2283665704009545;1.42817673498854;3.0612301159641024;1.0878720765978638;-2.58787450506481;67;0.9633178074019568
218;0.5779575122074301;0.071509066750257;1.8322890978698652;-0.1352919739841319;-2.5728060268332564;-0.7690790148152252;199;1.256637061435917
219;0.8940257063370116;0.6302062626887586;-1.9281043483122349;-1.617640270711308;-2.028552305110036;-2.08068896923244;139;1.256637061435917
220;0.4469729211411147;1.4587463788867137;0.3656207659880949;0.6203859632496463;-2.385037963148963;0.3599600001754354;42;1.256637061435917
221;-0.2287822023381502;1.35831441292503;1.096217237616055;2.9686427703160048;0.0708536869607285;1.7067604145352542;171;1.2566370614359172
222;3.1132150156900296;-1.1210382762715163;-1.517117467329287;1.4407496298395404;-0.2650403774768588;-1.2220503705139407;201;1.2566370614359177
223;-2.2834051548931016;-0.1970094935334744;-1.428141496027333;0.5897289913734891;-0.8555542618157879;-1.091500823562621;138;1.256637061435917
224;-2.614182596821065;0.5744369372460992;1.9582210175886312;-0.4911188604717161;2.0142339216865186;-0.8831356993839842;187;1.256637061435917
225;1.0651179382862097;1.4398898831374616;-1.9423248299697229;2.400275479141301;-0.9866834738251726;-0.7482227520083804;140;1.2566370614359172
226;-2.2200898419634028;-0.0945330412336549;1.0278005644474708;1.264926416326775;-1.45925638429799;2.7293719992413648;130;1.256637061435917
227;2.0128198631386263;-0.6372366326728918;-1.581285458721868;0.9447474032464273;-0.0763459132042818;-2.841060741786774;201;1.2566370614359177
228;0.4329162694025678;-1.343083435083746;0.2701796575577986;1.6748874974206316;-0.6364077741390203;-1.8245075785991995;149;1.2566370614359177
229;-1.3095518949162348;-1.4667958292977736;2.320059788566384;-1.0472812637624516;-2.887489607378721;-1.5206429918911857;190;1.2566370614359172
230;-2.612255034318621;-1.0048066231575583;-0.1229456971215086;0.6923873863134733;-0.0607125330432078;0.9668007854725316;183;1.2566370614359172
231;-2.98493008090012;0.1509414746114184;-0.4813226745348132;1.38427211657167;-1.762105510692798;2.610833187830427;130;1.2566370614359172
232;-0.9776100992109884;-1.2529459241163712;1.461831817241862;-1.8614863049990849;-2.8350735062690524;-1.6655119633712356;229;1.256637061435917
233;-1.670304269293465;0.8952727826179216;1.7944470937299648;-2.081959555039397;0.7312996526807458;2.963945731166732;120;1.256637061435917
234;1.4220999695960157;1.6431519015546527;-2.5635192712984285;-0.9632051874533276;-1.8190779313862635;1.108217496748885;148;1.2566370614359177
235;-1.002487110873785;1.3241448969236314;-2.09094871577246;-1.804528204838885;-2.972823852492576;-0.5980402214349556;150;1.2566370614359172
236;0.7796574167873228;-0.919443672491122;1.1147051923996805;0.4791777949126381;0.6075835735361692;0.9697748030397704;13;1.256637061435917
237;-1.0733903362056088;0.5337136195774289;-0.8722969751792498;1.2909609486893985;-2.636440547113104;1.193941164826606;213;1.2566370614359177
238;-0.8688879821158013;-0.0486557473941782;-1.110331560894093;1.705488021277425;0.1334086865107062;2.7506202783543507;214;1.2566370614359177
239;-2.85509551803297;-1.243010871514197;1.5259788153666545;-0.8289439832732507;-0.3624762061937305;-0.9369779283892576;179;1.2566370614359177
240;-1.2676348611350563;0.4449275074845797;-2.320290548776866;1.8320524931146915;2.2964792441749298;2.21963786482376;113;1.2566370614359177
241;-3.204395196141311;-1.4334755259669791;1.0938561760986367;-0.8757930791820893;-1.3351848295144202;-0.4024100885279156;239;1.2566370614359172
242;-2.955221217013288;0.3453516437245567;-2.198957897279908;-0.658054965486919;-2.583038907271764;-3.338145039755084;176;1.2566370614359172
243;-0.1851409986677482;-0.0626629482815814;0.9580776288866368;-3.140422902705906;0.1004490446162968;2.6044739411948385;79;1.2566370614359172
244;1.9947846981380009;-0.85035340479791;0.4677821284095965;-0.4870423284381892;2.1344698519855143;2.1134854475316462;109;1.2566370614359177
245;1.291935373137505;0.7454348971971494;-2.1718583865987315;-2.1526672581001938;-2.359344655794144;-1.1047619866441798;219;1.256637061435917
246;0.5579275042531812;-1.020456911565519;-0.6409533611346471;0.1857115399450485;-1.8053419294015016;1.5149476447846737;25;1.2566370614359177
247;-0.0199347288586305;-0.5709926011080676;2.3572381245537866;2.5458675207045864;0.8725358318492786;-1.6471742090910846;67;1.2566370614359172
248;-2.3809748579336416;0.5700739881433089;-2.4252111539538657;0.368538331925286;-1.0745852780465148;-3.2987330371960297;176;1.2566370614359177
249;-1.6539012255937129;1.0311579735588277;0.4665910129918465;-2.476511763735526;-2.113418576101572;-1.6524157212853632;167;1.256637061435917
250;-2.679338729113636;0.8656620940246385;-0.5003264790667552;0.8491388096491355;-1.5008078201970598;-2.734161065438366;129;1.256637061435917
251;1.2946650274298852;-0.0866857390312126;0.9670358080764684;1.4525493580242357;-0.2376059753889279;-0.7328980033295018;55;1.2566370614359172
252;0.1915570824776524;-0.085539587544723;2.166169587816646;2.4023145005139304;-0.01906813332051;2.212734803403672;200;1.2566370614359172
253;-2.416482133694779;1.4334744366588403;0.4586107800048263;0.69894971496354;-1.6811415418792974;-3.1956744193051865;250;1.2566370614359172
254;3.178353563916676;-0.4543226140473796;1.3208555093919103;0.0246907356043292;1.436301762462632;0.4427119686433075;173;1.256637061435917
255;-2.062346566171189;-0.1500741934673712;-0.8840693761741993;0.9215891395488348;-2.703659019004633;-2.441011998959409;129;1.2566370614359177
256;1.091536260839695;1.2873352169860266;-2.131165164632535;1.0696198897388964;0.8076623181455951;2.245847643762391;96;1.139163353716914
257;1.0855567904833707;-1.1655029620514172;-1.2111169787014813;-1.4605685121723615;2.341362272527379;-2.715730515193245;215;1.256637061435917
258;0.6261980347997025;0.7417899094292645;-1.510543331440482;3.1078529266008106;1.8067664474017429;1.385043444647983;82;1.2566370614359172
259;2.898647133265057;-0.1149143058769205;0.8926229444915668;0.8776538918035162;2.086656610752214;0.2150887866008718;254;1.256637061435917
260;-0.7536373088154624;1.0026383156985696;0.045107919057007;2.7902675238072554;1.1679399338496796;-0.61989004355823;161;1.2566370614359172
261;-1.2003147316666627;0.4948523435193139;2.4872285333553767;-1.4049951654579362;0.229417327391872;2.875643781247762;233;1.256637061435917
262;0.0443027455607421;-1.5316608049202485;0.2437700407959009;1.217927115667212;-1.3797302430433331;-1.0304570400820758;228;1.2566370614359172
263;-1.514855809020431;-0.8320385368392722;2.3475951854280965;-1.9416613800920837;-1.3215262359704638;1.8698907844730384;182;1.2566370614359172
264;-3.144652268369536;-0.4378362505070025;-1.2915871339531095;-0.267840136513341;-1.007734510401882;-3.0064666672254567;176;1.2566370614359172
265;-0.2883300257576213;0.1878975733283104;1.5788706756957422;0.489396348942974;-2.578003897052601;-0.1685351730153464;218;1.2566370614359177
266;2.117341423092049;0.5675391054439571;-2.029820451599345;2.4263751874987034;1.6374353936944317;-2.353252467836322;180;1.2566370614359172
267;1.2079854612882432;-0.3765796765151296;1.7441195267360827;2.45576394430718;-0.5371649113521969;2.321814375405676;252;1.2566370614359172
268;2.555152042806796;-0.3893508786664581;-0.8802716586782977;-0.975280940678404;-1.7931293720147234;-2.8531544325997547;98;1.256637061435917
269;1.2880531995483109;0.1114137339563248;-1.0830467374386128;0.0891396440486539;-1.8182687091906045;-2.7353044650461142;98;1.2566370614359172
270;2.1449376859918408;-1.0993587314928308;0.0525816279873641;-1.4350637589006183;1.486503643639697;2.053561859809776;244;1.256637061435917
271;-1.9745234560660267;-0.7333484726999436;0.53192997706703;-0.0884834140742004;2.033594982021562;-2.443914507036894;69;1.256637061435917
272;1.5843328307427955;-1.1563575400405757;0.9933595602756656;-0.5524571036402355;-0.3744545284572218;-1.7891670437360143;153;1.0003051954303472
273;2.6778197172015323;-0.0072194453315852;1.920249207792274;0.0289694463202747;1.8646139811455635;-0.3227675276664147;254;1.2566370614359172
274;-0.968894955020503;0.2539359904472991;-1.6881570788513094;-1.490318032516803;0.6941691850200664;-0.4355768643655643;16;1.0485035518051358
275;0.8823823113553966;-0.8244761533692369;2.762883996376983;-2.53937769567721;-1.3727243499684076;-3.2698568589054804;172;1.2566370614359172
276;-1.7180986164475702;0.1694410365819976;-2.1696345456584343;0.3299513709822114;-0.9701387501992969;0.6339584885333277;166;1.256637061435917
277;-2.788955947584367;-0.1579088421475332;0.1085238199896981;1.6695181168284372;0.7433539219488428;2.4778722487371576;75;1.2566370614359172
278;2.0329306964236595;-0.5413033704285523;-1.1791267069548474;1.4527087677290895;-2.8850237267335723;-0.3228549924862051;46;1.2566370614359177
279;-1.1941777581283235;0.0162976483479537;-1.9780020311203013;-1.6232805396712668;-2.8422599044107884;-1.949905501235859;150;1.2566370614359172
280;-2.413516635165672;0.8917998084122191;0.8029043076894269;-2.500004856254395;-0.6624743117590732;-2.4458760876358228;167;1.2566370614359172
281;0.5322808622198891;-0.4203528528886637;-1.814769493104284;0.422160479003598;-1.4747616684371443;2.74234729716898;209;1.2566370614359172
282;0.9204386143263048;-0.9944270098225172;0.0254045469722478;1.1116386750037983;2.686634975788345;-3.1368222956208625;103;1.0315758290364736
283;-1.5562574950362644;0.9659068089185266;1.7599991743708885;0.8329071834993174;2.2477246058298967;0.2288679787228269;187;1.2566370614359172
284;2.1102088144529825;-0.6679119555563762;0.9677333783767216;1.5487295664506686;2.42813465008258;-0.066165424613169;259;1.2566370614359172
285;-0.6464193069560799;0.2024699664318664;-0.0718354425271957;-3.3073922335621453;-1.4903290306937071;2.1380275670971582;79;1.0400876703283666
286;-0.5864269071398374;-0.9755479899759992;2.412443681834097;-2.256791562041356;0.1672376022273791;2.0028416108219105;182;1.2566370614359172
287;0.8599983022663935;-1.7475240529930245;-1.2565172114589338;-3.3406274359563284;-1.916515177191722;-2.6420731094296976;121;1.256637061435917
288;2.460491889050303;-0.8011898009111965;-0.5714723989151932;1.7345908843023397;2.077965796314139;2.431240858878537;204;1.2566370614359172
289;2.8675441522474903;-0.9495440173712656;1.511807798484643;-2.1339400033677443;-1.610982776379079;-2.631672097798368;63;1.256637061435917
290;-0.8529664295153369;1.0298113958668058;1.8842088920072109;2.6554753501908377;-0.1838209728387183;1.3928527573018723;221;1.1747008392373013
291;1.2246128493287918;-0.2810070904377874;1.98485977500376;0.8953055633394217;1.3045004955377946;1.8529688549877792;175;1.256637061435917
292;1.9807857222465228;0.8824901294923762;-1.2209511988331596;-1.3335603522067168;-0.964869202240872;0.9563007144366036;64;1.2183853083288267
293;0.9928887485539728;-1.2349078133998426;-0.2982873011334487;2.2514492010629668;0.0911672756538151;-1.1783492166216876;185;1.1456752047162655
294;2.251757451768483;0.7842581840093831;-1.263927773994085;2.4070833535773053;1.9282874902124332;2.572319255944323;216;1.2566370614359172
295;-2.170685404561388;0.0277251844298936;-0.6531915361978439;-0.804451871380515;-1.7937210342038037;-0.3932215449757263;107;1.256637061435917
296;2.826066695346537;0.1869307036354636;1.0578971388412883;2.020233189384358;1.152868984274934;-1.8759675335404515;110;1.2566370614359177
297;3.046326200016944;0.1365014810247748;-0.571708196782303;-1.1787209014404134;2.780990921503029;-1.2473117650167365;197;1.2566370614359172
298;-0.1716827435491853;0.3934462094034956;1.8940868539509317;2.7321768098481667;0.2063308725463745;0.6500005227591821;290;1.2566370614359172
299;-1.822625714947676;-0.03498341260855;-0.7966496310305557;-0.2058298073369998;0.8162717396527532;-1.1321850734917158;52;1.2566370614359172
300;0.7518839701288279;0.049103390778148;-0.7380615502378336;-1.9582021304295767;-2.3688730707753343;-1.666655950850443;139;1.2566370614359177
301;1.8253907489718275;-0.2509402151468163;-1.8610971847329127;1.2284217829998925;1.3251801039529616;2.3494897750938346;204;1.256637061435917
302;-2.653474303044389;-0.3081462032485621;1.6239491003209965;0.8155588608028148;2.249368517593583;-3.059692382339956;69;1.0464352827766694
303;-3.0791385055163727;-0.6656719467383069;0.3429007131968478;-2.778698580902496;1.3818671223380206;-0.0043698533653629;194;1.2566370614359172
304;-2.483194088612998;-0.0842302910984046;-1.3066209490235434;-0.4154945692168473;1.7042329215148269;-1.3509446556885305;299;1.256637061435917
305;0.8450566152729169;0.4497706640991498;1.5590378975959205;-0.028843302076186;-1.1428654705832937;-1.838300343062103;199;1.2551869245011746
306;3.2820529105017715;0.3788238694800404;1.515564793041084;-0.9097734592685848;-1.1199377411059996;2.533514273686764;192;1.256637061435917
307;1.1360592312906426;1.0954830981031711;-1.749954362533655;1.9919122759400167;1.644139784960817;-2.618524227832637;266;1.2566370614359177
308;1.3956004161009377;0.8850654759476517;-2.012906936650256;-1.490334014277322;1.315641135639674;-2.669356068100877;80;1.2566370614359177
309;-1.842213457300968;0.9465894196273348;-1.558870504446468;1.0636979750333175;2.29218640616264;0.0031077529653224;51;1.2262903801705067
310;-2.0251448856380536;0.0731770760786614;-1.2322383079182384;1.1664986925603051;-1.5981614083022817;2.7279850554083653;231;1.2566370614359172
311;-0.2771689673018557;-0.0288700535708806;1.15525737596753;-2.771224072644946;-1.4862119611708142;2.8178593604281503;79;1.2566370614359177
312;-3.30205373841488;-0.7882698607034623;-1.5595618163331595;0.2867186221581974;0.8465073310271759;0.962465092295556;183;1.256637061435917
313;-2.1943828790254343;0.7084030899358615;-1.96601214241911;0.4516254739820237;2.7898691614175;1.9973936543261603;113;1.2566370614359177
314;-1.2665474154519731;0.5144547325809178;-2.5894510313355807;1.8779312663733585;2.751832226260293;-0.0147573218124614;51;1.2566370614359172
315;-3.03578035408628;0.7942586345913429;1.008297992501232;1.4197716598987322;-0.805842166887144;1.866788853411361;130;1.2566370614359172
316;-3.1836199687433324;1.0579505618656992;1.6552703046514845;-0.160926199518337;2.6107147431818007;-1.5646756176657322;224;1.2566370614359172
317;1.2695305369845218;1.1204498904319906;-1.1582037909349148;-1.6153884088627672;-1.923797085442058;1.0734371386973478;292;1.256637061435917
318;2.1503743267512365;0.7070507930986905;-1.8642148132001368;-1.7193914155346517;-2.8429524975001104;-0.5351157287949982;245;1.2566370614359172
319;3.1582273589947563;-1.2407799278157772;-1.8272664881940168;1.571470639969495;-0.3850827955160889;-0.0241013105583368;222;1.2566370614359172
320;1.9009706616741944;1.1874362818510718;-2.256606612492469;-1.3168322860415371;-0.1040490194950544;-1.274555049189029;61;1.2566370614359172
321;0.7376025941961539;1.1905647006149762;-2.2456602451057006;-1.7629150609996047;-2.554608875253352;-2.9982863253395737;219;1.2566370614359172
322;-1.501689390654774;-0.0877626632269403;-2.39061260451515;-0.0301281279215343;-0.6129913669997589;-3.2921173909722565;248;1.2566370614359172
323;-3.3487628392876405;0.3178977360432223;2.114796026199296;-0.643656647746869;2.1353505004677182;-2.142622512988102;316;1.2566370614359177
324;0.1596103223412774;-1.089057167322547;-1.6676154716940133;-1.6844889331376995;2.8990291766787206;-2.333118077127964;257;1.2566370614359172
325;-2.5124880674231336;-0.3377969203479896;0.1810518768634616;2.538559823500413;0.0836464693595375;-3.073283417276796;97;1.2566370614359177
326;-0.2724390528056397;0.5314937964059724;1.3403030756052092;-0.6172067526322021;2.754087628133801;-0.4073588807379938;15;1.256637061435917
327;1.443795521174277;0.9150872911999068;-2.301619772486234;0.5418431671919257;2.745670144157336;2.498199955598027;101;1.2566370614359172
328;1.6671993821898123;-0.3471384282314511;-0.8252273576331722;-2.762366396138637;1.1385489344830262;-1.396302009988016;162;1.2566370614359172
329;-2.021727342473952;0.2331610010021057;-1.1015216061809228;-1.524162476346208;-3.028964303582653;-1.764519909967469;279;1.2566370614359172
330;-1.3301235786223289;0.8246323881623394;-1.0102930269551362;-1.5994956102999158;1.4815851943802896;-0.2580583606549901;274;1.2566370614359177
331;1.2494784898043154;0.4324092829100994;-1.9180579494691563;0.0859183546129319;2.46796942311314;0.900978048374618;101;1.256637061435917
332;-0.942065354359509;1.103093108701496;1.2461324973048702;-1.0388630547522015;1.3646944638440153;2.8813537707130057;120;1.256637061435917
333;-3.0534824176737896;0.415432570786501;2.134229722227649;2.6840773322138904;-0.139084638810492;-0.8602846475838921;202;1.2566370614359177
334;0.4592662134831028;-0.3510284368472058;-0.2486123199454189;-2.8318618577939034;1.1522255278096232;-0.2241027951782525;158;1.256637061435917
335;-2.951168023643947;0.4047772487108249;-2.105847655377921;-0.0718813837898858;-1.3097533045644951;1.366473811580923;166;1.2566370614359177
336;-1.2818735388504816;1.3499869296775544;1.2966001703821362;2.536432772355094;1.070532163654775;2.091823724158372;118;1.1644168778814514
337;-2.157380759550155;-0.1406651778165926;-1.5522235811051774;-1.0558106808499976;1.7451388334867226;-2.349843455869868;304;1.2566370614359172
338;1.8488791621949647;-0.2667158204837114;1.7347345667125922;-1.3403900637490145;3.2607200884128;-2.679852576044023;143;1.2566370614359177
339;-1.722964367011802;1.2181653631738971;-2.014252423520843;-0.5233499356088998;3.139344086775841;1.849046702869923;313;1.2566370614359177
340;-0.8090261825105466;0.4497768180165861;1.7181813879033432;0.0460246858190738;1.3674420940946967;-1.0922727220604964;17;1.2566370614359172
341;-0.7088396561276672;-0.4022376502742503;-0.6972748271691351;-1.6824031370058266;0.4974657184895992;-2.831567130532839;32;1.2566370614359172
342;2.341902139404193;-1.232385964868369;-1.3029084230316748;-2.562490520548466;1.4019792370023982;-1.344104286941417;328;1.2566370614359177
343;2.4606544284784797;1.2521329402591648;-1.4943952235262747;-1.290298362731735;1.3325251470065496;-2.6994293645753675;308;1.2566370614359168
344;-2.342590150845711;0.8308987383881599;0.4397406894031919;2.7887737233588066;2.298034184858082;0.1994831583409647;165;1.2566370614359172
345;2.5712048399634764;0.0763265457587517;-0.0963141564055658;-2.7299041243224904;0.9162578734670904;-1.4247041660728463;328;1.2566370614359172
346;-0.5907330091347271;0.308822279248053;0.3781902218824614;-1.0001739840913504;1.5068195655761951;3.1045486511562594;332;1.2566370614359172
347;-0.1983342761900869;0.7142985307058219;-1.8908780363943136;2.264475802312193;0.0034126272834101;-2.166244603178999;140;1.256637061435917
348;-0.4600087013276698;-1.437470097016691;0.0664738183239346;0.8724962624050041;-2.02107837508488;-1.4360220009694118;262;0.9948712046185028
349;2.197989949278137;-1.069271513127081;1.3159557807360265;-1.3091243975844125;0.5377885428478969;0.4606658636514901;173;1.0143385150846087
350;1.851968444529466;-1.155208411607006;2.7186299105094687;-2.340854807551505;-0.8631401349848182;-2.983277378329184;275;1.1969355573112763
351;-2.9070631614662283;1.0634701317869648;-0.9195777741323904;-0.7128228844841445;-0.7063554397231585;-1.0852278232292047;107;1.256637061435917
352;-3.036774202734929;0.4254575661332956;-0.446902448282942;2.4582463367173566;-0.4766520357061821;-3.156901812095768;325;1.2566370614359172
353;-1.5225824708103817;0.7557511087704397;-1.3511885994697324;0.4649245575641638;-2.042229376774954;2.3316157656134253;310;1.2566370614359172
354;1.777927024688544;0.6370140489559243;-0.5908142313346882;-2.3524025276022438;-2.3122560395832266;-1.6879209006217344;300;1.2566370614359177
355;1.036057618856676;-1.350039629397882;-0.1049286145790373;2.384126118840293;-1.280737713105164;-2.220009942595651;228;1.256637061435917
356;0.18201823653029;-1.0077631737053303;2.545883888234819;1.7979439725454291;1.127375728934225;-0.8179197610077887;247;1.2566370614359177
357;1.0036524013248596;0.2806995442160387;2.6644972566079623;-1.5464344885675665;-1.257637040115173;-1.32793648962982;199;1.256637061435917
358;-2.5511777368856285;0.0746328833381606;1.3268074098996536;1.1704141360053064;3.2620446679198385;-1.1916019933053217;178;1.1964784356336386
359;1.0484833862396308;-0.9495259659445086;-0.3937212000675618;0.3153020433988796;-2.5901191213197574;2.314739962058153;246;1.2566370614359177
360;-0.388629316867795;0.0801315200726547;0.0004524038404021;-3.193590918686253;0.8542556912234193;2.4334722502656807;243;1.256637061435917
361;-1.3053871733218625;0.153243129885047;1.2832318654206822;0.1512977504065639;3.170864247324232;-0.782833356127858;187;1.0715326218767178
362;2.966264468000987;-0.7819895413778064;0.6702330668364774;-1.8745969359300905;1.3347413995454946;2.507567725564865;270;1.2566370614359177
363;-0.0457029836655276;0.851721433460924;-0.0547500702119089;2.0096796763548133;1.8028715899184589;1.188849397732815;171;1.2566370614359177
364;-1.8835695896094584;-0.2022843668058684;-0.7736416259313521;-0.8343522671856405;0.5345821302149143;-1.0316232098057123;52;0.7392704989330555
365;-0.339703584100041;1.1192258950252187;-0.9360001189132964;-1.093829187127974;0.9425818758665988;-2.84015427739396;43;1.2566370614359177
366;1.0946076438410337;0.4945859650707715;0.1432503681441833;1.7426029454515923;-2.77019931907783;0.7482769573917439;42;1.2566370614359177
367;-0.8390562899763143;-0.3872579769587154;1.048164695097999;2.304098690268066;0.9433251080347425;-1.2574058347865036;161;1.256637061435917
368;2.4157426725587925;1.7045991497823985;-2.1296257386170314;-1.9276435420859583;0.7061569007356284;-1.2422923307730016;320;1.256637061435917
369;-2.6681056909241576;-1.6575785215315917;1.4691462259348844;-1.7790634594569328;0.0702883454221498;-0.4087137398331908;239;1.2566370614359172
370;2.105580626433208;0.2867813820526914;-1.742173227564738;-2.230283516019282;-0.2638215566629261;2.284491759033455;123;1.2566370614359172
371;0.3710242749538839;-0.2832070408396752;1.8305323120013848;-2.3392507422884417;1.443634630744513;-0.9170178296488994;117;1.2566370614359177
372;-1.3654839278770892;-1.5119010753173905;1.697765477480836;-2.0502037010739382;-1.8880853428015576;-2.276713482932573;232;1.2566370614359172
373;0.7343103492620904;-1.3368044047506498;-0.6996340234495735;1.859677341312311;0.5628422002434174;-2.3128486996453006;185;1.2566370614359172
374;-0.3877556290234087;0.7881573579593095;-0.123150431564369;-1.4868373434880922;2.390727867130204;2.907832592024292;346;1.256637061435917
375;-0.1526412043831778;-0.660772789894643;0.1986573652830229;2.995613735070512;-1.3874389418965758;-0.3477635727999744;188;1.256637061435917
376;-0.7586332802418041;-0.4006891334924027;1.470482412010179;1.2392996885202276;1.3684250316583335;-0.6480094198803893;17;0.970300534175956
377;-0.9951728653833504;0.4669962243425807;-1.620605371984717;1.7308311452090166;0.5126231640731114;1.8059157635626075;238;1.256637061435917
378;-0.1108908299694168;-0.717304244597606;-0.7045598697779523;-2.943027474356319;1.3427340817382825;2.1733592849843224;360;1.2566370614359172
379;-0.6569215642643794;-0.3392765499267822;-1.948455458692068;2.125895335704801;0.4703919933417453;-2.3012428226233457;347;1.2566370614359172
380;-1.0244753772190638;-0.0117155096776267;-1.3861976901507431;-0.0231867212034495;-2.7443908474506182;2.234086132863559;353;1.2566370614359172
381;-2.288187882470392;0.3535207998434612;1.1650264637120409;-1.1205152542688728;1.580369443324296;-1.341965084031423;224;1.256637061435917
382;2.8832279564609014;-0.0736904224542578;-0.163748067020481;1.2419862792600955;2.3865367705983846;3.037096536355227;288;1.2566370614359177
383;-0.7695340307314684;-1.3359084207545644;-0.2073761223484702;-0.7773291120299268;-1.7060079791518488;-1.6098485597344083;106;1.2123598189234177
384;-2.580215702387108;0.3069805367652363;0.3990015266162152;-3.2878883307071334;1.6212714251048486;-0.2581886160103307;303;1.2566370614359172
385;-1.0532593804838584;-1.258138669350721;2.1492917989538864;-2.009479045406712;-2.3709254756603646;2.0682386741333447;263;1.256637061435917
386;-3.238290057370144;0.7577721406228556;-2.140640293923361;-0.6537766440046893;-2.126481544053407;1.9708202432500257;335;1.2566370614359172
387;-2.238025792828409;0.0739856186424932;-0.7234674659812789;0.5205702550601057;-1.924841774056048;2.8549521727469243;231;1.2060184057969852
388;-2.654068821178695;0.5690826937985619;0.985898290000334;-0.3223195998260948;3.173894552242173;-0.2171869911456556;187;1.2566370614359172
389;2.55847897709996;0.22404101936562;-2.1757651614063684;-0.1932620839160013;-0.1762381615774164;-0.0892577397616541;61;1.2566370614359172
390;1.0366221470956138;0.578970703157872;-1.3567897015845896;2.48254531813274;1.5867974731783858;-1.667800007620528;307;1.2566370614359172
391;-3.1974328735757456;-0.0709357880220258;0.0659140687824362;-0.473263515812546;3.240462905122032;-0.2433054711293855;388;1.2566370614359177
392;1.849364096906094;0.1593262462657039;-1.4494639620528158;1.139126995093657;-1.816027655002389;2.674472741362323;209;1.2566370614359172
393;2.5411660032167123;1.2389607195346697;-1.4356075185315658;2.7466257895733195;0.0453784089768359;1.2235316641707703;216;1.2566370614359172
394;-2.1685979221079994;1.0899218687971637;0.5860930775063287;3.2830315949129285;1.5959678682203868;-2.0311216120009923;165;1.2566370614359172
395;-1.9286897245146504;-1.12983686118353;-1.5048738413036205;2.0774896417344424;-0.6973070341349249;1.4757289048959912;156;1.2566370614359172
396;2.097704058738533;0.2078157274851483;2.19675951453537;0.6687432990115525;1.24514087244999;-2.9246832287872784;160;1.2566370614359177
397;2.598165582143961;-0.0096469864820654;1.3666733148706671;-0.5365042688556764;-2.1781156867624376;2.345333366658138;86;1.256637061435917
398;0.0667338264480181;-0.8423281755077517;-0.256916242814565;-1.617617279234747;-0.4791587180971668;0.1048431475518324;12;1.256637061435917
399;-0.6070253709467627;-0.5013065856734003;0.607336349105947;0.0573492339848664;-1.2475553798084464;-3.1452375912813544;90;1.2566370614359172
400;2.9317641460155657;1.1968392979066176;0.7479925347059972;-0.236237858236497;-2.3784870035528862;-2.400526103631384;111;1.2566370614359172
401;3.2753756742257534;-0.4048985956297528;-2.138596306316256;1.336505045874;-1.0439877196195873;0.5054499993703965;319;1.2566370614359172
402;-0.9918104703608808;-0.0129362278978546;0.1702548667802459;-0.9464868850089858;-2.601616024598543;1.181756648160791;45;1.2566370614359172
403;-0.629586603880499;1.2671023293032273;-0.2712723688006032;2.206457116897828;2.4604601192606834;0.4488160249901095;363;1.256637061435917
404;-0.5012660346791811;1.369553559044751;-0.6834136055839427;2.379426401003548;-1.1861832436208786;-1.4644702715845812;68;1.256637061435917
405;-1.6241463129690454;-1.0723190117593024;2.719223978222141;-1.060314815142062;-0.4919060977907479;-0.5642904791338382;179;1.256637061435917
406;2.079537355821139;-0.8912172064950568;1.465292980067815;-0.0702870249177071;2.335026381771512;-0.2825427143938334;273;1.256637061435917
407;3.308021411447941;-0.8733604666167484;-1.884305705392419;1.8035968148161072;-0.2925034455871305;1.220325786481079;401;1.2566370614359172
408;2.141898725155676;-1.3311530543152348;1.1879019029126177;-2.4970935684206435;-0.5287850196320605;0.1142714291593401;206;1.2566370614359177
409;-0.358928200921345;0.9820396778530738;-0.3303550335750703;-2.6109940589247977;0.5976126086839033;-1.765695152674542;43;1.2566370614359172
410;-0.370822606136483;-0.4607330512984157;1.9332073699147625;1.519124730903115;1.6483732640890618;-2.9049001208091165;29;1.2566370614359177
411;0.525332844141206;1.3385303494197882;-1.207459731418462;1.4642613168810166;2.400673166676522;-2.663460858839395;307;1.2566370614359172
412;1.4266961226435608;0.0120184967906999;0.1004680759770728;1.350252323725706;1.947696042829568;1.793792439677247;204;1.2566370614359177
413;0.113244434650096;1.3062020287815284;-1.1482198387447051;1.9550252308051648;0.5529149294122427;-2.5933886366198617;347;1.2566370614359172
414;-2.952764688571242;-0.4229039350787079;-0.9385534503098232;0.7984378521229858;1.6489306555232426;0.7828809851369813;312;1.256637061435917
415;2.437691767830008;-1.0821325833198243;-0.5207281142060586;-1.302924727327996;2.2957601443041984;1.3520676377851633;270;1.2566370614359172
416;-1.4415455827000905;0.1191689413561474;0.8906254499761748;3.008645089587094;2.209270119968565;0.1651823976120994;344;1.2566370614359177
417;-2.304130608914298;0.0776043083479952;-1.3828294613480572;-1.8369172087767127;0.400685436138485;-1.6747175243937045;52;1.2566370614359172
418;-2.004177092618882;-0.856685777432105;0.6163396720387166;-3.033352079565221;1.282756406320671;0.4831423811644389;303;1.2566370614359172
419;-1.1587877311165191;0.865196648154688;0.8668024963740953;-0.8584645282659298;-2.8381232709491555;0.7008452868843407;402;1.256637061435917
420;1.954492090229054;-0.9155087569581676;2.162932517231454;2.73511180319577;-0.928607459563342;1.7519431728070565;267;1.2566370614359172
421;1.8409561439626163;0.083352040129504;1.3763974245496402;2.342352199394456;-0.7295871612245939;-0.957438327239254;251;1.256637061435917
422;-0.8301374380502119;0.0222469992330422;1.2173879709034507;-2.2044345174271496;-2.4055577428950863;3.134785762515256;311;1.2566370614359177
423;-0.7545444516138652;0.9829904150459592;1.2460552128826592;1.0614060147576667;-2.820277498058803;-0.6511846302094352;265;1.2566370614359172
424;-1.617552282703407;0.2508462692389749;0.3092659994343704;-0.1746137872890929;-0.6924174580776432;0.1831992297321667;21;1.2566370614359172
425;1.5085843439574511;-0.4146452289801616;-2.778914716314228;-2.792400405709184;-0.0255253988959251;-1.8190449586612;207;1.2566370614359172
426;-1.066276461074875;-0.2015548858290679;-0.4690763294974236;0.8872052485327444;0.7894199521498377;2.675449822691128;238;1.2566370614359172
427;3.3260995760875045;0.8585204352728106;-1.1282233584378316;-2.122689632767393;-1.816063952969419;1.2060673167068403;89;1.2566370614359172
428;1.1949053836040255;-0.6279893125557344;2.034183010922896;3.3801959314055976;-0.0544294286900145;1.8844259754721795;267;1.1943330254887436
429;-2.824318755428372;0.0305160322978078;1.5452449798242929;2.710403738860732;-1.1199138946742626;-1.122654315894248;333;1.256637061435917
430;0.094452967601899;-0.2273890716342652;-1.1897709981852789;1.3307340208561202;-1.8520067743471411;-0.0156703280364474;9;0.8807985527788605
431;-0.3213444752892768;0.7648966033554855;2.0903103678325445;-0.0964164340759591;-2.813841016354491;-0.5914144437127888;218;1.2030291725431328
432;-2.4797415600134207;-0.8766334689719206;1.1105567187796437;0.3126688288863746;-2.584417337655356;-2.602067056018201;195;1.095641439924062
433;0.8033470583603226;0.0327198702050299;2.1260672102488747;0.1472818471923473;2.00522324440195;2.3354166150998026;291;1.2566370614359172
434;-1.0822902576410018;1.2599112777718098;-1.82430040086196;-1.298856746132948;3.31058642225295;1.1418592122922286;339;1.2566370614359177
435;1.4707328631764514;-0.8113884092161582;2.299647200446146;3.18913137323828;1.1086668574483889;1.982664485717922;428;1.2566370614359172
436;1.2091766693325676;-0.3033600804110687;-1.7702627805164557;-0.639404339110957;1.4824297236625958;-0.416408344071898;157;1.2566370614359172
437;1.8524000167251464;0.4702909175411933;-1.3474734614830035;-0.812951677252308;1.7214900562027178;0.1320852597667779;436;1.2566370614359177
438;-2.745962102128177;0.0957388866608188;-2.0573207463311314;0.7114615298819666;1.5844351945865582;0.8462387795586581;414;1.2566370614359172
439;1.5333756227571935;0.0029920536213321;2.378240094780541;-0.1231376794200044;1.9477146357168964;-0.4944713281469297;273;1.2566370614359177
440;1.66624811040708;-0.651476555080921;-0.0073025868677943;-0.4342522796604801;0.830569311847251;0.4000205857812839;44;1.2566370614359172
441;1.6312424248958075;0.1165315214413631;1.9004961945625063;1.5357804699863888;-0.5073068662127465;-1.7053754751798191;421;1.256637061435917
442;0.715132550245602;-1.177816368422314;-0.8249867157339897;-2.3359317818089966;0.4947686676847485;-2.1229722848060626;561;0.7814910910531807
443;1.994526434066537;0.3851054817294039;-1.011574516234985;-2.440746142432121;-1.4780202039361252;-0.921128730160351;354;1.2566370614359172
444;-0.6924942167425373;-0.62104184743902;-1.7743290184737346;-0.0610313347554667;-3.0884288112254152;3.143594991563833;380;1.2566370614359177
445;-1.5955671434068468;1.363179889857861;0.030184595421321;1.1411848747068098;1.51963537684816;-1.384243397611444;88;1.2566370614359172
446;3.329591976969565;-0.2588280066378963;-0.3435772622633686;-2.4764346471039955;0.7076282773875615;-1.1730097791876195;345;0.9590317073580982
447;2.14223107436884;0.7655382322235402;-0.552395687152696;-0.0291170569630483;-3.1166376238244355;0.02619941659202;46;1.256637061435917
448;-0.5855473285357484;-0.975659892312788;-0.4270205188595713;-0.5939177470207002;0.0465145933395406;0.9337247815051392;12;1.212643844824336
449;-2.170068084338289;-1.5232159421044535;-1.0871965968304955;1.5116566493985095;-1.1875988941011817;0.68129909266505;395;1.2566370614359172
450;2.2570129945863098;0.1236770800106018;0.922128558242152;3.094451222622128;-0.441514009462829;-0.7265093044478446;421;1.0407002016728826
451;2.009612984940618;0.6418816653480118;-1.506737874569533;3.006889827460001;0.1951542514407505;2.6626970260813927;216;1.2566370614359172
452;-3.302172881498669;-0.3517772554201185;1.1807254522155148;-3.092109582131412;1.397495458649389;0.7896336102088657;303;1.2566370614359177
453;2.044644555285965;0.2751187282875204;-2.525225640027435;-0.9961663233338318;-0.6176414163059994;-1.48638775525437;50;1.0735971064414014
454;2.6331379441145275;1.5864585254792545;0.1298800983955766;-0.7799928412659354;-2.129361069378683;-1.7660944252401451;400;1.1761294580408994
455;-1.892052404260962;1.236374105400884;0.5891029440086764;0.1180855260006932;1.051722062209278;1.4950895303588587;136;1.2566370614359177
456;0.4576003592910304;0.2866870008991047;1.0440459692927262;-1.299084206633374;3.1246901382243664;0.136862983975569;326;1.2566370614359172
457;0.140401906257685;-0.2693741479698149;-0.1204921034513054;0.8217930815062732;2.5259655483412806;-0.548535252561541;7;1.2566370614359172
458;2.985427129729061;0.9095341478738022;-0.7509825705824209;-0.2537542409388351;3.0802308736182336;-1.222789727705862;297;1.2566370614359172
459;0.4516744697856932;0.6318969901414304;-0.1647586983976057;0.827664162813817;-3.1742424341048183;-0.4010074010697725;42;1.2566370614359172
460;-2.747123244297108;-0.8505085176422672;-0.5992340410526218;1.799959816864361;1.5025966245561773;2.5353762501337043;277;1.2566370614359172
461;-0.2884241164196344;-1.072033622201937;-0.897912654011251;-2.415880915467517;-0.9382372136825567;0.480849331468803;398;1.256637061435917
462;2.9640863475030854;0.1794215763011613;0.1185920642286013;-0.6074106672047651;-2.1263382238858424;2.4723932273626894;86;1.2566370614359177
463;2.4415060923533827;0.8782360826003347;-1.806097921527343;-2.4378887596706478;-1.684296392267021;-1.0264112855654155;443;1.0620162395067732
464;-1.0249951252472325;0.2853539386570221;-0.5285978545784729;-0.9555183896562836;-0.9646571014136416;-2.851550535516941;32;1.2566370614359172
465;-1.4981640404156846;-1.3074064991469376;2.530276222727943;0.7138407090593688;0.180420812951449;-1.490861582930321;179;1.2566370614359177
466;-0.1386935428970311;0.5067307807141158;2.040014352854067;3.082946982408988;1.949964403761985;-2.6129785333691227;217;1.2566370614359172
467;-2.716053181594767;-0.222622254906818;-0.4021001579356745;0.0085241798172097;-2.495409588681665;-0.4451164774994802;295;1.2566370614359172
468;-1.6447273742937845;0.6998245392028509;-1.835963287692158;-0.8299778728054077;1.1133062717546918;-2.0684554994896622;337;1.2566370614359172
469;0.0451735964861666;1.4638317810830952;-1.4772445590598662;2.795949695643256;-0.0729381013160324;-3.1786686449422348;413;1.2566370614359172
470;0.0122903028165334;0.4550119838644139;2.0748021890593624;0.119110705021109;0.7408010674869263;-1.7081863441657517;340;1.2566370614359172
471;2.386626652141321;1.6072798081208686;-1.8613431661205613;-0.9684207250355924;-0.1550010315372194;-1.946972106104046;320;1.069810703568187
472;1.1482416662786197;-0.7260653756381431;-0.6863809945738382;0.6089015383888189;-2.441673858319229;-2.530150712944653;269;1.2566370614359172
473;2.171638159344917;-0.3272884196516821;2.298175750529327;-0.5165288050010179;0.1674838674845284;0.0654141488054117;134;1.2566370614359172
474;-2.571746414445168;-0.0992691155732343;-2.10413479426818;0.7667567667997721;-2.26659561025416;-2.452601047412473;176;1.2566370614359177
475;-0.5554199831642672;0.5047443211278937;1.724712948165802;0.5146739531655815;-0.5829198392208818;1.2148312032307689;19;1.2566370614359172
476;-0.4329346818412136;0.7780682365785084;-0.8991681454247096;3.173523448398371;1.5754814612992982;1.54148351428805;258;1.2566370614359172
477;-0.3397395857684534;0.4367881667121155;-2.042743920351552;-1.8880812007422765;-1.42481218296099;0.7034071874134208;168;1.2566370614359177
478;2.862810805306648;-1.3652271318838245;1.0364106145969365;-0.3527550843397633;2.6208237529637777;-1.34967261107098;186;1.2116305409413175
479;-0.941121201955462;-1.031817668094535;-1.8690529228130672;2.985129083952151;0.0860039249468822;-1.945697486833426;379;1.256637061435917
480;-2.396702665398492;0.3589466284259015;-1.130087943356893;2.258826299511072;-0.9003713544520747;1.441328978705952;22;1.2566370614359177
481;2.84516151237315;1.2113464406485883;-0.3773347315522624;2.5260513481578863;1.5229386219047978;2.289307534642849;294;1.256637061435917
482;-0.3940021609182851;0.427157593533212;1.825138733852962;-1.6870969299920424;1.2101168698066955;2.675137845151762;332;1.256637061435917
483;-0.0225844658337942;-0.6113956197836015;1.3683632849431473;0.5059325165893441;-1.9137406455779744;-3.180651858792208;399;1.2566370614359177
484;3.092790555991167;-0.4093993090352255;0.0864373595498403;-1.2111299672184912;-2.2290800844286944;3.004191440534929;462;1.011014814913168
485;-0.0990530247629803;-1.312475417976034;1.649801539490392;3.050008730942407;0.7987801506365171;-2.160024527858332;247;1.256637061435917
486;1.651622813255169;-1.5688211698524452;0.8153141683247401;0.2226942333345486;0.588963042211623;1.9606033291942735;109;1.2566370614359172
487;1.4049441491537062;1.440309701178477;-2.158265366452237;0.9696401389744254;1.6730575160192858;-3.0372577777481524;307;1.2566370614359172
488;-0.4595256245940416;0.7356594607510369;0.5166484011091412;-0.183457585113307;-2.5205008161697453;0.3820378311777763;419;1.13424506076419
489;2.4731137382004964;-0.8483050677258397;-0.7605828141437927;0.2088785823087587;0.0573833645581677;-3.1406890053111303;227;1.2566370614359177
490;1.5812288618816757;-0.4240840652607659;0.386012478063524;0.6469770745423179;-2.369598045083805;-2.909352046458545;472;1.2566370614359172
491;-2.5602330024229176;1.3263584424543051;0.0119467795467084;2.558010547794234;1.960339594138376;-2.649013325656397;394;1.2566370614359172
492;1.9171773329535744;0.8461586514258712;-2.1630186033144576;2.0878055554183907;0.1524262598852099;0.9768514070241848;393;1.256637061435917
493;-2.9485185767267024;-0.8952386246035856;-1.2905141566078628;0.3227228224933202;-2.718403238007425;-0.8124819300403424;467;1.2566370614359172
494;0.571801453421662;1.5866136802184048;-1.3031024736084231;2.845482945054614;-1.689439606320596;-1.2103554028440064;225;1.2566370614359172
495;1.710533463856036;-1.3277037808269698;0.0073782649040444;0.1937290936961251;-2.0747846449109275;-2.194415543362241;472;1.2566370614359172
496;-2.888867410909945;1.45647347974476;0.6790972458312426;-0.4261402606758537;-0.0532202977409003;2.5146604021526966;136;1.2566370614359177
497;-0.6030943757754101;1.047572593535586;0.2980699641043621;-0.4511485318119956;2.8431615228196985;3.0112517136292785;374;1.2566370614359172
498;-0.7357475501230121;-1.1593873178632346;-1.938700583632792;2.9330004807344463;1.2276063501931949;-1.487592622740232;479;1.2566370614359172
499;3.225574055424534;0.7601903935901138;0.5971750075276526;-1.7847605851866812;-0.3768659448634104;1.4855027523700943;192;1.2566370614359172
500;-2.3118700281645936;0.154690549694129;-1.5292874165103374;-2.5048766004032363;-0.2992482862874169;0.914285985680644;40;1.2566370614359177
501;-2.427049977621471;-0.3919216410095177;-1.8245062736306576;0.6483304652158894;-2.8120862768382966;-3.4760147830971864;474;1.2424714079821018
502;-1.7342320956487958;0.1254867410616577;1.287428300571617;-1.3728357362395216;-2.3047199731762373;2.923928764697985;422;1.256637061435917
503;1.267003305820291;-0.5207959226245391;-1.63114515706199;-0.4333994549247823;0.4344812992137901;-1.0234724370957082;436;1.256637061435917
504;0.4541902563061948;-1.1653861690562863;-1.2788516712412497;-0.2200864619221922;1.0114671017351538;-1.0446694999176531;503;1.256637061435917
505;0.7412974503574454;-0.9683419189335272;2.485690533241213;-0.5055773132382002;-0.1727507074044219;0.1340000823766335;145;1.2566370614359172
506;0.274542508529614;-1.034463493621832;-0.9749670381375392;1.6114897938442176;1.553668941055918;2.2848322101371874;169;1.256637061435917
507;-2.80476062370754;0.3332221912580409;-1.701531979640579;-0.935698158434177;2.641006226160409;-2.6599537200004555;337;1.2566370614359172
508;2.610169513009476;-0.4295534403836507;1.118633151575937;0.1044934454166938;-0.1640344012210318;1.2451403714400535;34;1.0217730995893106
509;-2.958956156518937;-0.6042675601955645;-0.1859392981058424;0.7633539883270082;-0.5097586365494409;1.4073310576532232;183;1.1372364935518642
510;-2.140447136173888;0.3720965452914166;2.1026498596996164;0.516196466903206;1.57930682188073;0.6987094776459302;283;1.2566370614359177
511;-2.1962875271495745;1.335312484360102;-2.1397346096148606;2.864194410990353;1.1373187746251756;0.453104788431896;53;1.2566370614359172
512;-1.479907781113228;-0.0015064377272475;0.7139705967916645;2.1543116892269314;1.4499841052099571;0.6400452730379279;416;1.2566370614359177
513;0.8079437362775058;0.996306879330474;-2.371595660592205;-2.4480076909702984;-0.2190177470205221;-2.920526094692048;80;1.256637061435917
514;-0.1296281250572337;1.3733582936223463;-0.1001647007352177;1.8958923784523007;2.140543941041328;2.102249900895635;363;1.1146665765856405
515;-1.587137935158898;0.0149371241421025;0.2814373710846401;-2.129302072895812;-1.9074912473059888;-2.2395545866025635;249;1.256637061435917
516;1.6209983630702878;-0.4809147614730414;0.7708433039929466;2.1561220470487976;1.5894325333786543;2.0606602851114406;412;1.2566370614359172
517;3.2879212914405027;0.2481878763854188;-0.2489224670867885;0.2089700200067621;3.251918037470668;-0.4780746653687173;458;1.256637061435917
518;1.764460002065194;0.2460930331228554;0.5544857772267797;1.3789877014409315;2.7563795104242743;2.53496356137029;412;1.256637061435917
519;1.7929919604414617;-1.32716565177657;1.6144511159403825;-1.5078661041475063;0.5505436546071543;-2.4228708207674603;153;1.256637061435917
520;-1.989033646117644;0.9973670596594372;1.606940865119881;-1.7015624238842242;-0.3601064038568879;3.2739413822866283;233;1.2566370614359177
521;-2.5203632993642398;-0.6400331542862223;2.1461354963704453;1.256726280757485;2.9323934082869703;-0.6624315324029234;358;1.2566370614359177
522;2.742389637824304;-0.6625281316317558;1.192890499997283;-1.860274539076186;-3.1068449414698365;-1.2347276213598488;72;1.2566370614359172
523;2.357991286669758;1.403212890377951;-1.9369710309444108;0.325705580482011;2.7464312222198104;1.927733948184032;327;1.2566370614359172
524;2.7827922265466465;1.1780504215927097;-2.105202573538557;-1.2967927275666928;-2.6922765139350164;-1.3705650991476714;318;1.2566370614359172
525;-0.0346520364017189;0.0822507128680118;-0.5282504116176125;-0.0567298564686905;-1.3387069447129225;1.513351110836188;25;1.1270293237495603
526;1.4102822377300757;-1.290105501085067;0.6778519517141444;-0.3232910348490106;1.5893104819024837;0.3488219338596494;440;1.2383150097348348
527;3.297209257186056;1.1896812168757356;1.1635425514001378;-2.8073219359434565;-0.2512137435463102;1.571236924360094;499;1.2566370614359172
528;-0.2882937681540265;-0.4774592345436707;1.4006469814318996;3.101291177767504;-1.1784312653921956;-0.5135955916588768;375;1.2566370614359172
529;-1.979542832620286;1.2719547019722548;-1.6857770374379983;1.4697544660035378;1.888661731738168;1.9638922568066743;113;1.012511666860084
530;1.781653046021063;0.5418831956014503;-0.7076638184883057;1.0225021003450827;-1.5242556095724955;-2.507993169864976;269;1.2566370614359172
531;2.899466898089707;0.7734575653701138;0.0509264358461898;-0.9903106910129902;-2.115412155994242;2.75379295688128;462;0.7665185462733766
532;1.6084301078521444;-0.3315569424275059;2.2195805330706864;2.963320196936315;-0.7376856134125773;-1.4636934896863654;421;1.256637061435917
533;-2.470443029775569;1.105826116331505;0.7642728938136643;-1.4115925135527805;-0.5177663479486001;-1.8775323354787103;280;1.2566370614359172
534;-1.464219543985688;1.315944515361344;-0.3019559974001083;1.104944619305218;2.469515920751046;-2.1229920385578644;445;1.2566370614359177
535;0.9244080729259528;-0.0816865846073283;0.6777161973185956;-2.1988778405030667;-0.269369967634363;-2.0700123769264915;153;1.2566370614359177
536;1.6744026128697185;-0.0844868493317928;0.9616654314947912;2.073749503136887;-1.1482008823009646;2.702260328173139;267;1.2566370614359177
537;2.275888259920601;0.8302874590934959;-0.6696557439692262;1.4738511431093717;-2.291954940185859;2.693889239039985;392;1.2566370614359172
538;-1.803510695216349;-0.3133958576734323;-1.038203892541342;1.264702976885868;-2.6625099158435472;-0.0481322921605952;213;0.9580241172078304
539;-2.4350766666091186;-0.8197583522462655;2.071634865316042;-2.3101303178996604;-0.2639160438403193;-0.6659575918839216;369;1.256637061435917
540;-2.705336795999449;1.3241830803659318;-1.839952476242057;2.40709127272613;0.1811418633728629;0.779899510408667;511;1.2566370614359172
541;0.2531264897092582;-1.077469220791225;1.999354529974899;-0.4282452703501939;-2.375275193172812;-0.7959021960687266;218;1.2566370614359172
542;0.5239162656079654;0.7952072040415605;-2.142012097675702;0.1604174383165567;0.4696291416943128;1.974331378960115;256;1.256637061435917
543;-2.454425910170586;-1.4050675763941902;0.3042739931264189;1.8397052475219495;2.224603953546302;-1.9146479627722728;83;1.256637061435917
544;-2.3701252665146604;1.283562473820744;1.5850276323299346;-1.2089368584837004;0.3803614065564694;-2.883362518426204;191;1.256637061435917
545;0.7616478943122125;0.792481181825832;0.5011633535640958;-1.3704079801366835;1.6535901889620366;-0.440586167642725;15;1.256637061435917
546;-0.3188768079029567;-0.5971228140312388;-0.5896921441596173;-1.228171680273611;-2.899710628630217;1.3799909701501325;402;1.2566370614359172
547;0.2432974655998385;-0.4966834896203725;-0.6391590906120077;-2.199269970646711;0.146941618758823;2.840355394376997;137;1.256637061435917
548;-3.015607557531795;-1.2809990942786804;0.0985727056085851;0.9905346067863;1.5414476026821788;2.9574164333524147;460;1.2566370614359172
549;0.3297258730902535;0.8457076812269805;-2.158959815779927;-2.508589996723111;-0.8281569192320721;0.2460203377521125;477;1.2566370614359172
550;1.692586388927539;0.6744567113994389;-0.9870336173509102;-2.187617903653686;-0.4077585631874104;2.026774541002216;370;0.9899740465822384
551;-0.2429611756890359;0.5506838175985801;1.9137205843281515;0.166191670639624;2.788424124769868;-1.2037254911163906;326;1.256637061435917
552;0.0398684777426606;-0.2352767729685202;-0.2441187963072351;-1.7613127856962885;-3.141020563257184;-1.331481433818288;300;1.2566370614359172
553;1.9427963064233085;-0.6214582528998293;-1.108755956361448;0.9084945671527148;-3.1593896477103467;-2.1382266995173924;472;1.256637061435917
554;-2.4813643666715497;0.2368334683916059;-0.2852081017805456;2.6387210616923062;2.2627568334920727;-2.202269130222285;491;1.2566370614359172
555;2.688283338198267;-0.9697144751869656;1.186226411140304;2.1848472567480703;2.2656409265301605;-0.8878056480967392;284;1.2566370614359177
556;-0.4631920209406449;-1.4813331189329224;-0.2695377903474101;2.754172911612115;-1.1033097835786232;3.130145606344353;214;1.2566370614359172
557;-0.1266646360658432;0.1170297952224847;-2.5334686309839234;-0.1487812635682767;-1.5623150919150444;2.665023964276078;281;1.256637061435917
558;1.259019842109252;-1.0444362316083762;1.8240678047685135;-2.258636058793023;-1.8374886795356185;2.129353354188753;131;1.2566370614359177
559;0.963872294239001;0.151570217770551;-2.326924317605246;2.6450222761158644;-0.1856060974310663;-0.8442366091383329;151;1.256637061435917
560;2.3572739856097447;0.2431933099656837;-0.9139543734449624;-1.5938381164888675;0.4224957172651573;1.1050784350680043;64;1.2566370614359172
561;0.8909863927165103;-1.2950884578061466;-0.3809346954487165;-2.2819992830920977;-0.1002111902506074;-2.013614769978774;66;1.1992394477034558
562;-1.2395460013908195;-1.1793786827320083;2.0381309009429374;-0.8853801788848757;-2.5218412488949657;1.5788510098222064;385;1.2566370614359172
563;-0.3554556399768135;0.3254089460747975;-0.9881391416052088;-0.4431228837256674;-2.5876360067160653;1.5375897262112044;380;1.185629208784719
564;2.729030388646148;-0.0251135800168438;1.782971369898931;3.129696230300645;0.1751016891333851;-0.2664113293760686;450;1.2566370614359172
565;-0.6947995625152559;1.1088845957861977;-0.9643613913913508;0.0591121289209444;0.6487945952893078;0.6293096544455279;2;1.256637061435917
566;0.9628804839127338;0.5241133873764291;-0.2521308837688354;0.6351222803304787;1.350682073802291;-1.8324332840013484;18;1.256637061435917
567;-3.3835253017094185;-0.6826459994840997;2.369999622805262;-1.073968189415209;2.686078593832994;-1.9901686601592976;323;1.2566370614359177
568;-2.746491171441146;-0.4771290863899643;0.1723685581616159;0.2567688745793824;2.3410110374425703;-3.201915818879645;271;1.2566370614359172
569;1.6396660550911892;-1.2533944149198302;1.2480728814776991;-0.9355122811180934;1.4111768058310097;-2.780652818615104;519;1.1659632571537517
570;2.250554612616345;1.5172531316993183;0.8610770387758397;0.6488287359860305;-2.8416690307665307;-2.442438861730249;400;1.2566370614359172
571;1.0736451390179358;-0.218052968070181;-1.6880356220051065;-1.6403461651047324;-0.1205087591063486;-0.2308096241691816;24;1.0165380394037578
572;-2.718682148443359;1.2220298860637837;-1.7327716465642704;2.931841253527001;0.5158324324682979;1.861405534892097;540;1.2566370614359172
573;1.2017468342343038;0.3002540362883164;0.5613506918392996;1.3639046248567337;-1.348007741948445;-0.8567936787586239;251;1.2566370614359172
574;-2.2848296831168624;-0.3901140013246367;0.6463114063264064;-1.6130968433636084;-2.6463979418148225;2.2722887034960686;502;1.2566370614359172
575;-1.4215490795790946;0.3643908091047298;1.646443724784927;-1.5509648987675972;-0.9412762389669048;-2.9053234191777264;155;1.2212029264401216
576;0.240175404081215;0.1507609373856585;-1.7892596273198902;-0.2943076661038236;2.2109342244128425;1.4048532976159414;331;1.2566370614359172
577;2.843502933670975;-0.0964401696141784;-0.9884468085156844;1.682778432666776;-3.119578434086269;-1.0843661872855654;278;1.2566370614359172
578;2.628289312291987;0.3858488122856844;-2.226859730257322;-2.382598546857837;-1.2430957908874027;2.003424013033558;370;1.2566370614359172
579;-1.755849651736292;0.1938812442949438;1.4959566245447495;-0.9588638381212145;1.459553894317748;2.769929687243182;332;1.2566370614359177
580;0.6330104517664426;1.0564168218541212;-2.0871202406311284;-1.1138249423300943;0.8206122896095294;-3.228687831533796;80;1.169493553427662
581;-3.0477701998736038;0.7897185971476998;1.629845656153724;-0.0224672530564833;1.006083952360059;-0.914139469801932;224;1.2566370614359172
582;2.3530122332283643;1.1032494726400184;-2.3430087315465014;-1.7019569375695025;-1.3776164553238022;1.1905516537038887;148;0.5620855585074652
583;2.4287392468811952;1.3500468133925312;-0.9213756182070272;-2.092566232760804;0.1077609263270535;1.0724909359834092;560;1.256637061435917
584;2.672663952134757;-0.0770536594277155;-0.3581365511516307;-2.0818011277272115;0.471996757131941;-2.351721353246297;345;1.2566370614359177
585;-3.094964947834039;-0.0674160043688011;-0.5266010251906859;2.6740420763359567;1.3954005434639485;2.2821518082009264;460;1.2566370614359177
586;1.3427017502421563;-1.7638458602339877;1.0448948938260707;1.127494503365385;1.2959666761922548;2.2334492097044665;486;1.2566370614359172
587;1.581673032301999;-0.6303979293515432;-2.144795723795015;0.100952517525875;2.864353735663777;1.2621812489095972;331;1.2566370614359172
588;3.1123864223947235;-1.6300663281192782;-0.0259343547076772;-0.6207112805833975;0.8485115976314992;-0.2496646942006792;144;1.2566370614359172
589;3.4277812672757886;-1.7687474008238095;0.8865977852766638;-1.1406805168055054;2.058859702102221;-0.9781318886524624;478;1.2566370614359172
590;1.184898814030222;-0.2246760561430349;-1.312293512337603;-1.8658153543254652;-1.7945652090012725;0.4842144853717001;104;1.256637061435917
591;-0.1524372549126671;0.0741530483391586;2.3243884719435624;-3.3463794836351317;0.5652041877297798;1.1286750671273496;146;1.2566370614359172
592;3.2080458017185824;-1.1165408417519862;-1.9219328168938403;2.5290907823040096;0.3544648058279815;-0.3212389402602237;319;1.2566370614359177
593;2.3104746550081883;1.3835085024732257;-0.6369432181400667;-1.6098856388224685;-2.0911401738873283;2.803146679740116;531;1.2566370614359172
594;-3.03067115447747;0.2609135916012151;0.797169999940372;1.8596779725724448;1.6557490789871132;2.428486244286815;277;1.2566370614359172
595;-0.8862285967244485;0.618913225702524;-0.1549549202037715;1.276708910790504;2.355725171261053;2.032881512383807;514;1.2566370614359172
596;0.4336010210567623;0.2989898451336173;2.5089017945924006;-1.5055938510021227;0.7269886776097736;2.295803474682649;482;1.2566370614359172
597;-0.0888035058513088;-0.5581301729832779;-0.3392160993542411;0.4376009676929024;-0.7317879534489308;-3.117221062783676;399;1.2566370614359177
598;-1.8588670558792135;0.8766078584247585;-1.6498759915847026;-2.0447132627181017;-1.2699061196054902;2.570715545869545;85;1.256637061435917
599;-1.93449501376146;1.5499709475792345;0.0941158069840475;-1.6723573902665954;-0.0626653989185201;1.326847632638893;28;1.0939806301466055
600;1.0078042327853012;-0.1730126503998166;2.538001972324775;1.5116911212551551;1.0869502050321815;-0.4762053861980525;356;1.2566370614359177
601;-1.520369156055099;0.4758344003857798;1.202525138652641;1.8558289856449075;-3.0799922521627865;-0.8382341570752342;423;1.256637061435917
602;-2.2050763132328925;-0.2847063282785096;-2.441594853337808;-3.15256747091593;-0.6448086337501536;0.8556181624850401;500;1.2566370614359177
603;-2.3543726671549523;-1.3299231816423536;0.9543745283014312;0.7431062656553049;2.104219219313653;3.1282441869319024;548;1.2566370614359177
604;1.3623453774629306;-0.9010547326001068;-0.0598647204184497;2.613679190066013;0.4138399513343916;2.306243297050635;70;1.2566370614359177
605;-2.147962869232641;-0.7210000779987465;-2.152375464404233;-0.0555981160627646;-0.4756142346293359;-2.738530680730737;322;1.0960818445985252
606;-0.9393168483273272;0.771371051667358;1.3810005725153158;-0.8832452743603114;-0.7619195275772953;2.1025514728151773;94;1.256637061435917
607;-1.207162468452814;0.9547884383400232;0.908856817543182;-1.3656540456395223;-2.3093568191491145;3.046333869626122;502;1.060149117585142
608;-3.330837047443898;0.1989974993104401;-0.8388200161693037;0.342114583096989;3.283233359434061;-0.1861956598716605;391;1.2566370614359172
609;0.4649357488948384;-1.3523073720365986;0.9453062072736548;-1.0515025540548522;-0.2145749148152641;-1.685371265918524;272;1.2566370614359172
610;-2.18105523272405;-1.005390762966095;1.60918693836459;2.300264444450897;0.0360129544586256;-1.958487968338628;159;1.2566370614359172
611;-0.4311615330025424;1.7471134407276532;-1.0173055342534074;0.3935781166698263;1.2644898123925992;1.0940010524446335;565;1.089279736377721
612;-2.102999467440061;1.136888034850572;0.0512945247395271;0.7532303009463661;0.8226525323017113;0.6121280748200433;455;1.2566370614359172
613;-0.3864801538083342;-0.2386423459844263;0.7588797050524376;-0.4586582486036095;0.6157067462283075;3.030696581441316;346;1.2566370614359172
614;1.4484092098485737;-1.426465122188466;-0.8970206457022531;2.6539784368280945;0.9904796598621772;-1.103053512685947;293;1.2566370614359177
615;-2.7733872613488475;-0.2493087348817207;1.1824544075290548;-2.15426899918693;-2.602250902768493;1.4130119769203202;574;1.2566370614359172
616;-0.5040604093469792;-0.4517936111681905;1.9958973835958305;3.0379268816394487;0.8701474208673717;1.107963989644151;298;1.256637061435917
617;-3.1442293263786403;-0.3699532681370545;-2.3058819745175456;-3.15965121542501;-1.275841919176274;0.63146607283704;602;1.1645560331642195
618;1.183894466633479;-1.0382525942236829;0.5645668018791353;-0.6111876568047808;2.7697436295124067;2.790194781921846;244;1.256637061435917
619;0.572166769847684;1.548720774008649;-2.4316866220006226;0.3233121746066398;2.2849442784251144;-3.120691280978916;487;1.2566370614359172
620;1.3204205376384932;-0.2349982077401669;-1.773085812378351;0.900086881420498;-3.3157482385968606;-2.89755593270954;553;1.256637061435917
621;2.4327302414716376;0.9999306896887882;0.9804325527911376;2.2221591327647063;1.194573494323824;0.8871704929823885;116;1.2566370614359172
622;1.4195780172827746;0.5130171403273783;1.82328427624852;1.0115372900424289;0.8404070996049333;-0.1338847207180075;600;1.2566370614359172
623;-1.7260648568156025;-0.2379829092010253;-0.5541449613249599;-1.1335413597866577;-1.8946993454767984;1.111247839310351;45;0.8107180632673975
624;2.419614313809592;0.3039379933944773;0.3354018348662238;-0.5630781135200869;-0.0467387828905828;2.231924570669108;184;1.0590611034457402
625;-2.7548667389149064;0.2884957330444097;-2.2358417066458034;-1.9427652492548864;0.0461133965756565;-2.358050110134481;417;1.256637061435917
626;1.7677144060636087;0.7400240624344042;1.6278804351572973;0.7736881540665433;1.593080409232403;-3.122502256758253e-17;622;0.9229995611823713
