Komment314/test_diploma/benchmarking/path_finding_for_benckmarking/pre_rrt_star_results/8_4_tree.csv
id;joint_1;joint_2;joint_3;joint_4;joint_5;joint_6;parent_id;cost
0;0.0;0.0;0.0;0.0;0.0;0.0;-1;0.0
1;-0.2644337893425973;0.2668035492749288;0.6669832808515653;0.6956978899018754;0.0393088892573778;0.7124744918931649;0;1.2566370614359177
2;0.5340380802080811;0.0378644951292305;-0.1769994142790296;0.2348342223719159;1.0763717878552008;0.2178398097865282;0;1.2566370614359172
3;-0.7445122783676388;0.0321886175285408;0.4688672564579123;-0.134518284610412;0.4323857715410448;1.3532544006154623;1;1.2566370614359172
4;-0.0934157372030884;0.5705555895014613;0.7317722324707733;0.8599923071160013;-0.8698779315731968;1.486950630404397;1;1.256637061435917
5;-0.923494519399095;0.7349178083374264;0.1654350338935669;0.7740304970099624;-1.4334598490273776;1.0207541615510842;4;1.256637061435917
6;0.4264366994581997;-0.3963327333951266;0.237977081171713;1.026576912332101;1.4388723284446618;-0.4519084958978996;2;1.256637061435917
7;0.0659838214953198;0.7658878183651081;0.5224616024225568;-0.2530581363591332;-0.295307387084086;-0.7509911383666077;0;1.2566370614359177
8;-0.636965195041727;0.4364151646399801;0.0258111535932904;-0.2920460869926026;0.9016085446859088;2.3345227115304974;3;1.2566370614359172
9;-0.1336244513709585;-0.7403359463545672;-0.4215149253794992;1.6439920553317362;0.899783961522113;-0.2509543515804118;6;1.2566370614359172
10;0.2112098322464054;0.1836017628894028;1.1118663510470284;0.0339751606246988;-1.460944890922511;1.8875385570494896;4;1.2566370614359172
11;-0.4221651896231181;0.1602469816716951;1.0554266895693338;-0.8993194452594417;-0.7566140436615926;-0.9949934521795398;7;1.2566370614359172
12;0.5544645512915403;-0.3317778343687018;1.2736451674669942;-0.5820170846197177;-1.1457064518279256;-1.284042997205108;11;1.2566370614359177
13;-1.002273570982859;0.8696987374518639;-0.7401054449508331;0.9942202962264372;-1.8166341448151668;0.2862781449952655;5;1.2566370614359177
14;0.2719347090557572;-0.0373912661499203;0.2016692655163499;1.3884408736839056;1.1406776542183732;-1.5497441003888606;6;1.2566370614359172
15;0.3855226178486787;0.6686534323174016;-0.0754157068775867;-0.1953496351158578;0.4906776832916464;-1.4502886837820037;7;1.2566370614359172
16;0.9569182338151604;-0.1089738305289953;0.5414182078102776;-0.0747756677273824;-1.5091415205014822;-1.948866950496244;12;1.2566370614359172
17;0.0739182816866229;0.1720413347603505;-0.362484132223317;-1.1940013088916377;0.7738576235232096;2.4870714434407644;8;1.2566370614359177
18;1.046133096766937;0.264442297557695;0.9237011296815124;0.9266353460653328;0.9731918135756994;-0.2040671988850344;6;1.256637061435917
19;0.8241522610445127;-0.4241139477676059;-0.148019745818703;0.1589230029071266;2.023524170434813;0.832531939473888;2;1.2566370614359172
20;-1.3407674178572426;1.0581188180638428;0.0371820236458482;0.9708220444125774;-2.224208215082669;-0.525027335847094;13;1.2566370614359172
21;1.0528323887416255;0.0133115651950487;-0.1876028938272409;-1.6218274009278897;0.6951471085874915;1.874001481931192;17;1.2566370614359177
22;-1.8739036284697173;1.01346100912769;-0.521176379608831;0.6193663508890183;-1.60969378190266;-1.2178440256195782;20;1.2566370614359172
23;0.1943994743648897;0.0625893346955791;1.1693610482120194;1.511315754525456;0.9519500323229196;-2.3086809443392893;14;1.2566370614359172
24;-0.1118692779886;0.4001073424446403;-0.92742843619624;-1.7920468667325915;-0.0832369520480769;2.771981807704156;17;1.2566370614359172
25;1.6424938883134463;-0.0324992671314065;-1.1551722195178298;-1.95348934253441;0.2757418144873162;1.788874849836602;21;1.256637061435917
26;-1.098601725401811;0.0729757928603201;-1.1023480309891658;0.12112022761574;-1.9681793355111632;0.1498934881196182;13;1.2566370614359177
27;0.8067290114719536;-0.1326793949072126;-0.4660656263273138;-0.4953003108980237;0.9195664950500786;-2.0274058277290226;15;1.2566370614359177
28;1.138805272684904;-0.1350189947452893;1.6536139866255235;-1.0885900827371386;-1.714038432204452;-0.594858813802208;12;1.2566370614359177
29;2.171045888736498;0.3010778223049101;-0.8259707212081417;-2.5056344881070127;-0.5653846461791562;1.5285592695801793;25;1.2566370614359172
30;1.2394389170933005;-0.8995346056596862;0.4670725254344326;0.120226455387525;1.334697350012445;0.2612784212763133;19;1.2566370614359172
31;1.2732024626567016;0.0761404086797549;-0.5755996168268341;0.579827103303471;2.516536655789844;0.1085222151441291;19;1.2566370614359177
32;0.2403232937377592;-0.7007152327303378;-0.5288363596701791;-0.5167928644990231;0.2404537739344296;2.624687004156489;17;1.2566370614359172
33;1.7279991958609684;0.2998991526237508;-0.4617272758845802;-0.7757662542586068;0.5537646196972134;2.353794554582203;21;1.2566370614359177
34;-1.618875834059863;-0.4385390474962185;0.1704670402604283;0.5000068116130675;0.2052166084194824;1.5763461454076255;3;1.256637061435917
35;-0.9670194371976004;-0.3045653094591787;0.6139431060622753;-1.7945053200068946;-0.5033173981019884;-1.0711209214837631;11;1.2566370614359172
36;0.1646185741016551;-0.5555052566611721;0.2863949393398981;-0.4804662998909193;1.3283661532561395;-2.531900693619917;27;1.2566370614359177
37;1.844412978834924;-0.2855485628650431;1.7217666404215644;-0.0713707384250777;-1.787569003116065;-0.4773488363662692;28;1.256637061435917
38;0.072157997272124;-1.108307455095841;0.5470868726779784;0.0822711715118312;1.9473594316036935;1.0576336813202205;19;1.256637061435917
39;1.765763874086321;0.4840808821262152;-0.2353931434380701;-0.4237228923916803;0.5844777676594963;-2.35661400003285;27;1.2566370614359172
40;-1.2716683755166391;-0.764497636629236;0.0450277231267593;1.5949018502285508;0.1667323422319845;1.2071260532337116;34;1.2566370614359172
41;1.0543216564669269;-0.3146044608123575;0.9929046777355774;0.0735178579556911;-2.038489864755319;2.407938416071246;10;1.2566370614359172
42;1.290854731437915;-0.8540190828280256;0.5407864942627081;-0.8887950229995167;-1.9112890561276523;2.1153915039697693;41;1.2566370614359172
43;-0.6077515791670283;-0.1869993024502363;1.5117977427127616;-0.6622421448019937;-1.5325913256248411;2.2358155949636878;10;1.2566370614359172
44;0.1190574529709784;-0.2941226609560488;-1.3642726992493013;1.856819108486017;0.639673857393092;-0.8117015515823394;9;1.2566370614359172
45;-1.2002909921161236;-0.026767427596143;-0.6071542451648134;-0.5927188766627686;1.5767074693002836;2.651468694760585;8;1.2566370614359172
46;-0.2312760970424867;-1.031140196584453;0.3964281563089346;2.4159143500991824;1.03074127172712;0.1995886732052672;9;1.256637061435917
47;1.9233550255744605;-0.4957456138428646;0.2215693787383248;0.0292357364528412;-1.7227474530068363;-2.5292074361430568;16;1.2566370614359172
48;-0.4356894254175537;-0.9257968546256315;1.5311908629184388;0.1374320045715313;2.047261030492983;0.504068988094504;38;1.256637061435917
49;0.8896887285942334;-0.4249631557563228;1.847428071853653;-1.4042852059143935;-0.7666712387183592;-1.8399733647539929;12;1.2566370614359172
50;-0.7485726283258906;-0.9349806606733908;-1.1216209632829242;2.239527155941329;1.4420227416907845;-0.0952126939029312;9;1.2566370614359177
51;0.7646836322218273;0.6502590577289993;-0.9641617295683018;-1.1248331670202911;1.4852042787114663;-2.0317442992274777;27;1.2566370614359172
52;-0.0840509416020409;0.528325409029902;-2.0164964964850776;-1.1981564850257262;-0.0751214550339577;2.9239097018484523;24;1.256637061435917
53;0.0908789080468022;-0.0715864255602051;0.3205545340596029;1.1946331356843836;-0.1815089161394404;2.1016777563377675;4;1.256637061435917
54;-0.5200791599706479;-0.6159472437245018;-0.7184210513463786;-0.6427043756489549;-0.0081020362108703;0.0;0;1.2566370614359172
55;1.4197441295624686;0.6305736625050942;-1.5973642968322723;-1.7825831609658134;0.9255054940552886;-2.084674998659723;51;1.2566370614359172
56;1.4393973404774374;-0.7315178496728565;0.9140568691809484;0.7717094541563015;-2.228792983051897;-2.4797615905840598;47;1.2566370614359172
57;1.3733324355811602;-0.2845329848102809;0.0414811858610712;-0.8298087678559173;-2.213186749643416;-2.192225137552396;16;1.256637061435917
58;2.1016544280721687;0.1044304887545397;0.5211750410342959;0.1239264837084664;1.2074803262744565;-2.6050740044412715;39;1.2566370614359172
59;-0.7859586456738137;0.2948937852511474;-1.436040189981293;-0.6072744897609526;-2.5862917486353485;-0.4889892374195978;26;1.2566370614359172
60;2.3858249134752807;0.0531848726968027;-0.5377522202342445;0.3147221825561513;1.9981261230530425;0.1233041159269264;31;1.2566370614359172
61;-0.206751281535759;-0.1763724186342614;0.2449468225127262;1.9882960656084183;0.59683833268321;2.5896644958585013;53;1.2566370614359172
62;-1.6912744764400671;0.8075285311407916;-0.6328517073652314;-0.169731877820604;2.2155748864858142;2.884475643232693;45;1.2566370614359177
63;-1.5506994196849393;-0.4133023685053321;0.0284184490068456;-1.4175270289546933;1.755313325535116;2.2146847802511767;45;1.2566370614359172
64;-0.7770106011503541;0.5171057611908564;1.2249321705406009;1.9722139957315008;0.6415456280516014;-2.650803371012864;23;1.2566370614359172
65;2.006147367249908;-0.5157759663916474;-0.4791787043294588;-0.8376096005806998;-2.9815776169205868;-2.705680637806661;57;1.2566370614359177
66;-0.7710396707373964;0.8929028643278253;1.3192711451376589;-0.7868895548800421;-1.006659040592855;-1.875823617839005;11;1.256637061435917
67;-1.7405451794173783;-0.284044698280234;-1.0120560443179436;-1.2136628177282671;2.3632353760471605;2.8815285353935822;45;1.2566370614359172
68;1.971176150073254;-0.5275475405895922;-0.0304270516922879;-0.2327699883993006;-1.4262026307265745;1.9821503601152384;42;1.256637061435917
69;-1.8032374216435665;-0.2667491681178107;0.2379291377145279;-1.6316171995812352;-0.6946558964070265;-1.892045193883733;35;1.2566370614359172
70;2.166203170034417;0.8710115683419737;0.1651646165838202;-1.2790926748614595;0.1635971118300376;-1.9095958704542957;39;1.2566370614359172
71;-1.218529431621993;0.8912575828225914;-2.1728559635378333;-1.2289882302848474;-0.3204908510412555;2.6504677936984207;52;1.2566370614359172
72;-2.6801181135616856;1.3226465626911637;-0.7264757565322756;-0.0543847024936615;-1.4746155282109816;-0.6528442460178356;22;1.256637061435917
73;2.068109482270505;-1.1489110493677632;1.2119787867532317;-0.3848129171065391;1.4767518441850482;0.2501607474674086;30;1.256637061435917
74;0.1243080570270633;-0.133769754545004;1.4256130695523384;1.8616272675153795;0.5815075396808839;2.3499383458161627;61;1.256637061435917
75;-1.3743041781786929;0.2066273064288675;1.4496700188161962;-0.0078103326155171;0.3867630675519404;1.767934537653342;3;1.2566370614359172
76;-0.1991017493457146;0.4327878803394774;-2.1394647311787;0.0956870541726251;-3.0226280468952336;-0.2982786625717035;59;1.2566370614359172
77;1.0681480990941723;0.0455248543095978;-0.3946023651720158;-1.4870460171038098;1.889196446498699;-2.7406426521415823;51;1.2566370614359172
78;0.5740219540816307;-1.1425747035502596;-0.2161672091624665;-1.3567474115981992;-2.22397442409724;1.8115944652004603;42;1.2566370614359172
79;1.4079140796263925;-0.6575470034122499;-0.9704270316385938;-0.1775076314330249;0.3995768300561488;-2.5899583546587563;27;1.256637061435917
80;2.548433579502542;0.5698912777320895;0.9758852346079786;-1.6227317496562057;-0.4805213987967301;-2.299619970847893;70;1.2566370614359172
81;2.4600633542411865;0.8982032338918682;-0.7551076781939152;-2.186261752100328;-1.4706800703064775;1.067618350015483;29;1.2566370614359177
82;-1.4468219162933498;0.8679201985160352;-1.3957410700584636;-0.6663954372277114;2.98432310718654;3.1944495110662414;62;1.2566370614359172
83;0.3654579960530074;1.2049251159197332;1.0538934320457114;1.5383953186432366;-0.7886639411961986;0.8580162303625524;4;1.2566370614359172
84;2.5183955082633487;-0.8585386917511008;-0.5357756203599875;0.2127905180145612;-3.084327331820057;-2.419060442520805;65;1.256637061435917
85;2.256959150251288;-0.0340704158996219;-0.1486052211237868;1.0697394706477985;1.5581859817877024;-2.869029273766434;58;1.2566370614359177
86;-0.511505673884105;0.3780770211703747;-0.2689322714938078;0.9766200297622266;-2.3864071850044124;1.4005441667428022;5;1.2566370614359177
87;2.232608508463494;0.0938286244456717;2.131910841602194;-1.0172620287418297;-2.1945790674379846;-0.2408576243088611;37;1.2566370614359172
88;-0.8544485995874584;-0.654311938638779;0.9209627713957956;1.1180179346264287;-0.099785085731548;1.7791500540867091;40;1.2566370614359172
89;-1.4417713677647097;1.0868969741004588;0.4136504182455506;-0.705623640494911;1.98188437448406;2.9278373821763344;62;1.256637061435917
90;-2.4830212572776267;0.1758175011217487;-0.0668912667401968;0.7171949086725006;-0.3846476302606073;1.517134935352722;34;1.256637061435917
91;-2.835109528898143;-0.2097744849179569;-0.6978208745532636;0.2987328139626034;0.4249765092069735;1.2381807607455555;90;1.2566370614359172
92;-2.0509653922751925;0.7894760443894018;-1.1904787843051985;0.882367075689572;2.381592934520547;2.821142399395071;62;1.256637061435917
93;-1.5210325893928456;-0.4662866237477462;-0.0531359244139871;0.1789352893028754;-1.9069033422708748;0.1939564211440689;26;1.2566370614359172
94;-0.4664988815437788;-0.7814471284659135;1.9792759304728167;0.108074837428285;2.5084392641464817;-0.5650536446850442;48;1.2566370614359177
95;0.3433986923869117;0.8435435155443889;-0.8774648600119458;0.6787350442770427;-1.9872856580746017;1.515743134599893;86;1.2566370614359172
96;2.466964388552221;-1.13179440000445;-0.7366217636729461;-0.1607124405807081;0.1368367244951631;-2.9195933184133245;79;1.256637061435917
97;-1.9136734983274195;-0.3103179589653265;0.6242253009718985;-1.1897434092073451;0.3778778842808085;-1.6270235824597452;69;1.2566370614359172
98;0.8759216792479372;-1.0803531197616023;0.4018421512602026;-1.240066292461517;-2.765403857398;-1.883559362824104;57;1.256637061435917
99;-0.6871678864431241;0.3302514758361253;-0.8130441197226762;1.7880709336312834;0.4626909417506954;-1.258235013602666;44;1.2566370614359177
100;2.806036426442551;-0.1953168734512471;2.43510741198362;-0.9452767585165532;-2.4190842682041587;0.7686964274936784;87;1.256637061435917
101;-0.7768307237432615;0.90512036064859;-0.881118199310153;2.3336780723753185;1.4239151502094471;-1.3780258144547102;99;1.2566370614359172
102;-1.2957206294001544;0.2435255272017829;0.7768785383046235;-2.4028020832534622;0.0339099381143639;-0.3743407932131346;35;1.2566370614359177
103;-0.0485005588587152;0.1287026919429411;0.2991120132177285;-0.614373259566081;1.3138119798163033;-1.125001267576189;15;1.2566370614359177
104;0.308874517440323;-0.7494355814642877;-0.5079822907163984;-1.7744747218678334;-2.586363852759296;-1.8319880974926857;98;1.2566370614359172
105;-1.9391593231361548;0.2824470136414628;-2.398257211313576;-1.85528853646678;0.1214445883760647;2.425047684017609;71;1.256637061435917
106;-2.1574834034230896;-0.3181589550560444;-1.60106699369197;-1.57437034097737;-0.5478413461579872;2.516550868182762;105;1.2566370614359172
107;-2.475847634876809;-0.4375704411839103;1.522809048560498;-0.8113118016123853;0.9199939369308924;-1.6755076266419828;97;1.2566370614359172
108;-1.4630193345649831;0.8109785948325302;-2.3917004533340926;-0.6248673278938375;-1.3626494845015202;2.768650207385208;71;1.2566370614359172
109;1.6173862476984833;-0.6704786234408073;2.482913646938345;-0.1128611758109895;-1.6179508846448136;-1.062474460136451;37;1.0732757389485077
110;2.8634462518513244;-1.3265105816611544;-0.08942749367645;-0.407714053799366;-0.4508335766675938;-2.172065498240352;96;1.256637061435917
111;-0.9424486246954442;0.1369072700516187;1.4984739035103043;1.5770194290089272;0.282884179904273;2.7885892328112383;74;1.2566370614359172
112;-1.3157723889561035;-1.089554235774416;2.317822680268933;-0.1851778451990288;2.670300849533639;-1.2972633234780653;94;1.2566370614359177
113;1.6772795024678633;0.4098130710001416;-0.2020174442200776;0.5358900724637996;2.425081636880619;-2.7870564865672423;85;1.256637061435917
114;-0.6979735490528535;-0.0140577418827231;-0.979989145565193;2.0285955470348136;2.163300473385394;0.2838442059586234;50;1.2566370614359172
115;-1.693112953220796;1.403404630591525;-1.9491102104492728;-0.0385704315508225;2.3225219212286468;2.888882171052677;442;1.128493712373922
116;1.2452103902568057;0.5774515728388594;-1.2373853051838533;0.5761488435026787;2.908285316703558;-2.5477718301598165;113;1.2566370614359172
117;1.9621785067573927;0.6696741061692535;1.7925794689692336;-1.9847720870168613;-1.8752696360173;-0.0951651632151401;87;1.2566370614359177
118;1.9910628802938213;0.8093254662028364;-1.2888383179349685;0.5056020692181268;1.7337484824102214;0.5488508818902327;60;1.2566370614359172
119;1.0141788730640822;-0.3777518114795886;1.1363999164178091;-0.7540561900653253;-1.1165874359211745;0.2816768281686211;28;1.256637061435917
120;-0.0743940308651875;-0.1778133469000855;-1.1777115858205744;-0.2075077482046484;0.6130124403766806;-2.370162148710761;27;1.2566370614359172
121;-2.360808989914003;-0.6190246025517414;1.244427545243412;-1.8657896900009303;-0.97015847155775;-1.9114152786255896;69;1.2566370614359172
122;-1.3191845475746649;-0.171109784454264;2.084789631098097;-0.8464129850840396;-0.0092528620570867;1.355680643152555;75;1.2566370614359172
123;0.6696557452957509;0.8616372452158462;-0.7534564764398223;0.6013604196384184;-1.5606861850081737;1.516322792481719;95;0.5568872469217961
124;-0.3889400900549112;0.6685903949250133;-0.7057843667035238;-1.15061525246236;-2.191290057332381;-1.0342824856911987;59;1.2566370614359172
125;2.703621124975119;-0.0090198070445626;0.2145742635540328;-1.696770549151574;0.574428047318505;-1.4970607243426275;70;1.2566370614359172
126;2.2529992615699923;0.5686916298405524;-1.336784089315451;-2.155257610153473;-2.244455202214676;1.7673658828181644;81;1.2566370614359172
127;2.649773211119688;-0.6729006861100655;0.9870138250537532;-1.1438076302024358;1.0568110042146686;-1.477693180553788;125;1.2566370614359172
128;1.2598255803147609;0.0427145951893527;1.9384046211305404;0.7160600512839724;-1.7732478039115942;2.5869467110406688;41;1.256637061435917
129;-3.220308292769181;1.0940335504240055;-0.5237051068806;0.031435490258678;-2.193664993233235;-1.4711071561458715;72;1.256637061435917
130;-1.537029409464165;0.5541099590037996;-1.9716959792068796;-0.1013467108299247;-2.0350251190173427;-0.8068751418937489;59;1.256637061435917
131;-1.4364049468466256;-0.1243447618228554;0.6043957175759966;2.098778692949137;-0.3596673093264004;0.6609375838269987;40;1.2566370614359172
132;2.409540587543811;-0.2095230860380723;-0.4225698715620601;0.5760591797350609;-1.2333397548013374;2.6459704164046918;68;1.2566370614359172
133;0.0623314632122405;-0.0049237272580174;-0.9217595037779016;-1.2296281016194948;0.6738930586476622;-0.1250661294974069;54;1.2566370614359177
134;1.8871531060176687;0.5047181003312007;-1.157203210906158;-0.7176340254026091;-2.852610131374524;-2.524504074019865;65;1.2566370614359172
135;-0.1378075088249321;0.7891203048090917;1.071918780927957;1.5899910478946129;-0.276960439670025;-2.9395997063441177;64;1.2566370614359172
136;-2.4210890895741377;-0.8512450116732189;0.2084579051944821;-1.28001499181381;-0.5968612907136711;-2.741576934621097;69;1.2566370614359172
137;0.4052639347363196;-0.4367423438858065;2.426722980440146;-2.067591802673974;-0.148365508752514;-1.408151218645872;49;1.256637061435917
138;0.8605386720671669;-1.3495157425553737;-0.6125071352200656;-0.1346317564874;1.8217770772605308;0.3613621413771808;19;1.1926098492895174
139;-1.7834479872924902;1.0957891182459114;0.7268882255131177;-2.632467726852937;-0.260495316066117;-1.0620803565699335;102;1.256637061435917
140;-2.28515580202318;0.3223905955555085;1.2090332566818645;2.4627929075789528;-0.0050851011859593;0.8489928044433864;131;1.2566370614359177
141;-2.754254243002423;-0.3462807250476368;1.598739672699598;0.1684449651007232;1.5824967078804968;-1.973322920634532;107;1.2566370614359172
142;-0.7010149498037591;-0.8085123329379023;-1.168307010858843;-1.8985468145930804;-2.608680693768505;-2.1542445853126155;104;1.2566370614359172
143;2.6337779559529872;1.3240615042292148;-0.4133135537319681;-1.695301805901607;-2.4660074432067494;0.929548790086508;81;1.2566370614359172
144;2.399520988508657;-0.2881855343645443;0.1955560332893834;0.3555485954136726;-2.3233325009093924;2.351384863925752;68;1.2566370614359177
145;-0.5077667399756303;-1.4514167665609348;0.9164465866932748;0.7171539403829693;-0.7357488424105711;2.287490538485886;88;1.256637061435917
146;-0.6418406392060484;0.8578067924993488;1.5934319507328938;1.8754121975310816;-0.8437994001741548;-2.1360937337614123;135;1.2566370614359172
147;2.3363824849241914;0.5254308574801472;-2.09742740962422;-2.215001797184124;0.7956310750286942;-2.6080672624198704;55;1.2566370614359177
148;-1.1745629120464285;1.204343408656566;0.9856303138646852;1.057981950987981;-0.1920289487544424;-3.124456340544561;135;1.2566370614359172
149;-1.3179136180950437;0.4174778007724463;1.4193068875440498;-2.6939176700644705;1.0459849221518;-0.2111643860903709;102;1.2566370614359177
150;-3.1659790569813597;0.1237681576061775;-0.6660335166999101;-0.4345635764618638;-2.4688254663981675;-0.9039702120180764;129;1.2566370614359172
151;1.143149377793107;0.6399677560714032;-0.6269740334031846;0.5845504536301103;2.4612748636369037;-2.3206466239197385;113;0.8602733368927614
152;0.0341214319612639;-1.387626591958858;-0.0262417406298886;-2.1380806909389256;-1.4702879408540164;1.925598896472406;78;1.2566370614359177
153;-1.8710135713533609;1.3029527452841851;-2.435842288557349;0.2892146535906229;1.2350219785585774;2.786949890726224;115;1.256637061435917
154;0.5488294473095552;0.2307312514395803;1.671005071415954;1.0541020819017126;1.3097146016680044;2.5030971682725034;74;1.256637061435917
155;-0.3930264062180789;-0.4633133873174306;2.55076588915845;1.1586596421161617;2.3284478375210007;-0.4660420094675874;94;1.256637061435917
156;1.4882980011578637;-0.5334413617715431;0.2531622951797826;-1.4144794817198918;-1.7207370414709202;-1.2569130014113885;57;1.2566370614359177
157;1.6271026406949072;-0.4263118698289193;0.6510709870538859;-1.900795516376089;0.6365220341107035;2.3950078446631635;21;1.2566370614359172
158;1.206713364115768;1.2968017852111238;-1.3903859154145206;0.4994226942913063;-2.455452152650259;1.178162583983077;95;1.2566370614359177
159;2.959895968036032;1.180228386252614;1.0494375973293075;-0.6678010507065091;-0.1568216741848965;-2.423070039244771;80;1.2566370614359172
160;2.5597507554259464;-1.2471161259897876;1.8046787991887348;-0.7427924825237471;0.8304107430260494;0.9063480931129108;73;1.256637061435917
161;-0.1598758319978424;-0.8766838102027553;1.9574913413844603;-0.268440240608548;-0.7105023396159251;-1.1553831646666963;12;1.2566370614359177
162;0.5636656429231588;0.8691560708769324;-0.8487836922433738;0.2082319191617656;0.6230642235264229;0.6971347933393658;2;1.2566370614359177
163;-0.9257863859005993;1.3935341617654289;-2.4648894706023703;0.6371241189855594;2.708640059912511;3.233223033069838;115;1.256637061435917
164;-1.3236059754356664;0.8658589103723056;-0.8574523468541079;1.3824964979459409;1.9512368388168544;-1.0693877684347568;101;1.256637061435917
165;-2.554701618155728;0.8575982153106824;-0.822340963770172;0.8528810584035452;0.0493245085796703;0.9411775631995491;90;1.2566370614359172
166;3.2307056140893105;-1.0849554399852213;-1.1594358968978578;-0.5590563141078663;-0.7080108251558256;-1.7822632680093364;110;1.2566370614359172
167;2.7465219014979825;-0.3445036504356005;-0.9706463631917222;-2.584729813167687;-0.326823356473461;2.3929029652179565;29;1.2566370614359177
168;-1.8684408434190207;-0.4644788091469797;2.196455818215709;-1.7142667496300596;-0.5511997582624775;1.7190577320171931;122;1.2566370614359172
169;0.19550999541716;1.2434761879735794;-1.633083008683205;0.7927058489327978;1.189624704272612;0.5366461562738178;162;1.2566370614359172
170;-0.0873756574520132;0.0129129432187887;1.3080451034164386;-0.7409465630892055;1.3780615216986611;-2.8119858709590413;36;1.2566370614359172
171;2.80336525569738;0.3047908247939615;-0.2021124419494492;0.7839680328925793;-2.4423321775488165;1.509612212989993;144;1.2566370614359172
172;-0.4070922666748916;0.1530861595812314;-2.2204398786480057;2.366484586728089;0.8056631673268282;-0.5253907803546525;44;1.256637061435917
173;-1.4228796819650529;0.1462937384251267;1.99132193371892;2.422033317427537;-0.884671826830368;-2.072201252168344;146;1.256637061435917
174;-2.464008813098673;-0.4754266145955677;-0.3511525138728336;-0.8977866248317647;-0.5938063789716921;-2.656164990123658;136;0.780799877466999
175;1.199158288344456;-0.1005759276715779;1.1607426018817069;-2.6264626992303923;1.221540543724927;1.9933963911059032;157;1.256637061435917
176;1.461722842820827;-0.4225849052386817;1.3277702965705007;-0.8272314191440306;2.065869830885142;0.6074847923921352;73;1.2566370614359172
177;-2.5850329014765485;-0.1229847400847212;-1.4846486372559335;-2.1572666403925043;-1.4574506953838555;2.9378994873956694;106;1.2566370614359177
178;0.6084017647792345;0.9001258118291441;1.0510237514185004;2.31907617014585;-1.280737885846836;0.0993299844983601;83;1.2566370614359172
179;-0.9142068020713447;0.14281275298486;-0.0467152763170836;-1.7226912427375625;-0.7508350468812802;-2.619057761653902;69;1.2566370614359172
180;0.5740267549010756;-0.2178081499001777;-1.6848696564651835;0.6304375292157958;-2.891246730132618;-0.5179557497356999;76;1.2566370614359172
181;-2.744205168486129;-1.2547663948703884;-1.0972195305297283;-1.0863220273572085;-0.5805207689509797;-2.107604952661296;174;1.256637061435917
182;1.6002760187928906;0.5530117915929087;0.157168609651331;-1.982810703426594;0.7803651660951288;-1.3785088031733446;70;1.2566370614359172
183;-2.203582214141937;-1.1257199430964573;1.5932751747757177;-2.187352586908561;-1.1751901663482809;1.4897631591634;168;1.2566370614359172
184;1.042194489893621;-0.882492160102345;-1.4712460670246823;-0.2502498805594389;1.3673888398800604;-3.039418402904692;79;1.2566370614359172
185;2.6369554754825395;-0.6921894465448617;0.1180698336251113;1.361812006403211;-0.6453427288408776;2.843487654571489;132;1.2566370614359177
186;2.013851198974954;-0.9069229182614842;1.1593801158415642;-0.5916428879007952;-1.749759807669142;-2.898221607951425;47;1.2566370614359172
187;0.3424163237790978;0.8786173010058057;-2.200391210843786;0.9340838670199848;-3.148881890378222;-0.902074756969967;76;1.256637061435917
188;1.3810845455669256;-1.5824466976070095;-1.21324014838725;0.3804034052553307;2.5015462730299105;-0.0456812684431559;138;1.2566370614359172
189;0.3683925063644727;-1.0174805758844525;0.8688854550252769;-0.3682618597122434;2.314304774288222;-2.5471221071916523;36;1.2566370614359177
190;0.9976772527889218;0.3033881702661415;-1.8411421448060392;2.319478708331432;0.7311427659911278;-0.8295851597059494;44;1.2566370614359172
191;-2.749321007980852;-1.11724523388131;0.8783700716321476;-0.9545129532749184;1.5308252832403026;-1.1923222625289571;107;1.2566370614359177
192;2.3666354785219657;0.830801920890855;-1.7340786592790414;-0.1392371024484588;2.1098390036271377;1.3747565002894824;118;1.2566370614359177
193;0.037676518258438;-1.2007180237852593;-0.0083052245988931;2.343269818404844;0.9249082179757144;-1.0740449600487934;9;1.256637061435917
194;0.9496970800581996;-0.4868160715236936;1.037449321823013;-2.9443570410215485;1.7582137444977284;2.9749503586153643;175;1.2566370614359172
195;-0.1999024246151483;0.8538235531174302;-0.3114474168831389;-1.7870632937932038;-1.0021344188621957;2.3955532450639145;24;1.2566370614359172
196;0.1876170056039106;-1.3288968741189948;2.09314065320791;-1.529770781572895;0.3357541064655082;-1.0904620765915671;137;1.2566370614359177
197;0.008228899308873;-0.9860731773696833;0.5526150368507983;-2.188121984230558;-0.4565336594549324;-1.1229907938777202;35;1.2566370614359177
198;-1.6890009758628597;0.9720202640496431;1.4143408377212108;1.5519581075969615;0.8452285480291449;2.7674954554204745;111;1.2566370614359177
199;-0.5150495481963888;-0.2240762906107461;1.942211798236848;-0.2260906002634637;-1.94027739981369;1.2221707012787202;43;1.2566370614359172
200;-1.66664663521638;1.0950540246712144;0.8352653591497774;0.5630535114573616;-1.214208707588304;-3.0120690419680924;148;1.2566370614359172
201;0.3903371641055593;0.0341508129725624;0.3631143265900295;2.618197247339559;1.3186516457293769;2.093127946797988;61;1.2566370614359177
202;-1.5087744263786145;0.3104091502488028;-1.4118458156818472;1.8926797927330792;0.4003711237580333;-1.986462612382071;99;1.2566370614359177
203;-2.761892312405978;0.3643664151069559;0.2053618615986704;2.858976495169239;0.0941435862433015;0.4295491281026614;140;1.256637061435917
204;1.7982886457547296;-0.5444662362058648;-0.0158288195537399;2.2617535378553275;-0.5081567692214274;2.928979812946065;185;1.2566370614359172
205;2.658807068554418;-0.2262138151212461;1.3881517118346531;0.064737178149407;1.1226109615202908;0.1077004821456986;73;1.2566370614359172
206;0.7891005573797085;-0.4729736492753958;-0.4403116347023026;-0.7173883232132761;-2.6370264585946943;1.1371468570883372;78;1.2566370614359172
207;3.182871523956575;0.87167575036401;0.684007735584601;0.5955498423901286;-2.4557833656000976;0.9684450856785358;171;1.2566370614359172
208;-2.056414317396177;1.2421092133128944;0.457812426186299;-1.604995551933067;-0.2667227962435735;-1.6579636329389873;139;1.256637061435917
209;-3.063637148017984;-0.8640728718194736;0.0465117124672622;-1.3955414912415596;1.1718182260141277;-0.559183055700951;191;1.256637061435917
210;1.6359488501799624;-1.388508310223347;1.3611749442488863;0.6031989331022799;-1.828104554915746;-1.6312298246771892;56;1.256637061435917
211;0.0398161489299885;-1.0630837204939971;1.2730047995214009;-2.811188530947917;-1.267998723615787;-1.0420003998121925;197;1.2566370614359177
212;-1.1605632821158534;1.4652489955695682;-1.6619717442634694;-0.6740421007417259;2.3724895742503764;1.9928167052275172;115;1.2566370614359177
213;0.4247602816494853;1.3774550385866782;-1.0206683843017654;-1.1432925292652647;1.0375168662474246;-2.8866226858837325;51;1.2566370614359172
214;2.2925601343233204;0.1398165872105981;-0.8972888063540989;1.0306453193246583;1.2376097706120903;1.1528864065832467;118;1.256637061435917
215;-0.8628622186529208;0.8960185315459155;-1.9946058985197783;2.7515272070483574;0.3698856675210964;0.1305826263887793;172;1.2566370614359172
216;-1.367800075591074;-0.1304463542097412;2.318404495146803;-2.3970599264806958;-1.0868890972975278;1.0490750645572746;168;1.2566370614359172
217;-1.440256324129057;0.9262508111650688;1.3025583701887955;-0.060775097997755;0.0890864839789851;-3.1354839472235136;148;1.256637061435917
218;1.127884910159421;-0.2850726586951243;1.2505231359550115;-3.0224253925365256;0.1673803609304145;1.479667789410492;175;1.2566370614359172
219;2.635284608888852;0.6638715890337267;1.4913294428047186;0.6628669764661557;1.4700457507059497;0.65287526039283;205;1.2566370614359172
220;3.198876861522544;-1.1397606377525735;1.9525365579842129;-1.0498109671489877;1.3001276627882243;-1.233990176815994;127;1.2566370614359172
221;-2.2920339606468296;1.461939680546528;0.7191139142067041;-1.034614273179185;1.2830557823864956;2.767746749191759;89;1.256637061435917
222;-2.343786516822277;-0.4863807274836434;1.5123454374339524;1.15218381284981;2.058641847932244;-2.4081845772605206;141;1.2566370614359177
223;1.6969509836918135;0.5072036174603278;-2.095297474008014;-0.1540999979187809;-3.091991692651589;-3.0612150768560573;134;1.2566370614359177
224;-2.191374917015599;1.0839912412545751;0.8678495103469811;-1.8400768757218908;1.27112963144076;1.89876750685287;221;1.2566370614359172
225;3.2101334977060865;-0.904860134597608;1.823388155794716;-0.4152896597121798;1.7556284822023456;1.1808728191649838;160;1.256637061435917
226;2.3562144383413184;0.1092700472750698;1.2658371231656955;-2.449216179213056;0.7498618744153417;2.657945395883345;157;1.2566370614359172
227;-0.7085552934823108;0.2828708834223433;-0.8407509424787596;-0.2932076373340775;1.41971245740006;-2.8095871974719078;120;1.2566370614359172
228;2.6831343879438574;0.881670529895539;-1.4147344778212556;0.3154699878315884;1.7483650414967569;2.3930761257739634;192;1.256637061435917
229;2.7259309718889644;-0.4682708250732399;0.9678930724224092;0.99035415936892;0.1643591588703664;2.9161712145100536;185;1.2566370614359172
230;1.2677090321184108;-0.5247003832412264;0.0421393274982486;2.781986031517979;1.7853851999212529;1.7066713212742957;201;1.2566370614359172
231;-1.6973923257324444;-0.4643259736388192;-1.307117782918285;-2.6090503745120417;-1.4048845428882388;2.277348105822898;177;1.256637061435917
232;2.629558664347498;0.1029182417702207;0.8137633458026451;1.5423174334787628;1.9801406808062545;-2.5624163967471416;85;1.2566370614359172
233;-1.5889812204488776;1.3538736582412212;-1.1623378432091738;1.6306509151475408;0.0129264433244396;-1.5360642847797603;202;1.2566370614359177
234;-2.735698565678173;-1.2025419877973769;1.0340242945923244;-0.5477218418205216;-0.9201600145789574;-2.9270838902924634;136;1.2566370614359177
235;1.2307358337204977;-1.3454074199871415;1.1012379578108409;-0.9731830747766768;-0.4671360309522111;-0.0716535100941569;119;1.2566370614359177
236;-1.2112270507280745;0.3122052908487706;-1.443452839855755;2.4973907048729878;-0.6374003458493049;-1.769771304463336;202;1.2566370614359172
237;-3.0791835574856123;0.0212041424023445;-0.4306975116011494;-1.0349782242785623;0.3682547440376159;-2.5983369414090483;174;1.2566370614359172
238;-0.1726407922173972;-0.3253852119221692;-1.9017348547188653;-0.8929552194464971;-1.913866428316289;-0.2290064130125265;59;1.2566370614359172
239;-3.101400630257417;-0.7413813720041345;-0.8053587424695166;-0.2031748893558937;-3.320518753998844;-0.7361938036920461;150;1.2566370614359172
240;-0.33166687496163;0.6566217917430485;-1.2200712286853712;2.917896372519239;-1.0541412833298025;-1.2345232259166476;236;1.2566370614359177
241;2.8261647340043883;-0.2154170842913845;-1.3120764717692963;1.676633186298932;1.7202704998756104;0.5647526099238709;214;1.256637061435917
242;-0.0582366186521442;0.2145372197579569;2.1499830215812263;2.518136389266209;-0.9551206208847556;-2.435278313691966;146;1.256637061435917
243;-0.7362580653156655;0.2865186834389002;-2.492427212657435;2.5554067580513893;-0.0556823730794733;0.9815941299446694;215;1.2566370614359172
244;1.6420829479389;-1.2275696196679686;-1.6498600365707288;0.0456711661753105;1.917342912151797;-2.215846674788535;184;1.2566370614359172
245;-1.8472593090234692;0.4814625105830856;1.8501669643092904;0.0590166508702253;1.301764788275358;1.2408444495834872;75;1.256637061435917
246;-2.2986795279613625;-1.6043716137751622;0.6229590758187147;-0.0737113672548249;-1.8314474988846112;-2.9778637425805776;234;1.2566370614359172
247;0.4445278274574921;-1.4423989697699855;-0.309810128760338;0.1326875180495477;0.8530401733845283;3.0018913159826672;32;1.2566370614359172
248;-1.8578339429966568;0.7678068329951943;1.1942216294398296;1.9187504734206724;0.6397160085410898;-2.0640310579045247;64;1.2566370614359172
249;-2.9848735492952594;-0.5884591400472028;-1.0553504933105609;-0.1923751262865857;0.8643898590842869;0.3155720435617806;91;1.2566370614359172
250;-0.3519021221815399;-1.2420912797994437;0.3560489690436866;-1.5918842234449435;-2.4092840256174344;-1.5344066355957384;104;1.256637061435917
251;-2.556663176531456;0.7522523683468234;-2.2810511272230234;0.4208911506485714;-1.704413379159447;-0.9568289906360166;130;1.2566370614359177
252;-2.9058860031718665;-0.8954489798509171;1.632121319766192;-2.600471375241302;-0.3221525158424416;1.8544986607804197;183;1.2566370614359172
253;1.1499999531238982;-1.0126304759654003;-1.9271001405879955;0.1395029735056573;1.2518165152853675;-1.3428058242985883;244;1.256637061435917
254;-0.2303758597999799;0.240162504670106;-1.3826488201768738;2.9782614155908536;-0.5492754221333642;-1.4096982687252109;236;1.1574159080756017
255;-1.4749070290116115;-0.0559189250316848;-1.3408221376978506;1.5660117706204195;2.196880105308741;2.9133855014354437;92;1.2566370614359177
256;0.3490806134391648;-1.008254442315027;0.3680732073035432;3.397187047196345;1.7372161095501044;1.826706980803492;230;1.2566370614359172
257;-0.9283858498133624;1.3145447891446718;0.9269828480390324;-2.9580552101381627;-0.6791940494122581;-1.75403245399583;139;1.2566370614359172
258;0.6312681345724683;-1.6737329965428152;0.2842943358685108;-1.5648621468691275;-0.2395876332978747;-1.495102931440257;197;1.2276138481677343
259;-2.4044532455112324;0.9638277826801364;1.3911023121231278;-2.8771652781684374;0.3675444224090277;-1.591782368818108;139;1.256637061435917
260;2.664665880253199;0.2001608999228523;-2.505455651713757;-1.4873797933867416;0.1356674517958883;-3.091899217227389;147;1.2566370614359177
261;-1.2022649755314905;-1.0193938553708268;1.4830143336702697;-0.0129819467143573;-1.7958466244294844;2.0329876082853384;43;1.2566370614359172
262;2.282454014915438;0.2528114928212472;-1.9298550077237424;-1.4698648416295614;-2.758607208463625;1.140755785724304;126;1.256637061435917
263;-2.887818033413083;-0.5292306144404625;-0.5187669672195049;-2.123089982125024;1.6647446036762006;-1.1459213275879176;209;1.2566370614359172
264;2.731038827889289;1.5117424919310534;-0.9227775209774336;1.1869473523639753;1.3789679891554032;2.59777728577727;228;1.2566370614359172
265;-1.715664529307918;0.8594159334856587;1.509562140918366;-0.9554941950605804;0.0778166277037015;1.9662704928227015;75;1.256637061435917
266;2.7116711896548717;-1.386390387271452;1.4469634081550955;-0.6141220654925059;2.1981490912122585;-1.4044882394531215;220;1.2566370614359172
267;-2.558811861363215;-1.0493407569743112;1.346444830033683;0.1585929619156452;-2.3811109814173106;-2.4087576546155987;246;1.2566370614359172
268;2.660561084875281;-1.6070573278501374;0.6561375471352493;0.0003624717955453;2.1937179919532173;0.4666781124445133;73;1.2566370614359172
269;0.4691069496533745;-0.4100873471766924;-2.0783702984823904;0.7372202822702221;-2.7467257604610005;0.6413654424466564;180;1.2566370614359172
270;2.3311189659843072;0.1595799588321252;-2.409969771273261;-2.508362539825718;-0.4240730814752307;-3.410338475014471;260;1.256637061435917
271;0.5081880944257416;0.6347185040152618;-0.0905826949395319;0.0590631563558478;2.749928396730782;-0.2392881128924301;31;1.256637061435917
272;-0.0634970171050865;0.9993423258716184;-1.1132986645208025;1.0450422740688026;-0.8682883483907513;1.982054785685672;123;1.2566370614359177
273;1.9843862196341973;-0.904749221798614;1.835450527573261;-1.2502829413652576;1.2078003592683777;-0.2833636105221133;73;1.2495451568658629
274;-2.367945240242629;1.582464372337327;-0.9526820003380178;-0.8156985274192423;-2.033061590206088;0.033850371851948;72;1.256637061435917
275;1.6462611942840466;1.171376069076449;-1.5976632068097305;-1.8302652202294467;-2.7113989512942878;2.442689994875241;126;1.2566370614359172
276;2.2684708005942125;0.0801140868473198;-0.9390949371886717;2.393654807523465;-0.7887991236200199;3.068215101233359;204;1.2566370614359177
277;1.986402799533027;0.9424658629500438;-1.9231771685770576;0.7256286119068689;-2.3833137135125084;-3.049865031582587;223;1.2566370614359172
278;1.29044543537446;-0.6516629026736721;2.326879859984164;1.031718705781436;-1.0073821984143252;3.095803759794712;128;1.2566370614359177
279;2.54631454313613;-1.1310259187554788;1.1342733607266744;-1.430987242660008;-1.0282973986894814;-3.0387919955844107;186;1.2566370614359177
280;-2.8610848648353;-1.0599758437587703;-0.6896531784683348;0.6259044352807352;1.585763942214686;0.1821983987847647;249;1.2566370614359177
281;2.63035794119373;-0.2525495114965541;1.7052953973177456;-1.7234398238979676;-0.3782457161100845;-1.713638201167332;80;1.256637061435917
282;-0.2903950258225451;-0.5042123749215344;0.7892437772086178;-2.9733555659896576;-1.5600146117866185;-0.140799006985186;211;1.2566370614359172
283;-2.318432674016573;-0.4652235544887728;-0.9707798463715992;2.1926801496461144;0.5613914071958916;-2.0937808235004765;202;1.256637061435917
284;2.4894778807164264;0.3179517947518155;0.1117748511092857;0.7054997594982872;-1.4121370336368064;-2.704340084505334;47;1.2566370614359177
285;2.404778489307081;1.2232071764114745;0.4038863651892886;1.1702865770044455;-2.66631409600421;0.3383497711478616;207;1.2566370614359172
286;-1.849161778010704;0.6483377692673906;-1.354737007786437;0.6258218045979858;2.58222205138962;-1.2633501144948138;164;1.256637061435917
287;0.8672660953346193;-0.7063039880710736;-1.0091512576759205;-1.818425290892868;0.7482049299197969;-0.4069188729088482;133;1.2566370614359172
288;1.4057629503580331;0.6999461041308002;-1.85015631084651;2.86755698597167;1.2136130229557842;-1.6793474619039122;190;1.2566370614359172
289;0.6088659327774039;-0.4246941572009355;-2.024230168250559;1.333377049460785;-0.0460978954581399;-0.4343991601287218;44;1.2566370614359172
290;1.9002068386043875;1.1137216701364163;-2.5976822071590666;-2.934907173141194;1.1555161238943557;-2.2275865555627923;147;1.256637061435917
291;2.6454655608746886;0.8605187824320071;-2.179073073595844;1.25947504728815;-1.519897827736917;-3.2550379688751105;277;1.2566370614359177
292;0.9167411840437136;0.3603685895908356;-1.7673256550296332;1.2499465597105226;-0.8021472585368946;-0.9071092218861616;289;1.2566370614359172
293;0.0808055054506186;-0.3907223249824338;-0.052764987205465;3.3141286240985472;0.7798789879396795;0.1890302799203326;46;1.2566370614359177
294;2.377854717001462;1.2815179872719489;-1.5888147229632317;0.4444129665956548;1.1862240876710632;3.2382055027085395;228;1.1533646456815831
295;1.4526957312619904;-1.237158828514487;2.1049790289175294;-0.4570374037758563;-2.039240554735131;-3.2053797145766434;186;1.2305983753927257
296;-2.4460112860476007;0.0731545997265846;1.5607042090930094;2.3758508202196063;1.252008545047573;-2.2442809777831814;248;1.2566370614359172
297;2.201393143797536;-0.6468586585330691;1.6083556199446285;0.11623218043723;2.53208209249177;-1.0868881412760574;266;1.256637061435917
298;1.631408715072282;1.118640990448803;-0.9782308739671424;-2.625978411757092;-1.6210712828475695;0.3072742367608619;81;1.256637061435917
299;2.215994375405986;0.0630904919996127;0.6252272790760874;0.6213305645291898;-0.2541982831727727;2.136448231206068;229;1.2566370614359172
300;-0.7641519577965837;-0.3673527565552123;0.2807102571836871;1.4415560791428088;-3.0177956983468204;1.6072253505843617;86;1.256637061435917
301;-2.679469424319353;-1.431781849724043;1.564712696296363;-1.2622534638276424;-0.7999324947009763;0.9783419493537028;183;1.2566370614359172
302;-1.1905658091685942;1.1084610906092778;0.2996468321609086;-1.933620191918327;-1.3062146543229751;2.182239879381293;195;1.2566370614359172
303;-1.000189237271186;0.7241915298688062;-2.490219477472386;1.653890378240138;0.4743646750569655;-0.0661728421381798;172;1.2566370614359172
304;-2.975208487236678;-0.0084237366063117;1.3327913286244546;1.8549309958100484;0.555670983685383;0.3065296051664812;140;1.2566370614359177
305;2.322070308806679;-1.2619125150226012;1.3482924883989684;1.613607929503114;-1.758449944049619;-1.3735410776734471;210;1.2566370614359177
306;2.709065057207323;-0.9174364089591688;0.5051217218655247;1.4509946125584907;1.4375951970266614;-2.196716092144308;232;1.2566370614359172
307;2.199189750169064;0.9688304738865376;-1.7519354600177448;2.3053283938716964;0.5021641775149686;-1.4662652518870505;288;1.256637061435917
308;2.7433941451273998;0.3996994606654341;0.030553060281284;-0.3176551703493157;-1.093714383545104;2.0216037283823067;68;1.2566370614359172
309;-2.953429008653856;-0.5607794993912452;1.5791880527121678;-1.7022131686871775;0.2116223818768108;-1.5341165151831322;107;1.2497719731924228
310;-2.845198061492117;-0.4409097660616483;2.542515168688549;-2.7923153354855508;0.3766501262850056;1.976570701619589;252;1.2566370614359172
311;0.1983772073920931;-0.3502757920658486;2.0882079990747284;-0.7050790161517495;2.2470158684326758;-2.835515970339468;170;1.2566370614359172
312;-2.8909289193874432;0.2699073152049291;-1.4563241684806358;-2.105565887841314;1.580283721221858;-0.9134318530244578;263;1.256637061435917
313;-2.4233845559112765;-0.8793386329423514;1.5742351772605183;-2.12416005024033;0.8043848490665377;-2.3509877512942885;309;1.2566370614359177
314;-0.0048040022814192;-0.6188268034641418;1.6861248650069105;3.073213607307942;-0.9549923229192172;-1.8365204823349832;242;1.256637061435917
315;-2.909907404967624;-0.5255322496998407;2.219316011965727;-1.1312757526988255;-0.946197298797366;0.4908046183832517;301;1.2566370614359172
316;-1.7991961062791042;-0.0476579304139384;1.0840494834758605;2.749049572644072;-0.6960583532700552;-2.7311757816958133;173;1.2566370614359177
317;0.6827347975383408;1.374285316042697;-1.013073227285204;0.1294402677471999;3.002659819370578;-0.5254632185352265;271;1.2566370614359172
318;-1.2883419600521595;0.8230815625273411;-1.82290649879859;2.900489287087633;1.1061461753529644;-1.41733636454695;101;1.2566370614359172
319;-2.126492188716256;-1.4412578530987104;1.6942659142728007;-2.537028132096105;1.5592796690239938;-1.7025243394868612;313;1.2566370614359172
320;-1.648296273693837;-0.7436293486114658;0.5459315295325955;-0.0140824314293779;-1.4928294020752646;-2.438317626532811;246;1.256637061435917
321;-1.6401528779702454;1.5780083428638951;-0.8829165529343131;-0.7711896007973778;-2.793062299768093;-0.6480482897234984;274;1.2566370614359172
322;-1.8636047562585591;-1.6485231837697771;2.1077094496872024;-3.2196541387617303;1.4036959061930274;-2.6002703255670285;319;1.2566370614359172
323;-2.621437943427876;-0.0037626024455967;1.9194030457720528;-1.7238363379483752;-1.751103513453674;-1.6945187939715465;121;1.256637061435917
324;0.909516802666963;-1.1933045440675087;-0.3774694798828327;2.617543543660524;0.1952943541310785;-1.3481463079403355;193;1.256637061435917
325;1.7044759004686258;0.5840812839890379;-1.2523069714690636;-0.8250714259143137;-0.2148549181924191;2.8825673090928188;33;1.256637061435917
326;1.2002811919075145;-1.1597216306397065;1.6085785206676035;0.5287597887580765;-0.3277907162788809;2.809247703422592;278;1.256637061435917
327;2.088421113636807;0.847379340352535;-0.1068096831528991;1.176863642861327;-2.794637583383563;1.3193347848582349;171;1.0626954400422306
328;1.6851869391221443;-1.2242946578003775;0.9404327642454045;-1.727032335126969;-2.40663625621994;1.6925356992998244;42;1.2566370614359177
329;-1.0396655119514944;0.5382775347488439;-0.2732025972135019;-1.7774345814653567;-1.6743006793956692;-0.4944638008179863;124;1.2566370614359172
330;-3.157125209990631;1.2247116796723017;-0.749185762922794;0.9785902223130436;-2.726575260457617;-2.0421858399939943;129;1.2566370614359172
331;0.655540045069461;0.0820337114132002;1.9383168111732063;2.292258823301964;-0.1078930680400719;1.7782948540330312;74;1.256637061435917
332;-1.0947980079242914;0.9056715681723868;-0.0436609913095923;-2.756741683457867;-0.7341587781669403;-1.763068985642301;257;1.08657705497427
333;2.3957138493394683;-1.0947705331376911;-1.710313589873424;-0.0229446578650458;2.7524307750799206;-2.752323206446405;244;1.2566370614359172
334;2.4139711210731862;-0.930313952456888;-1.6550034577628618;-2.947951456776316;0.3769575573877284;2.5655030888215755;167;1.256637061435917
335;-1.955370043535156;-1.0272812299986416;1.8288080888451348;1.5013104755186073;1.1483304924613873;-2.116652085745633;222;1.256637061435917
336;1.0415327579237863;-0.4227122537807538;0.7788979439855321;-1.798674549843028;-0.6662850306822968;-0.1114638511612097;119;1.2566370614359177
337;1.716703842006612;-0.7400732236831085;-0.3425320718943164;0.4961648051250996;-1.0802528918488146;1.1331646806413085;68;1.2566370614359172
338;-1.4136246308187683;0.242897589202987;1.2920276930364212;2.828416072720488;-0.7532969583237539;0.1283983112996216;131;1.2566370614359172
339;2.043130910684664;0.6345506901322294;-0.8706137780646689;1.0003006530594347;-0.7519062820371597;2.9922618467340465;132;1.2566370614359172
340;1.9173557757489692;-0.9844850272179014;-0.4352329830044141;2.896048355636557;1.0411555467037854;1.3181850532009265;230;1.2566370614359172
341;0.3803916274229917;-0.229718749559584;0.3373261819729409;-1.0268704154760522;-1.9741485192770771;2.659478362376301;42;1.2566370614359172
342;2.043074213364552;0.5483183484364532;1.7860816238370008;-2.031036117123006;-0.10913815058571;2.334052597008593;226;1.2566370614359177
343;2.467174644738035;0.3928931368801613;2.113803263701311;-2.266612304248085;-2.880479302214356;0.1381646301488929;117;1.2566370614359177
344;2.6020394028323386;-0.317126205526361;2.0322676625720986;1.1129346922190166;2.719868768898426;-0.7682745257205993;297;1.2566370614359172
345;1.5789186686394314;0.2314426522443491;0.8933461663452882;-2.58044465736023;1.3062105529751826;-1.9258996576914595;182;1.2566370614359177
346;1.5832923423315588;0.0549315646012765;-2.303869546811317;0.7511561950304966;-2.5156523313526566;0.5108052023104459;269;1.256637061435917
347;-2.503553874745206;1.3012077471448371;0.7450979430337408;-2.8435350916053057;-1.1269990552978646;-1.533967679511789;139;1.2566370614359172
348;-2.6102778410727008;-1.3446963912254086;1.419525822535964;-2.9913002339586754;0.6325362726822142;1.429581543139338;252;1.2566370614359172
349;2.732358619091979;-0.0159501200065305;-0.9843637150611472;0.5774266913618434;2.3914402028206423;2.714953240581253;228;1.2566370614359177
350;0.3800919335430014;-0.9583521886343754;0.0841289729321959;1.525044880955125;-0.096931994321491;-0.317544285670807;9;1.2566370614359177
351;-3.083486597621187;0.2971714347229527;-1.8310158193032973;-1.858661038548128;-1.9709414452488283;2.4412107386282704;177;1.069810867410944
352;-0.720590874901618;0.2049464553375512;-0.484020991047623;-1.8888235091658696;1.3916697415596877;2.7470103710218714;17;1.2566370614359177
353;0.6882978405487603;-0.9136458138991006;1.870482290388576;-0.8677089801419958;-1.871693115803617;-3.100996977294272;295;0.9754858123536222
354;2.652308467250533;0.7827767439961104;-0.3376349777111866;0.9146150533352632;-2.9208877272364524;-0.4640572855789678;285;1.2566370614359172
355;-2.6181851612253606;-1.2097998859030994;-0.9598897116258336;-1.8866602528741447;-0.616463084414081;2.7584698750815546;106;1.2566370614359172
356;2.9084924379274684;-1.022261443008004;1.3153266518916316;2.1681447872876465;-1.1747030362533135;-2.100490064160169;305;1.256637061435917
357;1.185649620511146;-0.1137258079417782;-0.2775847549966009;-1.177233895162345;-1.5423189627251734;-0.5988978395602037;156;1.0346748533215826
358;2.9988644874676216;-1.1122222382341127;-0.2879718182092639;0.7697980764966708;-2.406186885728308;2.7100224529617383;144;1.256637061435917
359;2.692212906059564;0.3018764756080523;-1.0667061838103569;1.461530639083758;2.0521227805870823;-2.678117514681729;85;1.2566370614359172
360;0.8162286829014671;0.0127372189658871;1.7916942565697616;-1.2819052534199529;2.835191205317293;-2.2886899671243373;311;1.256637061435917
361;-0.9874594157409888;-1.037174024760828;2.5682532135895304;1.689076406317182;2.64541148389163;0.2511444145360264;155;1.256637061435917
362;-2.7414888227155494;0.1988389918271472;2.069853309725789;-1.773754402219595;0.2633037700959848;-2.2370394452831848;309;1.1681528361908624
363;0.7151263859375576;0.7978497049756045;-0.2589639179581852;-2.26654107671492;0.9287055644968422;1.2622060951919185;21;1.256637061435917
364;3.304136443510267;0.3094214026932328;0.3163619661667789;1.5898454169459717;-0.7906258241964416;2.978971169497254;185;1.256637061435917
365;-2.279643887066737;1.044208548852895;0.7763719219197673;2.362750130221502;0.4450379030967836;2.790428256911423;198;1.2566370614359172
366;-3.00461911791223;0.4297605618155449;0.3069601117485848;2.1265780994669443;0.0780673789208703;2.275443549558182;365;1.256637061435917
367;1.6831715227818629;-0.7450072031916307;-1.4516593725066822;2.691809604895252;1.321519346436631;1.878100117165589;340;1.2566370614359172
368;2.5613376859414645;-0.3904092664033463;1.1959455826831558;-0.7847331707790507;2.754168826853896;-0.4930302293766926;297;1.2566370614359172
369;3.1290585952820305;0.4919628130465511;-1.717814909458539;2.558461625173364;1.5597557331026382;0.4269279820869671;241;1.256637061435917
370;-2.53651354691164;-0.7708022997611051;2.1866029015359665;-2.5448213653769454;-2.0258387752788005;1.1170674072609013;183;1.2566370614359172
371;-2.0428235816503597;0.3690000201461846;2.643386750818287;1.8415650663258771;-1.235170427963791;-2.5823257388055927;173;1.256637061435917
372;-1.4324414404516903;0.105701649932097;-2.0635473582586434;-0.1050682595390296;2.522068465297196;-1.5294253927925354;286;1.2566370614359172
373;2.225747889327117;-1.7123747349764404;0.3521947054531463;1.3977816613171188;-0.6045761091535241;3.4016066504553875;185;1.2566370614359172
374;0.973816985320199;1.0283619451971828;-2.728183645322255;2.6870450713074314;0.7210063714782791;-2.1677372225421587;288;1.256637061435917
375;3.0483364223930995;1.0054572703067328;0.6730719628985605;1.6965378529553308;0.0348467547684391;2.5215798183838443;364;1.256637061435917
376;0.8637247336759337;-0.4886603884498786;-1.401679662263892;-0.0220912062511147;-0.529655212686928;-3.015242595275342;79;1.256637061435917
377;-2.1707790716393527;-0.2578298024671632;-0.5168582952125793;2.1160160924985325;1.4393244976152788;-1.364648266290577;283;1.2566370614359172
378;-0.9379270095007324;-0.238829414102886;2.061641488186582;2.415741720862517;-1.2735183314832113;0.0112603993093514;338;1.2269092120144318
379;-2.2624222397126914;-1.0507176661054614;1.2468454557578297;-3.371115237645964;2.209821215635828;-1.9530655316382024;319;1.2461381045436468
380;1.9354549215707093;1.1088940756607415;-2.1130110567928506;0.3782241245597001;0.8560458659521992;0.6918731882946605;118;1.2566370614359172
381;1.871152997626404;1.4111426311211177;-1.318816958405214;-2.986772140759896;-2.2168708618599777;1.5909960523697049;126;1.2566370614359172
382;-1.5181346623770375;0.5210189323777785;0.7703989650145673;-1.6509162309549694;1.0766722260329915;-0.0753252638122312;149;1.2566370614359177
383;0.7128633707915523;-0.8951123562755863;0.0270106771108409;-0.0235197176071723;2.9915493528208077;-2.1480706804538747;189;1.2566370614359172
384;3.30522846524123;1.2547071782423065;-0.4584544278768976;1.3104123476836396;1.7109266741821996;1.679986621394366;264;1.2566370614359177
385;-0.2043399640577272;-0.6385578488382299;-1.2375265384667635;0.9168293400448032;-2.573189421208438;-1.160571544394208;180;1.2566370614359168
386;2.3626471903821664;-1.1360634178838256;1.1523166709200747;2.160798700254693;-0.6668201675546549;3.356929282606017;373;1.2566370614359172
387;1.973210206053492;-0.3252594386085857;-0.9901300627202466;3.335587042241931;1.2937669276978954;0.5588952045892972;340;1.256637061435917
388;2.6270264320896044;-0.1733441310523345;-1.016552887061009;2.513326608523462;1.6176545867841592;2.107460166118782;367;1.2566370614359172
389;0.5758730935546814;0.0415524970836917;1.834798627798696;2.3220359910953703;1.5012564149584169;-2.4857686547699727;23;1.256637061435917
390;3.206266973871141;-1.7411094655428814;-0.1550407727923476;0.2901123650693871;2.44207474930152;-0.2113524657569539;268;1.256637061435917
391;1.5792751600883668;0.806235714398571;-1.523158524937508;-1.6145003891074203;-2.957680333871117;-1.8580937729843687;134;1.2566370614359172
392;-0.7465803224418588;-1.3067909528627355;1.563392256963524;1.893843006903765;-0.1715798936476293;2.128431593553957;88;1.256637061435917
393;-2.6438265010643174;-0.3846934703792597;1.32356053332444;2.072068801599501;-0.9433804127956716;-3.149872016080468;316;1.2566370614359172
394;-0.943561322950971;-0.0866159606713044;-2.317269637916426;2.8381401680483527;-0.5116378961732624;-1.9779189921127136;236;1.0814393091339365
395;2.359134718198021;1.3965923113535683;-2.141055066683697;1.4217639135479188;-2.805117145896993;-2.325997973624122;277;1.2566370614359172
396;-2.0622735129045324;-1.6683327244781692;-0.973237547444749;-1.5597967872348182;0.2521471722708099;2.313110569043377;355;1.256637061435917
397;0.2525030060360492;-1.354169330725273;0.4069012923974493;0.4020929612093072;0.9927832909414632;-2.366068731571351;36;1.2566370614359177
398;-2.127554558876588;0.9241231334928482;0.0788310570353686;-2.892104255289981;-0.7475855069458857;-0.2214781398941927;139;1.2566370614359177
399;2.9880781408846824;-0.8944282829834518;-1.2234858935533235;-2.048023447429552;-0.7711710217872499;1.5750131272216414;167;1.2566370614359177
400;-2.8387665805514963;-1.1265027668978869;1.3770921036321782;-1.399043068091956;1.98263497250968;-0.9926496003757018;191;0.835714106546366
401;-0.8705059640183372;0.3639189007673757;-1.77691957805444;-0.2008105745110406;0.6439609754444791;-1.8299623856718037;120;1.256637061435917
402;-2.690306961374413;1.036196686572329;-0.6602347240447461;-0.3191038269204639;0.2295170738198175;0.6304459810033227;165;1.256637061435917
403;1.5411128528655285;-0.834305136748479;-1.84662713078066;0.8822116286443309;1.2902431555380989;-2.74736661899813;244;1.2566370614359172
404;1.1256967630260548;-0.5882153236811211;0.6552843908440271;2.221871280851784;0.0574897952232144;-0.0926505073236628;350;1.256637061435917
405;1.946505991326135;-1.4069628443143216;-0.7906394674406928;2.613455867198576;-0.2137857528931609;-1.0016386228400675;324;1.2566370614359177
406;-2.2415990561117938;-0.386358808579257;-2.1333997695381925;-1.2521740549430858;0.8876143710451625;2.2855736502587094;105;1.2566370614359172
407;1.982523708054357;0.482583240205199;1.5309161080061948;-0.0667167815278379;-1.6258616262730965;2.8376468342832357;128;1.2566370614359172
408;1.627652325783998;-0.7602890252870597;1.269351743425812;-1.3355916684290046;1.4205061378759951;2.783901278989322;157;1.2566370614359172
409;-1.2142910571494814;0.8469347984099399;-2.7104618422492845;0.344562428741082;-1.9914099611288196;2.4871622209070194;108;1.2566370614359172
410;1.705806519794355;0.2910325492653035;0.0842979431353649;1.3917857649574152;3.254365965253176;-3.035989542554604;113;1.2566370614359177
411;3.2223692496724863;-1.2099570370650856;0.0412224175324877;-0.1127711292451237;-3.118048647537921;3.0644033481120485;358;1.2566370614359177
412;-3.298475359195945;-0.9799219481319688;0.0635392426312362;1.2961122371363651;2.181421958226467;0.081541354803043;280;1.2566370614359172
413;3.0206981897346603;0.3714285832354101;1.0378521987374458;-1.3366667196085305;2.100954588448732;-0.3157882451833123;368;1.2566370614359172
414;2.8400123774940784;1.201525369794905;-1.255560161615311;1.423011166828971;0.2191243041173315;-1.369557165527448;307;1.2566370614359172
415;2.1594986250739208;-0.9549119561968212;0.3968333746422249;-1.646313086591314;-2.10877861989279;-1.6234552683665493;156;0.9937129560294796
416;-2.525241066040542;0.2026972369203892;0.5024626614346063;0.5235509246535309;-1.400850185948198;1.944103493287504;90;1.2566370614359172
417;2.018342520763515;0.1330069314106795;0.7066524500359926;2.4220416658652053;-1.2260163363305343;2.835442245901892;204;1.2566370614359177
418;-2.0811225878807167;-0.2914322422807153;-1.5707778267825772;2.196812906246921;1.3716232965734192;3.069380327450772;255;1.2566370614359172
419;-0.7104312481172628;-0.0958207204604408;-0.4113013905869147;0.4981403804241777;-2.286531515253417;-1.457764294826819;385;1.2566370614359172
420;-0.5851571384925122;-0.7836404824449288;0.9744808443243704;0.1582211517007692;2.650526175003866;-2.173032741863023;189;1.2268906005042164
421;-2.7443809446079603;-0.4142742665019859;0.9819281146443438;0.8433013690735348;-2.254230076524112;2.244229927632642;416;1.2566370614359172
422;2.5357294166486524;-1.299181774489113;0.6450313701764008;-2.423574244434425;-2.1368808472218173;1.2398707877724504;328;1.256637061435917
423;-1.1222131626432634;-0.4454218803127485;1.4095595345870024;-2.51280857714684;-2.009966293267992;-0.4313283268860234;282;1.256637061435917
424;-0.3985271032684651;1.0770762805643823;-0.6084264300074593;-0.269041162738601;2.667551786931414;0.1834687533694904;271;1.2566370614359172
425;-1.192426990208108;-0.2530351146516512;2.1209823264830967;-0.174216686872466;1.211927349969299;2.186886168724401;75;1.256637061435917
426;-2.144928810430428;0.3830738813469271;-2.146248454437165;1.653968128358146;0.0825985296414442;-2.673379073525188;202;1.256637061435917
427;-2.657968289522655;0.6678934651783366;-0.1745086171612808;-1.835132666937994;1.5322099327699994;1.715485934604051;224;1.256637061435917
428;-2.140204922732796;0.8036563314924798;-1.9557910019639777;-2.7662170580523804;1.687102245651211;-0.7308807943563389;312;1.256637061435917
429;3.190548273348546;0.1230449781018368;-1.411315078393402;1.6915625995775798;3.001070173654379;-3.1541917877729544;359;1.2566370614359172
430;-2.8113492593307443;0.94706663036505;-0.1718420344701463;-0.7669337626948668;0.9744626309380888;0.2562020389167039;402;1.0754891383358842
431;3.081227877216134;-0.6432295534605945;0.2500773785858668;0.5619827517460216;-2.6025112357850406;2.325789829924545;144;0.8455554667631091
432;-1.1816332653385664;-0.2183445366742878;-2.344363437659964;-0.6788152510265864;-0.2276702098216889;2.5740628117022064;71;1.2566370614359177
433;-2.3476465900778223;-1.398994876639256;-1.354409791203423;-2.545542579722502;0.7504745918059678;2.0684909237965483;396;1.2566370614359177
434;0.6226377884972525;1.330097502550686;-2.1323603726517155;1.3377059320630027;1.8529775119678176;1.171355047146928;169;1.2566370614359172
435;-3.2137323620167413;1.3604077746442984;0.0635671374228377;-1.5359312361483952;1.7300977898295389;0.425360413083776;430;1.2566370614359177
436;1.0271403658795204;1.0706460296555729;-1.808867571089516;-2.1453408431962964;0.9561227569311512;-1.057995344258175;55;1.2566370614359172
437;-0.2411291111973794;0.9404548725809516;-2.010817884378312;-1.1109779950796996;2.6706561615551165;2.2312673688446667;212;1.256637061435917
438;-1.5601904384037222;1.0754202270123552;1.2460964289529577;-2.552310327682276;-1.500837661312982;2.53579355389278;302;1.2566370614359172
439;-2.3845922248396176;0.0736291792872146;-0.4934614102499304;-1.1068738326545402;-2.130683650046525;-1.5121932838518324;150;1.2566370614359177
440;0.7843872579761233;-1.305742134533223;1.401129845417505;-1.8200992743236863;1.148797977039385;2.289347720511143;408;1.256637061435917
441;-1.6966802702650043;-0.2336719639913274;-0.4900715244708717;-1.4920713545143802;-2.023906583859213;0.0540557444909519;329;1.256637061435917
442;-1.654627193625012;1.2224860428471354;-1.2990862013247502;-0.678087435787619;2.953205819772573;2.9889320523894254;62;1.1961760193517146
443;0.6334470447657217;1.0092311005908876;-1.8250103073511956;0.833628366163634;2.8048882194924243;1.6418572958804745;434;1.2566370614359177
444;0.6718242106346975;0.1266600892399101;-0.5903003770960542;1.8565574560649292;1.309593829468548;2.1396786473511558;201;1.2566370614359177
445;-1.1014160363423806;1.3467162535435222;0.8957700922244277;-1.8479634178128643;-1.5070606769121293;1.1280177250960994;302;1.256637061435917
446;-1.1221655947917064;1.8044079352210625;0.6742410637368949;-0.065127202653401;0.2548460821583543;-2.748440862928578;217;1.2018410121607972
447;0.7086658951203998;-0.5296388964357874;-0.7685366309846293;2.087858052907423;2.08922938947499;2.8134377297635;444;1.2566370614359177
448;-1.6510288217206883;-0.5113804876567665;1.6311173512986703;3.2603586480140443;-1.3503137560847114;-1.859621433814344;173;1.256637061435917
449;2.1879916485375426;-0.1751192869945836;0.5543283605494128;1.1705721423604678;-1.4955764565374283;2.1429453467229824;144;1.2566370614359172
450;-3.081399048727648;-1.7133759105103044;1.9305100307410672;-1.3617731776472035;2.2184025690874005;-0.7354657355351274;400;0.9125135330593216
451;2.0215989287465628;1.5535969590331158;-1.0661747745230052;-1.4702216092434497;-0.0956646221689009;2.611386991779419;325;1.256637061435917
452;3.144907727818403;0.5941559497245847;-0.2343931411634924;1.745333022408173;-1.7395042131914595;2.4841667867400483;364;1.2566370614359177
453;2.126167600590594;-0.535203257766938;-1.8050927221902653;-0.7475454943424844;-2.135694394002862;1.2324769498633732;262;1.2566370614359172
454;-2.3187223153230563;1.3055879429047983;1.1560639070053027;0.2997101854016188;-1.7751463138007788;-2.222957473738842;200;1.256637061435917
455;0.0449848580266544;0.992904753043226;-2.350997338129886;1.1420980878184448;-0.8491391419369018;-0.6530158325576548;292;1.256637061435917
456;2.8381984832877536;0.6637715227579983;1.7014427287060807;2.2537418535500398;-0.0510254556741459;2.3146188706851776;375;1.256637061435917
457;0.8958843991629482;-0.8488930056179017;1.6915838577361304;1.6381835446164188;-0.1160838860482154;0.0241156966373997;404;1.256637061435917
458;-1.4607609102401808;1.0118797058118651;1.4305746402222488;0.0746956786610971;-2.5044706855025685;-2.537397758964956;454;1.256637061435917
459;-3.27746494807113;0.1993578829771026;-0.5319137459025405;1.6434779336002043;-2.881266758346634;-2.0325740921883586;330;1.2566370614359172
460;-2.384363116888099;1.3119467219019691;-2.38197975670072;-0.5673409904419611;-2.0389587934901745;2.6326530686616563;108;1.256637061435917
461;-0.344784651591431;0.2055092980848363;2.7321462509730443;-2.4262228714536964;-0.2360810721539233;-0.7962010466807621;137;1.2566370614359172
462;-0.0263693126143982;-0.4390888267792038;1.5710971126265434;0.9972495784404476;0.3572698370590317;-3.015374962768937;23;1.2566370614359172
463;-0.1085443344498562;-1.486680149958775;0.5076418641127208;-0.1859809972868462;0.982975548198372;1.689904245184193;38;1.2566370614359172
464;1.3846055539397164;1.2660686069028364;-1.2793094611069873;1.6039282520788811;2.7495148188142107;1.8757687156228573;443;1.2566370614359172
465;0.5929820904219227;-0.135532277288492;-1.042967963088616;0.4335279753059967;-1.9548092370355048;-0.8822375810733494;180;1.2114273446889452
466;1.451672350941213;-0.7893584673231091;0.760844210962089;1.1454969629992002;-1.2968066485126728;-1.5008739961572912;210;1.1604708580378964
467;-0.2076597760638252;-0.3527979799305353;-1.412549374844834;2.1306565825772905;1.612381675745475;-0.7201972355615447;44;1.0686618174906746
468;-1.3178010163497291;-0.9617420654209232;2.391670033636412;3.254247271655675;-1.468253745680609;0.2608549917864529;378;1.256637061435917
469;1.1313340402455818;0.9968888775982016;-2.06245656620592;-0.8950084105765777;-2.922971538878653;2.827449430705181;275;1.256637061435917
470;-1.473812531791716;0.7039904259696946;1.4899567532998312;-3.296624646805931;-0.103289974558331;-0.2785862965779537;102;1.2566370614359172
471;-3.2139932387647896;-1.0690206358113077;-0.5065238432555459;-1.6492526122225324;1.6756436245130903;0.3844633151439142;209;1.2566370614359172
472;1.8485196542015667;0.4602643459981627;-1.5261808010803966;-1.2280821277217495;-0.9138959124219846;3.1224309552871725;325;0.9053709835306856
473;-1.697840716478436;0.7773135747124019;-0.7648390395354301;1.0598470657496062;0.738082473600467;0.377305643373762;165;1.2566370614359177
474;-1.4031455109745017;0.5815521853110235;-1.4783945597326738;-0.50173793491171;3.1060889696585225;-0.8803592598003755;372;1.2204136212773264
475;-2.419824080086725;0.1104986554569773;-0.4643976237896895;-1.7934554254599022;2.8745247042025404;3.1355884312059663;67;1.256637061435917
476;-1.4645385412194356;-0.4899417211740558;0.3437797911060509;-0.1892160890405808;0.0989375594400547;-2.060195016538237;97;1.2566370614359172
477;2.916056921808128;-0.0553020686126593;1.7960965692255826;1.9578847284045389;2.006723553485563;-2.4370551246091408;232;1.1230368445736771
478;-3.2062629179798696;-1.433277600174897;0.4245534340861954;2.360971696323676;2.027370519475878;0.3592344634433234;412;1.2566370614359172
479;-1.9490186775829024;0.8314163311792638;1.7386640996470073;0.4430543461767848;2.055421449380818;0.3932609106553644;245;1.2566370614359172
480;-2.9668680483223397;-1.356168167465164;2.7679104620422788;-0.4507619842849815;-0.9783267687963866;0.8384380444271946;315;1.256637061435917
481;-1.1175737573845652;-0.7990339703767215;1.421378497096884;0.0742625326621863;1.10938472145469;2.4949758166599394;425;0.9799690910316275
482;-1.1506878434947925;-0.5000201258358158;1.144090220308705;2.881329222924759;0.059294632936987;-2.361641259494316;316;1.1633620311729354
483;-2.208543694427883;-1.4142251884811246;0.4877435182066341;0.2350409136692777;0.4960825618155891;1.421456573334017;34;1.256637061435917
484;-1.9957990861769692;0.1170478179412864;-1.7597901038855783;-2.9178489509626546;-1.1637672177580654;1.3864562669932332;231;1.2566370614359177
485;2.5774355724205678;0.2152687643041994;1.4277051157037173;-1.777731890217396;-1.0242853452976768;-1.128840037950252;281;1.0300557282906857
486;-1.066446186195817;0.2153640815717807;0.9136735845848046;-0.3098153620041415;-0.934569294366294;2.84182893905376;43;1.2566370614359177
487;-2.5775587869806578;-0.3759134735700498;1.3813962349702025;-1.029968887000356;-0.1143168002729327;0.2861157701703289;315;1.256637061435917
488;0.3160749390240537;-1.492124501515092;-0.0501826970380199;-1.052688872789362;2.984236903448928;-2.156479254624823;383;1.256637061435917
489;-2.2345479754032564;-1.168629973467227;0.3397494180769818;-1.6505623250726889;-0.2948806254043062;-1.4964778608875329;69;1.151710836258044
490;3.2759843302066294;-0.771943374294854;-2.0871983971182035;1.6963236507763162;1.3325482309931391;0.0030166824219701;241;1.2566370614359172
491;1.0125309894837031;-0.1499168008862952;1.09637515883566;-1.4544950097044314;3.457892544255176;-2.6443887297154145;360;1.045239381489015
492;-2.2793351048195527;1.017347226543551;1.0532891010642826;2.457235895802545;-0.6926458181473643;3.235939361829014;365;1.2566370614359172
493;-0.0087416520579942;1.2780340900561673;-0.8071526899336317;0.9358853917287412;-0.1191908582018255;2.894020696355084;628;1.1547863534306664
494;-0.8170625667650228;0.5777252035789778;-0.7503954944470148;-1.1155315250440654;0.6863531973758712;-2.311075295094058;227;1.2527663400783784
495;2.3712819407461616;0.946989006679732;-1.3213513685094558;-1.064856172264592;2.639881019816652;1.8822569020424809;192;1.2566370614359177
496;-2.6527067372304023;-0.5589699175922063;-1.7192767026506903;-0.90898736155354;-3.4162930883787497;-0.7803135142135369;239;1.256637061435917
497;0.1169034228234922;1.5430094375011365;-1.567606453876374;-1.02055304988315;0.4244749848564901;-2.8380042735382456;213;0.9025377746296592
498;-2.807880282851503;-0.2557342341286679;1.349893020572374;2.917105802490764;1.6619385699148064;-2.6098919749286327;296;0.9371389307048912
499;0.8412971208649415;-1.6300301199110905;1.2376794166561755;-0.0248690709333846;0.5398351339164107;-2.6466184026035657;397;1.2566370614359172
500;1.3530327533003217;0.2681814329947722;-0.5373780254197751;-1.297514648239798;-1.568389241640609;-0.4326952138424536;357;0.5330414889840545
501;2.2914712770999053;1.6617645316180665;-2.2744478337129714;1.245773658583934;-1.885057862546954;-1.545634743136902;395;1.256637061435917
502;1.1626446537919808;0.6531525860931069;-1.33073036014768;-1.3776712529049049;-2.311878183999468;0.0212623517101915;500;1.256637061435917
503;-2.369627616788786;1.1323649247640464;-2.245833777732204;3.059030689687057;0.961731992987788;-1.1182652711913514;318;1.2566370614359172
504;-2.94981808308969;-0.0826722348385928;1.9373818884382437;-2.78807482254358;0.4550443101206928;0.9433682482723962;310;1.2566370614359172
505;2.320691647878952;-0.1626564278197968;-1.0202165019660274;-1.7174481199184553;-1.6219571285257357;-0.6443672999354313;500;1.256637061435917
506;3.306358971854816;-0.4798466456817037;-0.6819931486149147;-0.1450578296132999;-2.841365867099785;2.050026646049268;431;1.2566370614359172
507;0.7011804773243027;-0.8998424271521447;-1.1661438432201905;0.116472188062506;2.4962361599936798;-2.326853879260202;244;1.2566370614359172
508;2.724165065755323;-1.2941906167866586;1.495706301811018;-2.7115767013538523;-1.9306437947669004;0.4065180279184052;422;1.256637061435917
509;1.7696897504871247;-0.0769013289744419;-0.6747488398645924;1.5409249690294071;1.6261128147368782;2.4938693189136685;444;1.256637061435917
510;-1.6668802330282064;-0.0684305925829696;-2.281117449878769;1.030872649001236;0.161826543873344;-1.8166204895158329;426;1.256637061435917
511;1.279133105984685;-1.094013057222652;0.4893527439837337;1.8959555982370409;0.8350570328858253;0.6566141274268119;404;1.256637061435917
512;-0.4667215560668522;-0.8453696766616497;0.7495748096567307;1.0537862018056516;-0.5132970433969232;-0.4225005222558879;350;1.256637061435917
513;2.6048418190543985;1.2690432084645773;-0.5257176074043225;0.2823720494291106;-2.133272391242254;-0.9978965291184878;354;1.2566370614359172
514;-1.4224214305895924;-0.0535014693975397;-0.5310119000772636;-2.941559756337001;-0.628726100290901;2.4167259351802324;231;1.2566370614359172
515;0.7091185282223799;-1.1751603447554506;1.1740989379182554;2.7869954923092224;-1.5566740125105554;-2.068537939638773;314;1.2566370614359172
516;1.64705044762912;-0.8413976689850796;1.7555130977047362;-3.413101847867455;0.1250880132891311;2.248221453715749;218;1.2566370614359172
517;-1.295977914851114;-0.0443401582588657;-1.2145593952909948;-0.1889916804955549;1.939980912049598;-0.8428744153298544;372;1.2566370614359177
518;-2.449621257962926;0.53930382644551;1.5028491680623852;0.8783784125372889;2.71239569879862;-2.52417265284698;222;1.256637061435917
519;1.925152732285964;0.5198829934701203;-0.5923758638163995;-2.290806618714504;-2.656918033900248;1.9281130107348368;126;0.9372022174088086
520;1.6386903021227175;-1.4580380692869228;-1.6994901530362732;1.5996277167515165;1.2146516400833096;-1.948290049741947;403;1.2566370614359172
521;-2.2761481084622326;0.6682530410301154;-2.5013926704573266;-2.432074575468872;1.0998660386946808;2.2981564715352727;105;1.256637061435917
522;-1.8425671382407471;0.6067609987504711;-1.4447993676846385;-0.643141129021708;-1.9903986184724565;3.088573275225952;108;1.2566370614359172
523;2.054367260983628;0.6947997317918403;1.4449598440775275;1.6810932743071565;2.424430908241561;-3.094305761007944;232;1.2566370614359172
524;-1.413434797198836;1.4647061059396245;-0.940341096046788;0.1479186400072441;3.397611805600775;-0.9306506929277718;474;1.2566370614359172
525;-2.147146156614319;-0.8327271486288039;0.4719626234962706;-1.8713533858212088;0.7003283991672814;-1.4153897190496454;489;1.0879867182972405
526;1.1662709539165548;-0.0086460870396671;-0.0961417631568921;-0.769585249317844;-1.042638515088132;-0.5089782205783373;357;0.6843115853462134
527;0.107290157737824;0.7342482832090507;-0.7624825908623607;0.6695945988582735;2.6774905221453817;1.875475972658388;443;1.2566370614359172
528;2.569966174200542;0.7269524635129739;0.1294571450559377;-2.693223284723142;-0.3515574766619939;1.033709719391494;29;1.2566370614359172
529;0.567183281983529;-1.45843847405581;-1.0619560546204736;1.131516945917125;2.324893648000786;-2.749491667491721;507;1.256637061435917
530;0.3176537209648467;-0.5584810896991521;-0.4658338481738721;-2.274511235687957;0.3077809224056154;1.632669809499941;21;1.2566370614359172
531;1.0772357825029557;-1.7438613599913328;1.0189563201934582;-2.4910708457125508;-2.5508641870287394;1.3705428269578244;328;1.1635961787584197
532;0.5615741273716601;-0.0128012426054495;1.488811812993009;0.26285368824369;-1.990252652486868;-1.2209676551436257;12;1.256637061435917
533;0.2543634243360558;-1.0151331670325163;-0.9294614134542876;3.037582582833572;0.870887137258997;-0.6687986971717541;193;1.2566370614359172
534;-2.4342315531819176;1.258094381225093;0.2280224536000555;1.9152224400313385;-0.5637186000107467;1.9516130346355416;366;1.2566370614359172
535;0.7139181092008983;-1.0941334022804732;-0.6602412575245239;3.13984229547836;-0.1225294519998141;-0.1285283041089936;533;1.256637061435917
536;1.5450743277201882;0.2042843331983183;1.146287295898316;1.6981955186473858;-1.092804077961217;-1.7965556593487495;466;1.2566370614359172
537;-2.720400821247853;0.5979916610800716;1.1083396049704333;-2.6105436218632883;0.9663107520314992;2.463305958271132;224;1.2566370614359172
538;0.8893669520008767;-0.0652347706337611;-1.5009879569061335;2.861586896310063;-0.6527922696725799;-0.9695705470626266;254;1.2566370614359172
539;2.3749162636897365;-0.4564471727677508;2.19697658631467;1.75045919242538;2.6892145299485564;0.267889192828659;344;1.2566370614359172
540;1.2692915548635426;0.2895384228790245;-2.332346267114085;1.3272358403087037;-1.6733378543856183;-0.038178928477244;346;1.2235983032635875
541;0.0727663193014991;0.3051365682432162;-1.8436342674639763;3.2172561103269195;-1.95547275260897;-1.2689194430001864;240;1.2566370614359172
542;-1.5216431641582675;0.40971544882669;-1.667744794448073;-2.860143147626679;1.2483841034749616;2.091400075255049;521;1.2566370614359172
543;0.9556302498322192;-0.9273784149639824;-0.0787299601630553;-1.0630672087316977;0.4775931113705345;-0.2930145329654934;287;1.2566370614359172
544;1.5207148146648783;0.8726258641851512;-1.1678823470634785;-0.1516192671493544;0.0570397052006137;-2.739175174342838;39;1.2566370614359177
545;-3.418939542354802;-0.6993179367733922;1.7752171685978506;0.4449581045152922;-1.7306754043897243;-2.575742530660774;267;1.2566370614359172
546;-0.7398832363243805;0.0913033271108195;-0.6635568525347701;-1.619232449755916;-2.7666720222181254;-2.7947188172770963;142;1.2566370614359172
547;-2.084847108131876;0.3870398572850353;-2.320993173816132;0.3931847970062643;2.0774297326369;-2.279168217466409;372;1.256637061435917
548;2.6564186876759828;1.0654510617123871;1.100613910625181;0.6612953444952393;2.204186730099477;0.6921930809147824;219;0.9245986631571158
549;-2.7343396370524378;-0.4212628970201909;-0.7293741541160286;-2.3980499645277416;-0.0316885802104676;3.1317564266610782;355;1.1963458425083906
550;-3.3787237886442094;0.718751303997789;0.8766970531725151;0.9050559781140706;2.85559869420191;-2.269506953644186;518;1.171995217331252
551;-1.6083481812873843;-0.9279419835287854;0.54592575975756;-0.1639585444560885;-2.8077234793038435;0.4593975980842331;93;1.2566370614359177
552;-0.8001445982697871;0.3153029188934615;1.904117072922516;0.666896744466857;-2.787905556866312;-2.5845539700640137;458;1.2566370614359172
553;2.173472816966897;0.9432792384403604;-0.2863591899037235;-1.5643065020588307;-1.0132078434005591;-0.3441343579984182;500;1.2566370614359177
554;-0.6381265128244283;-0.2256115183216799;-0.9163039137247256;0.9445060797888686;-3.268581986459284;1.4181590847585626;86;1.256637061435917
555;1.5308638992088297;-0.3566613887299629;-0.8944774797347526;-2.0036109870140693;-2.51765496504665;-0.5113379641371776;505;1.2566370614359172
556;-1.8931318952359355;-1.026003945451521;1.2285133376903643;-0.7584259955222286;-2.273587957464656;2.5360795899283075;261;1.256637061435917
557;-0.2415195310642303;-0.5913652151190488;-1.9374611277811535;2.499784347127519;-1.0620100083173802;-1.1131844977068124;254;1.256637061435917
558;0.2434840931794248;0.4036624665494494;-1.5111574955473184;0.7825914761731787;0.5706949515508091;-2.1540541615520765;120;1.2566370614359177
559;-0.589316454929788;-1.095416244990622;0.5102427942013399;0.4298901837654089;2.2413481051163613;0.1077535901005973;38;1.244432652200142
560;2.3114227588093077;-0.156259419983875;-0.4053830204308407;1.2801817291418054;1.7933882730171904;-0.6103053056535055;60;1.2566370614359172
561;-1.2501517168993217;-0.3435299837677774;0.2490022505255738;0.5669955648304195;2.569996991718683;-2.6663085304110186;420;1.2566370614359172
562;-0.7988013865587493;-1.585869133947628;1.3656439705103929;0.262696501341623;-2.770037541704624;2.270973412770926;261;1.256637061435917
563;1.0902864252546198;-0.6515545172417705;0.8408564072081692;0.2526513210572169;-1.9256147723402317;2.597933944415625;41;0.4678411766544632
564;-0.6038224283624949;0.987978274582718;0.0097330434618817;-2.8485034195906787;0.2820641173890661;-1.2270417681350008;332;1.2566370614359172
565;-2.4223021009029466;-0.6338542363799964;2.007330476503118;1.747780786605228;0.1307271055190177;-0.1784512121180043;304;1.256637061435917
566;-0.8863674016434402;-0.978191777291386;2.312386584002296;-2.264107178582429;-2.604087886572378;-0.5300206955460417;423;1.256637061435917
567;-2.952158623529312;0.920756214257462;-1.24539726868821;0.0862203677174207;-2.8508978533859644;-2.6640624794456738;330;1.2566370614359172
568;-2.597454935406056;-0.7196371561254882;0.4180954559670728;-1.5099575057827015;-0.0257588507020239;-3.056434471833332;136;0.7553411595886705
569;1.0376151976757118;0.0618936342432239;0.1445511134841645;1.4384189164457764;2.3578710967330654;0.6009251381431426;31;1.256637061435917
570;1.8599164931032;0.2548394693415877;1.640663594891812;1.94003338360793;1.3691172161321248;-2.7355249874587075;523;1.2566370614359177
571;1.5594409397491034;-1.6635311409111908;-0.346467949684048;-0.200580388919519;0.4350548984991709;3.011003693800844;247;1.2566370614359172
572;-0.1260318705277077;0.2981780020753815;-0.5261337000777613;2.2393554160845937;0.5948683295857747;-1.363601917858016;44;1.2515196403178244
573;-1.3907061838615986;0.7989503342719918;-1.9664032671467648;-0.1798514367676257;-0.1343122491013234;-2.5207760518512843;401;1.256637061435917
574;1.2683551931536066;-1.145300127260101;1.4589572888888251;-0.511779669617207;-2.089248205808862;3.155127044403633;563;1.2566370614359177
575;-2.7071802186254184;0.852542009968291;-1.4913017848143175;1.3100342856441294;3.068673692463577;-0.984405978202946;286;1.2566370614359172
576;-0.2183289287892562;1.3843893597643968;0.9327518111604944;-2.695099313502781;-1.7481258933270756;0.9839507620253958;445;1.2566370614359172
577;-0.5241027155215305;1.5406814644420783;-0.0664626425587551;-3.0163176400124945;0.2864495002312331;-0.1164950429804361;564;1.2566370614359172
578;1.504048111851839;-0.324324824793347;-0.6274571907975868;1.974847494641771;2.817913356368808;-3.3863012895543845;410;1.2566370614359172
579;-2.9812022286949498;-0.0442999116935955;0.989757964853462;2.7325513025037718;0.7783563363893232;2.1021404452167376;366;1.2566370614359172
580;3.10188641061625;-0.1353745411005933;-1.443127128566328;-1.225369237174363;-0.4379682496779787;-2.034179552760091;166;1.2566370614359177
581;3.0712755116886674;-0.3259418796349075;-2.088539966256452;0.853477671051802;3.3525685172750403;-3.434817040287336;429;1.2566370614359172
582;0.9421770541713544;0.5778142726120847;-2.246871022791092;-2.0754587827453244;1.0340277048586983;0.0032468958078445;436;1.2566370614359172
583;-1.0961448087466836;-0.2597018341747141;0.640607597836154;-1.1505211960708213;-0.3385941087188191;2.377039398262967;486;1.256637061435917
584;-1.0057708886705852;0.1733167945813969;-2.217534295322036;0.2760496338868877;-0.96391389404293;-2.804312165739099;573;1.2566370614359172
585;-1.2086888541299194;-0.9086205254951334;0.8126805077180904;-1.4029893865984815;2.374008074769312;2.682406800333632;63;1.2566370614359172
586;2.509071999876671;0.9956937547762476;-1.703546531573714;2.282554584318034;2.35401641988045;-0.0566318835701353;369;1.2566370614359172
587;-0.0598558727384782;-0.2855730962322818;0.9417213183880202;0.9563838128069906;1.4849765548471088;3.1113309236083246;154;1.256637061435917
588;-2.444254202093312;-0.2959637705370982;-0.8921500311345864;0.8952221437930308;2.735862326817735;-1.4154281370250958;286;1.2566370614359172
589;3.2514396120709828;-0.1818413812009493;-1.928001824413068;-1.7647905100056491;0.0730683946463753;-1.1581806116749211;580;1.256637061435917
590;1.847641494207372;-0.8328682241513667;-1.5492795595649795;2.820833830110997;1.6786410711815398;-0.2026528162710351;387;1.2566370614359172
591;-0.6174016165124493;1.4022839724624536;1.6062443902646013;0.2039751200729561;-1.435354684786377;-1.6564687995538605;66;1.2566370614359172
592;0.8404427002570927;0.003507061077296;0.2400831650670751;0.17615984647684;-2.8331493658646307;2.8806309434699453;41;1.2566370614359177
593;2.217405844826276;-1.10727136002143;2.039000291557352;-0.6625151103604041;-2.6441328941569315;3.055501233529204;574;1.2566370614359172
594;1.3569627973938112;-1.076662741775076;-0.5929658807472223;-1.5487102701941031;0.8549669416068727;2.1955442689045217;21;1.256637061435917
595;-0.2363498966498562;1.1900139583870133;0.8747978866815351;2.84487406673459;-1.6082282068921676;-0.5062501533319006;178;1.256637061435917
596;-1.85715507438142;1.381173846999857;1.6996081131821756;1.4505322317186795;-0.1102436286895612;-2.7296244538874213;148;1.1504964763636567
597;0.1667608995115009;-0.7835358983880659;-1.1255484722175977;-0.2936867216247109;0.7778984377896461;-0.1957589542649884;54;1.2014656039317897
598;-0.0460951213170672;-0.1695832052840129;-0.016496086378829;-2.296776407902777;-1.1269232928220647;-0.1334214116894926;282;1.210891295253191
599;3.1254767920124924;1.3395359163603369;-0.9533499213807652;0.1973044433023117;-1.6044658438539954;-0.0850085572889404;513;1.2566370614359172
600;-2.8737097909202154;0.0957024951372207;1.236927211903203;2.7787818994031506;1.7642659382992456;1.3860861468830672;579;1.256637061435917
601;3.082891560733597;0.5621009001022554;2.0777138724401625;1.3678029464276749;-0.371568636807393;1.622008276785528;456;1.2566370614359172
602;-2.23066030206556;-0.0275827000113938;-0.866934349500641;0.5316740040681902;-1.7466656748859866;0.4599178718521778;93;1.256637061435917
603;-3.075850083278202;-0.1029905569999335;0.9675249334473728;-1.735243859639373;-2.3012725720502574;-2.086835068238785;323;1.2566370614359172
604;0.6241270248857753;-0.936549482387061;1.0634265734843753;-1.9104862786120835;1.3703742666745842;1.1731753391477924;440;1.2566370614359172
605;-1.690215260740784;0.6053437831897911;0.0923776702743449;-0.6388383060382905;0.7010005608372214;-1.6267151977345846;97;1.2566370614359172
606;3.172739265900386;-1.0193963542880855;-0.6476887871102877;0.1220664859648292;2.201613148920873;2.56811996494226;349;1.256637061435917
607;2.6327101140214206;0.8670172232297224;-0.227891671664306;-0.7769543998544414;-2.9874712816802624;-2.606323533091671;134;1.256637061435917
608;3.199105878037336;-1.4501484833328635;0.0244915997377363;0.2103620343941187;-0.2627255402176395;-1.1617176646823952;110;1.2566370614359172
609;2.3525028050038754;1.5488357876422827;-1.1660942334092377;-1.5894537740068624;-1.6184148110213583;-0.5429926682637831;553;1.2566370614359172
610;-2.661648966944888;0.6881415315402197;-0.3671213031821329;-2.955829851414332;1.5862761920953887;1.183764027880419;427;1.256637061435917
611;3.252220006510153;0.0884190828093001;1.894841125663804;-0.6876282064417863;0.5935886483980966;-0.0515210207429727;205;1.256637061435917
612;-0.2323548486079267;-1.758046405474068;0.1977953888417404;1.4766245696937923;-0.0092431304478277;-0.9945483329104045;350;1.2230659421668522
613;0.2145757348114614;-0.534927969011031;0.7468198399518506;-1.5615960306005616;-0.1800175738683063;0.6542374204711631;336;1.2555636147960867
614;-2.4993614102019293;-0.8951875818177332;1.6949121374772194;-0.355261694705038;-2.329103425798616;-1.4656892666778587;267;1.1423031122301814
615;-1.1793140688199788;0.9425607103940858;0.5266896614290988;2.325040659669966;0.0323725508101245;1.0656915057118672;131;1.2566370614359172
616;-2.626918356234693;0.5942243274334104;0.6912173075992835;3.2494223501369284;1.0956832902152205;0.7708683581038837;203;1.256637061435917
617;3.0820451112540224;0.2796704976231526;1.7765890488948002;0.7449329353406295;0.487573469293089;2.643747001758064;229;1.2566370614359177
618;-2.146193337029301;-0.6640406237198695;-1.694858585068609;-0.4597509148983153;-0.8317786028687371;-1.8633360039031253;181;1.2566370614359172
619;-1.6358199529312325;0.068863784710288;1.8406412286003;2.904912076408486;0.6160388809590694;1.185193376435539;140;1.2566370614359172
620;-1.7346736976770671;-0.9356030700028072;2.4411957196303065;1.0016319398473166;0.8729782094806375;-3.0230233192846114;335;1.256637061435917
621;2.753531820115078;-0.8370190605441331;0.3752222836411523;0.7403522940931518;-3.2873631920572697;-1.8075685331059337;84;1.256637061435917
622;-2.9964771510096178;0.5751644000544812;-0.202308464055119;-3.064930318098412;-0.7683937228943636;-0.9915409784056958;398;1.2566370614359177
623;0.4295739484299468;0.5961592850176417;1.7259751565266912;2.2903116654651203;-0.2154008286921266;1.772803528597835;331;0.6099726430273001
624;-0.214357478574748;1.071045755697857;-1.1077434394095729;-0.3005003109832478;-1.5405953922107836;1.4462795476279011;95;1.2566370614359172
625;1.992580510023776;-0.5913113010579372;2.106690676815276;0.5619509258127191;-2.084136498050281;0.4317590293847462;37;1.256637061435917
626;-3.0682131846577305;-1.5689117897821394;1.077658809052001;-1.2643239620965758;-1.801498463088264;0.5674280807176493;301;1.256637061435917
627;-1.986101120039488;-1.2507067314196711;2.572187059423003;1.7236298267957737;2.276701722957929;-0.380598359051008;361;1.256637061435917
628;-0.0494829154462031;0.5409152933064699;0.0115481676453167;0.7188326991476639;0.1368575448136088;2.819295862721603;53;1.154583793871928
629;2.809259478567592;1.20668025793015;-0.872976993930709;2.2922274341351825;2.7337090866059786;-0.837914825435069;586;1.2566370614359172
630;-2.176889514871688;1.532260879557688;-0.7306995144144713;1.534423521791123;-1.389179862680222;-1.7548049112046853;22;1.2566370614359172
631;0.4347276273845321;-1.179852472854604;-0.4921485549129512;1.1236459593260455;0.1547510404586241;-1.409661350880077;612;1.2566370614359172
632;1.0884213489236976;-0.3421192586676431;0.6955355660562459;-0.7643458748173478;-2.7614336259706564;-2.605583029676045;57;0.9939831051069562
633;2.519334969772628;-0.4272710435239296;-1.9611691479305864;2.102619850945228;0.9487118743429186;1.695669477553341;367;1.2566370614359172
634;-2.327814065735022;-0.5084753587114348;-2.028293096686508;-0.3414824089080613;-2.5869992697618334;-1.385086624602933;496;1.2566370614359172
635;1.3389219580701015;-1.2566734576451013;0.2735486924971202;3.0712875211361426;-1.839726025668956;-2.5201005731878365;515;1.2566370614359177
636;-0.6379209500992926;0.7021733960610377;0.3010772392139221;3.275513168980673;-0.4564483919064445;0.8786106028050554;615;1.2566370614359172
637;-2.871182696269652;-1.2933976114934749;0.4593266022278611;0.3653800061525095;-0.2998371810045173;-2.866312433667373;234;1.2566370614359172
638;-1.0429067433314132;0.7058908900435553;1.4987133956304728;-0.4148361333397803;-0.6895954455779002;-0.3164872420808357;11;1.2566370614359177
639;-2.9371408864055963;0.7138418910200948;-2.0733670311839254;1.89651884450292;2.6695181482903885;-1.7998370514377395;575;1.2566370614359172
640;-2.1733811702988106;0.9129493488721588;0.8445952231053842;-1.97562627553837;-0.6154537401253382;-2.681940149585879;208;1.2566370614359177
641;2.1861740754507206;0.3668871725411575;-2.3107155176453054;0.7039605600555742;-1.7143754196596297;-2.925188136766539;277;0.9924100146048188
642;2.2396111940475043;0.455984302756108;1.6945182802633318;1.5968927811052338;-1.0597241625563687;-1.3279197346741116;536;1.0379150740370684
643;1.2179173405836137;0.0351869153968169;-0.2956494588427125;-1.1876902267171503;1.945001990261018;-2.108786275522808;51;1.1189028565476944
644;-3.301201636386253;0.9553164861087352;-1.28167049218308;-1.6871381682903608;0.8016689830921033;-1.272876837320995;312;1.2566370614359172
645;-1.159126056157893;0.3054274020907223;-2.445515972927396;-0.9486348239887832;0.2731215580680367;-3.0642493957293824;573;1.2566370614359177
646;-3.2900486122109944;0.691517107530122;1.340425736727722;-0.1584832667829941;2.994262451503688;-2.7224352711785262;550;1.2566370614359172
647;-2.465363085164204;-1.5089503515527618;2.4942101859714274;-1.0593904221923722;-2.4478839590333905;-1.6948019688159022;614;1.2566370614359177
648;-0.8380192826308219;-1.49996014870214;2.3470467686558902;1.761975534870829;0.6164223661245989;1.5983275497754534;392;1.2566370614359177
649;1.615557203159427;-1.4253766512971136;0.3883408074682832;-2.032203373030929;-0.0783643091659873;-0.9534347588070476;258;1.256637061435917
650;-0.2578107665867536;-0.979819308745396;2.3087710708563964;0.8634313463150562;1.363419173950481;-0.9319534901845458;155;1.2566370614359177
651;0.6354396433103259;-1.244491101118524;0.2889996089827131;3.307153111101581;0.5806520422185752;2.1255853269250085;256;1.2566370614359172
652;2.4107220540164533;-0.1921264517855042;2.629100104647422;-0.454060385515615;-2.9663653971352195;2.5985872408853115;593;1.2566370614359177
653;-2.715507723670821;0.5670690753859746;-2.558808766101523;0.6794292780866305;-2.4776192456712502;-0.0749142097621762;251;1.2566370614359172
654;-0.4822193572302694;-0.663464488619772;2.1419771956257216;-1.7557270135915686;1.114632753017509;-0.9244424427824692;196;1.2566370614359177
655;1.1135052829677676;0.4164973720001482;2.573387397284268;-1.342305641145736;2.9152415499749567;-2.6904500797547755;360;1.016812301746687
656;0.7739725013341294;-0.4723449502137944;-2.1276429811829773;-0.954140524025971;-0.1116922782694272;-3.034822220186148;376;1.2566370614359172
657;2.3496383549660216;-0.9553187633954184;-0.0409780115476053;1.6591289160716007;2.9598868861118417;-3.432862675659604;578;1.2566370614359172
658;-2.942145717234545;0.5909800213758203;-1.751698805447197;-3.286426362578017;0.9266086719173044;-0.7440956541247967;428;1.2566370614359172
659;-0.638577762018162;-0.1039542662633857;-2.229507152929349;-0.6210214872984594;-1.6766240277722644;0.5007040631337953;238;1.017974898163107
660;2.826578080405444;-1.1906213394493368;-0.1544935691119126;-1.6254446751402336;-2.2928780662169497;-0.7630522840313076;415;1.256637061435917
661;-1.842326393448901;1.114839594319295;-0.0251237156822953;1.3583803375005326;-2.861365972230182;-1.399272500850021;20;1.2566370614359172
662;-0.6809265584462835;-0.8623551524646571;0.5183641338530269;-0.1194744812489821;-3.275808277568584;-0.2426582058114261;551;1.2566370614359172
663;-2.3227560718724165;-0.1235134273087007;0.6026639237596488;-1.7087038374174115;-2.0018805153269583;-1.6546215818953498;603;0.9888598529604736
664;2.384118566283718;-0.0362369184730628;1.993755637157674;-0.0152494542521259;0.130240699017993;3.133147088842608;617;1.256637061435917
665;-0.8176827206849979;0.1595331976774314;-2.3457989056345947;-0.3142076743251503;2.4988433781298918;-2.5659416491172133;372;1.2566370614359172
666;0.6805403315793238;0.6467862701618936;-0.2161673221832866;0.1149226202943645;1.8831783931608144;1.9517531238298635;527;1.2566370614359172
667;2.1219565021032536;-0.7596235617947088;2.1484678536786994;-0.7098719031571941;1.8032974019383183;2.629304607597058;408;1.256637061435917
668;1.8904411505895444;-1.0777412468350602;0.2565437401044383;2.8840642450039025;-0.8217607637156896;-2.820622307984236;635;1.2239683275897495
669;-2.9629342000036427;-0.6908124363693505;1.3343693266139067;-2.827016384276392;-1.1497976431687202;-1.6795794190916955;121;1.1771884476482266
670;-0.5297753701910584;0.0940445973766642;2.652626281625144;-2.906688972369073;-1.5492906096695915;1.5402104678377797;216;1.2566370614359172
671;2.1056324955448664;0.3030503686519322;2.474500302277705;-2.319247432151625;-0.5981966522883432;-1.7218466022780818;281;1.2566370614359172
672;0.1590071922363972;0.1589383832897549;1.5547114642575544;0.9589272025735912;2.3973661260564305;2.0378522881488226;154;1.2566370614359172
673;-2.3981468459141198;1.5484090155720969;-1.7431054267942572;0.2708806731447369;-2.6481876971812888;2.8353757187245927;460;1.256637061435917
674;-2.755738782047904;0.2230929647588371;-0.9009111131213112;-0.7119964796497349;1.3665161511598811;-2.2639461379229395;237;1.2566370614359172
675;-1.1441050005315558;0.0690520109439685;-1.9376293718803863;-3.0477567197597297;-1.767848092778173;2.793843125918875;231;1.256637061435917
676;-2.501517735583242;0.8558517220035948;-2.265819203491328;-2.5593424743281554;-1.082311795793061;0.7649043271240861;484;1.2566370614359172
677;-1.0495106562608836;1.1058740990427325;-2.247791536033552;-3.2045255184586297;1.812144943865977;-0.8028033047344851;428;1.2566370614359172
678;-1.0377748449716988;-0.7360204287562638;-1.6353591276079795;-0.7702105911582775;-1.414055741738164;9.020562075079396e-17;659;1.119724016523912
