Komment314/test_diploma/benchmarking/path_finding_for_benckmarking/pre_rrt_star_results/8_5_tree.csv
id;joint_1;joint_2;joint_3;joint_4;joint_5;joint_6;parent_id;cost
0;0.0;0.0;0.0;0.0;0.0;0.0;-1;0.0
1;0.3244158833105203;-0.350892634337547;-0.0054765459934917;0.4341863450117725;-0.8088150299068413;0.7127663506675266;0;1.2566370614359177
2;-0.4983230829250352;-0.3844094977048419;-0.8354439470452275;-0.4018592168389276;-0.568843325055143;0.0;0;1.2566370614359172
3;-0.3149134189012109;-0.3180696152159298;0.7643323450573538;0.5275034837318887;-0.6225838463360815;1.4430550100820707;1;1.2566370614359172
4;-1.2936832593559051;-0.2871166569093583;1.374722211419881;0.1564062746884934;-0.4834448200472134;1.1421569844850543;3;1.256637061435917
5;-1.777695523880359;-0.2062420816263981;0.670301413750144;-0.1474436439317663;0.2733497107955235;1.5629380913426738;4;1.2566370614359172
6;-1.832997240416195;-0.2319233800015848;1.3100533611520104;-0.3247226010146393;-1.191523608393285;0.4017596516593524;4;1.2566370614359172
7;-1.2387904216069778;0.1087787912157692;-1.1671298501225995;-0.2711766140710234;0.114933293031726;0.4392791729440129;2;1.2566370614359172
8;-2.0585349229220613;0.394689543574988;0.7891034057787206;-1.1928857534169854;-1.5178802136649745;0.4651706361488283;6;1.2566370614359172
9;1.20860115774493;-0.3958330668099138;0.6840997373898561;0.1549327307050697;-1.092799339906887;1.1142490304215749;1;1.2566370614359172
10;1.4446926119231078;0.1225751615105687;0.9605515559756216;-0.7954344994000189;-1.4423367229987916;0.7232879377125708;9;1.2566370614359172
11;-0.5242258827697678;-0.0979560901238949;-1.368918956415519;-0.4023181395304906;-1.2999293063650312;0.8229992017731564;2;1.256637061435917
12;0.5870451921418448;0.3966389713506987;0.3615868803962138;0.2033323770746222;0.8841407025953508;0.3512808895115394;0;1.2566370614359172
13;-1.1136340624762306;-0.0152824195061997;-1.850087878395299;0.4418448989249427;-1.414322252605991;1.3403764847425854;11;1.256637061435917
14;1.966071569656526;-0.5315479358752558;0.8235900671828977;1.119276687429106;-1.2862029195164792;1.1258675495012096;9;1.256637061435917
15;1.5556520283694202;-1.1546908248896062;0.7171082689182962;-0.4433055127650827;-0.4776843938452372;0.7328275517355939;9;1.2566370614359172
16;-0.0729278504994535;0.0373562596134009;-1.2166267800516657;0.100818305972354;-0.8404842921777846;-0.8651678376013676;2;1.2566370614359172
17;-0.336992586520608;0.3924563137512126;0.1464341177107273;0.9118454388313052;-0.1493497811079732;-0.6605606182153779;0;1.2566370614359172
18;0.1594784767038091;0.9713673052980332;-0.12881031964399;-0.2723217952230159;1.2782482644266693;-0.3150175979982981;12;1.256637061435917
19;-0.6956698372239666;0.4452060644319832;0.2009271082179529;1.2824033502621006;0.6471233549531124;-1.4809585031467931;17;1.2566370614359177
20;2.2587786236995333;-0.2299961020199178;0.2555901299528762;1.231179657326763;-1.3983672886286058;0.0988336030696925;14;1.256637061435917
21;-2.046742211521481;0.0776464850529405;1.1030420164786805;-0.7265066040584369;1.14908120456166;1.9326323914583243;5;1.2566370614359172
22;-0.7883517062957534;-0.1760067702330195;-0.5133356193716546;1.8223647168045456;0.7457399815496206;-0.8700684729910185;19;1.2566370614359172
23;-0.9459512321785298;0.7857600075877612;0.8713805123213845;1.196518421781983;-0.6958429818140514;-1.0457585877950362;17;1.256637061435917
24;-0.4631317008392522;0.8542394758052216;-0.0646913278462391;2.075743758593361;0.0133380586976113;-1.987049827774393;19;1.2566370614359172
25;0.4328305797387879;-0.0337145424039093;1.2320970832813871;0.2060598107214596;1.6647026757442718;0.406760296025247;12;1.2566370614359172
26;-0.2525377474866284;-0.3662652238672971;-1.9390278203823683;0.4740302706825964;-0.7172021834701963;1.808925638301427;13;1.2566370614359177
27;2.1213225298104765;0.7307873148913152;-0.0128701469655112;1.4934937719142216;-2.1010424165264268;0.0487756181490558;20;1.2566370614359172
28;-1.242844021285895;1.0529756143600315;0.0150841071233815;2.7401852098300536;0.7059001735233368;-1.922238534681756;24;1.256637061435917
29;0.9667451611792476;0.6737085856793301;-0.0094608603103858;-0.6591596058890834;1.8907473320457928;-0.8625699680112963;18;1.2566370614359177
30;-1.7006249388541286;0.5349565825237338;0.1875939902537171;-1.1334469488215966;1.0994870680412676;2.4266990885696806;21;1.2566370614359177
31;-2.26951635301294;-0.3854475316487022;1.1084422213848422;-0.6703730446529766;-0.8390461708206647;-0.6377866332696658;6;1.2566370614359172
32;-2.1395942763814366;-0.6966496223170917;1.2951391733886195;-1.2430010488105638;-0.0732230537428783;-1.3562339780750732;31;1.2566370614359172
33;1.2330367120377947;-0.8206758936500759;1.298595713867894;0.4255765999681785;1.816732691749368;0.9004969335685743;25;1.2566370614359172
34;-0.7504549259957931;1.476063147046877;-0.1233579507830121;2.447908599578733;0.7547035649555718;-2.9472814759217782;28;1.2566370614359177
35;2.895097908962474;0.8611145856286734;-0.6166371167743331;1.3879714244490782;-2.10368976442982;-0.7178707417829701;27;1.2566370614359172
36;-0.795370764573253;0.4416707572626152;1.6499694931142053;1.9000855997381625;-1.0327227908859151;-0.5731390430328377;23;1.2566370614359172
37;-1.0542545407115758;-0.0007964422500769;-0.3369598259108201;-1.0786504127005363;1.6876097776270154;2.926962040496889;30;1.2566370614359177
38;2.766993351892748;0.5031473859238839;-1.5267827774791716;1.4062897691846887;-1.411395382045995;-0.3620432368962983;35;1.256637061435917
39;-1.0414939545907234;1.2011539800056532;0.2211907954475972;-1.9155385183960023;1.245878353145569;2.684841879430641;30;1.2566370614359172
40;0.327561666352358;-0.3314826467579469;-1.9004323491694877;1.3226787263487596;-0.0583128632514666;2.1014706751189847;26;1.2566370614359177
41;-2.242965207574968;-0.4249332996863191;0.2066949856876976;0.8680077139578137;0.0997977802922028;1.759514600087857;5;1.2566370614359177
42;-2.5020757969781484;0.2517703327479535;2.0120168580887707;-1.265095167442847;1.6156024238044235;2.0194308044682208;21;1.2566370614359172
43;0.4506109611841744;0.0659654581911271;-0.4118670232838757;-0.9396989742994808;2.12445574720596;-1.6676400284512374;29;1.256637061435917
44;-0.5804626703254677;-0.0953949982977285;-1.484463240709856;1.899087480001545;1.4636963302747876;-0.6151488049978554;22;1.2566370614359172
45;-0.8414054584329408;0.003911097760999;0.3367139811958073;-0.0685113416358325;1.49082222851374;3.07141663770817;37;1.2566370614359172
46;0.5745021423724392;-0.0116362346406925;0.2301699655943516;-1.1461249146333734;1.4509336852287702;-2.4734380954426856;43;1.2566370614359172
47;-0.1127555614118553;0.3174042710384459;-2.2543518365558723;1.833140624975881;0.6416557115975635;2.3988203879875245;40;1.2566370614359172
48;-1.509015876638875;-0.4952545915709043;-0.2616576934753778;0.8155991814184018;-0.5464851610131645;2.38858333489826;41;1.256637061435917
49;1.0809554081033872;0.0820022541516788;0.3694721792240147;-0.3176496562568712;-0.5500195409745512;1.9613512378683544;9;1.256637061435917
50;0.1175661047159558;0.3490452256878339;0.97219709662375;1.182264711492998;-0.8356627260165853;-1.5226559192753;23;1.256637061435917
51;1.2135210175412885;0.113691444910651;-2.1120433514805304;1.7668832565288586;-0.6334189231673129;2.2537496928420184;40;1.256637061435917
52;-2.40063807934462;-0.4181433942294859;1.1140115760156026;1.6465282691247127;0.3355928408075431;1.496241155925646;41;1.256637061435917
53;1.5006586520120857;0.4364976339860643;-0.942011810077144;1.4476995368971768;-2.566689546384731;-0.1095848789685088;27;1.2566370614359172
54;-2.5095244944293547;0.5020553186832714;0.329795302706616;1.3495990888684966;-0.4092617326746026;2.137071779861593;41;1.2566370614359172
55;-0.3744959246061422;-0.1118649126101607;-0.3891037099007785;-0.8467974863383346;1.0714093803610525;-2.700061334942549;46;1.2566370614359177
56;-2.315461034613681;-0.9628437286242354;1.102173861482485;-1.0063664498662843;-1.7427495751417703;0.4222180473507753;6;1.2566370614359172
57;0.5460970913980099;0.3321209738970438;0.4914875898661046;-1.3979870827209644;0.3413287057901938;-2.785233181946764;46;1.2566370614359177
58;3.0415960377205886;-0.0106178211216567;-0.5139546994349382;0.7894049442448037;-2.4494075127534614;-1.274118296299105;35;1.2566370614359172
59;-1.591089482901019;0.3108889733992672;-1.768794265755651;0.499117388301126;-0.3388066225061563;1.619952213386893;348;0.7923736362247922
60;1.79326007855284;0.1474412670002736;1.8223226170184548;1.0173488979362555;-1.5192586426211907;1.287346974356143;14;1.2566370614359177
61;0.8506180743769586;0.0973525459122903;-0.8395077737321649;-0.1570041426140091;-0.2030998626578108;-0.2746541832115619;0;1.2566370614359177
62;-3.0913472329781064;0.0245466133447708;0.3347540477423218;1.3579412779888194;-1.3337421925771682;2.534370331827958;54;1.256637061435917
63;-2.629301179953284;-0.8955110207390797;-0.3590780244344045;1.4049115010075583;0.0622159460580418;0.9857829545710128;41;1.2566370614359177
64;-2.391911204227571;-0.3733761407468197;1.0439455798618358;-1.585910425014856;1.0355249724964406;-1.387215921247208;32;1.2566370614359172
65;-1.6327353584952418;0.2292908226070268;-1.856352214162991;0.0208538095501867;0.305150701686336;2.578941570229535;59;1.2566370614359172
66;-2.267699200476533;-0.5970728702363597;0.4022431523468848;-0.4411157509119914;1.8552657923126172;1.870948959329892;21;1.2566370614359172
67;-2.4444274429911337;-0.0834874035351639;0.5951969538398392;-1.401786600439248;-0.4981122640414663;-2.00011497253474;32;1.2566370614359172
68;1.8027898404131144;-0.535300888092365;2.2317168705229955;1.2066025915461076;-2.129890836743593;0.5548056815770954;60;1.2566370614359177
69;1.6312801116247622;0.7756974789327271;-1.2628240632365435;-0.5417000122255226;-0.4544921633623223;0.0705500428785646;61;1.2566370614359172
70;-0.6578534210138763;-0.3037981783399786;0.5282796250175644;2.433953747389082;0.4595979124122424;-0.8001005208896389;22;1.2566370614359177
71;-1.010269808721882;-0.1985746664234937;-1.668052685327789;1.2836141950517217;2.4491401730690767;-0.6031293174873026;44;1.2566370614359172
72;1.559464549481943;-0.2473313288824506;1.4925351596249083;-1.7282564287868722;-1.6604804636063486;0.2453932873706207;10;1.256637061435917
73;-2.2924440938855426;0.5561653988643845;-2.172025889146423;0.3444679672498866;-0.955528817238971;2.2983469641966234;59;1.2566370614359172
74;1.3441003458687757;0.3207681119101068;-2.587317339607813;2.3406608514022818;-0.6144909471190332;1.2720467659207388;51;1.2566370614359172
75;1.6227850688769303;-0.0249262645138386;-0.3789310886808364;-1.4703824559078131;1.3990998817564049;-2.508497968581957;46;1.256637061435917
76;0.8148547914041631;0.5051411648232724;1.5181735012055309;-0.1972560083360857;2.412160180705167;0.9895403953317524;25;1.256637061435917
77;1.909074349460835;0.3806330988978062;0.5338336283111268;-0.9581574000727276;1.9082545910075035;-0.3931191423382706;29;1.256637061435917
78;-2.683727245823234;-0.0643539812429718;-0.1816245227470073;-2.0568641627809185;0.1621911034251796;-2.2301746700750438;67;1.2566370614359172
79;-1.5273064245577936;0.5939367294704585;-1.4430796199395155;0.9406157578134648;-2.0666071753280777;0.8965745052448028;13;1.2566370614359172
80;2.5707452708385548;0.3573317374777002;-2.3587751631209315;2.2105463017533253;-1.238096337034987;-0.749714144468867;38;1.256637061435917
81;1.488020640184958;0.1577631155314058;0.3298054526272735;-1.7177424958002123;-0.3888103189658708;-2.7905657679719;57;1.2566370614359172
82;-0.2694015154267569;-0.0653768980935178;-0.7939250854818443;2.2392071817976817;1.2644380289789927;0.2715424992167832;44;1.2313041149153747
83;2.44729517815389;-0.5371889231038404;-0.8964335027573372;-1.4995083393031865;0.91988128633141;-2.136208800556589;75;1.2566370614359172
84;-1.1873143944864242;0.2782418702127257;-0.2261444067477807;-1.4435859946914826;1.4023458709252197;1.4829526171656529;30;1.2566370614359172
85;-0.6803444796555829;0.7255964606653447;-0.7433625168031308;2.1368036610345817;1.4819435453662455;-2.916442404280063;34;1.256637061435917
86;1.234817128805477;0.8507978574271889;-2.638521898987085;1.91947295333066;0.4371114387282301;1.2527174822605025;74;1.2566370614359172
87;1.487328437743252;0.795966354676839;-1.493102060603857;1.8797435161206968;0.1212659234301824;2.5244749611290294;51;1.2566370614359177
88;-2.755308077694344;-0.4629434386574015;-0.0600271606320515;-0.9808420619666224;-1.3534248880406012;-2.0208616137676136;67;1.256637061435917
89;-1.5328746710405323;-0.3327875815361074;1.302875436767034;2.4286194172856144;0.1088128653492905;1.8427559137986729;52;1.2566370614359172
90;2.1208423319139795;0.0591856637187306;-1.5478651243619468;1.424549528509477;0.7534465134367754;2.6828990931530603;87;1.2566370614359177
91;2.9289774153680126;-0.8228849341076933;-0.1828158842116063;0.2044305904472715;-2.308847132063226;-1.9337172328256087;58;1.2566370614359177
92;2.1115149429643543;0.0976461699257838;-1.6395819114678185;0.7704678497428852;-2.947768090899161;-0.0830647026256206;53;1.2566370614359177
93;0.1765974383938109;-0.6907522100163765;1.1456051261786129;0.5172584164110385;2.5273888952841195;-0.0761784584546466;25;1.2566370614359172
94;0.815343165725038;-0.7526223979197888;0.5477270541196595;1.0715271115170604;2.340853669474676;-0.7601706469684866;93;1.256637061435917
95;0.9222824473477544;-0.5234211527602523;1.3462828801487083;-0.9684954647280236;-2.00606758274839;1.3496918422889677;10;1.2566370614359177
96;-3.2895470542941228;0.1549888911208874;0.1377698290226256;-1.554514775514215;-2.0658716962439634;-1.83091275231794;88;1.2566370614359177
97;-0.2533726460981185;-0.3536507249197989;1.43151687243817;1.228722278845565;-1.5886266792049784;-1.9321334784880144;50;1.2566370614359172
98;1.4697413978124385;1.1003515566460955;-2.6050605317887565;1.59791360504632;1.4727571482745625;1.78618550374487;86;1.2566370614359177
99;-1.0541147680623792;-0.3134703463771084;-0.3824288326740919;1.9067659118168327;1.692452150925673;-2.5527553371983567;85;1.2566370614359177
100;3.3850995055803845;-0.5531832649814782;-0.7438205406917807;-0.1880956931190258;-2.5850793248745987;-1.2320183968706808;58;1.2003736653484354
101;3.030311207789296;-0.0839466186297117;-1.5226751397618712;-0.820185397728112;-2.4152505338863985;-1.6770860751302927;100;1.2566370614359172
102;-3.0994460934623933;0.484599109090256;-0.3744804756170713;2.2432873228943624;-1.2907428685592144;2.814945889513927;62;1.256637061435917
103;0.1650506312581705;1.4157478037260989;0.4877275386344431;2.7813945498065205;1.1678254453040058;-3.2337082480171566;34;1.2566370614359172
104;2.64315322981467;0.1355617935178668;-1.6377185573445172;-1.128917458577519;1.1646606421000691;-1.551893188051625;83;1.2566370614359172
105;1.4516699350820692;-0.9726475346883956;1.2730250815629338;1.7399442656476032;2.307933369344017;-1.1499031440150167;94;1.256637061435917
106;-2.2873160130128936;-0.8099208141815896;1.179161437253069;-1.6271096912364431;-1.633554340726137;1.4954311139982643;56;1.256637061435917
107;-1.144868623195704;1.1752165517467912;0.9742511549856736;-2.340771110199229;0.3658864350812403;2.898076946393328;39;1.256637061435917
108;-2.658635097942738;-1.1756644340803624;1.7489648599117658;-0.1867444929386281;-2.1130228203502237;-0.0123559851424369;56;1.2566370614359172
109;-1.9542225815255256;1.1340157224313157;-1.009519627313061;2.7766084706225;0.6224155372013147;-1.830583758266108;28;1.256637061435917
110;1.76451379838757;-0.4301373518773088;1.7373043164987363;1.7136504957820746;2.576568198759512;-2.097814996990415;105;1.2566370614359172
111;-2.092614787239385;0.2559107030123538;-0.5082574700744582;-0.9891105286713928;-1.4449836475241555;-2.6641820981934314;88;1.2566370614359172
112;1.2712253151097956;0.3175558605941513;0.3564656329875837;0.7970041139674384;-1.8321738642217864;1.1183359079703603;9;1.256637061435917
113;0.1978005003820935;-0.666933608418272;0.3308890243301881;2.0960204913191123;2.482518471013624;-0.4885811412932617;94;1.2566370614359177
114;-2.3671400359720893;-1.22953718706216;2.174942344147901;-1.1928257260009836;-0.5128782078891376;-0.833240060383692;32;1.2566370614359172
115;-1.4620869681462354;-1.1300048731009873;2.294070548348932;-1.6396366950027044;-1.2176050535350935;-0.6341484507153672;114;1.2566370614359172
116;-2.065364199041072;0.5635637237981131;-0.7785585777942435;2.44819971118811;-0.8402265767051948;3.123722185021032;102;1.2566370614359172
117;1.4336537422762672;-0.3521295664792462;1.9409390878392376;-0.9232551779008462;-1.323387343458351;2.0327586745627784;95;1.2566370614359172
118;-2.47256124948443;-0.1499708134725426;2.1295701152266187;-2.288236640885561;1.5320334095335155;1.4284581959612552;42;1.2566370614359172
119;-1.3795158685604003;0.2494421492589941;-1.3539288727314698;-1.0585213364363963;0.644644695061381;-0.337989838617365;7;1.256637061435917
120;-1.6211613455305762;-0.842906398692561;1.1635318262288143;-0.0963834757068709;2.433217353562356;1.6096778570569157;66;1.2566370614359177
121;-1.2207977449498404;-0.8132346991585623;2.040079792296332;0.7363555516413647;0.1793537302542942;0.8616566831764327;4;1.2566370614359177
122;-0.4230957654946206;0.4441965927429774;1.475963843565733;1.0508053137501767;-2.4313862923751324;-2.344318727269493;97;1.256637061435917
123;2.661810326537232;-1.0411131131379945;1.4735371180718675;0.7904910829642964;-1.101950410897179;1.646393712988235;14;1.256637061435917
124;1.5974826576298988;-1.153570565321227;-0.0311092855944976;1.2427480310837418;2.39207677621674;-0.0971147154670182;94;1.256637061435917
125;-2.4163832194989;0.8483510969780014;-1.340938937194496;-0.7665850695904218;-1.033255242057353;-2.204912242278924;111;1.2566370614359177
126;1.898244955352212;0.5567606729573576;-2.275700884121809;1.9824097175117184;-1.7924292861976636;-1.5987580032361752;80;1.2566370614359172
127;1.2088038547854472;0.0675445088877583;1.6990211409450415;0.8902437265977782;3.161618650036504;-2.12760742242083;110;1.2566370614359177
128;2.2046970408565936;-0.319175754980295;-1.704593111789472;-0.2827769178661277;-2.953844575300714;-2.156856479308028;101;1.2566370614359172
129;1.0140135606442011;-1.3653811533196936;0.5464080963790718;0.6480141362666398;1.054796295278042;0.7039008967559702;33;1.256637061435917
130;-1.5753379064355748;1.0831760896705611;-1.7598242875908008;2.753597780586052;-0.9002205685296245;3.0274710920792884;116;1.256637061435917
131;-0.3091939844521;0.4937121528339145;0.4225801705063607;-1.824754529559672;-0.2965152142083581;-2.307971599340239;57;1.2566370614359172
132;-1.504955332949349;1.774141364347624;-0.1110791305999505;-2.4787134355673315;1.0492109661691174;2.530737694256349;39;1.0164184393841358
133;0.4121359084813959;-0.8612516475704995;1.214487022666311;-1.6593386339902332;-1.164052870708443;1.3833751018661984;95;1.2566370614359172
134;-1.6718245697138308;0.4041962836249143;-0.2552521305090103;2.3981394075748352;2.3430959091827077;-2.5131726739011397;99;1.256637061435917
135;-2.311617617509419;-0.3243231490653549;0.0101513678128601;2.1575125723812545;-0.0992092059491639;2.059359560754073;54;1.2566370614359172
136;-1.3051636568743528;0.344096013254787;0.2137938452720068;-1.7330092415865093;-0.9224008491728524;0.6432116087897424;8;1.256637061435917
137;-1.4819496018451797;1.3353172444164887;-0.7285078999979537;-1.4024733466611368;1.6972740341482266;1.298896915351623;84;1.256637061435917
138;-2.6577389823848487;0.1150814324075089;1.602404974348426;-3.0366135565712784;1.1670762441295306;2.137985075013763;118;1.256637061435917
139;-1.0459461989647876;-0.1864806953404498;-2.459822012899119;0.9646555501030166;-2.084547855061949;2.0118950308060017;13;1.2566370614359177
140;-1.300875261237416;0.7608610401389349;1.724258479183476;0.6284622801779453;-0.4035127979874291;1.5019154073485952;4;1.2566370614359172
141;-1.717916488449894;-0.3989003639915538;1.3493811767708734;1.5008445534099888;1.351074570998216;1.5657530322673583;52;1.256637061435917
142;-0.2751102985355387;1.3324687085445603;-0.3654291795793534;-1.1988995313004187;0.9177898511141196;2.5888588607070275;39;1.2566370614359172
143;1.0093659286738297;-1.0587195455646528;1.8003070882300531;1.0059680380404703;1.4693578018550402;1.77411324863242;33;1.256637061435917
144;-2.896908204189775;-0.2365762873429369;1.6550946944223988;-1.5473713145389103;0.9078150596081136;-2.34330284679204;64;1.2566370614359172
145;0.156619868592607;-0.110601549642104;-0.2364971525069897;2.136285932544697;-0.2818153228238839;-2.366296946599454;24;1.2566370614359177
146;2.103206089248633;-0.0290264750470934;1.1685315088626576;-2.025530188996361;-0.0010736271993139;-2.3244554670206226;81;1.256637061435917
147;-2.982342960910095;-1.1452060166511455;0.6029002546030746;-0.0315262602461707;2.5001269457655644;1.491346110464531;66;1.256637061435917
148;0.960506839808414;0.0589767067742549;-0.1415913018220876;2.376287298837409;2.084429504535932;-0.5896157444822159;113;1.2566370614359177
149;1.6649043518880693;-0.0708893109849881;-0.537094176726332;2.639650874737604;1.3600678507927744;-1.1514101588364911;148;1.2566370614359172
150;-1.0591317655654728;0.3991063887777351;-1.3535513410688984;2.269325801592505;2.1040959861150945;0.1204835217621722;44;1.2566370614359172
151;2.071384465245303;0.5400954749793836;-1.9709149492088225;-1.0641992558338638;-0.8996124640273853;0.6683847302288894;69;1.256637061435917
152;2.2499692212558213;-1.3837550653917474;-0.5843300110968576;0.7114140046070176;2.7645168672364324;0.5138946495783404;124;1.256637061435917
153;-0.1221495473117618;-0.9615853290833212;2.0778630475403315;0.8755911220917929;-0.7940651904828109;-1.7959726607763573;97;1.256637061435917
154;-1.7385236628450609;0.557397013820608;-1.7210617366198029;-0.6994389658304957;1.0850463291333747;-1.2854778972703031;119;1.2566370614359172
155;0.8312938038455621;-0.6610969649125414;2.112495578693054;-0.8168769170620243;-2.6539374507182867;0.6271285630906338;95;1.2566370614359177
156;-2.9025443520343344;-0.2806231696161108;0.8932040835687118;1.252614227591772;-1.388783025506564;2.340809038242943;62;0.7015916347910398
157;-2.658897480353492;0.1915070826086839;1.4407078762488206;1.993914387083536;0.8946565151065258;0.721124840397084;52;1.2566370614359177
158;-2.9158458951014063;0.3125085337498449;1.1046756086200649;-1.1540296156512466;1.7301159246830855;-2.722019564775791;144;1.256637061435917
159;2.985310384645393;0.503639561066246;1.7644405041229143;-1.9329256198695304;0.3573384145109958;-2.165857605465111;146;1.2566370614359177
160;-0.0607360036786738;-0.8096128331866561;-1.0045245379099996;1.9041269552585252;-0.769944920638565;-1.9647474543639123;145;1.2566370614359172
161;-2.5563014591780684;1.0840971100033836;0.0898942171514792;-1.3774506729101696;-1.4380008342551125;-3.076002910533263;111;1.256637061435917
162;-2.1906811269077826;0.4759778719996481;1.883299865801424;-1.7782970653421846;-1.4279371347590624;0.5488619613212231;8;1.2566370614359172
163;-0.1967953210763001;-0.9947435294848012;0.0531981501224616;-0.8838223231279044;0.6835360956165323;-3.2315049552808057;55;1.2003882443465537
164;-1.9197439069679163;0.6500036445438327;1.0952156409032894;1.7655159364666937;-0.7377568893622547;-1.5323977029957094;23;1.2566370614359172
165;1.972024778162662;-0.2230448093265872;-2.1878342052875555;-1.0822489687197128;1.753790777357621;-0.9617702181310654;104;1.2566370614359177
166;0.1778182080139871;-0.1365096128039791;-0.8278467158508221;-0.2199659948068927;-1.0746470243214747;-1.950132853466568;16;1.256637061435917
167;-1.285569814391134;1.0177545020594942;-0.2753006697841426;-2.9987597655182965;0.5241138351289665;1.9096566071790917;132;1.2566370614359177
168;-2.3325590860700194;0.3119486174328304;1.5990357539164712;-0.4584154525361058;2.443174031687821;-2.67522204423288;158;1.256637061435917
169;-1.9898044377602195;-0.5670885492177316;1.5946993506629337;-2.59058345888942;1.2832654511721204;-1.3107346194861924;64;1.2566370614359172
170;-1.258042179583568;0.5866657435923109;1.8926236632999367;-0.7241100610587657;2.175893622147532;-3.0228631229125584;168;1.256637061435917
171;1.9558151212693085;-0.6757342407638811;1.2573273867396049;1.181011872573418;2.969720120394161;-0.4526203536110703;105;1.256637061435917
172;1.7383726241585555;-0.1984373818559517;0.7385095592085401;1.661863175084383;-0.4544766785285716;0.7722280200290583;14;1.131935376758037
173;-3.13493185374034;-1.102986961648285;-0.6587999143475538;1.5457989147935356;0.294249498997493;2.042620697792583;63;1.256637061435917
174;-1.4605061008321734;0.4673482334258994;-1.4900025944779791;3.105252067605832;-1.6138471492956294;2.333944573739995;130;1.2566370614359172
175;1.2934820225464458;-0.1977722374355488;-0.5882615901699114;-2.2070201820752504;1.667872455628745;-1.6241183088408802;75;1.2566370614359177
176;0.9741798311019764;-0.9961831794169697;2.2109335271224304;-0.2600857564275992;2.1957645128944603;0.7129636349350633;33;1.256637061435917
177;1.1021604375702163;1.5592074288304407;-2.422591985189244;2.6682960974982453;1.476992094342998;2.0195111238334413;98;1.256637061435917
178;-2.6072798795389494;-1.2880583882048338;1.9105662109144903;-1.0793911810673351;0.4303673047021742;-0.0946125521690304;114;1.2566370614359172
179;-0.7920590691562803;0.2227973920407907;-2.415998714978911;1.5409067854638303;1.564798015408527;2.779623412714828;47;1.256637061435917
180;-1.0968333762245186;0.6553884369417012;-1.79423368474601;-1.4604788908739703;1.6886019626154816;-1.7425912935026768;154;1.2566370614359172
181;-2.4933004790736115;-1.2876945619263236;1.5938744243259606;-0.9405517501550512;-2.8539438483085577;-0.6432347567930108;108;1.2566370614359172
182;3.1861482505188965;0.9692084305854382;-2.007760069593287;1.4155784940202545;-1.5776258258469693;0.6008560212798687;38;1.2566370614359172
183;1.031628904044519;0.8932003408518152;-0.1906636500375237;-1.9877390304654037;1.2593379845912156;-2.76163585172904;238;1.2528163863982618
184;0.5632814599464427;-1.4166384112119392;1.607239597452544;1.006012098844414;-0.5682422121769035;-2.5787597649291785;153;1.2566370614359177
185;1.290173872246214;-0.032946332629945;-0.8548543641338485;-0.3244716357979303;0.6543620960209724;0.5034381746052571;61;1.2566370614359172
186;-2.2067391323814407;0.9945414551031656;0.5336140177581273;-2.019269181975793;-2.0398543970572427;0.8855376831363793;8;1.256637061435917
187;-2.689373759953789;-1.427674100966687;1.7218362903413542;-2.2011578801808787;-1.4364650137258266;0.8846974349342209;106;1.2566370614359177
188;-0.9118374293403886;0.202721625913689;-2.208415907867465;-2.4057988680367197;1.7019441402602744;-1.2185195664200612;180;1.2566370614359172
189;0.9739441738773896;-0.8028875025940772;1.5688275371082707;-2.407173252978852;-0.9935400101398172;0.1185004890171905;72;1.2566370614359172
190;-1.4046315842183974;0.3981423807854974;-0.3269985583201154;-0.4729422892900125;-2.16701114858928;-3.178942051610872;111;1.2566370614359172
191;-0.0977943957327167;0.1955350664981708;-0.3566149069258221;-0.8827174243033906;2.327838768204034;2.506123098160579;37;1.256637061435917
192;1.8194586696976704;-0.7567265533462173;-1.2512560398780628;2.958949683411749;1.0813151086529538;-1.7800554934724044;149;1.2566370614359172
193;-0.6625844100810812;0.9246857757954634;-0.9185210834342304;1.7652804796149726;2.6444844189223518;-3.054186544696346;85;1.2566370614359177
194;-1.5250116959565716;0.6751123059735815;-0.6340094004054053;0.595769351314616;-2.8903117122912567;1.243761970094064;79;1.2566370614359172
195;-1.3174216764649525;-0.381461182393124;2.1058261880802687;2.8563786908841946;0.3642356756696165;1.0443832723170663;89;1.2566370614359172
196;-2.1319115198474927;-0.7955161701326962;1.4637479409455347;-0.7498524289765017;2.8562006473607964;2.397052529364257;120;1.256637061435917
197;-2.561207470432401;0.5529893512702543;1.8299547105506195;2.302405793588508;-0.6905331807156659;-2.1050469237386733;164;1.2566370614359172
198;0.5962476701721002;0.8468661476674431;-1.3715199393474786;1.1906542381781362;-0.1403395661954874;2.998244212480073;87;1.2566370614359177
199;1.7082289312585268;-0.7705798180344745;-0.8908738155607597;1.729045330720992;3.0288659564205496;0.1003934714447693;124;1.2566370614359172
200;2.534460913609969;0.2068364917346723;1.532187965223912;-2.765844122805291;0.9952820710231458;-2.530703892872361;159;1.256637061435917
201;-2.229869804259797;0.5992588197820963;-1.2048001816996623;2.386178794186748;2.360741104060424;0.3789403023550139;150;1.256637061435917
202;0.1293164616800431;1.0008050076990942;-1.7863637925632605;2.069813151967356;2.3926282024254206;-3.2463138616141154;193;1.2566370614359172
203;2.5589507290615887;0.9450867220753852;0.1856309384670341;-0.4783494152418452;1.5824608702132517;0.2237983064844381;77;1.256637061435917
204;1.483225298371479;0.7573280905177314;-0.5451751685022769;2.872773814012541;1.596804936081025;-0.1760326873833942;148;1.2566370614359177
205;0.4738593258180835;-0.1832752453258728;1.928147216924772;-1.417011026705129;-2.268329202518036;2.158296008093126;95;1.256637061435917
206;3.3765991394246675;-1.1765781090919034;-1.4806808399458409;0.4428507669772276;-2.160901840422195;-1.495571506973577;100;1.256637061435917
207;-2.4801825938915787;0.2530352276731817;-1.893998429331531;-0.2159173791828079;-1.5988651926340405;1.494114185525363;73;1.2566370614359177
208;-3.340461971413317;0.6305505055710611;-0.9954191565207268;2.173218181714036;-1.194304107918874;3.25810361961468;102;0.8219210435614642
209;-1.0930156613062374;-1.0565622080085924;1.149352942372568;2.7159393743279407;0.8217578841199229;-1.2762402482778694;70;1.256637061435917
210;-1.698415278212143;0.6590136076797386;-1.3863494446025737;2.782776687428988;-0.2819773144367373;-1.257777394355638;109;1.2566370614359172
211;-1.1979549730462544;1.3452986905193816;-0.2042266735307611;-0.1486642418433204;-2.7583066221073675;-2.7672906423500363;190;1.2566370614359172
212;-2.2957408070584098;0.945143271805295;-1.293349344104473;1.5818249074303774;-1.5778968602573429;0.4573784585005481;79;1.2566370614359172
213;2.46489593711722;-0.1947955464236982;0.5157599967247037;0.6503347941124602;2.8608503996296104;-0.9478762750896116;171;1.2566370614359172
214;-2.524749708563152;-1.0975072820965082;0.0243051379462437;1.9860672789449196;-0.6637920705981659;0.994666518813708;63;1.0313218436365628
215;1.2564823316670577;0.5453666040757931;-1.7942061554091826;1.367776920505702;0.2432617751963614;0.5965438824443131;86;1.2566370614359177
216;-0.2336703063192548;1.484604182227402;0.7127727360475221;-2.5961981366136184;1.4943160954231631;2.4028099515501413;39;1.2566370614359177
217;-0.5358945193603908;1.0845830525923634;0.2601876710325749;-2.6111622440233524;-0.5117509440184752;-1.609773694140708;131;1.2566370614359177
218;-2.610195363486455;-1.511306863911784;0.8918967808757889;-2.303919256290417;-1.7054170713034011;0.0889426716169273;187;1.1908753082981482
219;2.8948556961574425;-1.023919477045922;2.029774320085939;0.0289967348650732;-0.5393784764248962;1.0817962544361983;123;1.2566370614359172
220;-2.57858374738212;1.2603239182815509;1.927919852128944;3.314921999599701;-0.8937756316744753;-2.1542287213176743;197;1.256637061435917
221;-2.286884594419864;1.0888223350544128;0.9846254466003168;-2.8849154918418995;-2.178982077380326;0.1163087376322447;186;1.2566370614359172
222;0.2213993539468431;1.4588524514585417;0.9535672010131128;-2.963281042546404;-1.0200642258851609;-1.6589661458639693;217;1.2566370614359172
223;-0.6375734018683862;0.7552131457427995;-1.739954269885932;0.2870688302689507;-0.2062980450632774;-1.0502096736385218;16;1.2566370614359172
224;-0.0197451942537918;0.3256810190183694;-2.4790831485253566;-2.4691711939192307;1.1751909326244927;-0.5755239308888984;188;1.256637061435917
225;1.8617985694824248;-1.2467416030728118;-0.5249398109782278;0.4023455922174113;1.76673960808537;1.0752124046274052;152;1.2566370614359177
226;-3.162403330344673;0.5417678408508919;-0.2650875155863034;-2.66250636973086;0.6802291919596007;-2.813690078507297;78;1.2566370614359177
227;-1.841387347536197;0.2420452926750893;2.270105758441412;0.1271947861823171;-0.3967680922243082;2.186422357683641;140;1.256637061435917
228;0.2806635286234625;0.5347841111137202;-1.5506776116192849;-2.600868019252049;1.23345264384257;0.1744706547682679;224;1.2566370614359172
229;-2.254381032932181;0.739951556563009;-0.3184168662686917;0.0198406327791512;-1.0837037858397265;-3.030416720421104;111;1.2566370614359172
230;0.8788468276918205;-0.080982360299716;1.061852797798544;-1.2698961879436028;-1.9638158241200987;2.8014192518233987;205;1.2053727272688133
231;1.0510103147631498;-0.9852408982585904;2.3786305357402413;1.6138868087601506;-0.1317570420213309;-2.569899303434874;184;1.2566370614359177
232;0.7596434306285303;1.1904651176318408;-1.6288154980024054;-2.913346952726734;0.6627802140467123;0.874743273151918;228;1.2566370614359172
233;0.4911311124872962;1.2373832241369414;-0.6544481349328062;-2.2060152608351413;0.4500698432689187;0.7753403151635054;232;1.2566370614359172
234;0.7046685900381782;-0.3927545686570896;-1.2817524695678155;2.148664204778056;-1.1016572077262186;2.350349974310132;51;1.256637061435917
235;2.63148849161953;0.1567479409300161;1.128320441495669;-1.910799583690716;-0.7221287193070288;-3.1793483177924804;146;1.256637061435917
236;2.6405468624051465;0.0065641377719819;-1.3751306123872231;-0.8310157562718351;-1.5790922693911973;-0.8416335422421977;101;1.2566370614359177
237;-2.227926706120716;0.8907156656361387;-1.9237487403878144;0.3290084662012847;0.7285522352128335;-1.2340399656511516;154;1.256637061435917
238;0.2532256684228293;0.7754372102648274;-0.4550691839988725;-1.751772261922375;1.569960255806755;-1.9085869971756155;43;1.252661671669418
239;0.5771842424780014;0.6453751198149227;0.8189102351951095;-2.4888589993947945;1.4425536684311546;-2.6763670194539264;183;1.2566370614359172
240;-2.1782135979555486;-0.9510532974411596;0.7534738296104804;0.2816840266512807;-2.2039534974749886;-0.2937554634719594;108;1.2566370614359172
241;1.2329576141781156;0.3613362349717277;1.5583386685683154;1.0788389495667927;-1.5218517307340074;2.3578475673833417;60;1.2566370614359172
242;-3.088216580024589;1.2356993801501386;-0.5827313648068733;3.088112114534084;0.6545895887913651;-1.88193391421876;109;1.256637061435917
243;-1.85208944992449;1.093975245597974;-0.0113221148220072;3.1391518658743607;-0.5530806601062317;3.4458941197179165;116;1.2566370614359172
244;2.269470928468149;-1.4288543623120575;-1.2212221299570718;0.704160897047524;1.272149470186516;0.3273795728016548;225;1.256637061435917
245;2.7403501352012007;-0.1900045639855143;1.8103695772662696;0.1247290891414106;0.1382626189721199;1.6677570676186362;219;1.2566370614359172
246;-2.1954434861810284;0.9920973813175252;-0.5119172432677135;2.0444984779403392;2.8512560733519567;-0.386691631010622;201;1.2566370614359177
247;-0.9119914247467876;1.4616821580953994;-0.9501257532502714;-1.001408997089578;-3.1208686740291984;-3.0296380179288205;211;1.256637061435917
248;0.2745128874466397;-1.0340706663693555;2.1544538114693843;0.4140491867448608;1.9910541115178604;2.3131543204551392;143;1.2566370614359172
249;1.680552615651854;-0.6560753285247256;-0.6698200577277447;0.9110551517620318;1.9216375167496051;-0.8622616700669578;124;1.2566370614359172
250;-0.1967767859311966;0.5794106973322661;-1.53375389361379;0.22211196489516;-1.3117795393187817;-2.370018205055988;166;1.2566370614359172
251;0.3460214678616248;-0.0726699747264161;2.7207431538530145;0.9246123846702408;1.7539057600464214;2.423309657280534;248;1.2566370614359172
252;-0.4422672694961912;0.1120660981817678;-1.918550347289528;0.3006587270951836;-2.2445039673759304;2.616978092496428;139;1.2566370614359172
253;1.0558316443127818;-0.7370369841747463;1.445516819032385;1.8700687216761696;-0.9187393794733248;1.0260711070410564;172;1.2566370614359172
254;-2.74461407344064;-0.140727315419576;0.5353264189731053;-0.8364874890042071;-2.778611761704683;-1.716353385861865;96;1.256637061435917
255;-0.2587596346130348;0.422185184499071;0.163253491941006;2.830823477750237;1.0817655579107512;0.4758382842075333;82;1.2566370614359172
256;-1.3673631956455976;0.1656322304244331;-0.128003980140051;-0.3619449602266464;-2.6086284845748877;1.4489693737052625;194;1.2566370614359177
257;2.437488387906137;-0.8180725543491965;1.3073413588614322;0.9342037772119788;2.789049624659061;-2.46956020050688;110;1.2566370614359172
258;-1.2923421699306177;-0.202013653200534;1.935564716005862;1.2122170800498806;-2.66628645480353;-2.68120877465945;122;1.256637061435917
259;-0.3260975632480904;0.6159103861685684;1.5243990725933014;-1.8540930195941343;-0.2297494099047712;-2.8949939603710613;131;1.256637061435917
260;1.8075258559136067;-1.2954969580084237;1.1673727625377108;-1.0410243028364;-2.233942633167514;1.0177528997544347;95;1.2566370614359177
261;2.0723604255422043;-0.1463855653592599;1.6690076377605136;-1.5418752726990694;-0.5631050990027755;2.339667873617442;117;1.2566370614359172
262;2.5371058007779776;-0.5979001010450469;-0.4696516150693422;0.6028226446333075;-2.315234219998516;-2.0140433936305664;58;1.0962108444294465
263;2.755903982539372;0.5098925836577306;0.2858451650693751;0.0397341166053548;-2.605343256184188;-1.2499616586398377;58;1.256637061435917
264;-2.544770881785244;0.2116965096936413;-0.9365581710693957;0.1848691114627683;0.7726750958111059;-1.3769079390457075;237;1.2566370614359177
265;-3.0141973781911355;0.2165391805250428;-0.0715995261470745;-1.357645138838788;2.0867463354931868;-2.632655985388042;158;1.256637061435917
266;-1.718075646954069;-0.0760404898371563;-0.3800482059087601;-2.748951999230539;0.1748058060164891;1.926857160973841;167;1.2566370614359172
267;-2.80733761758616;-0.6509615324682332;-0.0464657016547218;-0.0122236735300246;2.277785014600894;2.7201912993795574;66;1.256637061435917
268;-0.4811181025482731;0.1155948502020832;0.9476839557862436;0.7175980728792247;0.8448089294113336;3.239556343748088;45;1.2566370614359177
269;0.9187999214400648;0.0740905884294181;1.9458462460037087;-1.3977730305560605;-1.7914520230687758;-0.6110585342128741;72;1.2566370614359172
270;0.0010269685043232;-1.082123524589304;-1.1632339645378056;2.0627615857383983;1.470440050298504;-0.9857569282113317;44;1.2566370614359172
271;-2.8593545319970253;0.6224194299750234;-0.5844157031283728;1.5191375229351034;2.1473169782872628;0.3916659884857651;201;1.2566370614359172
272;3.0275170777053684;0.0811802511819177;-2.1230694842322078;-1.372962048233626;-2.6810669052815985;-2.5799527742392017;101;1.2566370614359172
273;-2.7615169908577206;0.3560136945162053;0.2117282517257838;0.5336866274160937;-0.2948277686242616;-3.114824181967065;229;1.2566370614359172
274;2.812392117397323;0.2102200272769507;1.1139210049931965;-3.125680027548926;2.075771967766105;-2.592506358066877;200;1.2461798796251289
275;-0.956293196020756;0.4171970334289363;-0.0860835666860106;-2.797214693651568;0.369131268989247;-1.7726380579054668;568;1.0672583606272947
276;2.6691626824546493;-0.8354630166350898;1.981612635310955;-0.0769265272780255;2.6688236256033644;-2.653083385661714;257;1.2566370614359177
277;-3.362871835166009;-0.922587852968944;-0.3108456996045246;1.816049429597576;0.8212644580803731;0.4447078710064797;63;1.256637061435917
278;1.1843703056855723;0.6081422756754393;-1.4853310941848163;0.2906012155962703;0.4452272447460117;3.099843770607907;198;1.256637061435917
279;-0.6248698235850271;-0.8456696563755924;-1.1003077903935266;-0.5208488404645247;-2.0205317172078545;1.458972946598004;11;1.2566370614359172
280;0.5693568225093854;-0.998025391583542;-1.2258756639885116;-0.7708176620811021;-2.133751779061104;1.2623091044306292;279;1.2566370614359177
281;0.625202809581546;-0.2981160742458271;-2.021409618269709;-1.3749575199195496;-2.394492047833357;1.119830511640966;280;1.2566370614359172
282;-2.797663180912414;-0.4978968968821755;-2.5250916208935665;-0.0330438009281166;-2.275393943112141;1.6523267421284686;207;1.2566370614359177
283;-0.1322820249004784;-0.486680905464624;0.1405679606569162;-1.2613239648455683;2.8243213488087338;-1.4791843006172505;43;1.256637061435917
284;-0.8965661229007726;-1.0761028105499122;-1.6912485969103677;0.4898161617842538;2.6736961329926614;-0.942354589541709;71;1.256637061435917
285;2.5669970677982508;-1.1295914913958474;0.4306470837644019;-0.9512961811938933;-0.0903757360863781;0.4767701115592312;15;1.2566370614359177
286;0.3548798161596039;1.1005572140201636;0.8727248589243096;2.941157438937467;1.094500841371019;0.9519783131779488;255;1.2566370614359172
287;-2.748179306026438;-0.9080848355622356;0.9578646636304352;0.6291584898596594;-0.3920676800462302;1.2828348917992782;41;1.2566370614359172
288;0.7754488945639383;-0.9892805536001376;2.1494975932043343;-0.1913331361234065;-2.355700865929382;-0.3317216291858277;155;1.229567421681532
289;-2.5225660345703678;-0.4779927541241368;0.9979971163479964;2.9406481596168907;0.988834829276274;0.8267335608355388;157;1.2566370614359177
290;-0.3144961526329313;-0.8032595136637551;-1.014287609833329;-0.6843025725351121;-1.5247117565652748;-2.61291556039513;166;1.256637061435917
291;-1.0775346706649545;0.240867331354088;-1.3111016600610372;1.566570698531249;2.4755041426064697;1.0797268219520908;150;1.256637061435917
292;0.4833065216816425;-0.995186413109749;-1.4295859335696135;1.4562950744054275;-1.145526279351379;-2.817053115853564;160;1.2566370614359172
293;0.4099325943195433;0.5468120955739568;-1.514332233279672;-2.7375865972449387;-0.0536526500024422;1.571360566353703;232;1.2566370614359177
294;-0.2035393260648702;-0.8168430290267583;-0.6869479031713317;2.524642123239337;1.954054685275918;0.9360793110443392;82;1.2566370614359172
295;-2.5823744173230474;-0.3944331522422866;0.026628260976299;-0.7182799669635328;0.0796651409287003;1.2186565849211828;5;1.256637061435917
296;-1.3704740346711883;1.2348398522189583;0.9298912517850912;-0.6276447817788632;2.6147020864114943;-3.1557314503817784;170;1.2566370614359172
297;2.5056449206083253;0.122212965208919;-0.9768165658967864;-0.1101052361246889;1.4340007250420537;-1.6647475661600692;104;1.256637061435917
298;-0.4370541556376315;0.303979277855951;-0.3635504306946071;-1.1571805005399294;-2.53974006204526;-3.0188823068673374;190;1.2566370614359177
299;-0.001598071115418;0.3518587346790749;2.1042772758985477;-2.3526026219784315;-1.9351554682551957;2.3804455597397194;205;1.2566370614359172
300;1.84297296962154;-0.1780177587467239;-0.1719055069620975;-2.4307766758816807;0.266792951257581;-3.178443939059973;81;1.2566370614359172
301;-0.5900099409426006;1.6406003145134402;0.3834027681610948;-0.864898554996782;0.9580284112795904;1.7455885879376645;142;1.2566370614359172
302;2.8920522199855188;-0.5240552107932486;-0.2838710333451312;-1.1376057780118285;-0.0049245073227958;-0.2677111488116128;285;1.2566370614359172
303;-1.6109226991517922;0.2841477949993756;-2.5719822530314644;-2.730047669856195;1.5119478635543997;-0.318314083924164;188;1.2566370614359177
304;-2.675906195169305;1.0610646217265234;1.6439180578967203;-0.2318186113254013;2.753435654181656;-1.808935801176486;168;1.2566370614359177
305;-1.1744726034194857;-0.6550908637253352;-0.1413434891449353;-1.6789609084121302;3.066965540920765;-1.5475088968921682;283;1.1966462520636545
306;-2.9102770452569144;0.7034183434867519;2.2095846369620817;-1.5122259435594485;-1.1525111126419425;-0.3208932703399255;162;1.2566370614359172
307;-0.4569721385127791;-0.2731822281911996;0.4045356560908595;0.9918260549531058;0.0219950124928711;-0.6765251634087736;17;0.7483962650108725
308;2.4738096620553334;0.8433883335485001;-1.7064856913238446;1.6051255010765288;1.5433872237452964;3.0801426566307653;90;1.2566370614359172
309;2.1019554474355204;-0.6504304968860332;1.4047744373115691;-0.9163085969176498;0.3649807879265262;2.2983970331784125;459;1.2151661976720676
310;-1.3723584840191654;0.4252869670310615;1.8906523112385003;-2.016675813116133;-2.3246413617473647;0.7632406727659102;162;1.256637061435917
311;-3.1866941186468654;-1.3625977967964655;2.007635344778012;0.5593630227607251;-0.2064530469962593;1.0855616064056806;287;1.2566370614359172
312;-0.1761797208250471;-1.0332750204301546;-0.3365465529484555;1.6276998081620628;2.090713903182045;-2.780027181265937;99;1.256637061435917
313;0.4853423432916401;0.0942906882287308;-2.351578457505497;0.3376424889909494;-1.061122960991844;-2.735388886595826;250;1.2566370614359177
314;1.8235106657204332;-0.5801170059438989;1.815628740737454;1.4663895466724004;0.4978527912423537;-2.858203896146997;231;1.2566370614359172
315;2.6479320413294523;-0.3789740150566347;0.2445008283316787;0.0025669325277002;-0.0551879489083297;0.2249443981160111;285;1.2566370614359172
316;-1.702745722444787;-0.3399353182881438;-0.502427928582943;-2.5856482360310453;-0.5018748709905959;2.93170519071464;266;1.256637061435917
317;-0.7115275305816402;-0.3078682680417249;2.008532015266624;-1.9742221681649652;-1.1311821294933202;-1.0068950441977298;115;1.2566370614359172
318;-0.4414346748020991;1.3543261252559855;0.5076601377108363;-0.9287066403533978;1.1774436606379204;-0.7896599418643323;18;1.2566370614359172
319;-0.0357409093906744;-0.4074059974461839;0.0012180542992801;1.528839959354495;-0.2616553945697896;-3.3802671643240787;145;1.256637061435917
320;1.087652199986174;1.6325470579040553;1.5386535607154488;-3.3096278962339905;-0.5052374090079224;-1.3920503317018618;222;1.256637061435917
321;2.8591084338206194;0.0786319326558463;-1.0155894545487736;1.008216332237293;-1.6368434261863598;-2.32250600110629;262;1.2566370614359177
322;-2.9012410299317306;-0.1058218766828913;1.9362377254539456;1.84110937873566;1.9217558684665228;0.3922334990444511;157;1.2566370614359172
323;-1.1190916532094706;0.8343745712812485;0.2606720891820956;1.3386479936538247;-2.707370889440651;1.1871036591410535;194;1.256637061435917
324;-2.5531656455661187;0.3414199185610201;1.91666311036788;-0.1373105682255884;3.049189900536936;-0.8733126105874494;304;1.2566370614359172
325;0.3098786645569579;-0.9063949417552442;0.8952418480479375;-0.4958853186577671;1.899770529773496;-0.2545718986457208;93;1.2566370614359172
326;2.2822465537477266;0.027334919377702;-0.8756292881997902;1.797538339005219;-0.7857833237668418;-0.7484277411017425;38;1.2566370614359172
327;1.3712680338938887;-0.8630153882696437;-1.60062031213871;0.395964712092216;-2.846922139150502;-1.831528495370057;128;1.256637061435917
328;1.4863725002490038;-1.5621093683992069;-0.979209037631762;3.119431823295233;0.2392244504818118;-1.8833418133881763;192;1.2566370614359172
329;-2.3892291289950616;-1.2994710610914757;-1.4797999169004543;1.277408705791628;0.1154555992565293;2.4969516147278403;173;1.2566370614359172
330;0.721944749721831;0.3410095979592636;-0.9705933537474072;1.9127894217827823;-3.1449789842632696;0.5323490879677858;53;1.256637061435917
331;-0.95763397823023;-0.5210293096272856;0.3994786926367419;-2.886897419667073;-0.4009593674488895;2.654613876862433;316;1.2566370614359172
332;-0.3020901055293103;-0.3055988564945825;-1.819474527328544;2.067856807562913;2.180528452337563;2.9969322256686057;179;1.2566370614359177
333;2.678754950689489;-0.8262124936932009;0.9416165384910208;0.5307291001883663;-2.0251312690446266;2.220840072643958;123;1.2566370614359177
334;-0.90542849516241;0.2015370543511214;1.8234006521126525;2.961224384530999;-0.4616133155222751;-0.4085186175547673;36;1.256637061435917
335;-0.3318364544006826;0.493929748063356;-1.825627718370546;2.8141299491757805;1.6274452116146838;3.272873042829634;332;1.2566370614359172
336;2.1423236525222578;-1.2340042742335269;-1.2702588266280312;0.8055151567623051;2.281120999811059;1.7946884594031458;225;1.2566370614359177
337;2.888430080178356;-0.8045381887188242;1.9315448934533932;0.9166986954567912;-1.9715598228811877;0.1958947522480925;68;1.2566370614359168
338;0.0533499059886874;-1.3713659680739156;0.5353075275323067;1.1083526061176612;1.6905574853665972;-1.1975079103303363;94;1.2566370614359172
339;2.5611775022417587;-0.6579223320541536;-1.4787254080606007;3.12529628242622;0.2260099148917116;-1.3236925627488338;192;1.256637061435917
340;-0.3639138202776875;-1.1085363795168013;1.5968147099595378;2.649947320612463;1.6927485991062403;-0.9905059575791688;209;1.2566370614359172
341;-0.4705965248650218;0.2579511903435595;-2.0598115458492927;-1.4207706540108067;-2.631842492428885;1.215960294778379;281;1.256637061435917
342;2.9007192895806835;-1.0505513002594098;-0.1682087968904091;0.3499985088079051;-1.7678247731863994;1.8348890630879928;333;1.2566370614359172
343;0.4725634361206968;-0.3979969165005161;-1.9997302994157653;0.8814100044722021;-2.411582378628614;2.284894098634865;252;1.2566370614359172
344;1.323072694994906;-0.4091674519645837;1.5116994853206212;1.2543717884203576;-1.882282888701128;3.260312211697844;241;1.256637061435917
345;-0.1426004582799092;0.8090473343746634;-2.220156413952871;2.077129298211821;2.9167560316376004;-2.243573944281422;202;1.2566370614359177
346;2.3857653508496632;0.8829408657060468;0.7744769508896061;-2.807501163202827;-0.7960769361144978;-2.941328568702379;235;1.2566370614359172
347;-0.3195881160395949;-0.593169833812516;-2.093413491314004;1.9202708349434188;-0.9092417888732643;-3.0642548181833464;292;1.2566370614359172
348;-1.386395117715833;0.104143219970901;-1.7472200283202943;0.2512806501868938;-0.4703827567455643;0.938768233757701;7;1.1060556236694823
349;2.438405186629012;0.8469187856333269;-0.8912059066551374;1.69185949087753;-1.3824274342322909;-2.8366208338183148;321;1.2566370614359172
350;2.205931837104215;-1.0055295050387536;0.0041964968296671;2.1672522931874822;2.318058790031847;0.4734787067193383;124;1.2566370614359172
351;-2.0979075535916896;0.0680816639889227;1.175779154290666;-3.1787958542678045;2.0844658690021665;-1.335212328538372;169;1.2566370614359172
352;-2.720799384985829;1.3360107389527922;0.8278414515646403;1.7046879255637752;0.2491755636772909;1.9600399741524903;54;1.256637061435917
353;1.417701385374735;-1.0473119361890846;-1.400027077128683;-1.1820754774394424;-1.5963815316582424;1.869590386182415;280;1.256637061435917
354;-2.776123170819754;-0.8213360405668289;-0.7876074469552762;-1.1631052443139396;-2.1696649858941903;-1.5503115729223549;88;1.256637061435917
355;0.4555744309292582;0.4176679044771625;-0.7297147206840622;2.630376261023052;-1.557235705968165;2.6908793705834464;234;1.2566370614359172
356;-2.6056118271333526;-0.1714782885875763;0.2627455445597241;-3.225078359054166;0.8506897471504552;-3.1828080834010484;226;1.256637061435917
357;-0.6206849170480787;1.3638646398630112;-0.6949563377971417;-0.0415056622600596;-1.2892961324449606;-2.2675998667582227;250;1.2566370614359177
358;-0.8285092688881888;0.894439669126782;-0.4964521301018652;-0.7716782440578512;1.11109575383358;-1.2145281589668522;318;1.2566370614359177
359;-0.5904953346098527;0.2260456743509718;-0.6080794829792519;-2.6469695481716373;-0.4243467124036467;2.9594202635757143;316;1.2566370614359177
360;2.172141494334018;0.4402127666136656;-2.318176472415401;2.5936465445849475;-1.0719208249548775;2.0024828511467483;74;1.256637061435917
361;-0.2488381647281086;-0.3769216866450827;0.9362895919550376;0.8312016409525642;-2.9793702156562536;-1.8597825440263267;122;1.2566370614359172
362;-1.712376687133188;-0.7517688527736466;1.154580551635788;-3.042605723499631;-0.540445527470654;2.069482157865004;331;1.256637061435917
363;-2.846886798796041;0.3075687766242822;-0.3869140132364372;-0.895118185657555;0.7013563686341227;-1.448347159851188;264;1.256637061435917
364;2.385368958230146;0.1326385583262884;0.6442623335942923;-2.086757867461626;-0.7339993077722586;2.1750377124576463;261;1.256637061435917
365;2.690128468593296;1.0300633119010636;-0.7534909697368579;1.3426365176503054;2.0949061352434404;2.615145006059852;308;1.2566370614359177
366;-2.0739899137229485;-0.4966516081376805;-0.9652356334881944;-2.588918393679046;-0.5893595270325211;1.358047623861547;266;1.2566370614359177
367;1.6577105223333142;0.0816335142618888;0.971010478701864;-1.627861602664878;-2.738411171735722;3.259321653063079;230;1.2566370614359172
368;0.0626834972313829;0.2298868029108546;-1.3120360495203005;-1.389177758935659;1.8103393232254743;2.1669090028991302;191;1.2566370614359177
369;0.443702794142907;-1.0294155895263395;1.987649296404664;-0.9173392528761484;1.8807330048808808;1.5588617180570012;176;1.2566370614359177
370;-0.3812325435713969;-1.097934834234123;1.081224655816259;2.2256900886162105;-0.1866109995245763;-0.4756677087612798;70;1.2566370614359172
371;-2.14117660096742;-1.0672189643929642;1.109564643820039;2.0713253571950383;-1.1482579191269775;0.8882395498290605;214;1.2566370614359177
372;1.0655342509584451;-0.2706551721167211;-0.0579929369475055;0.98723160710171;2.6958703391474903;-1.6457266547438838;94;1.2566370614359177
373;2.329997876777652;-0.4701684085228463;-1.2556089831399853;0.0316609029483593;2.607000091849598;2.2998692718756915;336;1.2566370614359177
374;-0.2602647596892716;0.0904181200322467;-1.2376169899411016;0.0277444734537135;-2.077415539731527;0.0061164157731326;11;1.2566370614359177
375;1.81820562045652;0.9721061326761368;-2.0516123739199688;-0.1027083406878319;-0.2829414058691591;3.298144880385668;278;1.2566370614359177
376;3.032445223070539;0.8185542516950627;0.712803754938026;0.9329838295359792;3.188071882761154;-1.0138768807031842;213;1.2566370614359172
377;-2.161629885352277;-0.2135690765253241;1.6124776257483453;-2.444924233764643;0.8517596610731089;-1.2902309949354829;64;1.0876014711441668
378;-2.447749081721701;0.1586883718877184;1.632890089044263;-2.6801296269911843;0.988371557303565;0.5410962645823135;118;1.2566370614359172
379;0.0458490355657299;-0.0832876628426201;-1.4083999988284783;-1.55812221979346;2.514172185669832;3.1403390821741297;368;1.2566370614359172
380;2.6395345721797536;0.1575269002172275;-1.597797943080265;-0.7369873009926461;2.08123410608795;2.623874087038804;373;1.256637061435917
381;-2.139847945749746;0.4479906660373906;1.4264483035042743;2.7264285430323563;-0.3993934504270178;2.331500517771444;444;0.9912261291479156
382;-2.2187288895051287;-0.3106430069249575;1.6518201645944226;2.280215877604402;-1.4603118369710846;-1.8030522429946;197;1.256637061435917
383;3.03235102378132;0.208362374725652;-1.6990964141606502;1.9153861006216517;1.724703393615883;2.222985443201938;308;1.2566370614359177
384;-1.6106200959522168;0.6023181047064052;1.3797689563745985;-2.8423133988557323;0.3104593041588234;0.1783215150556882;378;1.2566370614359172
385;-1.2233676127846156;0.0103368442706401;2.234512980056877;1.6316522736046253;-1.3119776988151717;0.2743133835314384;36;1.256637061435917
386;0.8889868589568615;0.3195658461705851;-1.1193932126634374;-1.4285709653485408;2.856555716781741;-1.4506362913869566;43;1.256637061435917
387;2.502219764152592;1.2184947564628388;-0.7204375970747927;0.9023000820889898;-0.7317039094090863;-2.23579746505665;349;1.2566370614359172
388;-2.0012503779265165;-0.4699894106272659;-1.602954517719822;-1.7398246454246933;0.2806225933318146;-0.4656654957698334;119;1.256637061435917
389;-3.0553880734038983;-1.1602150847170696;1.3051480123190182;0.5109843056597554;0.2028414241132186;2.2485999308136195;287;1.2566370614359172
390;3.154004866576466;0.0575039222316252;2.2035868170142066;-2.3332304655276697;1.052056997609948;-1.4475857179353886;159;1.2566370614359172
391;-2.3256886956319547;-1.58071245788327;0.8616263066132168;-0.3703786434050997;-3.081405619109955;-0.6835363144040241;181;1.014199658635447
392;-2.481002620283709;-0.6711969129102945;-0.1524534567113835;3.297676800915151;1.2389798628950368;0.6639366622447054;289;1.256637061435917
393;-2.726431763729246;1.1026917083067538;1.2816589369230562;-1.189424801561504;-1.2664397538669687;-0.227078130863495;306;1.086391276267041
394;1.441324005721086;0.3059934557683292;2.248475849829139;-1.3149246408193596;-0.1921441127664925;3.011516748632708;261;1.2566370614359172
395;2.3144599950032134;0.1714032530369828;1.2640656153850596;2.2186192139675684;-0.7829907649657488;1.417495398799448;172;1.2566370614359172
396;-2.229885588413984;0.2656421517654229;-0.0264142429648309;-3.189528604400324;0.67734781706359;1.1339340481899112;266;1.256637061435917
397;1.893175507189508;-0.2504608480220207;2.590936140011355;0.2492343207227862;0.2014367654768424;2.1462967286652828;245;1.256637061435917
398;-0.1640958887933042;-0.8801007986168714;0.6298523855392657;1.3757583626489098;2.837440212783807;-2.802978460548556;312;1.2566370614359172
399;0.81360139147113;0.8180532511311245;-0.9362353415223448;-2.7737318966101703;0.6866483764091824;-2.605692584005872;183;1.2566370614359172
400;-1.9045909501977016;0.2054069189253037;-1.3489482480982848;-2.562088894853093;0.6438489538253123;2.447865333551081;266;1.256637061435917
401;-1.373134087854434;-0.9085939767008676;0.8147275814112878;0.3387131539587245;3.049303537007691;2.516743820445482;120;1.2566370614359172
402;-0.5241712791822881;1.193971052963821;0.2052574689038827;-3.16769030934048;-0.2758346124441602;1.6470437174088253;167;1.2566370614359172
403;-1.4157037901113076;0.0853956869637127;-0.6600158604230496;-0.8927647618157752;-2.957706234533238;2.389022781846055;256;1.2566370614359172
404;-2.6242515342766524;0.5684378751150988;-1.1314510759241658;0.7500923207838087;-1.4179149071165351;2.2102449846645964;73;1.2566370614359172
405;1.9288204431483489;-1.516397673748175;-0.6692823122820231;0.2330594032236222;-2.1198161067371224;1.664920914164188;342;1.256637061435917
406;0.1752609719274116;1.2709034166620872;-1.540943577348704;-2.6646619138008387;-0.8536362579387275;2.1661359411698173;293;1.2566370614359172
407;2.316794205939492;0.2546344132918321;1.0372852601013558;0.7618806973635703;-2.9475175372999067;-1.5933585653682505;263;1.2566370614359172
408;-1.6640564779642388;1.172854862001559;-1.277135298977024;-0.9618958546681772;2.548047368962963;0.7505685944056886;137;1.2566370614359177
409;-0.0920315539963679;-1.300265396003338;-0.5584944468768984;0.0892707389544115;0.7751002500825451;-2.8502495142954816;163;1.2566370614359172
410;0.1533841071112648;0.2619587832854848;2.0076860689243725;3.1331995107259822;0.1334454709784546;-0.2167628514293152;334;1.2566370614359172
411;0.7950706098411565;-0.4597111891569899;2.442176799256441;0.141925320403062;-3.0010571514025752;1.2506546887264298;155;1.2566370614359172
412;-1.663466128597246;0.7822323556902144;0.8852589842478673;0.2307454941905381;2.2389165544220213;-2.6855368493470078;565;1.2278469340345843
413;1.0931533254811974;-0.3673946737437443;1.4866885610963063;-0.1163511457560005;2.6982298235943887;-1.805827993817564;127;1.2566370614359172
414;-0.1833877789403009;1.217131462483457;0.4595424695937244;1.319436797759416;-2.7540095012890307;1.9047375962714557;323;1.256637061435917
415;2.5782527745808785;0.8931050747813352;0.8190229287723396;-2.316372535219242;-1.1704741957837932;1.3444663875409404;364;1.2566370614359172
416;0.1480175485790269;1.253411101151624;-0.291068536288205;0.4460165934620232;0.669754114770802;0.6998732289400345;12;1.2566370614359177
417;-2.105629695250506;1.007699436580233;-1.913921048985439;-0.0741917594078375;2.84389688864428;0.4751926823287125;408;1.256637061435917
418;1.6383357132451764;-0.7516682870935733;-0.4877514088740135;0.4429048393153757;2.991004349800128;-1.84696146674339;372;1.0807676161429285
419;-0.6419184502406814;1.4384362328925844;-0.1513894863266917;-2.1658728458434675;-0.7647645873105169;1.2787757680583716;402;1.2566370614359177
420;-2.470549363025572;0.7749540523961089;-1.8414716669711253;2.750096036735718;1.484655713239084;0.8090906107479295;201;1.2566370614359177
421;-2.847787322917426;0.5698406762260726;-0.0005254782280682;1.5681954038532298;2.525612037108335;1.4355992988844075;271;1.2566370614359177
422;-1.6378443161854823;-0.7328514892951856;2.415717230717389;-2.7206740009477253;-0.7895706489764844;-0.4796744242444238;115;1.2566370614359177
423;0.7930267459676652;0.8370417337232668;1.6293653112743565;1.3730072055269138;3.1968904872702115;-1.369330753103382;127;1.2566370614359172
424;1.154344119871327;-1.353106457499742;-0.8841455325779991;-0.2956886068410891;2.341045963210739;0.727041267656156;225;1.2566370614359172
425;2.203395815357634;-0.4818477049742405;0.0804333789885726;-0.1095598922253852;1.3780436523919568;-1.7092891416563845;297;1.2566370614359172
426;3.0065606599029198;0.7129988015421735;0.9537764708433788;1.6217805237131802;-3.090161533397536;-1.949044229800747;407;1.256637061435917
427;-2.744591206235504;-0.5359565639178554;0.242041146539137;-0.4656667602132922;0.895563663843266;-0.9590540754494384;363;1.2566370614359172
428;-2.209913891199645;0.4802256685527886;0.7440654339642414;-1.1233981695085071;0.0527084861627174;-1.103843680541364;67;1.2566370614359172
429;-2.9898872138359107;-1.3428116114319222;-0.4462987286184466;2.367062465115753;-1.2268182575255948;1.781423007884638;214;1.2566370614359177
430;-0.0062248118733658;0.1580487311518062;-1.12966165129961;3.293165012775438;1.7505948129712436;0.2637229500439726;82;1.2566370614359172
431;-2.0583196406023947;0.8458563468933972;1.409827349570875;2.098782809426494;0.1146977056594868;3.2008034568217067;381;1.2566370614359177
432;-1.4571315541049237;-0.3325474817413206;-0.609174022719915;-0.7335572631866474;-0.6196306331004428;0.9608155985632686;7;1.256637061435917
433;-2.9076612842862457;-0.3198254547305835;-1.486115645713762;0.582821394118555;1.1703333597090102;-2.116110299179135;264;1.2566370614359172
434;1.499832596541096;0.5108446114527256;-2.1520176670569158;0.2514516706432851;-2.448989301056037;-0.586552517967222;92;1.2566370614359172
435;2.414455867472385;1.7168685399637744;-2.440139198219004;1.3302546968544835;-1.3952364438448233;1.0448539751778811;182;1.2566370614359172
436;-3.1663748153691915;-1.1404219193052838;-1.3344490668416198;2.152888073632849;1.3857139274481032;0.3296139270976703;277;1.2566370614359172
437;2.9064313465103715;-0.7558742201198634;-0.4873467832679213;-1.8989766063131948;0.9009444963348736;0.0212582631108532;302;1.2566370614359172
438;0.5537841442254773;-0.2343972684592515;1.4423299415194093;-2.6523634569806736;-0.8494212047930683;1.5540276404659965;133;1.2566370614359172
439;-0.3163792654416624;-1.316148960155394;0.5833822663009148;-1.1666237942099429;1.2261298533071554;-0.1200316021187814;325;1.2566370614359172
440;3.018560503624853;0.3330038659726635;0.5991423884321432;0.9338701267278;-1.8592183923510035;-0.0837142015306709;20;1.1603301345221742
441;1.6673990094288975;-0.1078999563023065;-0.7988568236039861;2.1016629926327592;1.2469353629550564;2.3955301133554228;90;1.2566370614359177
442;2.7702713235552845;-0.2652187676170132;-1.3642641110996312;-2.1852327102400504;-2.440795882584549;-2.26424775539711;272;1.2566370614359172
443;0.1815366944438378;-1.0454497029387118;-0.1402328330022071;0.9610636407075616;-1.6237443180815367;1.0540053192602896;1;1.256637061435917
444;-2.728304815756036;-0.2208407072301018;1.5005193742449536;2.474703872834831;-0.1556572368721585;2.085221873800235;52;1.2529093638283624
445;0.4810900364845661;0.5616356369810926;-2.3697758650741823;-1.223167523135137;1.6113274319307584;2.495598422415956;368;1.256637061435917
446;-2.696894221132572;0.3046114254009753;-1.2225225659970729;1.9483113244476995;-0.6751653106704669;0.225691990794682;212;1.2566370614359177
447;1.240396688523328;-0.4681287695874445;-0.5219332301493711;-1.1572582202447088;-2.541594856991792;1.454258423320455;280;1.2566370614359172
448;2.259404553133678;0.183121467591224;0.6813220172802705;-2.4135519623492985;0.4497723397252615;2.4013959123705035;364;1.2566370614359172
449;0.4404668696558469;-0.362247798970654;0.0090270795968659;-0.9904875831663528;-2.979232160766985;-2.944847168392936;298;1.2566370614359172
450;1.9738568299021413;0.2293485804072779;2.0263697382190604;2.798985615091381;-0.4951058223633144;2.094959827174137;395;1.2566370614359172
451;0.4081043058988757;-1.2916313753050723;0.0949543440222803;0.6712775459927027;3.1902863081150223;-0.5703710468082235;94;1.256637061435917
452;0.8878656760100365;1.2585157078201423;1.912337426208544;-3.297427606043284;0.3138447987655994;-1.5547107720513496;320;1.0084426936442628
453;3.1421366809623184;-0.5067434797801808;2.210165779418118;-1.5582034308597064;0.160312023607918;-2.5605235262666755;159;1.2566370614359172
454;1.9677919311815435;-1.1853099795879092;-0.5229473667080085;-0.6603398979459045;1.4189119600482625;-1.1095632171031309;425;1.2566370614359172
455;-2.612251132838396;1.256955140815335;1.5925870589228055;-0.6086858003737594;-1.181505150356515;-1.2764371302864894;393;1.2566370614359172
456;-2.633938336107017;0.4470117775706643;-0.2463621515340006;-2.0524390669204418;-1.7013761859818968;1.4961261136098498;186;1.2566370614359177
457;0.2439943061353248;1.256403044538095;2.0886132294040376;-2.8299516596571483;-0.8713016334805415;-1.863360225769088;222;1.1880697597084455
458;-3.038764719049419;-1.2674998048676138;-1.668507509256841;3.0475148461467514;0.5950473599983539;0.231645296596524;436;1.256637061435917
459;1.228111671258679;-0.0456526027245325;1.120518963118302;-0.5316664391926994;0.1073279702442296;2.526725531109788;49;1.1830380489273558
460;3.320837971187057;-0.4786376970565476;1.1312099682143455;-2.64271516339226;1.1864687485382284;-1.451608230269554;390;1.2566370614359172
461;-3.3346093938428214;-1.1411068674966267;-1.3264262239882256;1.560007388942718;1.48779947246551;0.9180312984065604;436;0.8582142367695137
462;0.0761713395962334;0.2916760667448782;-2.358978354219857;3.2451229723809445;1.763215921371893;2.9731223900147605;335;0.8864981319057708
463;2.8469803554715774;-0.3822611393728811;-0.0156116307955808;-1.3210933845071824;0.2283246544851743;1.187246470696986;285;1.2566370614359172
464;1.8602259100133949;0.3245255872728458;1.304141309885596;-2.690211925207693;1.2898017880940071;2.8806702696765267;448;1.2566370614359172
465;-2.232043359426844;-0.7852540808183361;1.9587778836393568;-3.384009429584784;0.0577140872968209;1.63718916773537;362;1.2566370614359172
466;2.7711124362980755;0.5276665584412388;-2.311721504689791;-0.0099900052599857;2.6834817039345045;2.778491402765044;380;1.2566370614359172
467;2.341421907592349;0.6480088748253692;-0.8588605829006132;-2.219897469836292;0.6277135142478556;-3.219969742488515;300;1.2566370614359172
468;0.7820163937855052;-1.4518596171388958;-1.1080631574469677;-1.1655589385998473;1.89984782941555;0.8734386315051523;424;1.082257640471204
469;1.4888963011301335;-0.0132716457719986;-2.370994405015077;1.144120453093059;-2.620037441337391;0.5471670696661909;92;1.2566370614359177
470;-2.1678822562846243;0.8666662528309778;-2.6556709527847966;1.4357332522891744;-1.1225534261675607;2.418931302202868;73;1.2566370614359172
471;2.9502928391064;0.0334156603151586;1.5771462435480572;-1.0310437789395013;-1.419884547459078;-3.182749560877471;235;1.2566370614359172
472;3.018414299404248;-0.4048484255036324;1.1881085029704577;0.691184498037184;-1.3911477487411754;1.6174306060502115;123;0.8413111196835229
473;2.3005684413352405;0.1647150167902605;0.4603236525501101;-2.576925885996235;-0.6741531830310532;0.6174256241716449;415;1.2566370614359177
474;-1.888947058593252;-0.1040049660169905;-1.8566554496202063;-1.7529101505249909;1.8786067451973911;-2.242090985360711;180;1.2566370614359177
475;-0.9582969456615112;-0.0640718750091123;-1.6956736820042535;1.7001546493152508;2.608536915747345;-1.4456300863775913;71;0.9645081212958184
476;2.528896306372477;1.5325181925452198;0.1286618476951464;-1.983045723825263;-0.4712259387295452;1.0424759943192177;415;1.2566370614359172
477;-1.811638115520925;0.3640685272118257;-1.3179003629376898;-0.105350965866383;-2.398449742482088;-2.68726352863042;190;1.2566370614359172
478;3.1064699844520804;-0.629567545154352;-1.7737046155261134;0.7985088782989591;-2.883348269074496;0.1104198438412632;92;1.2566370614359172
479;2.7243954066609293;-1.4259587311274975;1.2570146179731851;0.4842225636568233;-1.9262856479759731;1.0236779414415689;123;1.1661942188719236
480;-0.2284129803049166;0.6426989268527957;2.13196672779703;-1.4857088521491082;-0.8278742308750922;-0.6966016766741834;317;1.2566370614359172
481;2.341681718594881;-0.7254728600031439;2.185793581129853;0.864668029484186;-1.0891570768463916;2.1387728576865865;123;0.9785312846889684
482;-0.1473820063028446;1.1915715197969203;-1.957854162128336;-0.6000555985567435;-0.3791433584983857;-1.5832151629588502;223;1.2566370614359177
483;-1.7087630453706568;-1.054364807472655;-1.6997714656680392;-2.655020257306968;0.0855075529858161;-0.9824506074387406;388;1.2566370614359172
484;-1.0645892269694186;1.2112843143629075;1.5737908451727485;2.535822013412253;-0.373009951959899;3.1522965833381176;431;1.2566370614359177
485;-0.5663587215549786;-1.0466613503781843;1.6269704047901004;0.2534495378632318;-2.6722248095332586;-1.506808884039898;361;1.2566370614359177
486;-2.0395866826507856;0.1973093282194508;-2.083346321686551;-1.1176562157329992;0.2802827640874115;0.3493376146377538;119;1.2566370614359177
487;0.2227314968512217;1.1189969298352371;-1.1631165360647306;2.9844977028386794;2.323634893505279;-0.1587987664155225;430;1.2566370614359177
488;-2.211908408982685;1.525116503296661;-0.0182226348992093;-1.7422197944771085;1.72016800361851;0.6745443347313831;137;1.2566370614359172
489;1.2662494268804836;-1.5324568214205514;-0.3769185958355573;-0.3507174374551392;2.984087759698861;1.6547466431997149;424;1.2566370614359172
490;2.331594427848489;1.3056836494389363;-1.0684577778428823;0.2215833845651489;-0.04752062835924;0.2182172183839967;69;1.2566370614359172
491;2.681443257574635;-0.2626287836855342;-0.6936128418016998;0.3864222793065222;-1.7140916569917897;2.6285952332765645;342;1.2566370614359177
492;0.4728259011259436;-1.273396784576421;-1.715549715180722;1.1493007468967278;0.6446955588016788;1.7662537160305822;40;1.2566370614359172
493;-0.3798494133962109;-0.4963590348343553;2.2359989942631167;-0.1429407202436665;-0.5309473092894214;-1.8865593192788028;153;1.1927681163747137
494;-0.0431151543912336;-0.7277872721042888;-1.0123030698643878;2.882008044903653;0.8493938377737728;-1.5956673342730847;270;1.2566370614359177
495;-1.075591403612898;-0.5616832286553892;1.5002497111405;-0.8314936208273433;2.67270451957232;2.744458413070876;196;1.1544909583289626
496;1.261248291850066;-0.2984510797002975;-1.2704212462679632;-1.200108843250137;-1.898818945925163;2.81048107488951;353;1.2566370614359177
497;-2.9438656747579426;1.475953245750915;-2.5538263935597305;1.396034505737739;-0.369792444659125;2.58372935645197;470;1.2566370614359172
498;0.0919994368365587;1.6307197896298145;-1.447017970797924;-2.433224126396507;-1.8447487970218728;1.5352263877783896;406;1.256637061435917
499;2.9389121935008733;0.0170105214353494;-2.4538143726563817;2.169374769067934;-0.2473251625619537;-0.1705628477219349;80;1.2566370614359172
500;0.0412048265177186;0.8425850342235973;-1.637172567462338;-1.3125923928358263;2.3947703381853107;1.3008041805030144;368;1.2566370614359177
501;2.3523453107262187;0.1297466693549294;-1.5250836531657863;1.9698826977700792;2.673621604404248;2.6435236868851684;383;1.2566370614359172
502;-2.795593965871773;-1.06981369338212;0.2390962674887346;-2.038268066595188;-1.3448065700458285;-1.9818309924826392;88;1.2566370614359177
503;2.5044730114963443;-1.451096849304628;-1.040431206896916;2.595566639105211;1.7475619162286748;-1.8658622070745567;192;1.256637061435917
504;-3.0657132481181213;1.517464358478146;1.1147473341844805;0.1225528630334839;1.9715920538464056;-2.258386837308449;304;1.2566370614359172
505;2.934612345877426;1.3299807689198673;0.1269525974708354;-1.887159969213065;-1.5903856446691549;1.993907526367419;415;1.2566370614359172
506;3.3791978251098067;-0.6822121588498848;1.0888641271384272;-0.0248989081633376;-2.7128008485092066;2.519014330702512;333;1.1847185283763837
507;-1.2447207229643942;0.6217548010617938;-0.0609783012421693;3.378749545559147;0.3863225062964496;3.234005725888263;243;1.2566370614359172
508;-0.0946502472800851;-1.5612773782593825;1.6345507880972363;-0.5876339545497621;1.7358336338163096;-0.8907725204150658;325;1.256637061435917
509;-0.1228030535507561;1.0228797330298018;1.6074329399485632;-0.02965180945092;2.649878360192308;0.4070346895975461;76;1.256637061435917
510;-0.3650542387591416;-0.0015141768464907;-0.397475214377782;2.35153044777386;-1.3781415771228025;-2.510925371829745;145;1.2566370614359177
511;-1.4467253877814166;-0.3423305159463812;2.304947152528856;-0.8506409178598802;-0.8035952170272289;-0.2286449963390709;115;1.2566370614359172
512;2.166436212477405;-0.0160813820107493;2.343237747105553;2.3035024698336146;-0.8539873100039754;3.098508139248511;450;1.2566370614359172
513;3.0798964515203107;0.6352780499296323;0.9885163907820322;-0.6074029246095916;-0.9522321330878932;-2.507882304226807;471;1.2566370614359172
514;0.7116679558283486;-0.4932735224652764;-0.5508387437564655;1.5418818597809734;1.3068373612710062;2.76801627125984;441;1.2566370614359172
515;1.2779099408325532;-0.9614723382972046;1.6537692433293447;0.6051482439291738;2.839467812545992;0.1795663830819512;171;1.2027520493630173
516;3.1435040747527987;-0.2822170937773773;-1.6306181489752387;-0.2574285995827328;-3.223686176118865;0.5640774891880651;478;1.2566370614359172
517;-0.8067815515509722;0.7313089552882619;-0.8980312920439454;-2.284637381394549;-1.143134291428466;1.859452305663312;419;1.256637061435917
518;-0.8734266442203995;-1.0912076535253596;2.337734171812296;3.147179995977557;-0.4805424372733821;0.8823083200215276;195;1.256637061435917
519;-1.899993250827506;0.7586460255330363;-1.7142526126746338;2.469191839367499;-0.2306925067980343;0.3908195371738389;446;1.2566370614359172
520;-1.807739361378752;1.2848941992063565;-1.6365743084987423;0.99134489840006;1.524373174139457;-1.538527917108611;237;1.2566370614359172
521;2.380025729120191;0.0213131638888612;-1.3072762534352045;0.692114105461851;0.8960025118210511;-1.3304853010517128;297;1.0862291505867665
522;2.7237521356633163;-0.3467884296280354;-1.7127457570891118;0.7346724220295255;-0.8752564296609613;-2.8113464227344998;321;1.2566370614359172
523;-2.3068588855662595;1.036293137592842;1.2002085799452964;-1.0671426364753935;-0.2219324372822102;-1.584242628979233;428;0.9143584653573136
524;-1.7684040533967258;0.6857248408389999;-2.1119217591382085;-2.7833888096406403;1.4794825038227222;2.4255300142632583;400;1.256637061435917
525;2.865498981655402;0.2044825345632838;-2.10987589105244;-0.8480082937704124;-0.893372747168795;-0.7294603550093136;236;1.0548500394302454
526;-2.794222203044649;-1.0938217927320069;-2.2573699533959983;-2.600660473583143;0.3561112633607443;-0.8717219307622924;483;1.2566370614359172
527;0.7454467542920837;-0.8741022158752833;1.2612488807325777;-1.7375335517966997;1.3674225371862492;1.5689192792761824;369;1.2566370614359172
528;2.2303216590196246;1.0302181190688078;1.800638042770808;-0.997694774661764;0.15715851208337;2.9171121343873168;394;1.256637061435917
529;1.9040988123895384;-1.4813138680558002;-1.701918844501911;-0.09979499738951;0.6180704675034638;-0.0436381732679177;244;1.2566370614359172
530;-0.5059382157860653;-0.7207633004056346;-1.526901949751588;1.7798726894829933;1.0495638426852858;-0.5458789708883688;44;0.7674351080735466
531;2.538168008248878;-1.203652387261763;-1.2584576775181735;2.0037331408507515;2.339779708313422;-2.742359922281535;503;1.2566370614359177
532;-0.6557352908850951;-0.559201926328034;0.9872986217332882;-1.4221313879451274;-0.6803485180425801;1.458886847657895;133;1.256637061435917
533;0.2364382536911304;0.3872646029228679;1.9640659539215328;-0.7681692494688446;-2.972384903337693;0.6069040423676071;155;1.2566370614359172
534;2.3911767487451945;0.9012525561628668;-1.3815480016427115;2.598181226254715;-0.0649014742501649;2.957896694868226;87;1.2566370614359177
535;-2.5281204675934856;-0.9505528973364504;-1.7405186222817706;-2.709146624614028;-1.076520686319634;1.6412732837859012;366;1.1598802740279135
536;-0.9953544709201366;-0.4423235041196335;-1.876676271235494;-0.1001701414834957;0.9061794422508398;0.678845648329273;7;1.2566370614359172
537;0.0132874777679233;-0.6940468286123674;1.686190971801176;-2.254603922020616;-1.129335652367539;1.2477514279985564;133;0.8851451672417525
538;-0.8820361289441998;0.8703520399018227;1.1194311088481006;0.5969328713590977;1.4268088019468037;2.5569422523263032;268;1.2566370614359172
539;-2.9278491404404403;-0.6398570082534716;-0.02499435392722;-1.4648932931656742;1.053249827043887;-0.2956300913624816;427;1.2566370614359172
540;0.0001374293448461;-1.6947376312846982;0.4325618640489166;2.1042320431555366;-0.9467460104933374;-0.5052142823013613;370;1.2311824982302542
541;0.4859766483444167;-1.452653650040959;-0.261526824663649;-1.4014264583497458;-2.0875161499078136;1.4513163161996323;280;1.2566370614359172
542;-0.1379162758719085;1.3008006172451332;-2.3075466989999525;0.3093000084684899;-1.7961033928472605;-1.9070472855893776;250;1.2566370614359172
543;-0.3099642160014481;-0.4236412132214717;-1.9241079761052995;3.0689263236427387;1.4048680428601126;-2.0861214451438315;494;1.2566370614359172
544;2.2238944155659146;-0.1276090077024488;2.5217839407082354;-1.4214339360760977;0.639796597831338;3.034803504859738;394;1.256637061435917
545;-2.833926433677242;-0.3695529654773675;-2.212339616025214;-2.554563973740332;-0.1604463361273054;1.3915625845895483;535;1.2566370614359172
546;3.2937525293826084;-0.7145026134992415;-1.9972869172116607;-0.1086573367105357;-1.4413010439809957;-2.731051496787031;522;1.256637061435917
547;-0.6084411338422667;1.4500520591577375;0.8105751796885502;-0.0455186495146922;2.5843698152017187;1.1290393618597991;509;1.256637061435917
548;-1.9012312190987075;0.9977343989997284;1.5995208263509642;-2.2516074024977466;0.858713838627166;-1.3707635503490334;377;1.2566370614359177
549;-2.2242191225507324;0.6318379304149603;0.116686653356234;-0.5594757303245764;-0.8579717173541912;-2.17892326854724;111;1.1462291815548402
550;1.4726687779223355;-1.5768200449945735;1.8004739985084783;1.8810267403443144;1.8433175973269056;1.337666966053576;143;1.2566370614359172
551;1.1723883102843498;0.4529526884678503;-1.8231113419171132;-0.0096897525006123;-1.355238136907604;-0.8962291979910446;434;1.2566370614359172
552;-2.1076049578038005;0.3582128508504683;0.5504990261710629;1.72346400487883;2.423451301544677;1.3479147392688295;421;0.9687713924848568
553;1.02966833513798;-0.3441039644413994;1.8831183180105664;-2.2695230100127284;-2.6224028806381305;1.5336563363760496;205;1.256637061435917
554;-0.4580138934163449;1.3242611222004643;-1.6258633432077652;2.842801405424184;0.7465835484532513;3.033873796876395;335;1.2566370614359172
555;-1.621381822427517;0.384992271322281;-1.1448595292913657;-2.797795351295024;-1.2391313133569413;1.0435814285251537;366;1.2566370614359172
556;2.8284910074060043;-1.4389872440764249;-1.2217448151980084;1.0004026048703136;1.688244823325244;-2.8257209470811127;531;1.2566370614359172
557;2.5539644536016586;-0.395851230537366;-1.6878428086354025;1.7440321198524735;2.81351574598488;0.3045667391076653;199;1.256637061435917
558;-2.684970655940718;-0.5222342545728851;-0.0598799288786597;2.590427152918945;0.9936165537428432;1.941089321131562;135;1.2566370614359172
559;-1.7261944040100876;-0.7946780196291499;-1.6250727323656624;-2.7127400307446363;-1.9320894788712184;2.0492140765063023;535;1.2566370614359177
560;-3.3984745569093247;-0.1571708270279404;-2.277545765305855;-2.8273183977117737;-0.3404573058872016;0.3562094584391351;545;1.2437152483348255
561;1.798790657590775;0.263771695500181;1.66018513823553;-3.386186914339927;1.9915174985819275;-3.0114500855205746;274;1.256637061435917
562;1.2123928190798885;-0.3097552654438278;-2.1016554380572927;-0.478656119659685;-1.7942389416270736;0.8666314932060195;281;1.2566370614359172
563;0.0240908485895785;0.3992922552420584;-1.8023660837350783;0.950250591830001;-0.7566312572262608;3.439208805048269;198;1.159902302484037
564;2.576708003475163;-1.026108743511542;0.323460375637389;-1.7827992103992003;-0.4720970976292515;1.709565431219558;463;1.256637061435917
565;-1.29421240651702;-0.0257523473575074;1.476399670584717;-0.3618569890127801;2.3678893326006265;-2.65145591426206;168;1.1058035671955682
566;-1.2255317600657796;0.8242949943693015;-0.6612352968421172;1.9886827688181807;-0.1550845538996138;3.1416384938813184;116;1.211594189126268
567;2.8860458488072585;-0.0268156986339149;2.1355981716353187;-0.6336609422319245;0.8166564704306318;1.0431519431936522;245;1.2566370614359172
568;-0.340802737126073;0.6175892519624564;0.0590821359440094;-2.1312168667742712;0.8467755707127368;-1.607457561189244;238;1.18312743965366
569;-0.0658296698872167;0.3350157252957713;1.2027115473551977;0.3825227392064445;-0.7012630395353169;1.0860690259048524;3;0.9139958017661014
570;-2.2840224872369395;1.389275533058013;-1.799126047598972;1.06093065242988;-0.0093919715236115;-1.7153148056376923;237;1.256637061435917
571;-1.3315403291816512;0.1318001050019886;2.8002859157894195;-2.7636445973016395;-2.0361665224771284;0.9139810199143183;310;1.2566370614359172
572;0.2058245110852181;0.0089483056252428;-1.0068075833645274;-3.0790529033403438;0.6648368185554634;-2.217517355900646;399;1.1284505569202468
573;-1.519407774020627;0.5503137215644159;2.191434093336237;-2.9064550108519134;-1.8969080753052057;1.8928582384990131;571;1.2566370614359172
574;0.4787702501605493;1.3014935143970294;-2.328885822855105;0.4488062263488194;-1.1162436808869782;-3.060725976895941;313;1.2566370614359172
575;-2.521329215135029;1.3575523577094888;-1.589879888963314;1.6416518182668929;2.887956694339632;-0.5039180092826304;246;1.2566370614359172
576;2.3454056314917158;-0.0547080113542453;1.21106942975523;-2.228993826341875;0.3778799610970721;1.4196146164060033;448;1.160911753896574
577;0.6626621785117875;0.4218294870096378;-2.604781739134916;-1.1409365320297182;-2.9619925419207958;0.5347952787557992;281;1.256637061435917
578;-2.254526497060478;0.612432051826342;0.5731970805967462;2.8285850571758013;-0.5282324595601238;1.904185614730684;381;0.9888696875226728
579;2.465689152701196;0.5984892030672324;-2.1113259541282567;-0.2918081713616937;-0.7352922228482375;1.5498303104032152;151;1.2566370614359172
580;-0.6863288113765902;0.1251188441034605;2.011638787813515;-2.296040157695188;-1.109479356311735;-2.85199137074384;259;1.2566370614359177
581;-0.3517156623383732;-0.3534498643424352;1.6265057947673662;2.223314044093708;-1.485541708851125;-2.5341923488735576;97;1.1874368374955764
582;0.9848340854456314;-0.4501543672881694;2.373791572413504;0.8725207976506406;0.7107209142354245;-3.2446354358931897;314;1.2566370614359172
583;-0.7403428369067444;-0.823389982625996;0.6943881093497217;-2.673450084769532;-0.99091766855923;2.174768790743129;331;0.9216674287597396
584;-1.1046208533241064;0.2024050412764521;2.266596860849547;2.751919485290315;-1.3036730541947876;0.3844402228368457;385;1.148571231585507
585;-1.1976956253429014;-0.3789544027610391;-1.9445388450335923;-1.2425853712994714;2.5923624782258314;-2.740196244844927;474;1.256637061435917
586;0.9576327937078446;0.5231345976416106;-2.260944907886915;-2.9587616001872363;1.8064363372699723;0.5742654105938293;228;1.2566370614359177
587;0.8848275528792109;0.2934269535195135;2.504495612010931;-2.9979730351177225;-1.0242683509149717;-1.734680985984884;457;1.2566370614359177
588;0.6061825612798695;-1.010934139149187;0.7631332720656682;2.404918333296381;-0.451980558171873;1.6025756996636784;253;1.2566370614359177
589;1.0135652778956843;0.9247323373663224;1.837198583803308;2.7875224206262303;0.4274663142331266;-0.6229024630684341;410;1.2566370614359172
590;-2.8804474024622397;-1.4913323937302765;1.9455235676188865;0.7687901644672537;-0.4049237218619954;3.018645778911817;389;1.2566370614359172
591;-2.747913040412337;-1.0243033340692596;-1.952462650522711;-2.144390738449604;-0.5001889494018388;-1.6050422977331076;526;1.256637061435917
592;-0.188877041370694;0.1703633062264437;-0.9477444648048678;1.0702326884121711;1.3214008371504251;0.6232135673521474;82;1.2566370614359172
593;1.968611318303882;0.7019009616349059;-2.136375056097983;0.3063915441832728;-1.446258453885609;1.742759922652085;579;1.0765433290883994
594;-2.105746014409596;-0.6921582662948189;1.0072651987632175;-0.6401630902397455;2.790083717871371;-2.677214816702598;168;1.250299843514592
595;2.694054245526828;-0.1618148352219981;2.281984520453321;0.7710829919039592;-1.4013082378133157;-0.4996142331423007;337;1.1848235136723593
596;-0.9261737438654823;-1.310433032745382;2.6756585737832417;-2.2252978294628143;-2.018037174816976;-0.9948137152902492;115;1.2566370614359172
597;-2.372464963337592;-1.0373341545831378;2.263462232705358;1.4673849270115022;1.6010596488584374;0.1054835339890772;322;1.256637061435917
598;2.478569105510232;1.222911997775503;-1.6203163978441286;2.564970778933509;-1.0446638960237111;-3.004379680922137;349;1.256637061435917
599;-1.297348027860492;1.2933680649321833;-2.0670706156624843;0.2806422518231357;-0.6856642070546415;0.8525186924926189;348;1.2566370614359172
600;2.451388600607016;-0.0862840905353645;1.4307074335239776;1.228329429857253;2.8126125196918323;0.5112830446080079;171;1.2566370614359172
601;-0.6862490045821995;-0.3767678112514574;-0.3688235112053108;-0.6400951371126055;0.9202061833028288;-1.8680699258399496;55;0.9620669352175224
602;-2.806674653849914;0.5795841780359836;-0.2073251806685336;1.9598976970546576;2.28495699930915;-2.763688451852798;134;1.256637061435917
603;-2.786809598337272;-1.6631431573290012;-0.3358742788595875;1.2110548555889045;-1.513304463063847;1.713141322136252;429;1.2566370614359172
604;1.5754757207158656;-1.197651816897927;2.726389460244836;-0.0509421489516557;0.2560090090563091;2.831571252962694;397;1.256637061435917
605;-0.3375482216480405;-0.4167456820046674;-1.198449005823921;-1.7912562232236784;-1.2173221581001772;-2.8876193907909804;290;1.2566370614359172
606;2.0214252146294207;-0.7775347118904685;0.4493817209789277;-2.2616916582207844;-2.5531267150007952;3.236719532912014;367;1.256637061435917
607;-0.5472728678080363;-0.5061555114677682;-1.682672680930331;-1.7019207963265173;1.477553450964615;-1.5671183713514094;188;1.256637061435917
608;-1.7241024392471402;-0.2976545750359934;2.787745134221229;-2.044157197489114;-0.542699633193017;0.3719562711970781;422;1.256637061435917
609;1.612368849344223;0.5751760378798205;1.687637611851458;3.205871978329123;0.5368348316567381;-1.5657890262982042;589;1.256637061435917
610;-2.8444993102274565;-0.2604021815950894;0.8649197713526005;0.0139093349095821;-1.2418686740299802;2.47713566365878;156;1.2566370614359177
611;-2.5026169574499533;0.018323357208526;2.1022440291291136;2.424570783026325;0.6153539921014016;2.8007343075679327;444;1.256637061435917
612;1.583930210248177;-0.9706298058610408;1.0877526244149325;-2.0804386445172667;0.2068166444166768;-1.7160855948459726;146;1.256637061435917
613;3.122531794314874;0.1290957225825106;2.161689104842113;0.2149092300098864;3.2131981036405417;-2.824198477735605;276;1.2566370614359172
614;-1.6567696041577749;0.5171213893108866;-1.3137597891559785;2.5173261261444275;1.975050038701628;-0.9131831347961226;150;1.2326011798119698
615;-2.8764822689815546;1.3671073009516268;0.4462932612082869;2.52676361633694;2.2655181618643847;-3.216611210731931;602;1.2566370614359177
616;0.2041025769816977;-1.1238893155067764;-1.0909746144963757;2.8512103320863997;-1.608979070074583;2.432017775173501;234;1.2566370614359172
617;-0.6819755585271119;0.8839597435333506;0.3339115484295222;-2.330689200610569;-1.6263228288999363;-1.1725363475146455;217;1.2566370614359172
618;-1.354266262184224;-0.8614711780244968;-2.2874856066677376;2.2838530733993103;-0.6983176504394011;-2.592823800423042;347;1.2566370614359172
619;-0.89267217339258;-0.9439769820772432;2.382855483589937;0.7363749260161749;1.806987887663156;2.450111559001784;248;1.2566370614359172
620;2.6394632975564725;0.4537639934606977;-0.9023230915348324;0.7108653118331821;2.1807282172729514;-2.127521156418032;297;1.2566370614359172
621;-2.654732559425156;-0.2083786243868787;1.2930447160424767;1.4214188582452725;1.7144138694962354;-0.5431938400690258;322;1.256637061435917
622;-2.63471334109928;0.3082728135388903;1.632152895881828;-0.1136011425457143;2.3599126525875347;-0.6031675802071048;324;0.798334778279753
623;1.9352428489409168;-0.1031294421089469;0.9691269134261992;2.955826111793237;-0.8518530081733124;2.539340455270481;450;1.2566370614359177
624;2.7879634896309406;1.045937737149034;0.4363459215976724;1.3836949064445383;2.4577080426294997;2.7575885814921905;365;1.256637061435917
625;2.962574491417498;0.0786742287593916;-1.0112942024667488;-1.1399829720180357;-2.7283082321014844;0.4730007911601571;516;1.2566370614359172
626;3.040482475409954;1.1821978165837477;1.070864515136135;-1.409364102202363;-2.2399968041424545;2.0634428518541568;505;1.2566370614359172
627;1.5061038723047244;0.0509276316252064;2.356823279386454;-0.1385272412668586;2.587331673204273;-1.1248798372466489;413;1.2566370614359172
628;1.6846147103002178;-0.625056876147213;1.7222056371774697;1.2934941976736491;-2.9442873413873776;2.782694193331096;344;1.256637061435917
629;0.3893934139544304;-0.5115039250868629;2.2070951367639946;0.037386602893439;2.962905837989897;-2.4769590484992303;413;1.2566370614359177
630;-0.5084985035106491;-0.6984651752880844;0.9347905812746252;2.911673986268566;1.357195909945749;-0.2426823981277403;340;1.16947663547122
631;0.8094986144116525;1.1513774207810554;-1.5551478277467508;-0.3722384668684322;2.3532834585375637;1.3289803490046157;500;1.2566370614359172
632;1.8895649422929903;1.2659952582886314;-2.6393789508947947;2.260465091759688;-0.8046498163496045;-0.8923830356867434;80;1.256637061435917
633;-2.829466348431022;0.6321886416506607;1.7402488832093113;-2.8737059402618192;-2.4757218307199627;-0.5295089620519923;221;1.2566370614359172
634;-0.4197563116331799;-0.7440009448592255;-2.034142557187101;2.5150705895466734;0.3609502421513498;0.0010869499158641;530;1.256637061435917
635;-3.211624700644694;0.7536005307968753;0.8978996013870288;0.4632906686905083;3.1410102161608275;-1.7213359715897107;304;1.2566370614359172
636;-1.1464450440056515;1.2973603247236447;-1.4294848209136803;0.5935384302129825;1.328271832265486;-1.789921779362261;520;0.860381444906076
637;3.2685870493966758;0.402254158590856;-0.9283976645520512;1.1073505005994846;-1.6461972716090267;2.167229343605505;491;1.2566370614359168
638;2.820365860610506;1.2014497810927658;-1.5410050822882275;2.635974205182201;-0.0120845478391876;-2.3844609975282234;598;1.256637061435917
639;-1.6850453001327557;0.0555245311278542;0.9238054428103502;-1.2034553566879824;-2.5451626703786374;-1.4669206546932143;254;1.250398858818886
640;-0.5603347633853166;0.4249742841318309;2.251967089318489;2.857274954446548;-0.7336196540547286;3.037030335808043;484;1.2566370614359172
641;-0.9925432678259256;-1.0426784058817582;-1.5817397141073188;2.624418101669483;1.2221257118100548;-3.117081245895825e-19;634;1.172835327206485
