Komment314/test_diploma/benchmarking/path_finding_for_benckmarking/pre_rrt_star_results/9_1_tree.csv
id;joint_1;joint_2;joint_3;joint_4;joint_5;joint_6;parent_id;cost
0;0.0;0.0;0.0;0.0;0.0;0.0;-1;0.0
1;0.6013423722074741;0.4146030285060654;0.4645978437151513;0.2021970464985871;0.8881968150800045;0.0;0;1.2566370614359172
2;0.472602654526526;0.1888192866496473;-0.4151351902383294;-0.9650918598678704;-0.401894752495526;-0.2342472963707736;0;1.2566370614359172
3;-0.357710419449062;0.1762913519194256;0.5450209622341377;0.6807946846253969;1.3269597491008216;-0.4177624950963554;1;1.2566370614359172
4;0.2550805684538348;-0.3649966074621407;0.0988801368973391;-1.48082021763599;-0.8313587984862991;0.4802328918350901;2;1.256637061435917
5;-0.367915562546912;0.2440144093306625;-0.6226771124979111;0.8567965805517179;1.4112600551568393;-0.8335077825258008;3;1.2566370614359172
6;0.0905710105093049;-0.3592397209541675;-0.1750648195397277;-1.4889366864975664;-0.0599584765808075;-1.061200891965853;2;1.2566370614359172
7;-0.6606740812159007;-0.4515507488798875;-0.6522152675325745;-2.0045839173247426;-0.7728488322104459;-1.1280508330811656;135;1.23563679460926
8;0.4426566390465407;-0.2936700511389782;-0.7596021192343547;0.9537427635057476;1.0637158199006762;-1.529259761199803;5;1.2566370614359172
9;0.1664071809039251;-0.5658764370135031;0.1045582499095943;-0.7773004032050067;-0.8858344362868757;-1.575010667586424;6;1.256637061435917
10;0.2481175794617063;0.8468681563396163;-0.3004694647353934;-0.9778768056509058;-1.1273134722559863;0.5115213258737522;2;1.2566370614359172
11;0.7430544960200552;1.1160417504014462;0.4348745490776416;-1.795590688273594;-1.0699596756219876;0.2900637484712681;10;1.2566370614359172
12;1.1942387429745094;0.5935584041763277;-0.0865227499219775;1.0221538013240554;1.2159397479293568;0.334824062272625;1;1.2566370614359172
13;-0.2521893834823016;-0.4681059686939841;-0.4080724655924767;1.7554208433216296;0.933802675836673;-2.061011163425911;8;1.2566370614359172
14;1.0371802103393777;-0.3226105845345222;-0.0014970154012871;-1.3498866641528997;-1.1525191420947012;1.3941788119853065;4;1.2566370614359172
15;0.5141107667532632;-0.322729617447394;0.220427383691706;-1.0366410223331348;-1.948775411709708;-2.009282258380333;9;1.256637061435917
16;1.4992107509034371;-0.508190123245608;-0.3369729950503428;-1.4898434781134453;-1.8573969572739355;-2.2326238266307143;15;1.256637061435917
17;-1.296618560803216;0.4517538847448079;0.3666375807717065;1.2602094102535304;1.117142157246726;0.0406512071142805;3;1.2566370614359172
18;-0.663583401940432;-0.8960384416872927;-0.842824417916121;2.240759987863861;1.0745710408753324;-1.1764850832908251;13;1.2566370614359172
19;1.3665580788993632;-0.6567877840140528;0.0010149523032734;-0.2015094742704349;-1.3527138184243848;1.4050477848141143;14;1.256637061435917
20;-0.7245541106136829;0.5169967387181817;0.1270192382925281;-0.7550612884063003;-1.6654070878393237;0.5594092185355365;10;1.2566370614359177
21;-1.3148075733346938;-0.2394390792063798;-0.0668082621910524;1.510405216937068;0.8243507938182448;0.9152128845389018;17;1.2566370614359172
22;0.7611572034786179;-1.09589369657147;0.6388936072981463;-0.2677263775545018;-0.6108666555014157;-2.143960205901614;9;1.256637061435917
23;-0.6819633880103958;0.4264313840882158;-1.2345572308533066;0.1386091566123376;1.9375505972498408;-1.3627171219902672;5;1.2566370614359172
24;1.509247115052584;-0.4418378783877479;0.3984209655816199;0.9228498775633642;-1.3997587361808783;1.1079882529445289;19;1.256637061435917
25;0.3864361355432;1.3737213537831547;0.5593460063363164;-1.8357235712706976;-0.4998121878996864;1.3115280510390723;11;1.256637061435917
26;2.11034746591136;-0.5102715261048023;-0.7991163582657475;-0.3353841231340627;-1.8626883608243583;1.6987150598952254;19;1.2566370614359172
27;-0.5094662860677784;-1.048589536494528;1.0152145343721195;-0.9818320108642508;-0.9228062729507508;-1.704721348481647;9;1.2566370614359172
28;1.3921011239527366;-0.8265951305972679;-0.2873971409003547;1.8216890004089803;-1.602649365022808;1.4209619365146302;24;1.2566370614359177
29;-1.5296366762788072;0.7348708603512744;-1.7560615755182691;0.1653688493292876;1.628914949706594;-0.732230829974409;23;1.2566370614359172
30;0.0188578744380279;-1.2002929700525369;-0.3646192452932666;-1.6300087465635873;0.509626260295623;-0.3638025957723657;6;1.2566370614359172
31;-0.4046027218046287;0.5276385575703039;1.081779025289964;-0.1570664744990771;1.984487700923993;-0.2416108286785045;3;1.2566370614359172
32;1.325070929543361;-0.3774233507430051;-1.2354911898051222;0.8127358632864494;1.2047248483592037;-2.255365958254853;8;1.2566370614359172
33;2.568224842827265;-0.3349653761327223;-0.2986534416214645;-1.1189017535443917;-1.3907783226001298;-2.0100487583859863;16;1.2566370614359177
34;-0.6064177058477574;-1.179647863530542;-1.0093800848319852;-0.9748100867830002;-0.0356734408000629;-0.1507595380275304;30;1.256637061435917
35;-0.240179152115797;1.3305521645744076;-0.0410645806876376;-1.7814305995069435;0.1288690973326697;1.9641731677407837;25;1.256637061435917
36;-1.1088288756958322;0.9696039638254128;0.1570177271756593;-1.5264917946536336;-0.9278086699217748;0.2651984990548733;20;1.2566370614359177
37;-1.158538259744728;-0.0477831209399554;0.1009295533393075;2.158086797612502;0.7330557997749892;-2.406662560150911;13;1.2566370614359177
38;2.3770624361553576;-0.406492153163585;-0.7179657490684206;-0.9216416187155152;-0.9532381825135384;2.2642650322635878;26;1.2566370614359172
39;1.0100239273308456;-0.2816093466460349;-1.2977212740450716;-0.9224843492780672;-2.012802416863321;-2.093305436034093;979;1.0117474671646025
40;-0.2494689935519799;0.8684598168016864;-1.619479689497317;-0.7570127527806881;2.123629122364832;-0.9025355856952016;23;1.2566370614359172
41;0.5702887263904413;0.4034428637139537;0.5007763407119916;-1.9093420250366744;-1.7858623489890904;-2.43579254524588;15;1.2566370614359172
42;-0.4593487241894641;-0.4319127068788013;-1.137409763889882;2.5345560246931624;0.4969326688786274;-2.5138597374692853;13;1.256637061435917
43;1.4144679292038478;0.3803653653860968;1.1542665972900248;-2.448733562133389;-1.6045526014739866;-2.7750559186073023;41;1.256637061435917
44;-1.886626372627278;0.0677168956166662;-1.368780896940392;-0.3704987900949201;2.2876268087832803;-0.3640476093570938;29;1.256637061435917
45;-1.5259618097884609;0.6606708794160532;0.8598744106119074;-0.860338596548278;-2.2707014729343533;0.6006261730562118;20;1.2566370614359177
46;-0.3002239197480312;0.4575014091886153;-0.0088814198570031;-2.168805734195162;0.3114675295906575;-1.423904394271415;6;1.2566370614359172
47;0.1113426598479117;1.1379269297563148;-0.661282722579135;-2.495532379414255;-0.3312064442484558;-1.3869832816885708;46;1.2566370614359172
48;1.9866319417839144;0.0403116379855857;-0.6779727573535614;-2.348215029381836;-1.717518881032715;-1.8226791100523376;16;1.256637061435917
49;0.7410855372286582;-0.5219055182997239;-1.1807254152876323;1.668173810245842;-1.3095473178814965;1.8146223494412632;28;1.2566370614359172
50;2.653145164239604;-0.6496273545625408;0.4203889115925392;-1.1421340505277866;-0.6424921165583242;2.3168857679757107;38;1.256637061435917
51;2.0569738470346426;-0.2085947341176241;0.4365982864421942;-1.8290672432649917;0.0200428108125728;1.9732082922570044;50;1.2566370614359172
52;2.4553756200554204;-0.0902480393615637;-0.1643372165834524;-1.0244274831000464;-2.181601205148218;1.1471338467421317;26;1.2566370614359177
53;0.9251404681856206;0.0223268116313558;0.495215128991752;1.877652752135728;0.9015983997824928;0.2284784342441393;12;1.2566370614359172
54;0.7861715148540613;0.4186693468605339;-0.3305486295158208;-1.2215510132369465;-1.7155191209413092;0.8955524060299115;10;1.013214631308839
55;0.468344249407213;-1.0131880430535816;-0.444274259748857;1.2889356778439245;-0.6192973535966364;2.13205501349134;49;1.2566370614359172
56;1.29674615192166;0.0347927259841014;1.0900388617272734;0.9355491138551442;-1.9309720658931395;0.3689895213600074;24;1.2566370614359172
57;2.253922692528504;-0.7354843564800251;-0.6736272365439844;0.4861399091813516;1.5101043704630983;-2.524718424387661;32;1.256637061435917
58;1.8814018090375035;0.2060247397686065;-1.858429219739008;1.0476072858217789;0.5400528080419553;-2.0450906935831665;32;1.2566370614359177
59;0.7282502245651697;-0.6285502831742011;-1.0900971727274946;1.4459778030138082;0.2975253888795854;2.417232110746282;55;1.2566370614359172
60;-1.3209956158324774;-1.289624492208276;1.4083315465206447;-1.2157960540952049;-1.7011714409882286;-1.922267912808592;27;1.256637061435917
61;0.5087586114471458;-0.956936645290039;0.1912877848992324;2.315211643529343;1.2133615579440775;-2.162931742181985;13;1.256637061435917
62;2.630049333099345;-0.7721838183803876;-1.605805872696838;-0.6011518908595227;-1.0286766365967757;2.960497198282738;38;1.2566370614359172
63;-2.0113522612027106;0.0686728161690802;0.989836007954938;1.7655625443954674;0.6183539109008993;-0.1296237236974728;17;1.2566370614359172
64;-1.786952328113045e-05;0.2365215548430105;-1.3107395621216114;1.5135400989288774;-1.534433326530431;2.417367601982036;49;1.256637061435917
65;0.3960405808419568;-0.4754385801308001;1.124552623563273;-1.032519803314306;-0.8489923160959929;0.3066747941430162;4;1.1469428146257596
66;0.4657614313611141;-0.022461356290798;-0.8407877376443013;-1.8800627959428344;-1.334681517216545;1.7734530477527926;14;1.2566370614359172
67;0.5825771556528815;-0.158591656309926;0.8361808382281336;-0.0016931722892119;1.5228055816268495;0.8172264033999216;1;1.2566370614359172
68;2.727204000313951;-1.2100157581010795;-0.7753883868014622;-0.124659946461925;2.3714160844745016;-2.5930689379330696;57;1.2566370614359172
69;-1.17479876709296;0.2612597135560536;-1.1563130172520515;1.693140992201532;0.8334514311035535;1.2124319297131154;846;1.128660214038515
70;-0.6274224154734773;-0.5610517014769133;0.5346251274089678;-0.1301249321318639;-0.6492869697041949;0.382581639860764;0;1.2566370614359172
71;-1.086627810841051;0.4078017067378835;-0.6132720827666185;-1.529062009050599;-1.1087983605175895;-1.6925982083812696;7;1.2566370614359172
72;-1.3355839637555045;0.0328836526354873;1.1113385308603567;-0.4946152339011102;-1.530497987604554;1.2361473736094692;45;1.256637061435917
73;-2.315461215083935;0.1948167934493493;-0.8732119756727392;-0.0781614321683278;2.827363132033053;0.5058477940330632;44;1.2566370614359172
74;2.2767808529042703;-1.4735257115463227;0.771100621205256;-1.7767004725485105;-0.4743965524572702;2.0389801137442767;50;1.2048317376411537
75;0.1618389284505207;0.921343019885538;0.7111440819217321;-1.1140269278766226;-2.411722503089205;-2.71075303726604;41;1.256637061435917
76;-2.059710951455616;-0.8371911194665471;0.3786377652464667;2.398926437156173;0.7612501481549244;-2.4957635788562107;37;1.2566370614359172
77;-1.1713438398275071;0.8578694714199762;-0.3491634836386282;-1.588374307454641;0.3592375824071067;2.5149678620772864;35;1.256637061435917
78;-2.2591047740728536;0.212913969638856;-2.0424349627636618;0.309386215707334;1.877506021178578;-1.5132722905617455;29;1.2566370614359177
79;-0.2738606937545652;0.3998035650269567;1.4791011687140778;-0.4061543971495753;-2.574334044421734;-2.7146286176630365;75;1.2566370614359172
80;0.6602502920165044;0.9703928853507156;-1.0273156588169652;-0.6670944401103097;0.1020144148003821;-0.6985488588880784;2;1.2566370614359172
81;-2.3093725795732216;-1.0546798751606052;0.7557317076851159;1.409979136123359;1.3290660619988222;-2.6596931341786703;76;1.2566370614359172
82;2.861058900317835;-0.0348896424965807;-0.2992296655041602;-0.0890740215971806;-1.8996472030631368;-2.299611266327645;33;1.2566370614359177
83;-1.9646467590745391;1.064495166816957;-0.2161342030059722;-1.5696263082594957;-0.5686632478246696;2.6824933131761157;77;1.2566370614359172
84;1.517866685146795;-1.1373632974538923;1.0778649118071435;0.1395581144368586;-1.238504334462002;-2.646257147043407;22;1.2566370614359172
85;0.455638708536295;-0.4814783787221169;0.1651202282161674;0.4087711990135659;-0.5521792602039659;-2.7941406227233845;22;1.2566370614359172
86;1.1681113178725635;-0.7330442385947893;0.7354789438644361;2.072923005918397;2.064621690389117;-2.0413945527033053;61;1.2566370614359177
87;-0.6984423026878211;0.0700906350344153;-1.82008230953524;3.132546999811868;-0.0880953550094107;-2.836459814914144;42;1.2566370614359172
88;2.2924551080632964;0.0098854744757269;0.4974840252156913;1.341511144324018;-0.693021301843757;1.3856560565752234;24;1.2566370614359177
89;-0.3221619880220566;-1.5838443065879098;0.0768847863222819;1.2300791070600814;-0.938821124449071;2.633474732172986;55;1.2566370614359172
90;1.2451630972759624;-0.8139345028733129;1.41946500851987;1.055061651448033;2.0867310059017434;-2.2909721903443905;86;1.256637061435917
91;-1.4965982177097326;-0.3332065398742535;0.376286541309762;0.2741244502292382;-2.0584869318359766;1.1404675397032988;72;1.2566370614359172
92;2.6242693604769745;0.358399892709539;0.846124782023417;-2.4363878255520954;0.6099290479815921;2.199733312282652;51;1.256637061435917
93;-1.9643452154915912;0.683301238986465;-1.1930452634966384;-0.8861694108488989;-0.5334399201381008;2.787937938883145;83;1.2566370614359172
94;-1.5755211217690102;0.1696038651797715;1.1352801724062316;2.2063478483882664;1.1324732912017;-2.051331403939695;37;1.2566370614359172
95;1.3656021580111737;0.7300444709556826;-0.8686325768494774;-1.0666114174001804;0.998899181068376;-0.5123992701138846;80;1.2566370614359177
96;-1.6605655412533382;-0.6761114618198806;-1.56403123484759;-0.8622944075069743;1.7349976399409268;0.2599459461802206;44;1.2566370614359172
97;-1.0982154483914364;1.091408813217277;-0.6339798376761665;-0.69498004479434;-0.9000874689113734;-2.302517862364593;71;1.2566370614359177
98;-1.3367736877686611;0.7344180995535019;0.7346784896766461;-1.320280776172449;0.6574286612711385;2.963324800486129;77;1.2566370614359172
99;-2.547001910842833;0.6954059894140955;-1.576817596928182;-0.121285894862377;2.4019458345554097;1.2785285824101658;73;1.2566370614359172
100;-2.528762711230031;-0.3192524868392184;1.6433982067138415;0.9596669821818022;0.8521737884404155;-0.3018275264658835;63;1.2566370614359172
101;2.181664721643169;-1.1907068735241717;1.6554461414807395;1.0315238785685397;-1.200794768449826;-2.5752760144320863;84;1.2566370614359172
102;-2.4172685832573366;0.8113136696997607;-1.4057603486471484;-0.3771729388685714;-1.3900878924921662;2.222748519120561;93;1.256637061435917
103;2.0995970767703103;-0.1402583640333048;-1.1419832248889148;-1.0166077569727887;-2.0444236649624594;2.596855205673001;26;1.248331719027098
104;-0.3606040979653955;-0.2994863974099141;0.0489725829695926;-0.5369688282566978;-2.637735680818644;-2.253689827212261;15;1.2566370614359172
105;0.2554404586173332;0.7769229187047578;-1.5432194306051812;-2.6455300707261844;0.3228346488793993;-1.8341602228496512;47;1.2566370614359172
106;-2.671380197525936;0.1490683283652496;-1.074684795578005;-0.0980069533538692;2.771829528707292;2.2143109821093545;99;1.2566370614359172
107;1.0644278716622873;-1.0633953761747246;1.8549335403128115;1.296519383496041;2.225587348031061;-2.8972188937894967;90;0.8541936412905372
108;-2.5517980018197024;0.513061259126764;-1.4267057469425328;0.046695822506052;-0.007093689406373;2.844321957318749;93;1.2566370614359172
109;-0.0704046075764275;-0.7584256134457669;1.070849473445408;-0.368548860043445;2.1901190898503766;1.2147071736027553;67;1.2566370614359172
110;1.9168465338121252;0.4902242035610339;1.6389390689868717;-2.51335269370738;1.0200140187965556;1.6911428761510767;92;1.2566370614359177
111;-2.750017559258711;0.8093969561567965;0.9851791094155344;2.0280883667008958;1.2293071530594977;0.0768530834173811;63;1.2566370614359172
112;2.378143562545646;-1.2720401984437824;-0.1743805052867802;-0.9745707297254992;1.769222255915158;-2.5079204590620785;68;1.256637061435917
113;0.9861035030062564;-1.072903912606609;-1.509064507034754;0.6140874318890392;1.434252534849018;-3.1028551480876527;32;1.2181200979906694
114;-2.6345116412307243;-0.1761848819925565;0.379195312307012;1.1401505896754065;1.905522557766252;-2.266273957342523;81;1.2566370614359172
115;3.130636353293575;-0.0011772161982031;0.2714979622748019;-0.7155000849132241;-2.396802054637157;2.032303993482475;52;1.2566370614359177
116;-1.4053442742031856;1.1706725670362792;-1.269235363728912;-2.3230916943141016;0.4503316775587825;2.3363770252429727;77;1.2566370614359172
117;-2.342714482838379;0.4655413533331215;-0.7114639405448094;-2.156440881429827;-1.2205902027387496;2.9329812031360536;83;1.2566370614359172
118;1.987265000955708;-1.006480253091066;0.5783719521150966;0.004581050695935;-0.2851653615977125;-3.0525874711497814;84;1.2566370614359172
119;1.4752575661464224;-0.8724573719289446;1.2037697022237843;1.6497320308365648;-1.4868947724675374;0.3059732260214036;56;1.2566370614359172
120;-2.4836080317804994;1.2712674561413078;-0.7986940446046714;-0.2633384960285396;-1.062486139085998;1.2876722605369473;102;1.256637061435917
121;-0.3159000271014573;0.4741216468838328;-1.1838751678756574;2.3200150841692606;1.3020742259057516;1.6399612653377944;69;1.2566370614359172
122;0.3232936120273845;-1.1788567158788248;1.4806468961942765;0.4899986437582518;1.894052971662586;-2.776730241106177;90;1.2566370614359177
123;2.6758381438971925;0.1643525202852691;-1.2694075929338366;0.1222461181427194;1.8029444624352449;-2.38948008810246;57;1.2566370614359172
124;-1.250044569894843;0.7894381764535711;0.941208363655922;0.1103829642568266;2.7145669567899917;-0.6557614198597195;31;1.2566370614359172
125;0.0187331280566887;-0.7050871298713239;-0.9529156196620464;-2.5001176504136686;-1.5096411079797267;2.4703554157958374;66;1.2566370614359172
126;-0.6022875073861264;-1.0988957846831946;-1.5705696235717286;2.601867150832409;-0.2052649449134895;-1.8591849771508075;42;1.2566370614359172
127;0.5717611879545335;0.0925429599366502;0.1568794538672275;-1.5505196389022755;-2.6407789604356786;0.4213222594540623;54;1.256637061435917
128;-2.0331705548042605;-1.2164811401506157;2.120897385762692;0.635124888239716;0.4128475457933931;-0.2552949773247019;100;1.2566370614359172
129;0.8930310320488195;-0.779996039282969;-0.0201286561555158;-0.2108797756866721;-0.355169136976324;1.923670700856414;19;1.2263800852599611
130;-2.9596871374956395;0.5861984610462965;-2.019614611060612;0.8837620695368836;2.0146068452603694;-2.2877106153053925;78;1.2566370614359168
131;-1.0641137698121463;1.1885200002415095;1.159039407427398;-1.90032660422928;-1.3389286782008598;0.730379602204605;36;1.2566370614359172
132;-1.2225912707769848;0.9024801826266204;0.4680993017277143;-2.631657323834037;0.0183359161548448;-1.4758728417135358;46;1.2566370614359172
133;-2.9306184860411983;0.5630841774319677;-0.5479220069614393;0.2599854885218093;-1.6404929750792792;0.8327565633049483;120;1.2566370614359172
134;0.7361984122732228;-0.8666804545061628;-0.279328547357779;-2.5397489254091528;-1.9992646496294952;3.056227819208881;125;1.2566370614359168
135;-0.1534312401264471;0.1286518192083542;-0.4707424550829602;-1.5596768089068311;-0.8111267410285435;-0.2910752938585978;2;0.9606571878963898
136;-2.090820300989807;-1.1922452914229436;1.5727820689754934;-0.3373291245264609;-1.4868176443061143;-1.558498372141036;60;1.2566370614359177
137;-0.3677874519878089;0.1837910915691973;1.951290013894892;-0.1161727708150386;-2.0440913056157286;-1.747445042331316;79;1.2566370614359172
138;2.9311411244228496;-0.3423352585337272;-0.0722042568630081;-1.829823536926644;-0.5855623384670157;-1.5177964195475626;33;1.256637061435917
139;1.0379087540066927;-0.1280882695328311;0.251496423452849;-2.678787966144468;-1.543981389540372;2.39728980485578;134;1.2566370614359172
140;1.1742079980975737;-0.1869095868287245;1.077538928459574;-1.4433674847650175;-3.000570041986183;0.0345978814108292;127;1.2566370614359172
141;1.9723331167838103;0.2919073620646742;-2.4374318636997314;1.8819329948034769;-0.1750124409884516;-1.9007625401232395;58;1.2566370614359177
142;-1.3616946425945435;0.2244822307690316;1.623343677108626;-1.6820272116706672;0.3072435829197074;2.438667605869762;98;1.2566370614359172
143;-0.9354138419138728;0.5698245259065234;1.7029098637358369;2.903964891358009;0.8080119391010001;-1.7429896729813394;94;1.2566370614359172
144;2.2986964566780714;-0.7778824080073169;-0.6311708726483936;-2.4870522798183274;-0.2181547166472107;-1.186032243687535;138;1.256637061435917
145;-1.2585956560631857;1.2131050584126726;-1.1841252671937532;-0.0461057987773299;-0.3920702585197295;3.0610502904446246;93;1.2566370614359172
146;1.343889946972182;-0.1901088970676863;-1.6138435426503277;1.3110733981701628;1.1423442583193173;2.4580390550440514;59;1.256637061435917
147;0.0377114425773393;-0.7503579019805495;-1.7011069968080592;0.567643952844195;2.165519740432226;-3.146031928112509;113;1.2566370614359172
148;-2.134995668379132;0.4901774710721729;-0.9350429646749664;-1.0004946077266414;1.5281701130941223;-0.7849735678597567;44;1.256637061435917
149;1.2954434919140594;0.4918970847135471;0.0434295819680978;-1.8123409114410056;-2.0540674992448125;1.636588555861076;54;1.190530232502674
150;0.8984334352435887;-0.7175746542698931;1.4000260872855228;0.5674745451685352;1.002516079956808;0.3129100326757593;67;1.256637061435917
151;-2.055312738074316;-0.7980630123899106;1.7837009782577629;0.2397241479486956;-2.379518377561165;-1.060397595866588;136;1.2566370614359172
152;-1.8692064064408556;-0.75768009793973;0.8438261229579551;-1.1911795350616567;-1.4474361029351808;0.9109877844914318;72;1.256637061435917
153;-2.033550209404789;-1.099735006966458;1.873971428441974;1.314252228563713;-2.9361261178378646;-1.1832209546621486;151;1.256637061435917
154;-0.0050612081370848;0.30292626384314;1.5918222413628502;-0.9858512877059304;1.753300306573508;-0.8486789532803195;31;1.2566370614359172
155;-0.971752774039364;-1.0582405363675595;1.4630270485261243;-0.1315332976752526;2.314656793860889;1.8865181083608096;109;1.256637061435917
156;-3.0949456296665696;0.3291879749793196;-0.8570098200551196;0.2286383763320876;-1.7714914573607428;-0.3435713418791188;133;1.256637061435917
157;2.655383850151816;0.2637938854930602;-0.7464892210909744;-1.1193090898629086;-1.2845335088582166;0.6361017536871426;52;1.2566370614359172
158;-2.333867148540276;-0.1428411347012321;-1.423690416927422;-2.715647931915875;-0.5970123132239823;2.9229455747122657;117;1.2566370614359172
159;-1.9433217042290456;0.6889325759866743;-1.992076943713302;-2.3259138205696144;0.5836141709647266;3.0556623877946887;116;1.2566370614359177
160;0.9952927914359072;-1.243734168634682;0.3322969505463956;0.1454345042831227;-2.2446539161287893;1.671726819558638;19;1.256637061435917
161;-2.5922653716420614;1.373665528027193;0.2190445990749567;-2.101182937943168;0.2153701275690216;2.737301113804893;83;1.2566370614359172
162;-1.977191475308817;0.6132092352432464;-0.8513096060045396;-3.189466193495985;-1.5949076139101706;3.3767291067589245;117;1.2566370614359172
163;-2.957340534083703;-0.0440170009026216;-1.4415642570509113;-0.6364967097786434;-2.230701698685984;-0.6898124934651408;156;1.2566370614359172
164;0.9167177297445288;0.0615051506214928;2.2174568309450864;1.532321170333025;2.259588209192035;-3.2192989234039837;107;1.2566370614359172
165;-1.451100956469821;0.8902290740194645;-2.112100608494111;-0.5607097381108331;-1.7158135264707304;2.195736075772494;102;1.2566370614359172
166;3.1478102596251647;0.6091054457324594;-1.6055618102254343;-0.4120547873258862;1.3018168310811988;-1.6760602655843932;123;1.256637061435917
167;-1.5835251772900931;0.3146094755130854;2.2693501617298724;3.09207621811144;-0.0183463958066263;-1.9771799782204984;143;1.2566370614359177
168;-0.1482361694752338;0.60911833083566;-0.559908612199099;2.312853219551843;2.3151920624144195;1.9820257691708227;121;1.256637061435917
169;-1.192471515675679;0.6690229331264035;0.2229263598197747;1.2116305325903085;0.7127409916042599;-2.0153839569180856;37;1.2566370614359172
170;2.609621939340932;-0.9844931622509828;0.8311920855944663;1.5767659901657949;-1.3084122590473284;-1.970958220476691;101;1.2566370614359177
171;-0.8004153516961134;-0.1858351980837617;-0.3130378282429718;-1.9338492477300413;-1.7308074316136042;-0.0653368532492162;135;1.256637061435917
172;2.247243395718404;-0.1425407455357585;2.129583407846521;1.320882445195385;-0.8033400705225306;-2.673658662683565;101;1.2566370614359172
173;0.1794885026538522;-0.4089887390333775;1.456886426992705;-0.8419794697173247;2.698990250402093;-0.5246127667828525;154;1.256637061435917
174;1.7007625637873405;-1.4487057318730368;-0.827296846088073;-1.4901306584618703;1.2019342804078756;-2.7820801582056687;112;1.2566370614359172
175;1.583395399010513;0.3263493326350777;1.1525592041805486;1.8705862457059863;-0.9385241674936396;1.840525323080106;374;1.237084743089068
176;-2.776248580444401;0.5035311284554419;-2.2039553448657383;0.9829618757182332;1.0291887032738656;-2.492993307241232;130;1.0476142409978544
177;-1.006832789407478;0.6606081984453711;1.3390044567589512;0.4363658138378543;-2.1376966925231917;-2.946469042654124;79;1.2566370614359172
178;1.280063756893369;-0.5571798698182674;-1.1195674848795298;-0.6607810939885777;-2.783114402493875;2.8436328679409195;103;1.2566370614359172
179;-2.8488137417866684;-0.126936765611231;-0.7131757482130561;-1.2890509652644953;-2.645723224442202;-0.03264949302466;163;1.2566370614359177
180;-1.7992632582590598;-1.216470647979987;1.4366316047694585;0.8004439385566089;2.318214652471495;1.892466872645428;155;1.2566370614359172
181;-2.6042709707790683;0.296939254382335;2.1555745869160656;0.1454440278031328;0.5299557477799397;-0.7075796864888044;100;1.2566370614359172
182;2.022811253248588;-0.4178747948392318;1.4615556958350695;-2.2357923950082537;-2.200778822321176;-2.498268068980604;43;1.2566370614359177
183;-0.1589033496803872;0.6202623176926851;-1.3937451697086298;1.4865906449204014;2.749607400129317;1.87162289565828;168;1.256637061435917
184;2.543057213526268;-0.1951085240601896;0.1748295256946404;-2.610669646593109;1.4943713368071074;2.1456954797093664;92;1.2566370614359172
185;0.2351440859321282;-0.4697101189763972;0.9911020157500302;-2.16311149092986;-1.5742669762615735;2.4616654822356265;139;1.2566370614359172
186;-0.1029567136324442;0.071528823606987;1.205835038941927;-1.6374004881654671;-0.8426283537439079;-0.5047665713032188;65;1.256637061435917
187;0.8886795417657443;-0.2167137601983064;-1.6406979294226556;2.778376861183139;-1.4308869566347937;1.8878471320152872;49;1.2566370614359177
188;-2.67633868860897;0.1993878716897901;0.0730605912748503;-0.9228175759100804;1.758577989908607;-1.1401236164661308;148;1.256637061435917
189;0.2360937846838835;0.6131087115938173;-0.1297532986788166;0.8901046816829566;-0.5790987723275353;0.0549225435727165;0;1.2566370614359172
190;1.0769322040363725;0.6518031384747275;-2.200180126184357;1.0650415029147795;0.5910272117652855;2.156739165274119;146;1.2566370614359172
191;2.8261026009323924;-0.15462580749801;-1.8289986327560173;-1.5456481664802988;-1.1632723736065342;0.7174705149323377;157;1.2566370614359172
192;0.4910630211021268;0.4163248454050315;-0.8169020275572233;-1.7762950809386602;-0.9792042942712252;-0.3431706074246767;2;1.1030491451244449
193;2.999664810009775;-0.17914663533306;-0.2112095969373548;1.2803615881086683;-1.2194567447924154;1.895693123081205;88;1.2566370614359177
194;0.6879964281964204;0.1304813013451145;-1.993143795855631;1.417532340434108;-2.1308055486665847;2.7786582440524668;64;1.2023693245094105
195;2.586666692218412;-1.1885670577775107;1.4997859639877311;-1.1990032793619445;-0.368627035612421;1.313719836385942;74;1.256637061435917
196;1.672366437458969;0.8785691489321139;-1.325290955810212;0.6215396650603624;0.5093356335266996;-1.259971999009077;58;1.2566370614359172
197;2.6953851731569127;0.8320861262213527;0.1601747753269488;-1.6884981095347449;-1.2001854939344136;0.3175892777571364;157;1.2566370614359177
198;0.8213591059678006;-1.5756640071528023;0.6012153026103282;0.5119543691034616;1.443380628421165;0.2763558994813341;150;1.2566370614359172
199;-1.9863366760724528;1.0171041290857;-2.575947723278708;-1.3156924300898614;0.4176507318076297;2.7717721978300336;159;1.2566370614359172
200;2.8797547509728743;0.2185444327382135;-1.1465399989274507;1.87957367734484;-1.6313255863378284;1.951065181763349;193;1.2566370614359172
201;1.5001029706513462;-0.0440890584622476;-2.516623468285549;2.4517270197493204;0.334804579566706;-1.0930547568856936;141;1.2566370614359172
202;-2.4712893606554958;-0.5423238906816673;0.9070018615340584;-1.0507914810376169;1.2553607396188355;-1.2880836624772816;188;1.2566370614359172
203;-0.2664498656798336;-0.4620176990094056;1.6331215577158575;-1.777469780141854;1.3138112453516697;-0.5259448498045004;154;1.256637061435917
204;-0.2850135850535454;-0.1844536423968915;-0.3309378417975703;1.894142093169056;1.9697538990824164;2.745961643652848;168;1.2566370614359172
205;0.2519047259557725;-0.5870612446416271;-0.6892653877912686;2.534272266007536;0.3482771647601033;-1.0852784172803414;18;1.2566370614359172
206;-0.3120588084309798;-0.0867923944143006;1.0108178881921468;-2.7897027369902263;-0.8514534572011773;1.995173227006224;185;1.256637061435917
207;-0.7259642361973948;0.6847992335675811;-0.5474736527063087;1.9762897463403373;-1.5936742634372925;2.643119958301209;64;1.2566370614359177
208;-0.7679651254376967;1.312788701558981;-1.9009169390589749;-0.903994665541339;2.791991575013665;-0.1506371009688294;40;1.2566370614359172
209;0.4261284009915821;0.6826049925410226;2.4838387549782426;-0.4311611990843692;1.543591436347677;-0.5297684283690639;154;1.2566370614359172
210;2.6700566178088883;-0.6830908044816004;1.2225796384292018;-0.7450318002951086;-0.1219986157157224;-2.983267775401908;118;1.256637061435917
211;-2.580272370162345;0.4898217678369081;0.3819766111248286;0.6048209956291277;2.8206710992338846;-2.358727108700346;114;1.2566370614359177
212;-1.5434777956717154;0.3208746063474855;0.8236954078942533;2.8809201329531424;0.6115544098341517;-0.2875887931043475;63;1.256637061435917
213;-1.029136862814175;1.327201516719249;0.1258720864275261;1.0141020557227762;0.0734425170908239;-2.829091445378228;749;1.0219750568074029
214;0.8008545805860814;0.867297232532197;-2.491970223806791;0.627046401184759;-1.7636144172669674;2.9010382784144286;194;1.2566370614359172
215;2.6404159509981038;-1.3213999056665733;2.0376133122343507;-0.0123546692339373;-1.1717394784950834;-2.914429322319068;101;1.2566370614359172
216;3.394470877453396;-0.3854349277224162;0.7953103209238161;-0.2943437607376109;-0.3287345938596082;2.271974399535294;50;1.2566370614359172
217;2.842078354287952;-0.5715760010255501;-1.2718895897441254;2.2468788468275096;-1.1325655287685965;1.2067267567287194;200;1.2566370614359177
218;1.2075398093625829;0.9915629234135424;1.885591375848199;0.1582689352433224;1.422747419249603;-0.1384286455268501;209;1.2566370614359172
219;-2.038950142950225;0.0267736325611084;2.530430428617421;-0.0474733325740574;0.8600420635646431;-1.6561937369446849;181;1.2566370614359177
220;0.3776106121907884;0.8446225583821111;-1.3994385388646249;2.1845988895129014;-1.6179084861189352;1.6417445670586996;64;1.256637061435917
221;0.8202916355871867;0.1253140376913761;0.6590700044075338;-2.2752267681636065;-0.724065924514469;1.8350278931684247;139;1.1953859757696224
222;2.6451844731238188;-0.3577043113519511;1.3847144940609326;1.5670726107087738;-1.8312497352132333;-1.193032965718519;170;1.2566370614359172
223;-2.6137303785106853;0.0871614735557018;-2.1789402423191087;-0.5955293198229508;-1.992657240706865;2.309734653129949;102;1.2566370614359172
224;2.70227411085507;0.6190305079313507;-2.37294801030395;-2.1850521141708046;-0.672936838383625;0.5756542815300767;191;1.256637061435917
225;-0.1494540125068476;-0.9327691652190854;0.5845875855911086;2.2865697049174853;2.000884067409883;2.65861830543689;204;1.256637061435917
226;-0.4624188846266051;0.220414742555328;-0.8718088494251998;-1.5138153985882477;0.4417912209062754;3.1351946498064365;77;1.256637061435917
227;-0.7781700794457903;0.336254404426109;2.193617618573358;0.1067693257689886;-1.134626665886779;-1.0751906528686064;137;1.2566370614359172
228;-2.5862531607369865;-0.6891730403050709;1.1469869162979134;-0.756931692707675;-1.5210361722326355;1.7909837015124908;824;1.2477787640627809
229;1.5710101385209516;-0.1699498044137497;-1.781999910377853;3.284694842755654;-2.0007723534160604;1.1735073811996937;187;1.2566370614359172
230;1.57628755304098;-0.8898148672441113;1.0870151277647857;-0.9633172945301558;-2.285288911111289;-0.3911107310830995;140;1.2566370614359172
231;0.8081369783846154;-0.5981892142352323;1.1873126043174729;1.551264259461878;1.176804982720346;-2.7530562859072307;90;1.2566370614359172
232;2.3827518129956498;0.7701122256449502;0.4386739090052612;-1.084025858361345;-0.6427958596453653;0.3135831832198512;197;0.9247854374626066
233;0.4419686053927685;-0.4537431746645134;-0.2924818875617483;2.316018446993967;-1.567726692897886;1.356709876822914;28;1.1364443499268186
234;-2.239583403827164;0.5164190760341721;1.9668764344885976;-2.2070543736884063;0.702265433973845;2.8552133613308683;142;1.2566370614359172
235;-1.0100903257572054;-0.2268310577727751;-0.2487588877472418;-2.315134842311838;1.035946972740752;-1.479506493384014;46;1.2566370614359172
236;-0.6184499509895861;0.0094920787853069;1.7359263430574672;2.0089981700481845;0.2961313529688287;-1.4257817126308452;143;1.2566370614359172
237;1.7364353136178194;-0.7876035055742932;1.766083052482442;0.2592526442281555;1.8012622832362517;0.2422589409733809;150;1.2566370614359177
238;-0.1126084015750563;-0.2161602216984974;-0.5803853535508208;2.2710392740664136;1.798957370525776;-2.733417626074905;13;1.2566370614359177
239;-0.8672200839841583;1.1207167615726958;-0.419012296397442;-1.562583701532241;-0.99452605845538;3.0685791542678675;83;1.2566370614359172
240;1.0970021305024946;-1.0245186737355598;-0.1869115527470534;2.757345824068356;-0.0083287477468354;-1.579534539153166;205;1.256637061435917
241;-1.7931683148657014;0.6132825687208341;-1.9249002183727169;2.356041470097732;0.7171214616861099;1.3831355468308977;69;1.2566370614359172
242;-2.800584100227229;-0.8599095796887429;0.0365639911899022;1.182164803124433;2.1888018493588053;-1.3257057211629075;114;1.256637061435917
243;-2.1792905050945697;-1.1860129426300632;0.8608773289266727;1.6182571731466693;2.471931320686462;-0.9556297316645792;242;1.256637061435917
244;2.46990279631366;-0.4046001606075696;-1.0866642134113298;-1.293416402127154;-2.0318086588615465;2.017544537017704;26;1.1274794900079816
245;-2.8721912141954142;-0.851676240797415;1.4621941370040703;1.988069621036848;1.9413926344622707;-2.773446415450291;81;1.2566370614359172
246;2.510462560909044;0.4525838367868257;-0.9521588192368956;-1.0147801063200317;-2.932092740538009;3.081490480929845;103;1.256637061435917
247;2.95261602862152;0.987359457489557;0.9122697179530076;-1.4026059052396955;0.608882226166909;2.251247663822515;92;1.2566370614359177
248;-1.737261198734129;-0.4008309848319817;1.729079025089091;1.077924441336572;1.4950895858701614;2.156982638426398;180;1.2566370614359172
249;-2.877676832538487;0.8745268579930621;0.3469952160619192;-0.1641113461180416;1.3700351376493989;-1.6703557687565216;188;1.2566370614359172
250;-1.1249991536553303;-0.8523414095106248;1.7432188068399943;-2.1244529658008524;1.3009199247092669;0.2203743203693273;203;1.2566370614359177
251;2.759645735054836;-0.083377134935242;-1.810733495485248;2.199403246672456;0.2377173167747656;-2.2938948754879327;141;1.2566370614359177
252;1.3100232631025437;-0.5578836738559201;-1.8534937892914316;-0.1352406690448659;0.7890519043967718;-1.9504501854161356;32;1.2566370614359172
253;-2.5023832020753543;0.4431362962289092;-1.4103154094768864;2.682646665779101;1.1531136939302202;2.0800168049530927;241;1.2566370614359177
254;2.5011484031707774;-0.6946240476092498;-1.377091793293172;-2.2561563019918816;-1.5476296314799605;2.5159429084949;244;1.256637061435917
255;-1.2861808533222496;0.7173653309265785;-1.1341052627619084;-3.3698954405747976;-1.4911381765993938;2.3931151888998947;162;1.256637061435917
256;-3.0029301484477307;-0.91908047916711;-1.3306397361544486;-0.3402986318667062;-2.7078823016827087;-1.3852140477292525;163;1.2566370614359172
257;-1.9155907682483533;0.1712599976114522;1.7344903567609895;1.3063126536053318;0.8442833068460788;3.0197154509397075;248;1.2566370614359172
258;-2.961661859615627;-0.5571690545866409;-1.771459622666444;0.2929223412092558;-2.112288968116127;2.5803265960031663;223;1.256637061435917
259;-0.2310864287957948;-0.2272238790113814;-1.9909271856963549;1.4014642854029056;2.6519470023679648;1.177156882764185;183;1.2566370614359172
260;-0.85289427995174;1.0469110015176095;-0.5625094569621671;0.8086864777390792;-1.8082126466952757;2.4936196254252887;207;1.256637061435917
261;-2.5516228045660405;-0.187560983324457;1.1437927384681423;-0.1267489270272311;-1.6284020491814977;1.1945641818839847;228;1.0085623992279338
262;-2.725501742882936;-0.2673997034773079;-0.6620111611103328;-2.7824534483348438;-0.5042139351026519;2.019057082206253;158;1.2566370614359172
263;-2.207537287142414;0.818368085563079;1.277366851433443;1.2743633882102028;-0.1854891749811263;-0.0374779744158018;63;1.2566370614359172
264;-1.4740037489371551;-0.615615426228619;2.274401971362872;0.971394282985422;0.2469873718848309;3.087001225251366;257;1.2566370614359172
265;-2.5509569368039475;0.0539863757802783;1.7779494657242114;-1.6668071657324164;0.974757236591421;-1.3090710075020493;202;1.256637061435917
266;2.0386573663496845;0.52909817440539;-0.9461456715132536;-1.5702245627709557;-2.313723736086281;-2.374830967761812;48;1.2566370614359172
267;-0.7042552470830398;0.84631052856076;1.5762674737215576;-0.7342775294311419;1.1401570021994905;0.0701703234088987;31;1.2566370614359172
268;0.8834541625218963;0.5234025854046421;-0.7689289399735963;1.2499172984161115;-0.8904433832631552;-0.664151840590876;189;1.2566370614359172
269;2.1780466738946207;0.4613527734988847;-0.1425587398235194;-1.049065142593426;1.4526375400685492;-0.175493055416631;95;1.2566370614359177
270;2.118449356731458;-1.0370635401124395;-1.5198922299845503;-2.181072727634523;0.6845135601709793;-2.884117615343329;174;1.256637061435917
271;0.7753579029387984;-0.5594499098507915;-0.5411490745880785;0.4825224071802109;0.7116690168031352;-2.895336794891787;32;1.2566370614359172
272;3.3091428054094667;0.0200865526327759;0.6068684849304646;0.137396584797742;0.5167006259628716;1.585871352730892;216;1.2566370614359172
273;-0.1385900452686574;0.8670826867591219;-1.337446491400034;-0.5107093593670897;-0.6219932643870583;-2.3446625399019125;97;1.256637061435917
274;-1.455218651419227;0.748657037256881;1.7519339697387062;2.256517929526272;1.2031358895652156;2.97685107548224;257;1.2566370614359172
275;2.7114659712907856;-0.7752368726317433;-0.5848860003914292;0.139309859618072;-2.508115141782042;-1.5892221706331835;82;1.2566370614359172
276;0.0247300125088731;-1.1304911557545163;0.7497587527968517;-0.1258222621169727;-2.646599473352926;-2.5362921937985874;104;1.2566370614359172
277;1.8836624317951889;0.985974151146512;-2.048045515663626;0.2407155795894537;0.3665134720153269;2.4089061559042597;190;1.256637061435917
278;3.10040360458195;-0.0251104657253493;-1.0482829964329534;0.695876558140822;-0.6240944430721473;1.5103486522687397;193;1.2566370614359172
279;-0.7603218996781951;1.1501823289099573;0.6405447162412785;-0.881792539867299;1.578501410766396;2.806889397756116;98;1.2566370614359177
280;-0.7567120073397691;1.0196198039646551;0.3008463020189308;0.1422613603837388;-2.4240973725526027;2.475695730944613;260;1.256637061435917
281;-1.676726986786953;1.0577771025398708;1.4102890624163122;-2.0799374022228765;-0.8430261768136933;-0.1890997757548239;131;1.256637061435917
282;3.020034768040713;-0.6843642799994318;-0.9640855842900724;2.512859112927253;0.6984232252885755;-1.943421613480206;251;1.256637061435917
283;2.6458624922519585;0.087350247329143;2.652937464734043;1.9368741061168269;0.0222014589029002;-2.493310001859061;172;1.2566370614359172
284;0.360925982788791;-0.0298091272269919;-2.1102910134988693;1.1861255790858924;2.5247126937442457;-2.620191772600848;147;1.2566370614359172
285;-1.9169196917746916;0.2561012013212014;1.661785010920849;2.602457888753947;0.9135061102207932;2.0220364847133334;274;1.2566370614359177
286;2.254103999394467;-1.3478935021050131;-0.3043337786214288;-2.455839476392488;1.4341874753683013;-2.7295309754209685;174;1.256637061435917
287;-0.0510059186054038;0.7726371707085287;-0.4873404441468695;-1.65241305462113;-3.0074094426406823;0.0102866843637664;127;1.256637061435917
288;1.12788962552753;-0.3799850195699915;2.2458089152358998;0.7291093490869853;0.3259758514554578;0.7747960757466802;150;1.2566370614359177
289;-0.4853993072178931;0.3261500166467569;-1.754867612298415;1.4129947959656413;0.2437597569110683;0.6510331656117233;69;1.2566370614359172
290;-0.7048491629530154;-1.1342413080117464;1.771474908588231;0.3996560932575312;-0.0982456563511659;2.9471474089677754;264;1.2566370614359172
291;0.9876458407324455;0.5333816529185732;-1.824638443192917;-2.753940604561801;0.0625766488250913;-2.7424640835430734;105;1.2566370614359172
292;-0.3675327882263537;-0.6075700370270812;-0.4853085099658303;3.210827200275826;-0.1332013850511862;-1.378647748967052;205;1.0960545562785653
293;-2.530711772269007;0.2180167328255016;-2.42285328265761;-1.6095039624852894;-1.8435598445663663;1.6424615939044518;223;1.2566370614359177
294;1.565929244419729;-1.0567077535512313;-0.0777218133726768;-0.8185994854804994;-3.126251358511655;2.9843364644587966;178;1.256637061435917
295;1.1012565505948362;-0.8995790983982421;-1.918986328310822;-2.384251445155188;0.2804344638491221;-3.2862567964090905;270;1.2566370614359172
296;0.4145346388379805;-0.6836468918386421;2.132001841496705;0.6561656981880786;-0.6494347746995104;0.8661860019649396;288;1.2566370614359172
297;-0.3246805265234892;-0.1372316252017265;2.0243244143614088;-2.5366623382804856;1.3834196379932455;-1.383850180750601;203;1.2566370614359172
298;-2.3051687134925354;-1.0269671622888;-0.6041740312317709;-1.8343068912628575;-3.040065066921695;0.0613780804336948;179;1.256637061435917
299;-0.2236268028440035;1.2678437210606517;0.7279475749277102;0.0871903562818808;1.003752526977993;2.82553026290155;279;1.2566370614359172
300;-1.59459603368993;0.2767794917312105;-2.512551968503909;0.5893078207116971;2.264132153988849;-0.2744465780583821;29;1.256637061435917
301;-0.8143914133157358;-0.1353579295672502;0.3491575522648347;-3.108917497608549;-0.2400870534310694;1.354097019489169;206;1.2566370614359177
302;-0.8902811384679276;1.0209056650475097;-1.8923916351235988;-1.2614453481075405;2.627358925004379;-1.652588833867719;40;1.2566370614359172
303;1.028700091318204;-0.9778121906000744;0.3500796775188473;1.1304587631496907;2.294513880402472;0.183216084472053;198;1.256637061435917
304;-2.567510366064984;-0.3499733804508831;-1.9009998379316864;-0.9185043757058132;-1.2429837957457113;2.469193987902953;223;0.9809304148498996
305;-1.0633348053376477;1.3862620954891556;-0.2709907984393797;-1.786242452948069;-3.0298315895168333;-0.3252295614796792;287;1.2566370614359172
306;-1.2802249535102344;0.3531903764988715;-1.2264859152365355;-1.351338344759344;2.812069552205709;-2.356582885189529;302;1.256637061435917
307;-0.3579991284002063;0.8149928678075028;0.8055817180560396;-2.725508820625765;-1.2425089904608162;2.7466001080077307;206;1.2566370614359172
308;-0.6807206790944592;-0.3699722258824028;2.0074933493132066;-3.042398842342613;1.657238423998326;-0.977418677645588;297;0.8228904957678712
309;1.5065176811805252;0.8383010711837895;-1.918744111614288;0.1312331583756321;-0.46752702822079;-1.203743913659698;196;1.2566370614359172
310;-0.609433975272611;0.3332458140281243;0.9190468903297856;0.1988889004062723;1.522797042170655;-0.526619909512217;3;0.714374001146577
311;1.3636219689238016;-1.230242131411999;-0.4956392164003232;2.917662960707253;-0.2097088574525409;-2.7215328411248287;240;1.2566370614359177
312;-0.4645427706986388;1.24174221812373;-2.539360519529433;-0.3242942446024904;3.078416936411449;0.6594997423347656;208;1.256637061435917
313;2.3002168007584203;0.6859327901022324;-1.888861597046114;2.3967512361036967;-0.951728396385401;-1.517202738244467;141;1.2566370614359177
314;3.2937727287239165;-0.39221305681667;-0.0355936242544564;0.6299250554650568;-2.094176104452261;1.4179930860940064;193;1.2566370614359172
315;1.5250583684661776;0.2241963446151621;-1.1350603315762555;2.284304390368981;1.053657675622511;2.894374518430486;146;1.2566370614359172
316;-0.4770826129377002;-1.078503103055113;-0.1369224042634765;1.7433460911392096;-0.5333831129555091;1.5215605814598012;55;1.2566370614359172
317;-2.9150823885257315;-1.4444044874547428;2.2921483842230628;-0.5381054365406662;-1.3008000101096746;-1.0647951496775;136;1.2566370614359177
318;2.8666139086071043;-0.3117726352099899;1.985222008007261;-1.4766516492120871;0.1990537897815892;-2.555881394598085;210;1.256637061435917
319;-2.2955711853744365;0.8621332928114123;-2.5043145536684017;-0.1172937984592331;1.4089655037072306;-0.1954563385217373;29;1.2566370614359172
320;-1.449172939344194;0.5345435910429903;-2.105652789028312;3.2312402075073114;-0.9077503684722408;-2.644891346953361;87;1.2566370614359177
321;3.015925529022825;0.2765259387375294;-1.3553988562608246;0.3467500133758578;-2.268959766578607;-2.427461368863137;82;1.256637061435917
322;-0.4956366936928071;0.0937105393020883;-2.0853616619848068;1.6172474226660505;2.442389069199141;-1.8221220502855524;284;1.2566370614359172
323;-0.5725997839409681;0.9859565647858004;-1.5251669997399495;2.314991548638046;-0.1287556337295916;0.2890112456110879;289;1.2566370614359172
324;0.5027045786297522;0.7914884409703857;-1.9453198039941773;-1.1951549611556933;1.8750189131386348;-1.7072091951057238;40;1.2566370614359172
325;-0.8290106181232736;0.8029658826370808;1.9163166914100376;3.1727668045507977;-0.6308378500013778;-2.492022789603681;167;1.256637061435917
326;3.0328919855541807;-0.9658028637396996;-0.5309493874002295;0.7663722499156009;-2.799385526170406;0.7693351038134304;314;1.2566370614359177
327;0.092301922958678;-0.0941609552149324;-1.4954412370147847;-2.254999570394009;-2.1601219457186183;1.3444738207584466;66;1.256637061435917
328;2.7685864215208547;-0.4692303121542791;2.1280248993092346;0.2441384952636209;2.129211070332126;-0.0566316978481515;237;1.222625763980961
329;-0.3830265070005259;0.7707520019067583;-1.617044201065644;-1.8157113598991288;-1.1953046166457912;-0.3748739442430107;192;1.2566370614359168
330;-2.322350870162404;0.252666584067555;-1.6462422497367355;0.1352852660516725;-2.870297082166042;-0.8929895783472899;163;1.2566370614359177
331;2.59349961279602;-0.9261297480827194;-0.304997839843842;-3.067608643725848;0.3862481256730355;-0.3726976294785171;144;1.256637061435917
332;1.104641456633652;0.5731347175839308;-1.6837776705704242;3.005954849174092;0.3561933862586015;-0.8917499763759312;201;1.2566370614359172
333;0.5331171736122255;-0.1753892541680372;-1.8369354756442724;0.0601403586230331;-2.237136511179881;-1.9094987801997223;39;1.2566370614359172
334;3.0574370868317047;0.8555381663408356;-0.7466743444250469;1.0051364633600095;-2.6250442712584614;-1.8694793694017744;321;1.256637061435917
335;-0.8711841607764789;1.03528984662892;0.5804947372566229;0.5106335441445147;0.4884046301161852;0.2745706722749415;17;1.2566370614359177
336;-2.925053468677061;1.224183785184666;-1.159667455479906;0.2972329755272302;0.0846794502845527;1.9924536370631876;108;1.2301199734094543
337;0.654684201494398;-1.328294024221322;0.8131983250768192;2.166905090072933;2.7617847372452946;3.0198747285747625;225;1.2566370614359172
338;2.7022529557640587;-1.074856532982695;0.8638032802955092;-1.339164544485426;-2.546904642271574;-0.2585561270683088;230;1.2566370614359172
339;-0.3006289050094914;-0.6466459582643628;-0.4391921988852818;2.292993825356962;-0.9641402818546528;-1.5739152026829093;292;1.256637061435917
340;-2.8363032748219235;0.7398592526043407;1.978379809227086;2.406828821299232;0.8031456706948334;0.582175174901553;111;1.2566370614359172
341;-2.7408746661614787;0.8057305449404795;-2.4639600990578705;-1.3641236240177714;-1.2429565281503536;0.7667132780605617;293;1.2566370614359177
342;0.9915207313537144;-0.1037414556971833;-1.1579989531438173;-0.7597522161096261;-0.0244030532040888;-1.22198658631256;80;1.2566370614359172
343;-1.600472806457756;0.4815043529782993;1.8907592268516504;-2.740177224730893;1.5373239191702055;2.428459529106952;1031;1.1388429289374356
344;1.3835248034580874;-1.225292071652928;0.285260598414424;-2.636371659393078;0.975975423464058;-3.1943167045334464;286;1.2566370614359172
345;2.516579201412162;-0.515279968035169;0.0891008022781596;-0.6470925155879154;0.2651326976826588;-3.138100381249096;118;1.2229702979799308
346;0.2930776155642957;0.5220566617162649;-1.679580293079877;-2.9998755173329186;1.4096256685532558;-2.267165579456715;105;1.2566370614359172
347;0.1211401651366456;-1.3656198078483692;-1.3130146476909836;1.750164874269872;-0.4379110559218307;-2.231732767104145;126;1.2566370614359172
348;-0.9201005035221914;1.5910210383330945;-1.6167384692219997;0.1209293042818272;3.260415625889592;0.0146984301401266;208;1.2159530757454229
349;-2.598806111065705;0.8263317089875597;-2.1402719503310217;2.2224007723139887;-0.0674154320041984;0.9304197941252736;241;1.256637061435917
350;0.0949820148454721;-0.7935882248873906;2.0377585362382056;-0.2171849645660305;2.8849041284086065;1.546365349569329;109;1.256637061435917
351;3.2633578996832115;-0.1237787071190768;-2.32917417382356;-0.7640216127911192;1.7021187812130572;-1.2060292928912215;166;1.2566370614359172
352;2.050585769162378;-1.0147100822845718;0.707049911329639;1.4198265625867088;-1.1699407884794255;-0.236053471511834;119;1.0222906722605485
353;-0.7952264791177556;1.0154223104193087;-0.97100496654373;3.09771596913284;2.143455405628838;2.407412760107634;168;1.256637061435917
354;-1.328170824840492;-1.5734578224961109;1.876156425427229;-1.5789347474300284;-1.8138303713983763;-2.987679569702618;60;1.2566370614359172
355;-2.96357870965782;0.8021975446464269;2.064276430454278;-0.1852420294047828;1.3658966145449092;-0.0925488266592025;181;1.2566370614359177
356;1.42207905095935;-1.4661809366393237;0.7774465811351382;2.670825086565148;1.928834214367672;2.8708481371519485;337;1.256637061435917
357;2.1859503287648345;-1.387329429027894;0.1035899594024019;-2.2288562384818182;0.955480565529382;-0.2961471103705919;331;1.2566370614359177
358;0.8085483513188848;-0.5575203938054245;1.2875702754199572;-2.091133393246273;0.0818353338980919;1.649673802441415;221;1.256637061435917
359;2.1166906622950568;-1.1851524038572203;1.4427069826080232;-1.4987926807419516;-2.807556011545015;-2.762665537292456;182;1.2566370614359172
360;-2.8325123154664933;0.5762527144674366;1.670979449509843;-0.8508910231862434;-1.5494987222972656;1.5236433261395;261;1.2566370614359172
361;0.961191085492709;0.323696068713974;1.815355259754972;-0.8939857256812287;-3.218147253992189;0.650641114083583;140;1.256637061435917
362;1.9818959785221064;0.8205969366468859;1.3567494500427366;2.9247812464687635;-0.8092367218916641;1.9200067580383853;175;1.2566370614359177
363;2.10084057054634;-1.065557641623505;1.5168179784932332;2.0854417826633336;1.8921031526687295;3.13013105710838;356;1.2566370614359177
364;-0.9938098977080044;0.1547482527560754;1.9523828461872832;-1.1708892021027295;-1.4693819560615935;1.7643888160073966;72;1.2566370614359177
365;1.0227633386929282;1.0704865907865886;-1.2420452948881338;-1.7423596500189733;-2.2202981281193352;-2.7327125008906106;266;1.2566370614359172
366;0.3574207439886554;-1.7266043543936354;0.0195985060219146;1.4164661156130431;-0.7082461544394016;0.9731271557526924;316;1.256637061435917
367;-0.1157035131625024;0.6811673230439095;-0.4921922641492438;0.117078221842818;-1.4512669997536465;3.033287446489307;260;1.256637061435917
368;-1.604416903009509;-0.2492607978494065;-1.1843645127057274;-2.6886264549101195;-2.1704985778339947;3.433740439520685;162;1.256637061435917
369;-0.0527595542977378;0.5494261028437326;1.476146408349731;1.027816924485093;-2.635037995040991;-3.1478363823025326;177;1.2566370614359172
370;-2.4403220452750856;0.7215368883544007;-2.159882302105309;2.330980216082023;1.1109427880968328;2.5491209156203456;253;0.9943416652188064
371;2.176511546820877;-0.0204882600424025;1.505732035098125;3.204962918167884;-0.008618225057788;1.6164452002255618;362;1.2566370614359172
372;-0.1098137017809343;1.0774317770343904;-0.1041272094331764;-2.888590431598567;-0.4843210013871763;-0.3680593696328703;47;1.256637061435917
373;-3.007715852975973;0.692469508932459;-2.5254490344902134;-1.9842131555778235;0.7649263962444083;3.1655261019203973;159;1.2566370614359177
374;1.5877647349580155;-0.0342198080941563;0.420549379426021;1.0237470562706388;-1.1367868215775223;2.169259849614587;24;1.1740694378973568
375;1.7831038074053829;0.2087282260240254;1.627217900180767;-1.5270205102948586;1.107685330825705;2.3991928610756337;110;1.2566370614359172
376;-2.479829720979777;-0.8388984880509425;1.6654138503178006;-0.3070475700461084;-2.257299061892091;-2.395047938860462;136;1.256637061435917
377;0.7420149193982707;-0.7584173396571368;-1.7835171838922952;1.5692716421227462;-0.9296703169536208;-2.8053478274872465;347;1.2566370614359172
378;-1.7169098601854906;0.4008655750161736;1.670903089599476;3.042769250791234;-0.1612938712418443;2.433161541722341;285;1.2566370614359177
379;2.4718226062205866;0.2236923736631162;0.0842579818084886;-0.1402095210437279;1.929904298011456;0.399921591458555;269;1.256637061435917
380;0.4673271270576068;1.2021727498685668;-2.0567761518805576;0.2819355995508299;0.7992625564993434;1.6798428131973775;190;1.2566370614359172
381;0.0199014186176426;1.2506411877915302;1.8861023273638653;-0.0718294991143834;1.5683518821617042;-1.307219415038681;209;1.256637061435917
382;-0.1813016384633419;1.132687294962767;1.250436623706019;-1.312703792312376;2.405161029161263;2.8573611136438792;279;1.2566370614359172
383;-0.7033138603985208;0.1798612351084703;1.4010013554933636;-1.3652099084892788;0.5386225102890696;0.3353340381506388;267;1.142411907618374
384;2.956789488650341;-0.2038337338441102;-1.500142619528041;0.7817266622502509;2.6171210861730616;-1.9273057561334863;123;1.256637061435917
385;-2.336336648488584;-0.9105571473988824;1.0232193691046236;-0.9243293615654866;-0.8058550133513094;2.7464119002328613;228;1.2566370614359172
386;-0.3314209727663602;1.3574571473773749;-1.1145406723964872;0.2512221050664764;0.9607927957188862;1.726553597475581;380;1.2566370614359172
387;1.1203049085877084;0.4154308814435834;-0.7001275890207302;-1.0026581933579697;-1.2566301743914037;-2.475100160763976;39;1.2566370614359172
388;-2.557818496241984;0.2037414547279089;0.0647118905260124;2.72017382001349;0.5649430257134763;-2.410915880895789;76;1.2566370614359177
389;2.881017482173929;1.1106683166030409;-0.8764737985853186;-1.8168133930342167;-2.6678989935203736;2.5430049930902188;246;1.256637061435917
390;2.425802520556821;1.5926293054487564;0.6322152321221294;-1.1868103241542527;-0.4913935467817698;0.7006774334869288;232;0.948248500701656
391;-1.6494765431493708;-0.9365246367622728;1.13159738261684;0.8127833773077018;-2.2150814868434177;1.6941844659184742;91;1.2566370614359177
392;-1.322110504631104;-1.5274864962937846;1.402060474730784;-0.1967095579351209;0.0048259926577074;3.332181578801918;290;1.0893334809281956
393;-2.3316252210449195;-1.116976730012685;-1.444192646780179;-0.6593045436528393;1.4723810084481022;-0.6400094740931702;96;1.2566370614359172
394;-0.9046721081428646;0.4254504901918455;2.015277965431788;2.179784481017091;1.8572824692167376;2.159277283132245;274;1.2566370614359172
395;-2.6264886150739444;0.5802513673390461;1.5747881595914872;2.413604238603169;-0.4928267288564071;1.980808579609307;378;1.2566370614359172
396;3.158459179363006;-0.6513629873289388;-0.9783585260575;1.651397016901026;2.763089023673559;-2.46423387288846;384;1.2566370614359172
397;2.9164351542793137;0.4324990606877933;-1.5606957628624043;1.4298393987468672;0.0193439240090784;1.857630393771161;278;1.2566370614359172
398;-2.944866139425028;0.6204967504853842;-1.5167851947680475;-1.9275791186808813;-1.0347275808733776;0.2715053054518167;341;1.2566370614359177
399;2.573340779115493;-0.3319882554085206;-1.2977424565765;-1.4306296848586657;-2.303490049647296;-2.882151498822989;266;1.1949653008673704
400;-2.959238756100736;-1.3386262010010752;-0.1533277667451383;1.9850338858136567;1.5453949591613154;-0.8459498136435131;242;1.2566370614359177
401;-1.6062786118135886;0.1252003026088961;1.7737510199803688;1.1796018341244168;-2.57536699588482;-2.933047242431618;177;1.2566370614359172
402;1.9387210666221932;-0.3321578314399039;0.2667443033842009;-3.0157282024305947;1.402286543123593;-2.810637630528068;344;1.2566370614359168
403;0.0668995363909777;-1.2359215992185206;1.9269827505799264;-1.4510451470248331;-1.3230838829695857;-1.6928289628291393;27;1.2566370614359172
404;2.3674135218884027;-0.8410527236343488;1.173400045299274;2.627174084235375;-0.5622023024374798;1.9608683155802056;371;1.2566370614359172
405;-2.62309087516604;-0.9483230281505932;1.6115263389306669;1.2329482591198273;1.1689071939489155;2.748969952586949;248;1.256637061435917
406;0.0503877523170593;-1.313334898951744;0.9355091387753598;0.72994708431013;1.820853637157694;-1.7153791479572091;122;1.2566370614359172
407;1.2068134605198122;-0.0893381323428905;0.3255579281901786;-0.3511677387709686;0.3195073536792634;0.0717860015232489;1;1.1290073292890948
408;1.0656209966192525;-0.4580717530977787;-1.379848259070053;-2.270620972159005;-2.385222932370823;0.6848683346744859;327;1.2566370614359172
409;2.4366156667915;0.8983735295353785;0.7638805234648764;-0.6444169641665131;-2.204824246272996;2.0950062359315527;115;1.2566370614359172
410;1.138485706861785;-1.1079214896846223;1.763175214331525;-1.0267059596987695;-0.6138565239316902;-0.099177214811181;65;1.2566370614359172
411;-1.0654197884066352;0.3112085133404;-0.3324002639338232;-0.525295730745905;-1.5150429236126757;-2.9891294147964618;97;1.256637061435917
412;2.185426415429424;-1.1405061703660726;0.8019675450084179;-2.8842342446800617;1.2061022559301235;2.22457170680769;184;1.256637061435917
413;-2.0056597997588645;0.3380636579442072;-1.1082002023595912;0.9712979813699328;2.953426353023096;-0.0328206197591218;671;0.5440512956611705
414;-0.9621087530640776;0.5413703226324841;2.5429479360242886;-2.486903137452724;1.541744392753121;-1.953988516223495;297;1.2199943165562983
415;-0.1951364688090538;1.1558734542374327;-1.626903508991646;-1.9386215186487648;-2.840134672090146;-0.0444209673590889;287;1.256637061435917
416;-0.4945187137416673;1.2215899552988172;-1.5318758034214637;0.5962839970139515;2.563948865953189;-1.83333869048;23;1.2566370614359172
417;2.418776152102537;-0.096349230446204;1.533747975712105;1.8467772890220135;-1.8662387090001868;-0.6068055277513676;222;0.7515981168007952
418;0.712257221575055;1.1938987520325626;1.4970960730440628;-1.6808059974606084;-1.6440100504121258;0.6080300915624709;11;1.256637061435917
419;-0.6285977830911589;-0.9128481999833036;0.0363453803930697;-2.4037425894210704;1.1792795530737008;-2.403249217043201;235;1.2566370614359172
420;-2.001690674186764;0.0214105032493903;-0.4819344368769753;-0.3701809016036279;-0.6454231676508;2.1919684113884674;801;0.8932140460692615
421;0.0868351979566752;-0.198719187742378;0.1446948871504443;-1.7911571271920854;1.488612798213996;-2.676424045644258;419;1.256637061435917
422;-1.314833973967445;0.4514152415743191;2.442932648886578;-1.2309410186201697;1.2782342863022904;0.2533083889331618;267;1.256637061435917
423;-2.7758350713591478;1.211490803443056;1.3309345488039772;1.5627449627012564;-0.1828881818584481;0.1593672870397249;263;0.7760773773852877
424;-1.8861873183120017;1.488102689182894;-2.5184291513531507;-0.2678152314624565;0.5379478057856362;0.2925765646885357;319;1.2566370614359172
425;-2.4752545943959525;-0.699897444530798;1.5282089078093526;-0.3206942115218376;1.9382072184386383;-0.8768999744618642;202;1.2566370614359172
426;2.942450006996297;-1.6736741007191973;1.9003614494826395;-1.1738512275853283;-2.71178670874032;-0.4426544014428333;338;1.256637061435917
427;0.5171762344809367;-1.2430998003087583;-0.9859683746398006;-0.3007438672862285;-0.8783193172235934;1.829879688548696;129;1.2566370614359177
428;2.4948887724010795;-0.1979904500436621;2.162494776179599;-0.3177788173424278;2.426388094088926;-1.069252957834337;328;1.2566370614359172
429;0.3102718469271628;-1.1209173450763967;0.1501259374253734;-1.2606434653086742;-1.7682768093401051;-2.910827386001434;15;1.256637061435917
430;-0.3424862836683464;0.1266020803097859;1.395122393381662;-1.3616994220465348;3.0079568489975865;3.250109647809545;382;1.2566370614359172
431;2.038606668898244;-0.586890040237845;-1.3418178849680926;-0.2043121136218995;2.762486823161649;-2.6052723025177422;68;1.1587596963937237
432;0.6442847257292281;-0.5954452532442457;1.9094550350592343;-1.181854784126657;2.3469847456312745;1.588026929292376;350;1.2566370614359177
433;2.3425068432121323;-0.3666784614959508;0.4211519105894807;-1.2038599322002177;1.6508963223099058;-1.927443559964632;112;1.2566370614359177
434;-2.746722635778382;1.0145730415695609;-1.0266334288048364;-0.722242621974734;0.6660016725061326;1.6631603298595987;336;1.2566370614359172
435;-0.6308382081007864;1.0101448392546224;0.1962754735011376;1.6227392410372208;1.6275098262115235;-1.6401268230950952;169;1.2566370614359172
436;-3.016536561543437;-1.0361516455402446;2.042346189731672;-1.1763112592216234;-2.1033138630577737;-0.5277317648055391;317;1.2566370614359172
437;0.3051687399963765;-1.0076667256105791;0.4151448972638486;-2.3418699896078143;-1.3178041744176745;0.1877541981538927;4;1.2566370614359172
438;-0.3408406755132186;1.7284308456024498;-1.6357836078600378;1.6938088922357633;-0.1000447444242635;0.7727888589966222;779;0.9871501340692168
439;-2.7887970472640697;-1.4755583499702685;-0.8916426580522664;1.849394770630413;2.3376282922564555;-0.2626870835799235;400;1.2566370614359177
440;-3.033374101543303;0.4154233528139717;1.5339339909408398;0.1360750974898616;2.301185917365859;0.3141416610854771;355;1.2566370614359177
441;2.227828133553751;-0.0378909822508418;-1.5667096755786138;1.0466188292862;1.9715543852816224;2.579991659774005;146;1.2566370614359172
442;0.0389843440735366;1.441462869364165;0.2857058200950324;-0.2165234549129853;-1.2792290066148173;0.0262189433654763;10;1.256637061435917
443;1.454956759239854;-0.5656420205918756;-1.7051299499392925;0.3860057771653521;-1.803245330143949;-2.424502407617856;333;1.2566370614359177
444;1.6191790173199387;-1.2132505589144755;-1.3467490330778178;1.9540466411623023;0.4326209455967173;2.099028957398436;59;1.2566370614359172
445;-0.6118044340104543;-0.5491754770315228;-0.2147931725953004;-0.7100709530286241;-0.4512933851475471;-1.7945525638818631;9;0.9743828503381792
446;1.371201798007367;-1.2902960007878468;2.270454696693985;0.6467340164658827;-0.7092602309244451;-2.955359685186449;101;1.256637061435917
447;2.735848181279853;-0.4743177779646904;0.9128643884485405;-0.0701403551394889;0.98404042131944;-3.1711361372673608;345;1.256637061435917
448;-2.80703696143636;-0.9643950786801236;1.546120303542063;-1.0252445523581424;1.3861993570666749;-0.103806521677097;425;1.2566370614359177
449;1.7768954133709285;1.4063690987865844;-1.9144733920570989;0.57922017748251;-1.4498127451597442;-1.3369184761304127;309;1.2566370614359172
450;-2.302058859858973;-1.1273510692501585;-1.1852224378299567;-1.145362186279976;1.4670613788001026;1.0776210228049423;96;1.2566370614359172
451;0.2959538719727239;1.0130418368522132;1.8760353286553388;-0.2040165892701032;2.088001676588528;-2.3837265517960198;381;1.2566370614359172
452;0.5589741993435261;0.3695956104204509;2.144194476382175;-0.3742362266838863;-1.3170174415646465;-1.9782716956487287;137;1.256637061435917
453;1.9485506738338048;-1.3638617604915293;0.9331306348938972;-0.2636724464549932;-3.219094251202871;2.9816036240811217;294;1.2566370614359172
454;1.0848446919221446;-0.5977305484569921;-2.4554966832717176;0.112818546551487;-2.670801909114468;-1.186378704125565;333;1.2566370614359177
455;2.521962196646739;0.9854607155412908;2.0737737237225997;1.374870991448086;0.0025439155319678;-2.168473967835931;283;1.2566370614359172
456;3.1678768168403275;0.7527087552023237;-1.5693604042079192;1.7322144644268656;-1.3145773550374562;0.9971419242862262;200;1.256637061435917
457;-2.9689289356325785;-0.6388853649473171;-1.2450194357344568;2.618086452294352;2.041944205034097;-0.4711970238680976;439;1.256637061435917
458;1.06260915392456;0.6382242983615789;-2.074712780069432;-1.1568903063511349;0.9072239719467184;-0.424553261685211;95;1.2566370614359177
459;0.4685454458324401;0.9572822572936266;-1.3328771986441827;1.4008905797361129;-0.3130100179090433;1.0958978161690998;601;1.029585505814409
460;-0.6854200457240368;0.3256445641465382;-0.8312930881822514;2.0744600506836868;-0.6468001894109368;-0.2790642653886762;323;1.2566370614359172
461;1.1924682694338833;-1.0923721570775815;-0.0114091315494046;1.5716381383577145;2.7816608076330045;-1.6862136427642458;86;1.2566370614359177
462;-0.6792471621256639;0.3845487393012294;0.2902929628926623;0.2411581917983958;-0.77115488999942;3.3219762484001616;367;1.2566370614359177
463;0.8429432289844181;0.1078146507734493;0.6798359043145252;-0.5958507831595131;3.1164424146317566;-0.7068917617520242;173;1.2566370614359177
464;-2.4101029384216663;0.6208556600505334;-1.0657804139778777;-1.7403950089708486;3.023671061363708;-2.450929027600666;306;1.2566370614359172
465;-2.3858980741493045;1.2880043669456396;-1.8933690966392616;1.6722404421675738;0.8581223393610485;-2.034155139816212;176;1.2566370614359177
466;-2.7628971757357426;0.4540634520521521;-0.5231822209262552;1.6828239546949906;2.725125183129617;0.2698931639931556;413;1.256637061435917
467;0.2434590752398656;0.8202940967452987;-2.2170822719946663;2.3102861878298544;0.4399422968803851;-0.859636316716868;332;1.2566370614359177
468;1.9229429178338455;-0.8484105048620286;-0.6772928714648647;-2.414845600753514;-1.9640998544862232;0.6783857752225824;408;1.2566370614359177
469;-0.3913597071091861;0.0257560065723355;0.7441315766172465;0.3899295134890996;0.1933068591849376;2.8645525572181643;462;1.2566370614359177
470;-2.5717265485338485;-0.3312481533640066;-1.5590184932044515;0.9417631168384673;2.5915002073196747;-2.4841696156934066;130;1.256637061435917
471;3.187885209221988;-0.8523801523286236;-1.8043765847753015;2.54819029472855;0.5056407802593196;-3.075499774838107;251;1.256637061435917
472;2.997332634971154;-0.1203944656344585;1.1159366181874937;-0.7007070702304594;-2.723141452915556;0.0221719783150328;338;1.256637061435917
473;-1.812861070291769;-1.114842026852981;1.223775672061461;0.697407755440051;-3.110062160567374;-1.6892995998235036;153;1.0670299367213134
474;-1.7754057304093962;0.7712512410169927;1.003355267826364;0.0750226839048685;-1.1809077427315546;1.854326749172311;72;1.256637061435917
475;-1.0947865595230022;-0.2920105938087673;1.4976423522878106;2.4876445984509337;0.8443489059056809;-2.9686607906283604;94;1.2566370614359172
476;-2.103091990441433;-0.8918792238521409;1.0417416761829297;-2.133720715037874;-1.6778785414614912;1.6360854832480167;152;1.2566370614359177
477;1.683149420218512;-0.8330685974348457;-0.4775229290491099;0.7349188497958896;0.464445628126226;-2.139081543828917;32;1.215705374326474
478;-0.3019853731333288;1.4929528650733308;0.174925619147477;0.1096619203749774;-0.3013381964871963;-3.0781599399288786;213;1.256637061435917
479;-1.68744908664802;0.6859249184774405;0.8191871797136479;-1.538929767134192;-0.4680549688163083;3.2380106944731946;98;1.233871819064169
480;0.3921697951679218;0.2007285506104487;-0.5115316087006314;2.760690289347097;2.129844000464478;1.0423111287926363;168;1.256637061435917
481;0.8954331152422215;-1.406792129690195;1.2634414877543334;-1.4515765055524683;-2.202143901312585;0.3651114839542966;230;1.2566370614359172
482;-3.1938381915709586;-0.0576965964582807;-0.0433035935768855;-1.8698088208363368;-1.2610994116694776;3.15817001519636;117;1.256637061435917
483;0.7860924219768338;0.6461078451010189;-1.4557862943668574;1.633516764785545;2.787964474480541;-2.126562712260242;284;1.256637061435917
484;-1.292022849218032;1.7479845385128383;-1.667627020386667;2.543870681877769;2.130980860724028;2.4665748291598706;353;1.2566370614359177
485;-2.8497499746469312;0.3366153287762263;1.8460089728967133;-1.8033755000804823;-0.1778298577937243;-1.0677407710356877;265;1.2566370614359172
486;2.9208805021961157;1.114492511955692;-1.2938898135178605;2.73078970233898;-0.8566827252008488;0.6738185661193258;456;1.256637061435917
487;-1.8152519336737596;0.7972754732135903;0.8529527545902802;1.60048234398983;-2.8145542017913057;-2.972562446877131;401;1.2566370614359172
488;0.3950270716439895;-1.7194957801534625;1.3041695530349156;-0.3820615257455425;-1.0352165276196768;-2.5273080972711406;22;1.1426389902139311
489;1.5469434951720618;-0.3373602002502042;2.031832180159735;-0.9546262832474036;2.816817442348906;0.9474145383853868;432;1.256637061435917
490;3.314175425073244;0.1037770852481201;1.5205170036655842;-0.2481009291771299;-2.15762601552097;0.8824911918312359;472;1.2566370614359172
491;1.604411001932358;-1.6069661734516605;0.7666141459318612;-1.9739423015063784;-1.5745186379249252;0.0146824484057337;1037;1.205657966207524
492;0.3301701795039906;0.3369525732223866;1.85193624943641;-0.6438869415878314;-0.4892639953189333;-0.0178117282029967;65;1.2566370614359177
493;2.9207411766891545;-1.1596281234177988;-0.6278167539786806;-0.5232738183167266;0.7891346147498468;-2.9535572418441416;345;1.190154393034592
494;-0.5215772993347774;-0.7037160547978546;0.9246447804907528;-2.6754733595377465;1.7766800957356397;-2.0035783111145813;419;1.1978010332079383
495;1.8217591909535384;-0.5649064502799974;-1.8019861547261269;0.2074750370872849;1.869805046494744;2.698378793146857;441;1.10748501416691
496;0.9405662843564464;0.0579145078353037;2.0289775097077425;-2.4950102136083;-1.8599007404431025;-3.421674816259252;507;1.1862361734625382
497;3.03562901852011;0.7882715986821295;0.042095833214084;-2.642425320549263;-0.7121019797134043;-0.2294992340072056;197;1.2566370614359172
498;-0.7180620152507448;1.7533127492017462;0.5691914475217787;0.7612553401408257;-2.1061586487867063;2.530582137264761;280;1.048360326194312
499;1.8059146058223323;-1.2533459287709414;-0.8757565706146097;0.2206774365524297;2.3661220147529964;2.6753427575647217;495;1.2566370614359177
500;0.6044095171558591;-0.2505572168314922;1.3913420624371209;1.7838796093086795;-0.5115293925390962;2.043114435460673;175;1.2566370614359177
501;-2.1531987762089093;-1.320874387657813;-1.6645619993656258;0.7661978694464139;3.116800392588932;-2.1575073253445907;470;1.2566370614359172
502;2.701884885463476;-1.5651692355696598;1.9688833880541583;2.5381580436603164;1.9810483480665424;3.406321110653122;363;1.0508916948256868
503;-3.350852111140905;-0.7737949217244146;0.7470612393243796;1.3775756364857068;1.665498327113967;-3.2415843720730813;245;1.189357194412281
504;2.419972836582555;0.1360749602422504;-0.1830749550708889;-1.6216802241135533;1.4286576284482375;-1.940439046604595;574;1.0973113357388775
505;-0.732145093902281;1.064378417109015;1.1713743266981729;0.0792510118719983;0.4844636169546202;2.6816977774955357;299;0.8871460170454798
506;-0.9866277009471628;0.357019676059399;-1.9765665137281672;1.8571868868509296;1.4790447247928251;-1.3012639344683747;322;1.256637061435917
507;0.5826486099967063;0.5752791193331693;1.3890058883421488;-1.7465355391347606;-1.871898886455563;-3.218049949427351;41;1.210151675939405
508;2.9224493979357917;0.8741205284961305;-0.37378111202709;1.3815322827917769;-2.858988344880476;-0.7626294615096537;334;1.2566370614359172
509;0.7252138465627849;-1.4578042202020831;-1.2036068875937058;1.8305214990854544;1.0091294862208204;1.5056941004695483;444;1.2566370614359172
510;-1.8826736471080563;0.3616087339509232;-0.6817478405306046;-2.0249849355582006;-1.9392140865364855;-1.7482325821502076;71;1.256637061435917
511;1.470550897012453;-1.3976007213531765;-1.1545657446520416;-0.7326894075396674;-1.9111849431384489;2.0083863050314106;26;1.2566370614359172
512;-3.074973381679026;0.4025892705575131;2.523764879415792;-1.0767406985770458;-0.7881080324705324;-0.9871929697842547;485;1.1922066710180907
513;0.7599387645446329;0.3722968651607234;2.082359108010918;-0.5130748605803128;-2.759306489285388;-3.030969941984253;79;1.256637061435917
514;0.044771126036723;1.001770724800384;1.685744211499467;2.6112650703549805;1.8905488417820255;2.3821552563057127;394;1.256637061435917
515;-1.8167189238201849;0.9569485968005008;-1.6493693396812663;1.8237644099013204;-0.1636765500489768;-1.8962946615578264;465;1.2566370614359172
516;2.596153710356587;-0.9706537193819584;1.4527336840774043;0.6423162980706014;2.1924616819871585;-0.8808973122509427;328;1.256637061435917
517;-0.1209764311875685;1.7521785496648066;1.0428642346240578;-2.462467197997534;-0.1901304124663366;1.1123684490036558;25;1.0783608680949954
518;2.9431804344912087;0.4965578925641424;0.0886690912095002;-1.3317459532430396;-2.149661766093953;1.427292142931687;52;0.905682268400414
519;-2.5056577428630185;1.189821963362235;-2.405489473253009;-0.7092656923048473;-0.3272252747425491;3.3444511786282494;199;1.2566370614359172
520;2.1761797861870877;-0.4293285649677313;2.1533139717002;2.269263869263237;-1.5713711183630994;-2.6291922869005635;172;1.2566370614359177
521;1.8860854594910583;-1.5655061032911364;0.0680486291359891;-2.962884693746908;-0.0404175676356493;-1.3900491347594226;144;1.2566370614359177
522;0.2075695441931192;0.6305617928792089;-1.9501101056867127;-2.665135317017146;-1.5045413189719756;1.8301753228161184;327;1.2566370614359172
523;2.119289071626012;1.211463776631509;-1.3054208795966935;-0.1711045586223252;-2.898265762749518;2.969711838699829;246;1.256637061435917
524;2.981686056631617;-1.0750460435104898;1.2308358477400392;-0.9680374021320072;-1.196738458362531;-3.3347354052283684;210;1.2566370614359177
525;-1.2591504372715512;1.025051440415807;-0.2645963429905161;0.1432374034470182;-0.5408407421409653;-2.382236723736843;97;1.0023818313432926
526;2.9385556760013367;0.8149439324252215;-1.6326925590801722;-1.069895249493204;0.4012272587589812;-2.1744857984669954;166;1.2566370614359172
527;2.6354491099602377;1.1849764743311637;1.11429352099543;-0.4979411278225886;-2.554605461331492;3.1862758544069982;409;1.2566370614359172
528;-2.620918811380286;-0.0621934261988945;1.452084241553904;3.1045906584187497;-0.4958260820027306;3.052730349031173;378;1.256637061435917
529;2.116961039029788;0.5795497695980555;2.1060047469445;0.6317788845506975;-0.2912910875873825;-1.386947677032211;455;1.256637061435917
530;-3.0375309771316035;0.0892851595222599;-2.413777232557916;-1.008285252957711;-1.624045322296814;-0.3681294484548372;163;1.256637061435917
531;-0.97581654295966;0.449502386114417;-1.9526337696659568;-2.325497892973037;-2.501809259978593;0.2725610887695645;415;1.256637061435917
532;1.6363869313775397;-1.0197647305336217;-1.0897372421934424;1.646629763000027;1.4727846239408942;-1.813469981837216;32;1.2219948640122174
533;-2.470225125157808;-0.733678258267308;-0.3229885243086787;-1.3104616812225252;1.4246438234233345;1.8671614685212812;450;1.2566370614359172
534;1.1953079427713993;0.3380872777754263;-1.9814834538626784;-2.815691467066836;1.2786390806733048;-1.49967249313802;346;1.2566370614359177
535;1.5622235669846445;-1.481460249210513;1.3763836668272065;1.9845976332238464;-0.8839587063670147;-2.419451440606446;101;1.2566370614359172
536;-2.9301987365121915;-0.591512121012902;1.9625810419940604;-1.2773463192524503;-2.3335589096421643;-2.9237263595732474;376;1.2566370614359172
537;-0.1811807274551203;0.0234830843852136;0.7435474608753118;-1.074891577661335;0.2878950151002006;0.1504414572354991;807;1.245338480647027
538;-2.830788284572795;-0.9825951625775964;1.4032271821527489;0.8234976099492921;2.920404524500998;2.202491246526889;180;1.256637061435917
539;3.114529006211351;1.1833987874209466;-0.1802130003908966;-2.408519641312148;-2.8201171223071357;3.151829211318247;389;1.135143173361608
540;-2.171095336715376;-0.4500165290058411;-1.1882228379421909;-2.9744809393540343;-0.2571369567967295;1.0897557227654977;262;1.2566370614359177
541;-3.1668823071003693;-0.0544416019940098;1.8339145337978613;-0.8250545208115092;-2.3599092625808185;2.1445921820871563;360;1.256637061435917
542;-2.730389149450952;-1.0672769389857355;-1.6799272399229497;-0.6423477246631264;2.6341624203313936;-0.7498256078640805;393;1.256637061435917
543;0.977221661023828;-1.0313614745101445;1.9023946852295264;-1.6035295548212;0.4578142564408031;0.8953304186544752;358;1.2566370614359177
544;2.869161055021621;1.3766377439254966;0.0769609083526668;-2.956033663962897;-0.0644330579804456;-1.057876926688886;497;1.256637061435917
545;-0.7152691296768738;-0.1695908485670395;0.3518323752787616;3.270612726522866;-0.5846011383901824;-1.977187190669556;292;1.2566370614359172
546;-0.99858440769102;0.9923591043514024;-0.2305850349351463;-1.9166230820118648;0.7719890568554854;-2.1171056052514805;46;1.2566370614359177
547;-2.6426283804285338;-1.2702369456880525;0.7087588310234672;2.061738045916377;0.0768461942182125;-1.895155065642148;76;1.256637061435917
548;-1.0573756288692926;-0.1977284658283176;-2.1349602106418635;0.5285338724185671;2.9107848098651856;1.39107942444558;259;1.2566370614359172
549;0.134632028750529;-1.4166227823397242;0.6190490151955633;-0.5040884543474293;0.1864748943243036;-1.8117620779782595;22;1.1391974909916398
550;2.7207081979709584;0.6310535690244972;2.354538952666466;1.2204260993082747;0.5395674439302018;-1.6847175649650217;455;0.8889326545967443
551;-0.3147403146342286;-0.8244787895279615;-1.7757970461581047;-0.7384272162366569;0.610216655113308;0.4037403234749228;34;1.2566370614359172
552;0.0225364375330767;0.5510326190638609;0.2072910612911685;1.140235630092656;-0.2972729876994581;2.664338740720399;469;1.2566370614359172
553;-0.2875870443975192;-0.7274455428629356;-2.108657900816568;-0.3040950171341323;0.8521111658047663;1.5042084925227763;551;1.2566370614359172
554;-3.3208751446244973;-1.1089529423840785;-0.4268262597084128;0.2701666279589658;-2.993883735200546;-0.97211275547925;256;1.2566370614359177
555;1.3355295359534023;0.81507476582069;-2.1328413343667;-1.1025495856308254;2.6330698752122634;-1.190874382331009;324;1.256637061435917
556;1.7491283896943606;0.3289924499842721;-0.7988269331328743;0.1372512930468754;3.030791428624508;-3.021212440380529;431;1.2566370614359177
557;-0.8159981518031472;0.871003859638048;-1.1129693476236198;1.7290671724646498;0.8924448588661942;1.728085799836737;846;1.2237503556871956
558;-0.5077218505189006;-0.2442641599275125;2.342314927400089;3.295628947441263;-1.0299259740270394;-2.644923201555783;325;1.256637061435917
559;1.7270359903880563;0.518705971725892;1.7924439656274256;0.1166641785344831;-2.8851975767997886;-2.6760707726825874;513;1.2566370614359177
560;-2.1365419892011923;-1.3233046479223505;-1.5099932601425694;0.2158417681740982;-2.3909139349053987;2.9795911832839472;258;1.2566370614359172
561;2.511317030618652;-0.7897965531930651;-1.7452774678957752;1.7713614033730474;2.539868604358034;2.810836748631845;441;1.256637061435917
562;0.0626040046998013;-1.0717574813019828;2.00582327130333;-3.185408577483373;2.0749911912781123;-0.3950694475124777;1064;0.9046530896998448
563;0.1967393594693974;-1.3362413397951736;1.3408825530735515;-1.3636556828012432;-0.1587657405828482;1.7416806215305605;358;1.2566370614359172
564;-2.667991320167102;1.4188712619501096;-1.572464317133394;2.4829359987482174;0.7196495861122387;0.4683683533553299;349;1.2566370614359172
565;3.202172344070335;1.5535503018335923;-1.243305828668283;-2.123028647318324;-2.848702801986404;2.703721979376562;389;0.7655967510702434
566;1.6894588292052768;-0.941965053780552;1.1373117115229705;1.7850443349738796;2.5641505095618298;0.3257963049619005;303;1.256637061435917
567;-2.4197149203314985;-1.7876692689441258;1.5484920470037202;0.9266839891034804;0.4331309789809907;3.18957754407318;405;1.256637061435917
568;2.4276124511080277;1.4594882588474571;-0.9689740121040512;1.279675579831754;0.4128994370552075;-0.9408034477658402;196;1.2566370614359172
569;-2.351849712537894;0.2390433045117195;-1.2622382843269464;-0.1715911772314403;-2.830329589573505;0.2623680854825196;330;1.2566370614359172
570;2.8732674239273064;0.7786969440816742;0.7731321628906683;-0.5962208486668142;1.832659413262914;-0.2466061754882788;379;1.2566370614359172
571;-0.384422922087262;-1.324472745006501;1.6117697215858109;-1.1482112181321686;0.6227493630950004;1.0270572422956517;563;1.2566370614359172
572;2.5795451526579107;0.6790385813368679;-1.015912258827427;2.6931108900749177;-0.9982257428766044;-2.322828737735423;313;1.2566370614359172
573;-1.2536275802848542;0.1773830652329563;1.2072419429495642;2.0016039792269327;0.3672250830183436;3.3200673802546268;257;1.23184800275524
574;2.662401052894551;-0.779007096440301;-0.2347652949249691;-1.3808811108675458;1.1902643006856704;-2.3768540716878883;112;0.919232898104124
575;-1.980060232431364;0.7783792935940995;0.9560343915358837;-0.9083578614552504;2.723353077691707;-0.7449895585819721;124;1.256637061435917
576;0.4476536974587132;-0.2224119611617396;-0.5707327938718363;2.9384214189017626;-1.2839824728487723;-1.0234094053095495;339;1.2566370614359172
577;0.133994156347901;-0.9696148002265764;-0.7098005673726845;0.5219444230552567;-0.1234868051790907;2.045464290301889;55;1.0128151215530157
578;-0.817750404555972;1.5658117271551233;0.423377822700217;1.1207304806600542;1.1052039039990156;0.354861120881947;335;1.033489491579941
579;0.093993451603454;0.6586433384646737;-2.585898864234629;0.15215838707132;2.9651103783692774;-0.1682432040193517;312;1.2566370614359172
580;-0.668264851980934;1.5727717025820391;-0.6969135894706231;-2.3322969506073856;0.095769869944347;-0.2113946741214254;372;1.2566370614359172
581;2.514623999326146;0.3148237826294363;-2.53530524271002;1.9057137258508157;0.8827407082141178;-2.871150586091749;251;1.2566370614359172
582;0.7493016841587787;-0.4759644876939379;0.2074047512147878;-0.4101554604122661;-1.8089327370223245;-2.586036215791906;15;0.9075519502458754
583;0.0687390402416233;0.1968478312832267;1.4985840241041064;3.113368539624795;-1.4121972604690547;-2.2436530594621305;558;1.256637061435917
584;2.785661495851569;0.2751151321466549;-0.1743193557456624;-0.8132603600880219;-2.6011162105318792;2.1706890777636767;52;1.2291982567844872
585;-3.084094310789701;-1.4088384763442765;1.20794693366282;0.1533512667408142;-2.5406885262379117;-3.0176366973275246;376;1.2566370614359172
586;-3.2459325402072303;1.3251674056340446;0.7196260668200363;2.4027200659948407;-0.118034319017911;-0.35225801163824;423;1.2566370614359172
587;-1.8784369004907595;0.0785840019088402;2.232681827193321;-2.706535599197998;1.4410171870363413;-2.5628060629861067;414;1.256637061435917
588;-0.6088680703567849;-1.3699415924448504;-0.5879069787579004;2.3985302159776904;-0.3753023049533888;2.4266517583908778;316;1.2566370614359172
589;-1.8394385374186968;-0.5889289651887387;1.740115122206831;-2.652290884801715;0.7566935944391442;-1.9161384178064007;1209;1.2142257906715677
590;1.0021711396411677;-0.0264691448987021;-1.5988552511343177;-1.2211613282678513;-1.1079126269337578;0.0876988802104133;192;1.2566370614359172
591;1.6182038339620706;0.4673272218364831;-2.580191042208291;2.7042162438451043;1.1135368068391411;-3.1149177843621576;581;1.256637061435917
592;-1.2466677838492712;0.4623848730274493;0.7946954757902349;-0.2025016407204411;-3.113617483391875;0.039993444581961;45;1.2566370614359172
593;-0.5464562750571377;1.3415417256500652;1.436982117297536;-0.078636833597369;1.4915398653798178;0.0757836111032981;31;1.0763912121977015
594;3.097488777710588;0.481248163567491;-1.5375590189236996;1.910200174842581;-1.4302836123042422;-0.958241405674398;313;1.256637061435917
595;-2.907445622711344;-1.0619774090145406;-1.5516261812705787;-3.309174540236855;-0.8861379883037183;0.9390747758083152;540;1.2566370614359172
596;3.0362477393934952;-1.353443330301095;1.8710123871018396;1.4249940919397102;1.6086812277321076;-1.2134403055057723;516;1.2566370614359172
597;-2.951747195264597;0.1946269786395972;1.1021988396150808;2.787534171704041;-1.073844244187504;1.1909403768813256;395;1.2566370614359172
598;-0.5618816715285877;0.7862256280631065;1.560191840804166;0.1287048761555491;2.833854261500305;-2.5420064656135355;451;1.2566370614359177
599;-1.8194043729132288;0.7824599273834743;-0.2228362082461832;-1.645575858695086;1.414829461996487;-0.1082938676410876;148;1.2566370614359172
600;2.646696463499894;-1.0617082867274752;-0.7542300607704858;-0.3187991967448451;-3.115737700057535;0.4639470767230851;326;1.2566370614359172
601;0.0489958609553632;0.9640449344453412;-0.5811746913339402;1.589312213069;-0.0879416928452229;0.6134420114999521;189;1.1849107915981665
602;1.457589695472676;0.8496298970895976;-0.7688156404245448;-0.34681118490962;2.05982528462435;-3.233547387027378;556;1.256637061435917
603;0.5722935130296422;-0.972899459372784;1.305783051922885;2.4879412112753654;-1.2081715347524358;1.7823586241313478;500;1.2566370614359172
604;3.0270172362812104;0.8983622892029124;-0.4791154450652145;1.7454126691509522;0.2522090953578915;-0.4086135327161679;568;1.200028497145914
605;-1.1338412055915796;-0.5058413662041599;1.3387278782370111;1.6290629747761036;0.5566938961573451;0.44906866318279;63;1.256637061435917
606;-1.2273868069298632;-0.4426636490331772;-1.2976792929034795;2.448352878332825;-1.14337167570195;0.0229556742907237;460;1.2566370614359172
607;-1.596390829100164;-1.128746457861258;1.1615762857069485;-2.025044037913108;-1.9951580084335248;2.7035344688065104;476;1.256637061435917
608;3.1639498351763367;1.1979889577905167;2.001910872801288;1.6382754327380464;-0.8250493267388138;-2.7704403943996248;455;1.2566370614359177
609;2.6674205734572523;0.822140600474569;-0.7133522523868434;2.215056016815043;-1.3511945588008043;2.389058028461081;200;0.9899117570995444
610;-0.6720610237292255;0.9688204736655353;0.9718950152639314;-3.2134698085042848;-0.1512926338161386;2.7644808860725734;307;1.2566370614359177
611;0.4704652934418581;-0.9086499612526444;-2.179400768297541;0.5112541389353965;0.3166115331303313;-2.012670208453309;252;1.2566370614359172
612;3.057374216626342;-1.0917913593582038;-1.2178663829407832;1.2876928822349385;2.0012852669167964;-3.242020288753209;396;1.2566370614359177
613;-2.973184679199064;0.0326853969397405;2.317300690278973;2.645470503029015;0.3049893997967505;-0.2180300719367864;340;1.2566370614359172
614;-1.8993912616939144;-0.8164857705185471;1.0209528206247622;-0.824074853795204;-1.2490671718654132;-0.9400116963138544;136;1.07625660242076
615;0.217124270360445;0.9542762348160998;-1.3966984959067992;-1.959345790944569;0.1607596259432918;3.295880324330156;226;1.2566370614359172
616;0.4094949916412707;1.5907783383822365;0.3708491027038754;-1.5921132314460298;-1.706654131971283;-3.188425454719632;75;1.2566370614359177
617;0.0814658983483282;-1.2704255783849654;0.4158648550499778;-2.0324746960538254;-1.6148253373809105;0.914255758135395;437;0.9115027317506436
618;-2.463484713635198;1.0738696150772842;1.3183431116542383;-0.6088573041500968;-2.682810804745024;0.307055360205371;45;1.2566370614359177
619;1.1829780315107736;0.5510091383212158;-2.662918684665871;-2.1528600459705163;0.6493585159482957;-3.1062590126356224;291;1.2566370614359172
620;-2.1339858821640982;1.2458382763096103;0.9821935436232304;2.147647736167177;1.498904474773721;1.037152296552437;111;1.2566370614359177
621;-3.108112559985126;-0.2394869520197362;0.9630171382898663;0.2042460059263639;1.664512237438264;0.9534355367922276;440;1.2566370614359172
622;0.4867401322643405;-0.6623955810118919;2.6988599643463367;3.16270146381249;-1.5370176301748928;-2.5291123356345238;558;1.2566370614359177
623;2.574139131643536;0.7571918913088234;1.4478277622552245;0.1230291881434072;-3.116792196962367;-1.8809352311880316;559;1.2566370614359177
624;-2.91885099048872;0.3698837828554797;1.5674551504269685;-2.273802962248264;0.6388770601423439;1.891756649503531;234;1.2566370614359172
625;2.37915325637629;-0.9704510974851892;1.2339666174398285;-2.162487128326909;0.6665844726219551;-0.2471104984256737;357;1.2566370614359172
626;0.2548396411173455;-0.5979968582433767;0.9942784624681882;-0.0522727325340741;2.087068036493569;1.6600915955039854;67;1.1648415388617694
627;1.2997428072713273;-1.3635869299363836;0.2075752906762657;-3.147270454320361;1.6022872827318932;2.6313682776757075;412;1.2566370614359172
628;0.3667546077484012;1.277858072091687;-0.8800532826572056;0.3829424424130376;0.2906040183975047;2.000604745758769;386;1.0442110736598025
629;2.8907254252500985;0.1586799824351866;-0.1328892108433398;-3.055340584560922;1.9225040847792647;-2.8111559353793902;402;1.256637061435917
630;-2.283415854798237;0.1118082740054375;2.213541899810571;3.398413660228948;-0.4315508630937893;-2.7935681805406447;167;1.210437981480626
631;-2.4781339266299223;1.3536313161938878;-0.3854706553544761;-1.9151377055009489;1.0628188522157096;0.0784390062426374;599;1.0089873976230468
632;2.9868652721157223;-0.8408417824691387;-0.5729092557426975;-2.010174069006417;0.0381537413684236;-2.327283424114145;138;1.2566370614359177
633;-2.01731536156835;1.0721077009210576;-0.4568454629224932;-2.3996389290153752;-1.6896514266684757;-2.6443192494811463;510;1.256637061435917
634;-2.9977392962026363;0.654402853160461;-0.4213225972684765;-0.8072608915393245;2.8251442013101475;2.747694236073183;106;1.2566370614359172
635;1.2613387140517118;0.4311508210249021;2.4459086521629483;-1.113999796288689;3.11403823316976;0.1588982205248968;489;1.256637061435917
636;-2.314108612767406;-0.6056395233770887;-0.1347991443464935;-0.0252648742072254;0.2664870356118313;2.3234591100915125;420;1.256637061435917
637;2.19015848000882;0.0666165336824399;1.3315327415810485;0.147395508265467;0.3866168740790039;-1.2577772953740674;529;1.2566370614359172
638;-0.0688045735106679;-0.9409439989512696;-1.42446258464103;1.2723184785867705;-1.3325935947589729;1.0859378620058873;49;1.2566370614359177
639;1.5323027062373618;-0.144183974668145;1.2584025056388028;0.2804175372329979;1.4176213940624451;1.3768203599861937;67;1.218299183756978
640;1.4920569487726851;-0.1918918191883391;-0.3532627977209484;-0.9005945480568495;1.8679405491744947;-1.930338008672172;433;1.2217282845203172
641;2.6836260173612585;0.6795395329491404;1.4217154438021682;-0.3414753721887367;1.00101006691748;-1.836867303733132;853;1.2266794333150557
642;0.0808136975997514;0.2367127164718466;-0.1629238789038467;-2.111759587390567;1.0898408929064458;3.196398490332575;226;1.2566370614359172
643;3.046755362445513;-0.2088216030805358;-2.243472683809412;-0.0106507375132504;-1.4944498191242936;2.6201142198691354;62;1.2566370614359172
644;-3.1673577249910885;1.4800667394303906;-1.7506445846583638;-1.2860946981093084;-0.7557914752912304;3.010048293648886;519;1.256637061435917
645;-2.822394298006265;0.9153053789858604;-0.8001716725482294;0.8467361578704616;-2.200559019794432;1.6823354226592715;133;1.256637061435917
646;2.782750569832986;-0.724108215313378;1.229848484294612;-2.263329804148958;-1.0273453552359402;2.1311466982964102;74;1.2566370614359172
647;0.2260260683580923;1.3297600814157249;0.3262840895061355;-0.0453789023018554;-2.587434094675857;-2.415436530191112;75;1.256637061435917
648;-2.476326804489268;0.6643324768077095;-2.285548079203961;2.703101682268661;-0.861504582195118;1.7398243132042648;349;1.256637061435917
649;0.2936852887162223;0.3951186132897634;-0.9781858880559298;-1.8472662770605832;-0.2665184029796467;-2.025733115168185;47;1.2320208916726774
650;2.5237569918757146;0.3851380697191402;1.86879853877226;0.0655058873884633;-2.3574283209414704;3.1503465356444607;527;1.256637061435917
651;2.696868567770626;-1.3343386434721831;-1.82445767512481;1.9611172799159995;0.5382825472568626;2.503552996384614;444;1.2566370614359177
652;-2.6227913676952204;-0.1820056740358995;-1.6184301498478302;-2.2830078333873853;0.470406749972602;2.6990830343024097;159;1.225410161835583
653;-1.7008146781057532;0.5185158746766299;-0.4370820385501842;-0.965167375103231;-0.6083320732136192;0.5217779536251745;36;1.178925613598134
654;0.1763837784284059;0.134425137554087;-1.578546898606615;-0.5768295908288046;1.3151410704616024;-2.166129044749321;324;1.256637061435917
655;1.125092600396933;1.2947199866059815;1.918142110123108;-1.1900115352519445;2.6010805118609084;0.6759872512909565;635;1.2566370614359172
656;2.2473576435671214;0.200870446445454;-1.0421414572958907;-1.6523585321388288;1.4698017820204503;0.4015468568114968;269;1.2566370614359177
657;2.00298276238474;-0.504640723654609;0.0309993745025594;-0.0072445911407151;2.041878875398398;1.2919991365971937;379;1.2566370614359177
658;-2.899543199797875;0.0939106254964371;-2.355980514146164;0.0622869194049995;2.3419222593656785;1.9483479697509207;99;1.2566370614359177
659;0.236860375060242;0.9413399092687028;0.2840947301213951;1.7973819419244323;2.799907106509678;1.654206879377504;168;1.2566370614359177
660;-3.397961560097247;-0.4130251645906442;-2.1737918287310403;-0.2793686919178462;3.1435284318942243;-1.015021106303153;542;1.2566370614359172
661;1.3526707225486438;-1.6657787563832531;1.7264969602298184;1.5514916163251875;-1.5994082304768382;-1.59530167518958;535;1.2566370614359172
662;0.1725051737564187;-0.3157614382802821;0.8625032105762555;-3.115013480038953;-0.7987289550281991;0.0633164423834835;437;1.2566370614359172
663;0.9742309943644072;1.4518098240721686;-2.780704564874658;0.1600819986698415;3.078486709585781;0.1843745231226317;579;1.2566370614359172
664;2.775628904790693;0.4570307601839975;1.5257149154873653;1.8947551111588488;1.1603751600717889;-1.5477308470328888;550;1.256637061435917
665;-1.10340165118255;-0.0836155339141783;2.4124100544168345;-2.9697785428697654;1.016958781034984;1.7826420192566328;1031;1.1416573105048498
666;2.038627794891175;-1.642239170255798;2.237861934684774;-1.1129035457669711;-0.3189234493991377;2.0336725684608754;195;1.2566370614359172
667;-2.9087937516692954;-0.5042002929480155;-1.369947169026739;0.2539660271105482;-1.984592460465385;-0.6608240582695538;156;1.0672375856603529
668;0.5686973225055874;0.1045259258087118;-2.084591665420024;-3.087917833750044;-0.7420387745456669;-2.115424083474283;291;1.2566370614359172
669;2.7409989092482823;0.8512579373731044;-1.7611430492459657;-1.587608678936598;-2.439614836544891;-2.366588398837037;266;1.1302698784271898
670;-0.5056407938516748;-0.4890262294749902;-2.0141354578342656;-3.0175720259534717;-0.5735816523392068;-2.300733940174612;668;1.2566370614359177
671;-1.971429944807873;0.3033103709128258;-1.1805373767694296;0.6501621438028226;2.8939303659679982;-0.4590971414371961;44;1.2314701430938422
672;1.7869625506266165;-0.7608589334645615;-0.9842495257385976;-0.4847793260121645;0.9102198879510878;-1.6613109320921646;252;1.1156684500704224
673;-0.4782126594877715;0.8862354709124916;-2.131549570934889;1.5944352792907224;0.5298803872676743;-0.9521020470795816;467;1.0303181523843778
674;-2.1732664006343936;-0.6482057600596585;-0.4114132644520187;1.7771117046770062;0.1508441491177903;1.0929733638029826;21;1.256637061435917
675;-1.9697238232155927;-0.4982244554870434;2.643056664711102;-0.604531876146047;1.3827856597923958;-2.494323602154001;219;1.2566370614359172
676;1.8355956624556689;-1.7002724321366811;2.5019624599591253;-1.583905695500033;-1.243014502221225;1.4099655767738593;1216;1.005831279307437
677;-0.3153180841484038;-1.1124860415126925;-1.31209346136992;0.2513991869683696;-1.397763589144172;0.4303534106575435;638;1.2566370614359172
678;2.677397334861034;0.8557799872587312;-1.5610536367655363;-1.4762791876853374;-1.9203827213621416;0.8176437788964163;157;1.2566370614359172
679;-0.384783301621588;-1.451676701208863;0.1893322866982215;1.549953239251092;0.33091512783353;1.0610876269051612;316;1.1183324222572135
680;-0.286318577809124;0.3201004064621304;1.7404209585669188;2.825074169224087;1.6612225384788184;-1.1431140597964755;143;1.2566370614359177
681;-2.6492924792150063;-0.1952234631213652;-1.1984369541459043;-1.0888567427321727;1.6113673275507563;0.2237173843084709;96;1.187611408586488
682;-1.1763949987028903;0.2001201770668889;-0.7449800535625273;-2.800797454235974;0.4013966266472089;-2.175519670880045;235;1.2566370614359172
683;2.795604218864004;-0.2802177566619022;-0.8668935711562746;-2.7502628037002608;1.3227636170723398;2.757243240149072;184;1.2566370614359172
684;2.436968905650776;0.8203229332348281;-1.9882689641403288;0.2009163492609806;-1.9123967063761296;-3.059364458162518;321;1.2566370614359172
685;-0.8937127724132026;1.5528921650285883;1.0679807032874926;0.2705159434764806;1.7950787397975672;2.3026144878913613;299;1.2566370614359172
686;-1.116406587778867;1.3331877160271055;-1.7274449781998484;1.298058752865385;0.2829884187014589;-2.5783295755085263;515;1.256637061435917
687;0.3672426178495399;0.8553429467206164;1.3954753073159698;0.5274586705178994;2.406138162634164;-1.2852407597905342;381;1.2566370614359177
688;-3.189637380653269;1.4403353078763308;-0.106579264176632;-0.1222667758505032;-1.297898044192744;0.2996478749058622;133;1.256637061435917
689;0.8477580292643446;-1.3182256648904882;1.5742648560435089;2.882665594418227;-1.807661222982746;2.674954900264501;603;1.2566370614359172
690;2.26880517657065;-0.306997043783662;-1.58997746508092;-2.7121228382164;0.9442572624424403;1.9614227152323016;683;1.256637061435917
691;-2.4140927660781992;0.861424656385366;-0.3662407639641986;1.141268409024229;-1.1973940330818784;2.040299331414435;645;1.2566370614359177
692;-0.1050568113137944;1.1483083440431603;1.641549397820651;-2.060224833128438;-1.09189064983215;-3.132941672765353;507;1.2566370614359172
693;2.8770059143413853;0.0690689249290833;-0.2975834942778596;2.80720367161235;-0.7493544191836095;-1.9257544199904288;572;1.0996200311140023
694;-0.7328334820985174;-0.0880285211060661;2.499639946132433;0.1991007255497925;2.790449463079724;1.5685873024584476;350;1.2566370614359177
695;0.4729627335673865;0.9709983351414035;-0.1515763067967211;-0.0932711122424223;-1.765504426809792;-0.8261847174118707;442;1.2566370614359172
696;-0.9649361121536664;-0.6204131701625742;0.8732170740875979;-2.997038517345545;-0.5563054194137791;-0.2827316730990082;662;1.2566370614359172
697;-1.0987556263917684;-1.5560959926806324;1.1484167018164717;1.94172646883992;2.5313693944655764;-0.6661898323528739;243;1.256637061435917
698;-2.134665889368869;-0.5405907640642638;1.4300646371968309;3.0721400367799943;-1.4882197824009669;1.2947004280292642;597;1.2566370614359172
699;-1.4240974091003238;-0.0953451584404486;1.0247007472900005;0.545474073924787;-2.8847663449223657;-0.5811197626714492;592;1.1802832771576657
700;1.0584088989276623;-0.4315162534579022;1.0882438053373829;3.116874737680067;1.918983351915787;-2.532000470176509;86;1.256637061435917
701;0.3343965534655134;0.0804952499236153;-0.8321375410139342;-0.6571727499041569;-1.3668487091277235;2.5027996464081617;367;1.2517859728188596
702;0.4283145213813562;1.2671272503720123;-1.0264829275623288;0.227391616833833;-2.451446331519756;-0.4380501668086408;695;1.2566370614359172
703;0.2447014528908638;1.1719522470007837;0.5066454642893548;0.6257119006002629;2.8655913225554714;-1.9583748658964115;687;1.2566370614359172
704;2.10901854103607;-1.558602118786002;2.0322164666568745;-1.4175375514030664;0.4720033403320148;2.931742481122565;666;1.2566370614359177
705;1.444364314570436;0.696006568733003;-2.1024118446085267;0.6233419105649565;1.4227675738097334;-2.4047276665217905;58;1.2566370614359172
706;-0.3404709150660274;-1.0937713917844862;-0.7066386850890743;1.9849946786406487;1.634826717954266;-0.6764693933702397;18;0.8895867354125268
707;2.6808216978449915;-0.3790334216725929;-1.2193551273182643;-0.9137557415870144;2.1604026926147704;0.4345428686550603;656;1.2566370614359172
