Komment314/test_diploma/benchmarking/path_finding_for_benckmarking/pre_rrt_star_results/9_2_tree.csv
id;joint_1;joint_2;joint_3;joint_4;joint_5;joint_6;parent_id;cost
0;0.0;0.0;0.0;0.0;0.0;0.0;-1;0.0
1;0.482365160872551;0.4293238330918313;0.3647977362788702;-0.7941175334560622;-0.6312222720670623;0.0;0;1.2566370614359172
2;-0.780637226662355;-0.0636095278920247;-0.6480160820328281;-0.2892033591862171;0.6708021910050086;-0.1102590018532245;0;1.2566370614359172
3;-0.5202322474704667;-0.3931163438598647;0.677427825437423;-0.2182809437597783;-0.1008325292445894;-0.7982683915933169;0;1.2566370614359172
4;0.7622661473242849;-0.426915931098428;0.3061759485363621;0.7689490859163557;0.3040385480896541;0.1958672143924182;0;1.2566370614359172
5;0.6149894206191926;-0.9957940846131796;0.492359576447073;0.968609726572401;1.198648740335263;-0.4032720061565908;4;1.256637061435917
6;-1.284772905300031;-0.7202677935838705;1.156517929831012;0.2099366907794864;0.0280423102162303;-0.1214524485637496;3;1.256637061435917
7;1.447260339171097;-0.0346004535086815;0.6531117107431724;0.3614137087293778;0.4409050786523456;1.0026052594905412;4;1.2566370614359172
8;-0.5459813464355582;-0.4343723766762455;-0.5469006577054226;-0.1901155272155735;-0.8701249730999926;0.0;0;1.2566370614359177
9;1.0247372488255713;-0.4114107625997536;0.9101881410815068;1.215520772783599;0.455271871129121;1.682922362489552;7;1.256637061435917
10;1.0605602397576466;-0.0139842053502234;-0.1364331704575042;1.5811642286214145;-0.3771585357227718;0.2002251053716789;4;1.2566370614359172
11;-1.0373971443538557;0.0236330289762847;-0.410895010075938;-0.4230468154928285;-1.2902985114514751;0.937324886337314;8;1.2566370614359172
12;0.4820843338713426;-0.4995920995898559;0.5440883373816715;1.4348059933578217;-1.0285215857132997;0.5162681799379869;10;1.256637061435917
13;-1.7049546816864194;0.6779608034940374;0.0381482832903063;-0.3058284060109112;-1.3507070276492272;0.2399515441800903;11;1.2566370614359177
14;-1.2772644618749809;-0.2721359490841614;-0.6469987445085142;-0.7490020510082858;1.3318303512524985;0.6901413507622981;2;1.256637061435917
15;1.323018898149811;-0.902686066816225;-0.2927316015867178;1.3560407179807228;1.6987651325818665;-0.6325633566695525;5;1.2566370614359172
16;-2.1434773406449064;0.4621687178116769;-0.7163616178727507;0.465278031641026;-1.24642062374283;-0.1668682861257297;13;1.256637061435917
17;2.1437623711720444;-1.3204480120944475;-0.6230944948555786;2.088026133192637;1.916444513133394;-0.435928642812035;15;1.2566370614359172
18;-1.3090864010404402;-0.1992382119825749;0.9332709114273936;-0.6014202920897622;0.3237069519686593;-1.5240589140948584;3;1.2566370614359172
19;0.7418569954939277;-0.6216720654671181;-0.9026399148421448;1.349499034060609;2.198455723887096;-1.367884406875444;15;1.2566370614359172
20;1.7947983395022418;-0.0755593158930044;-0.9600474235694526;1.171191033769623;-0.5782378687270511;-0.1862826775147825;10;1.2566370614359172
21;0.1846384675088554;-0.6634471239228485;-0.5198869896712567;2.0136015700661103;-0.1557880952319406;0.1162494374345594;10;1.256637061435917
22;-2.4076188664023994;0.0727963684915673;-1.0687581821155672;-0.5600039779350944;-1.4169661859955895;-0.5583817669600911;16;1.256637061435917
23;-1.938834749259848;-0.1416159015127668;-0.7633456430192006;0.2181984129383708;1.5554150771733986;1.0442917542478158;14;1.2566370614359177
24;1.4356633367164824;-0.765737013023695;-0.0026355378725714;0.6043701993731216;2.6361582295260173;-0.4917699677096292;15;1.2566370614359177
25;-1.3893632525752109;-0.0486257961326715;-0.0206568309736577;0.4106400471768546;2.0744582934868845;1.6850290672551005;23;1.2566370614359172
26;-0.2395838867197412;-0.1731030819875302;-1.5508356842928983;-0.3604395031482269;-1.461721915643357;-0.173530745672037;8;1.2566370614359177
27;-1.2318306227175049;-0.261427667455983;0.1637136076928493;-1.0872173994072667;-1.5069815113425045;1.7384638102588037;11;1.2566370614359172
28;0.3706621979985525;-0.1870827547573504;0.5494324234361876;1.421669724528148;1.0238900686379993;-1.1947046517298596;5;1.2566370614359172
29;-1.3566903507031935;0.3988037553961701;0.5965693613234565;-0.2542139479899789;1.2676563897431934;-1.8310697495781865;18;1.2566370614359172
30;-1.813530719826042;-0.4504309764820353;0.7644125216081495;-1.60297282368378;0.788869237990973;-1.4075331796405892;18;1.2566370614359177
31;-1.694749021753872;-0.0306726274269895;1.4056993208246544;-0.3892857103644857;1.8241010654496068;-2.376813944438287;29;1.2566370614359177
32;-0.7905166863983325;0.770221375456695;-0.9523458557695584;-0.2726294791660916;-0.6217079256594871;1.3822797377256044;11;1.2566370614359177
33;0.3719988626535398;-0.161132098563538;-0.7096765066105236;2.1417417237450964;1.6047463718910255;-1.829263268233548;19;1.256637061435917
34;0.9111859842572496;0.4513473478035537;-1.2168005863596407;1.420920361007237;2.6911964966544266;-1.5970182844764218;19;1.256637061435917
35;-0.8885336211660344;-0.4393954133962127;-0.0602628192552344;-0.6288695264219419;0.2737110698518581;-2.119234736373599;18;1.2566370614359177
36;-1.403352133555298;-0.1433914269777603;1.3488948206939697;-1.045736099193776;1.0499498024541318;-3.0461830412179376;31;1.2566370614359172
37;0.0926199879422143;0.8678504715273709;-0.914433481907868;1.141479768928933;2.775208970590408;-0.8493281376596378;34;1.2566370614359172
38;1.992445956165392;0.0670596346746189;1.159210566411682;0.771543543696002;1.0834394515536747;0.3435289209158789;7;1.2566370614359172
39;-1.5270283895168268;1.199347381033925;0.6960701664290311;-0.5420233609885474;1.5794322994361552;-0.9829467196668032;29;1.2566370614359172
40;1.9217016907353668;-0.4548846644696743;0.4779939213780724;0.0290552553947175;1.196680137561264;1.68457224461017;7;1.2566370614359172
41;-0.6709681005182042;-0.4035086156129401;-1.3188430810054652;2.3564412668326677;1.6895222928801696;-1.920056858029127;33;1.2566370614359172
42;0.0133769651498169;-0.0158243101063078;-1.111333612696758;-0.8484246906187657;1.0846008239209155;0.3875098199742824;2;1.256637061435917
43;-0.883730884803436;-0.0660330534421649;-1.2228583526330474;-0.9647221157346256;-1.9940698775159649;1.2527494292520598;11;1.2566370614359172
44;2.15760955634945;-0.8861141284659797;0.0653708548871857;0.0299694462025672;0.2321427355289816;2.1713312217567715;40;1.2566370614359172
45;2.0776425107199548;-0.679632728955517;0.6686584273546884;-0.0602443588057708;2.9531351085303554;-0.9001362935348982;24;1.2566370614359172
46;-2.641587866183722;-1.0570192564403929;0.9742719027328204;-1.865382467545725;0.689004455262648;-0.7729971528538744;30;1.256637061435917
47;-0.1048183764678488;-0.3903545276084459;-2.182752013345445;-1.245113108245834;0.773297577946788;0.5381248281570701;42;1.2566370614359177
48;0.7071942359365744;-0.2719429142752346;-2.097192664859856;-1.739661210834584;1.0865206636314322;-0.2073575539319013;47;1.2566370614359177
49;-1.742812416879069;-0.4440891950892186;1.772682140284899;-0.0206450543787307;-0.5482699064280069;0.6052523369182221;6;1.2566370614359172
50;2.0809410358613567;-0.9079722266443908;0.4344005026800155;0.5983884719183897;2.0400635182010927;2.242384911919073;40;1.2566370614359172
51;-1.7004073174776526;0.1700969641924092;0.64207738937352;-0.5128940155447306;-1.679755664544611;2.5032048858476688;27;1.256637061435917
52;-0.0976844955305301;-0.996519545509766;1.1456894958558987;-1.0575768102590284;-0.3776030435845842;-0.6079890794503588;3;1.256637061435917
53;1.08393270197956;-0.4376507785895901;-1.4496867121018413;1.4782204859467596;-1.0685045433853884;-0.7931775551886429;20;1.2566370614359172
54;1.6094241318085123;0.8677153383209086;-1.2784048316534795;1.9046132556690896;-0.4745127073323831;-0.1156602303073646;20;1.2566370614359177
55;2.328535950885541;-0.5545339388306346;0.9413206975381296;-0.7796054640677237;2.2783259642616467;-1.5734467598366757;45;1.2566370614359177
56;-0.2619504313311042;0.3177357516307975;0.6067603869573064;1.596959657787221;0.0831522457984472;-1.2660876579050426;28;1.256637061435917
57;-1.9347808415701604;-0.6543817675068816;1.9674778557838;0.7889568383534344;-0.8981422488066079;1.431236967906086;49;1.256637061435917
58;-2.827594935068674;0.8768991742857921;-1.2486995946715331;0.4867483071859907;-0.628953179742211;0.35658919158573;16;1.2566370614359172
59;-0.97235799010067;0.5875956380324374;0.5272588847132471;2.0789249833726062;-0.6126385066317745;-1.7941952333435638;56;1.256637061435917
60;-1.3379338794908024;0.6845105649098504;0.6471095294493685;-0.0066558148725081;2.490265709782744;2.18107265791322;25;1.256637061435917
61;-1.8957333589874723;-0.4148563700662138;-0.522972716050033;0.2035924644535992;2.7250057841458304;2.3707397924945304;25;1.2566370614359172
62;2.034106333661412;1.082940625566256;-1.165430281934768;2.430563251040615;-1.0652729261706009;0.729369665410295;54;1.2566370614359172
63;-2.908433330468688;-0.7447173377420276;1.4116230650931112;-2.252017808796774;0.3852594384467507;0.2156249955827537;46;1.2566370614359172
64;0.0304395669632693;0.0545651796260803;-1.6990251624111574;0.3489838056526085;-2.292788504942767;0.3148113198359326;26;1.2566370614359172
65;-0.3230947797491218;0.3135048920903292;-2.054420825176992;1.0000359532066965;-1.582312651746172;0.8911354311265174;64;1.256637061435917
66;0.0844173173553356;-0.3930727246455472;-1.3082828430231797;1.1126677868053845;-2.70497386459236;-0.370793420051927;64;1.256637061435917
67;0.4716559776575109;-0.8201795385721188;1.3368794597497329;0.2133579310932327;1.203723564851914;-0.8973437598623868;5;1.256637061435917
68;1.3202602467644784;0.0367270582633259;-1.9307493710569048;-2.547570150937413;0.4426889579344366;-0.321682213494696;48;1.2566370614359172
69;0.7057595840001367;-0.8649790183132386;1.0251723224963591;1.5886569034738551;-2.0830906778374616;0.347832397103665;12;1.256637061435917
70;-1.4499214035428776;0.1393691812448706;0.7639117431367367;-2.186494518778522;-0.0662330163574924;-1.5729510094370152;30;1.2566370614359172
71;-0.6617526331835922;0.5914638176095848;0.0524142015774763;0.5133785987684587;-1.2115814136895753;1.0709352801120795;11;1.2566370614359172
72;0.3317920013940645;0.6406434685576774;-0.6253737391207291;1.8100603578560577;1.0799177190667426;-2.565545450918694;33;1.2566370614359177
73;-0.549199044622195;0.5079822316809415;0.6072258139720618;0.3681167719150132;1.589281337939242;-2.482470442601616;29;1.2566370614359172
74;-0.4160514159962973;0.0605795045724421;-1.6857240738314885;-0.4984305281799442;-1.2076425195031717;-1.3531898590854776;26;1.2566370614359172
75;-2.501951522589708;-0.194299383037704;-0.1458247381548386;-0.8018692414587782;-1.3676377492870606;2.5497329071942167;51;1.256637061435917
76;-2.0870958052331665;0.5229654195530516;-0.864549086894875;-0.7844163134840234;-1.2885487117934136;1.9419185680272488;662;0.7816230409897297
77;-2.21649391127484;0.3681456782159401;-0.8968488113122121;-1.5903526577273754;-1.766377070635603;-1.0504361754582814;22;1.2566370614359172
78;-2.040313853141069;0.9051455540524732;-0.0034439466638829;-0.643702187049027;2.801974310282553;2.5141028684700544;60;1.256637061435917
79;-3.0535321360054133;-0.0467131568324421;0.513570938089258;-1.5750175027390547;-0.9425645880008582;2.749397006863551;75;1.256637061435917
80;-0.9293593544854106;-0.4305932959474635;-0.0422300526414454;-0.9563009856579414;2.306630305159855;0.4180438672305275;14;1.2566370614359172
81;-2.050687771755748;1.0904295615485762;-0.406535441913134;0.1267195215644229;-2.28068919745584;0.0405356547288836;13;1.2566370614359172
82;-0.3407548153053835;-0.5640668787367205;0.5251474757231989;-1.745288536196156;-1.1730361350028784;1.8738098150091889;27;1.2566370614359177
83;-0.2831471698591423;-1.2246572243282026;1.0704001444705589;1.4277346532579354;1.4888935815448223;-0.1017087990766205;5;1.256637061435917
84;-0.5051499053881711;-1.0721511786817437;1.7465586241376427;2.025212316406156;0.7833172280334788;0.3394097308131106;83;1.256637061435917
85;-2.7091190301733152;1.2024807280075296;-1.2113524744674875;1.2996393174791323;-0.9668511005963154;1.182867116432568;58;1.2566370614359172
86;-0.6665571581802769;-0.3652851944818249;0.2795903143391205;2.4179257078765746;-1.144600412480376;-2.1382824216528094;59;1.2566370614359172
87;-2.6033657816677658;-0.5740598074731141;1.867565682853128;-0.3322227972842133;2.2633866072468343;-2.5975720941965426;31;1.2566370614359172
88;1.360744763317674;0.0867560304954819;1.0141625165411232;0.1814498917278686;2.683630147716096;-0.6552114186530272;45;1.1881516803288483
89;0.2983468528302791;0.7247302758323984;0.7951972539814213;-0.6995961974312845;-1.6882933386315988;-0.3826639942515319;1;1.2566370614359172
90;0.7557408607483795;0.4001228357973381;-0.6159888131928958;2.82029345882773;1.1166044676295113;-3.130832087404483;72;1.2566370614359172
91;-0.0037191733117229;0.378825411942768;-1.0417597766731623;-1.2404920108057818;-1.6072515868661452;-1.780747693218905;74;1.256637061435917
92;2.430949692955508;-0.5557012582324016;0.6031156639997196;-1.4685822757636795;1.288592084387515;-1.5748332081025678;55;1.2566370614359172
93;1.6446992135631189;-0.2721282699041546;1.4701730529533417;-0.4344995203224135;1.0065997237258013;2.167866574302409;40;1.2566370614359177
94;1.524064474008899;0.049713404158324;-2.1402712623844917;1.2425556659887522;2.9416516075103205;-1.9050231867512808;34;1.2566370614359177
95;-0.2781679817411592;0.0674165733534767;0.5556532838424355;-2.3415275693956885;-0.5052042723832834;1.262240312495151;82;1.2566370614359172
96;2.134593705112402;-1.5012865377974105;1.249908343694723;-0.0766645083972704;2.2315328124664333;1.9838773340774192;50;1.2566370614359177
97;-0.0454567787049037;0.4644564627860485;1.593254770204584;-0.5944347216783694;-1.5643774726977353;-1.2369961500006172;89;1.2566370614359172
98;1.2116994815842583;1.18752323664758;-1.756690700254828;1.786640134117899;2.1996882842063625;-1.067810582006468;34;1.2566370614359172
99;-1.8183991671164672;0.381769682076584;-1.8099430379090256;-1.8684216490359176;-1.8962517455647965;-0.3486236623133287;77;1.256637061435917
100;1.5385794705804496;0.105381472249759;0.5066939680172414;-1.9906403810559687;1.0357365892359478;-1.5728322920663478;92;1.2566370614359172
101;-1.905047940869564;-0.0205030869341575;-1.7419964323083772;0.3419230126928177;1.0269649881925351;0.4866160407786568;23;1.2566370614359172
102;-1.2082628325819458;-0.954401814419201;1.4570604486390857;1.0924744744796837;1.7212402523387216;0.4765378390035601;83;1.2566370614359177
103;0.1022439980620472;-0.4132997729384309;-0.9096268775562734;2.43052644035132;0.2422767501921008;1.1289660856343051;21;1.2566370614359177
104;1.1165004566188683;-0.1616489550850737;-2.654686912117977;-3.272176392014237;0.3047409780093462;-0.9774994108078356;68;1.2566370614359172
105;-2.177858030737104;0.5910588957418352;-1.1588575072339604;1.9533636569733897;-0.4604682610531019;1.6692075156030408;85;1.2566370614359172
106;-2.944850045912226;-0.596873700665629;1.850514865734188;-1.369990834475853;2.452649941257986;-3.188275817515682;87;1.2566370614359172
107;-0.7390508123732328;-0.913726645539141;1.777147342661584;-1.4036987173963484;-0.0064774498369233;0.1024035544366888;52;1.2566370614359172
108;2.5260757230903343;-0.6289653167897254;-0.3168084039167336;1.0018501783024458;-0.7837196650314875;-0.6897271732158483;20;1.2566370614359168
109;1.238674124318042;0.6985547894259153;-2.1784915960129982;0.5067828712343265;2.302559655629026;-2.259188383910469;94;1.256637061435917
110;2.097996683543708;-0.94791511451997;-0.4098494377776199;-0.2212302302272929;2.478855178852598;2.2557817189114537;50;1.2566370614359172
111;0.1855490923372996;-0.8743692830390292;-0.2694881726658052;1.0699207439227512;1.8136386583485695;0.2378872656777797;5;1.2566370614359177
112;1.166678664216603;-1.10391422216577;-1.7196623959878936;2.4790876373805526;-0.8496576919080117;-0.7165814420282641;53;1.256637061435917
113;-3.141219264471288;-1.4143177161816538;1.0983844532443172;-2.8556434315916306;1.1475888525532194;0.0340918299105044;63;1.2566370614359172
114;0.0919132903130255;-0.897594143657145;0.8524614040648644;2.430877855698013;-0.7790567650166856;-2.646746052394205;86;1.2566370614359172
115;2.289192916913953;0.830662500201182;-1.9931680006387016;1.2924029498251066;-0.7779455187478881;-0.4870345331272412;54;1.2566370614359172
116;0.8802829865743446;-0.2472467146046597;-0.80953783291427;-1.2719214521997326;-1.9683633674569845;-2.2502091067775365;91;1.2566370614359172
117;1.374974321833717;-0.1195623111282717;-1.4241765283583263;-2.0596676325083325;-1.868338376991112;-2.806791635120656;116;1.2566370614359177
118;-2.8401757725768104;-1.3793755198233697;1.2318431174049835;-0.8067955581787092;0.4840537954312057;-1.2277850581352552;46;1.2566370614359177
119;2.291888141443465;-0.0093960911038456;1.053521053722973;-1.2559509506801878;0.755684471223051;2.592030685453049;93;1.2566370614359172
120;2.639960301341181;-0.2279162627738055;0.3494256489041318;1.331496007741908;-1.5083329926199371;-1.2622025026057773;108;1.256637061435917
121;-2.075400780749827;0.1270108379014177;1.1730123238108654;0.1885174760322667;2.042093542735632;1.723963618195448;60;1.256637061435917
122;-1.241819476452635;0.1699120090620393;1.5473696823514944;-1.90333114288484;-0.7046903642376627;-2.231192456594693;70;1.2566370614359172
123;-1.392840267093962;-0.1279792373467022;1.99660737644976;0.4990087133362986;0.496316167346988;-0.5775874042756427;6;1.2566370614359177
124;2.1389641870590044;0.8889239148056108;-0.1361613532459546;-1.9703769158842075;0.8752144698762292;-1.9793974334717093;100;1.2566370614359172
125;-2.644746268932612;0.8242884136892215;0.0672545008671924;-1.8321529070297704;-2.000497363312064;-0.6697846830811991;77;1.2566370614359172
126;-0.917410175004068;0.67883568633654;-1.6693292518231375;-2.2363596164796493;-1.1986349612804026;-0.5417235508173699;99;1.2566370614359172
127;-0.4014792329015001;0.0736535131094044;-0.3763750440677341;0.7378275182669272;-0.5697866186394982;-0.5404623680232478;0;1.2121940426282358
128;1.7942663841379791;1.2862791520051091;-2.350275638542912;0.9967253304897384;-0.692915510894462;-1.4380427749772875;115;1.2566370614359172
129;1.513530421375192;-0.3899464534414642;-0.5441756421617072;-2.081407332723669;-1.992460780144352;-1.593317938712755;116;1.2566370614359177
130;2.485285893112148;-0.9172280351393608;-1.027046316731432;-1.1840755102808735;2.2324931837109983;2.4997178214533022;110;1.2566370614359177
131;2.646827685869397;-0.4813057055334767;1.5030589951487163;-1.7878785445790786;0.705862710465653;-2.099787556877809;92;1.2566370614359172
132;-1.937807852641833;-0.0005062916891987;-1.3539101290019535;0.9014720204483464;2.3968201858460776;0.8555275204829826;23;1.2566370614359177
133;2.8276957575179047;0.0618745348218572;1.9989084127748027;-0.8886117101720943;1.0906864475868268;-2.3205631856133437;131;1.256637061435917
134;0.4304199159543014;-0.1087338877300709;0.4815827823327467;-1.783566831916691;-2.024119893125713;2.0960516462827616;82;1.2566370614359172
135;-0.6438701718277917;0.1636293682573705;0.5370305642473227;0.99199473777298;2.501023657831036;2.0689274897541234;25;1.2566370614359172
136;1.9566100082818605;0.174804677955378;0.0484617216886355;-1.3567336482238344;0.1392391631265152;2.772278080353053;119;1.2566370614359172
137;-3.0205366396546234;-0.0913906634767754;-0.4836331525700956;-1.4355142905471787;-0.2054856890609553;2.886835989298843;79;1.256637061435917
138;1.917700363559243;-0.0843343954472841;-0.4640548591218059;-2.2571616227360622;0.5167378970129305;2.2295805519063103;136;1.2566370614359172
139;-2.954766301318466;1.4304161357901608;-0.1304830085831344;1.6032799561798077;-1.0080908971704217;0.7304708170897827;85;1.256637061435917
140;1.740238871784709;0.2305724043935873;1.0192149433127533;-2.48145716200039;0.9293947982582064;-0.5688850915093019;100;1.256637061435917
141;-2.032006307733669;0.0664329404876915;0.591939458132232;-0.4815196940097903;-0.2422849082517609;-2.255299128498973;18;1.256637061435917
142;-1.85296760486428;-0.4079086059449264;1.1397550693005107;1.8612104800316411;2.0166822938521736;0.7696485416047426;102;1.256637061435917
143;-0.2080046031022586;1.2250319834286354;-1.8477728478058173;-0.4106655317716795;-0.3245161852508271;1.0304313223371018;32;1.2566370614359177
144;2.395532393120996;0.1271482490317309;1.6034410472594889;1.5882727722558891;1.58977772529418;0.8841596512564311;38;1.2566370614359172
145;0.4778462186329972;-0.6930011391176001;-0.0952814290752542;-2.0678617339136878;-0.9792708533321705;2.478685446633823;82;1.2566370614359172
146;0.9367661694633896;-1.0059500097338463;1.217036876697873;2.860101571424148;-1.5097119846552574;-2.697873341389324;114;1.2566370614359177
147;0.7401748344324237;-1.151023460988382;-1.0059075310401375;2.1614596319467827;1.11701482792629;-2.2003085132629945;33;1.256637061435917
148;0.6171926449241187;-1.0567519010756334;1.9839314669245731;0.8835715610073969;-1.920993333531828;0.0447222245635534;69;1.2566370614359172
149;-2.373162451212536;-0.2948166482303231;2.13423569223648;0.4489495448485963;-0.490957084418346;2.40512520571807;57;1.2566370614359172
150;2.671018677251775;-0.1925135441156558;1.6638764482700172;-0.518621776580027;0.2716164650091092;3.093383740816851;119;1.2566370614359172
151;1.69374781243331;-0.1621778740347317;-2.0888118761261167;-2.2618692277488424;-1.2304904466667144;-2.041136055356445;117;1.2566370614359177
152;1.4279753308625385;-0.2321425391943669;0.5804386439511348;-2.6681388569327966;0.7855857372850223;-2.535102035628113;100;1.2566370614359172
153;-0.36811601579315;-0.1603554416395113;-1.108634327371394;-2.6462229731368434;-1.1861745046044736;-0.842803023947851;126;1.2566370614359172
154;-1.6106193659462886;0.4394794419457331;1.831708613058532;-0.2962183080444406;2.8405279264646777;-2.0193969406242718;31;1.256637061435917
155;-1.3310746817217751;0.6250505002757281;1.7428708713898196;-0.3200252012019755;-0.1289087012283558;0.5922889683266079;49;1.256637061435917
156;-2.6570024147001763;-0.1821895969116324;-1.2209423311704255;-1.5064700253793064;-2.2786016028255496;-1.891728734877175;77;1.2566370614359177
157;-0.0614503830289589;0.4600668230656732;1.0590927954064584;2.09075865200124;0.8606732266001942;-1.9485078883365845;56;1.2566370614359177
158;-2.440887893338973;-0.6606274063566783;0.4671131367469747;-2.56940522663675;0.0734438021601928;0.7288540702197491;63;1.2566370614359177
159;2.3508281798856965;-0.4391123244801771;-0.8913004805224283;0.519703071939946;0.1041364352709849;2.584305765582968;44;1.2566370614359172
160;-1.912430823694172;-0.0390549309054227;-0.7636710781038476;0.2125028922164373;1.7573453333895308;1.2641821639424478;23;0.3168218513497335
161;0.5231312871351461;0.6777307127324813;1.3300860039184828;-1.4044599397562787;-1.875082613324464;2.3531953309259723;556;1.114507815173157
162;-1.1666514955814589;0.9310004486770622;1.2236322926765593;-1.4379752116355085;1.4182727179843844;-1.502784382754251;39;1.256637061435917
163;-1.459201897530122;0.2146861216353934;-1.5959204462832388;2.505075500773599;1.0625560894197237;-2.209381641155024;41;1.2566370614359172
164;0.5226418652366631;-0.6856514508273998;1.718358955388173;2.023651083983032;-0.3237434551467969;-2.171596106860328;114;1.256637061435917
165;1.4662267379399685;-1.4096825970151357;-0.0850297379027592;-1.1126874765534298;2.620364744318403;2.471525584510754;110;1.2566370614359177
166;-2.976299450196409;-0.0776535199966118;-0.804119768721191;-0.0249442212373851;2.4034054755032503;2.1195258912920365;61;1.256637061435917
167;2.665753573780628;-1.3992062147391944;0.0567759345843879;0.948582084927874;0.0604101075105595;1.742090351708265;44;1.2566370614359172
168;1.4567756565088463;-0.1780185786388722;-1.4692193508641869;-2.627327800192941;0.2971661337976112;2.6324676065882544;138;1.2566370614359172
169;-1.7277340384225257;-1.0184500600089703;2.0785371362770597;1.1254090044966762;-1.8752020498914972;0.8624289817692442;57;1.256637061435917
170;-0.9652077572912596;0.8302181717686681;0.2544712741171459;-1.9881949738710385;-0.1303350356145967;-2.3239208408854912;70;1.2566370614359172
171;1.879986830373992;0.5818573132567746;-1.8439916190263752;0.0932213981593021;-0.735077590411676;-1.472073309240149;128;1.2566370614359177
172;0.971105650321802;1.5277275896033131;-2.506374938482588;1.0156357371263036;-0.1092438717688682;-2.1293087044273937;128;1.2566370614359172
173;-0.9400716213729008;-1.1676727028738425;2.161189760554882;1.5975249160011675;1.933507593855192;-0.339424320589495;102;1.2566370614359172
174;0.719154273873555;-1.0346780554057768;2.4400822172329018;0.1242940285650173;-1.536025074062183;0.8418902348699684;148;1.2566370614359172
175;-2.241827506755596;0.0077110857001965;1.5504791456477751;-1.3960101193662853;0.6130017463921884;-0.7045817273120407;30;1.256637061435917
176;2.6131196106575216;-1.4419768832852335;-0.7202357891714175;2.265479208291024;1.2132659358612063;-1.3351978366167587;17;1.2566370614359172
177;0.1150812353724518;1.3377646779564285;-2.1867621077009143;-0.8502765123286188;-1.0820337204024266;0.2688282524094137;143;1.256637061435917
178;1.4326504125911943;0.0264401081561185;0.4642381604555247;-0.6839497795428715;-0.9425313498955278;0.6283634894081123;1;1.256637061435917
179;-0.7523359724251962;1.1228393821913945;0.5693285204685976;2.0554207306953978;1.402865961186211;-1.5914986919797325;157;1.2566370614359168
180;2.0662975758919155;-0.9398481195146388;-1.1734992516279203;2.4060559187628128;2.463022549736472;-1.2876584946726115;17;1.256637061435917
181;-0.6464102717487819;-0.0030540196850556;0.6106741108317915;-2.6795928188825715;-1.5051051040616923;2.298623797745618;82;1.2566370614359172
182;0.4718026892078579;-1.1270205297080982;1.8936748416435936;0.9034220869594032;-0.6200137639354938;-2.2628137419271157;164;1.2566370614359172
183;1.971340139297588;-0.8663190206764579;-2.061432790969704;2.1010784838911656;1.857714347612621;-1.8505777032687003;180;1.256637061435917
184;-2.9244613499048486;0.2574428224085109;-0.7613246485963527;-1.4939890684652688;-1.8838183030913025;2.818505619723509;75;1.2566370614359172
185;-2.2358545216110466;0.198438334852353;1.5706083275367273;1.2319949378205703;0.6715245875012839;-0.6892711271877042;123;1.2566370614359172
186;-2.4103324414818466;-0.1447650478963404;-0.5505675060713168;1.4694702798808574;-0.945641713341454;-0.0519824667229295;16;1.256637061435917
187;2.4529937598563256;1.126855197905004;-0.5017189930466055;2.7733762734126124;-0.4434134524863067;0.0533527348752008;62;1.2566370614359172
188;2.021265107868914;0.3724785508730984;-0.5657728360992409;-1.175581228656251;-0.0685058965734443;2.7178752246554767;136;0.706734188766011
189;-2.419806304182051;-1.3180134948044395;-0.970856615621448;-1.4119551701878366;-2.676050990879721;-1.9494941507141184;156;1.2566370614359172
190;1.137345309582162;0.8714010133040694;-0.8452154108132004;-1.0431612806234996;-0.6334892072857745;3.084030293266566;188;1.2566370614359172
191;-0.1239360617022344;-0.2369381801325439;0.5593446333137506;-2.125111663128116;-2.399620361372119;1.1002155981443935;134;1.2566370614359172
192;0.8102875675918741;-0.9361660441435182;0.2901335665093059;1.6113469368137965;0.3082488922024418;-0.8815626288618881;5;1.2317780478918392
193;-0.3735200763409269;1.3954589396048844;0.0595641187414438;-2.383123700209456;-0.9761939979760884;-2.33442724134649;170;1.2566370614359177
194;1.4914784341938092;0.4081999470495219;1.1702297079499533;-2.050110611635539;0.9894421997204724;2.3433477769871307;119;1.2553240586384051
195;-0.4713917628198436;0.6636905828824897;-0.3704341512598537;-2.4548950757331105;0.6837806832062487;-2.514841899292894;170;1.2566370614359172
196;1.8544973718141653;-1.36503880062746;0.522266776305085;-1.807574982186676;3.091238541497457;1.877396208057016;165;1.2566370614359172
197;-2.4010538498179503;-0.5526951639944978;-0.6969530063056426;-0.0840667566516008;-2.1547284225772265;2.5946141378511647;75;1.2566370614359172
198;-2.8029029702923363;0.5982249765623573;-2.0544972578852736;1.6050907480752192;-0.1258206508443216;2.0602964696260098;105;1.256637061435917
199;-2.502629413837913;0.1950195864310129;1.7789723075825836;1.458065129346248;-0.265398526414787;2.7615413593015443;149;1.2566370614359177
200;2.326152511576495;0.0999989304237514;0.239164712551491;0.3288450378649821;-0.7498863736065202;-1.184289427191514;108;1.2566370614359172
201;1.1520656945886163;0.5162209618278125;-1.3979873651489505;-2.052929644087212;-0.3815273994386013;-0.6579792600469629;68;1.2566370614359172
202;1.28235239701455;-0.0654904369529026;0.8734596277353147;-1.738902625255189;-1.237660698013913;0.2033847399581475;178;1.256637061435917
203;-0.9624613943007884;-0.0450004428832624;1.6839273157171717;0.0710640684963987;2.186209797196128;1.6002065220295352;121;1.256637061435917
204;2.9056768711001557;0.8568134185126389;-0.887451817859196;-2.0745286301863124;1.338091520676569;-1.5313827301816711;124;1.2566370614359172
205;1.5662183699295174;-1.528812943406432;0.5220740242552637;-1.3499519540343927;1.7676395343435534;3.106298492130213;165;1.256637061435917
206;-0.9699196829008402;1.3671578386325804;-0.0770202359199264;1.6964330820424025;2.223291638392284;-2.0938585096032214;179;1.256637061435917
207;-0.5061788905764936;1.538176152408243;-1.003226152733319;-2.7719978906898883;-1.4688805709863275;-2.4674076307344235;193;1.256637061435917
208;-2.3151020094079704;-0.8772885429171444;-1.271395122481865;-1.5530296013481697;-3.245394129294308;-0.9801860298767696;189;1.2566370614359172
209;0.2214949638865341;-0.2926112137064882;2.44401556463495;0.6476086009910773;-0.0772614822593152;-1.8661421524001207;182;1.2566370614359177
210;0.3319301017814691;-0.5365238146445672;-0.4099977842171663;2.183304978891738;2.4632262944625456;-2.6090642939972457;33;1.256637061435917
211;-3.258605874653142;-0.4323789068872061;-1.5146788665255972;-0.3953551991674697;2.3672315954628704;1.2650069546152871;166;1.2566370614359172
212;-2.9155458363055358;0.0401002814538954;1.8917312780578384;0.6045062237545594;2.55724234737045;-2.971859780312937;87;1.2566370614359172
213;2.264856333874449;0.5535194885874446;2.1037232399996983;-0.3425089249716774;1.3077475681472623;2.056918406854252;93;1.2566370614359172
214;-0.6976617765529315;0.8388957692100079;0.5892216059901988;1.1090670554553197;-1.6783548229817824;0.2611573324996398;71;1.2566370614359172
215;2.990301346245118;-0.3548410016146424;0.5112650435974202;1.538878880063126;-2.171318140133636;-0.2970398137965532;120;1.256637061435917
216;-2.580484951051372;0.5811089433366967;-0.5664072496926911;-2.2678975880192134;0.2770929436081243;2.861540681555895;137;1.2566370614359172
217;2.889930751394073;0.4846627692723165;-1.024249913893061;0.8745711398263374;0.502548769708775;2.9487305343058967;159;1.256637061435917
218;-0.0128269387723793;0.2870008732981002;-1.4684408065362629;-2.309607761137111;1.2158016186575975;-0.3141588629061352;48;1.2566370614359177
219;1.0536043856838515;-0.7716222937753786;-0.890637258560701;-1.1548741838421654;-1.0579798180119375;-2.170150156250888;116;1.077262678249665
220;1.679220014506683;-1.3941557920090613;-1.1032996472991694;2.8419210714515897;1.936345176855224;0.3114358354953978;17;1.2566370614359172
221;-1.6092855907991717;0.1336088043497035;-1.8133782817424549;2.360349231634271;-0.1539468618622647;-2.1655065439882875;163;1.2566370614359172
222;-2.1782897247910697;-0.5455050499365315;-1.1139188461069582;2.8313569700100283;0.7426678541351727;-2.416854918254728;163;1.2566370614359172
223;1.8010479355380324;-1.123001420047673;0.736582707966244;0.2981109479076358;-0.661599401295808;2.4446162415421746;44;1.2566370614359172
224;-2.428853507625698;-0.9027437058840184;-0.3354049206736734;0.2819762385927026;-2.411101175756739;1.533766165540013;197;1.2566370614359172
225;-1.5998981285782388;0.4397121370946654;0.9145308155850026;-1.3658303858177288;-0.7701591247022277;-1.0487849051622935;70;1.2566370614359172
226;-0.9179141748676978;0.5681022549065373;-0.128317992538767;0.0251864364901936;1.9409039461395696;2.877541708972309;60;1.2566370614359172
227;-1.356389442201356;0.6076059305157302;-1.6295077743457145;1.7062632392366175;-1.0627203538042715;2.177906232195048;105;1.2566370614359177
228;-0.3420625528510731;-1.27546111754746;2.254361109638778;2.485441730424045;2.078310341932202;-0.9654103510458196;173;1.256637061435917
229;-2.306571194791933;0.3781585006468432;1.0146336174672856;-2.1259768785515663;1.3204273755389837;-0.3621189535206885;175;1.2566370614359177
230;2.2498348327897606;0.9146813644435527;2.0483445615493845;-1.3398404658311465;0.5659172978815536;-2.5116128754208558;133;1.256637061435917
231;1.553520696638855;-1.176285225040886;-1.5455033594604322;2.717811466034408;-1.092850308356596;-1.846974868673224;112;1.2566370614359172
232;-0.3447850681703612;1.0550979161976186;1.332845782475593;-0.6049586719792424;1.3376331236589576;-1.0833499869831766;162;1.2566370614359172
233;1.8956942591658996;-0.1833911805968079;0.3780957379223458;1.2317792411561264;1.4106318646746197;-1.0630555024604342;15;1.2566370614359172
234;-1.9400708477403688;0.5732163531941883;1.4314573003314874;-1.087112304550363;-0.2250045686716568;1.3070883409080885;155;1.2566370614359172
235;2.364952666769372;1.094830098132728;-0.8092765756598812;0.7252045227181199;-0.4032509856610032;3.1542382624915;217;1.2566370614359177
236;-0.4710396764953797;-1.1931125410460894;-0.5057505957665984;2.170544230985146;-0.9521845845204606;-2.5132887039549865;86;1.256637061435917
237;-2.76728278922938;1.48922897529382;-1.051861433754381;1.3960624635011702;-1.9423842859003804;1.8949972402154165;85;1.256637061435917
238;-1.501725189965364;-0.4463179661042383;-1.2468595935180025;-1.7867150787162729;1.3501773433704776;0.937924991257814;14;1.2566370614359172
239;0.9839073376446252;0.3382989872062988;-0.0352541222402281;-1.1926005921086555;0.8924677351907729;2.701889550437562;136;1.256637061435917
240;2.7511604137344494;0.0100497314454393;1.3692514206477349;0.0127266616783176;-0.8497295178839497;-1.2427589050654264;200;1.256637061435917
241;-1.5689637281037938;0.7321616643944386;0.2755490666880263;-0.6968692110209639;1.5411312340695091;-2.827886120053733;29;1.2343486382011184
242;0.0279774075364904;-1.0455340528957862;-1.2252075459923752;2.5696010651411827;0.9692220800576054;0.4033500916067968;103;1.2566370614359172
243;-0.4802487614627915;-0.5999868138251773;-0.1173524643833133;0.0014043369488015;1.8033849150569627;2.8179069656035143;226;1.2566370614359172
244;1.4019624903742236;1.442843956133491;-1.698857905032909;-0.7908623128568153;-0.6085647191593468;2.459862120646183;190;1.2566370614359172
245;-0.2548563263208953;0.8245709225118019;1.0133018332249677;1.5836387101095697;-2.502080626145513;-0.2858969087376178;214;1.2566370614359172
246;-1.7213781725336583;-1.4382352202751345;2.1884836792231925;0.2154380447330366;-2.535552718379965;1.2183479768668362;169;1.2566370614359172
247;2.5386807915564287;1.173921091847851;-0.5629408426286906;-1.6660668640464944;0.0298919126139274;-2.5700109986034;124;1.2566370614359172
248;-3.2061056127777348;0.5595916497751328;-2.067032956716301;-0.1423187588841746;-0.9095920774934152;0.7936581220106791;58;1.2566370614359172
249;-2.4456216642396784;-0.2381080997723155;1.1731901743118651;1.367163095322503;0.3300226866724899;-1.714808300029041;185;1.2566370614359172
250;-2.407926420961631;0.8979156027565379;-1.4664003375036152;-2.061703706607537;-2.0816872897133343;3.027166147071886;184;1.256637061435917
251;-1.605307083719834;0.335054215357343;-2.2220957886806736;-2.714048861370667;-0.6969160860435678;-0.0919578800041895;126;1.256637061435917
252;-1.5617493397141202;0.2213892690549535;1.9270686841748288;-1.6350876134412935;-1.8152876398165847;-2.387970793344749;122;1.2566370614359172
253;2.4412424493693896;1.484132914761234;0.1162189091404678;2.75564471244277;0.4484496257238034;-0.4094746261577003;187;1.232710848442992
254;-0.1767720612872274;-0.4216173055775261;-1.0634325346501647;-1.764805765806012;0.6645990843016363;-0.8484376564695094;218;1.256637061435917
255;-0.4251337535538739;-0.4185008957617714;-0.1705790248654657;-0.7164344618971632;-0.5034499189938281;-1.7847340207768478;35;0.975132417999476
256;-3.2557268072619165;0.8186359397216532;0.6371551127853445;1.2073090739649763;-0.4752255000795991;0.4401645764092559;139;1.2566370614359172
257;-0.3240406446965232;0.1135651526515715;1.1049534532584255;1.5602389040748754;-0.5632749618348472;0.5973847183152086;12;1.2566370614359177
258;0.5339916037552404;-1.0772529206073385;-0.7907340002726908;-2.3582695777617926;1.0749507693694895;-0.6267591398211002;254;1.2566370614359172
259;1.9228309058128512;-0.2679952949873529;0.9011293183735338;0.2334446588196242;-1.0128716197887777;1.0917568305784169;178;1.256637061435917
260;1.3101764265929514;-0.9728361750672412;0.3847201069629616;-1.5713251638300498;-2.260851829827526;-1.6477104206224191;129;1.2566370614359172
261;0.2352011909573754;-0.3066190860017477;-2.431332985653011;-3.329959151275868;0.6877640123692523;-0.2149382650133908;104;1.2566370614359172
262;0.3479086681948413;0.5582663100276014;1.5534836510056422;0.9601336639020276;-1.0625695095786298;0.9427266108315996;257;1.256637061435917
263;0.6200148950101251;0.298078873285823;-2.1602447022325477;1.237753802708089;-2.9688594586666555;-0.4296175645819601;66;1.2566370614359172
264;0.788294134972394;-0.3657331365382448;0.2685018424173161;1.0547785529282492;-0.0648863523912842;2.5845769348895464;9;1.2566370614359172
265;-2.74243751104016;-0.1857512264002233;1.3697524693527403;-1.5078647497725708;-0.1395343329808596;3.033318398304472;79;1.2566370614359172
266;-0.6705985237541957;-0.9747594718609048;-1.1692388659652968;3.1013069101305044;-0.9049348735407008;-2.0856597490610693;236;1.256637061435917
267;2.0168728390116497;-0.8618519634235295;-1.1741912181829486;0.7020799243090791;2.6579354900782235;2.566199185292053;110;1.256637061435917
268;-1.097764327684807;0.1513657775322051;-1.1174611372248808;-2.4030823268748;1.7252397073448895;1.660006805562079;238;1.2566370614359172
269;-2.562905709018666;0.3916149650024126;-1.8150414952571168;0.6503876971512181;2.556387756139848;-0.00090870617875;132;1.2566370614359177
270;0.1867096648285491;0.4907505470007198;-0.2980064369285662;1.0789446163737817;2.523759614378884;2.346238822176955;135;1.2566370614359172
271;-0.9806239486363;-0.2236603157155966;-1.3784660029290003;0.2905617291181662;-1.1335939987096553;-0.1763215656363413;8;1.1208793576382852
272;0.6901943944456816;1.062917297387921;-1.5023676263208008;-2.605031408025263;-0.6957747756867482;0.1497779515080084;201;1.2566370614359172
273;1.254151397602168;0.6643879466731841;1.6225491721932292;-2.6013156397484747;1.6635196672516857;1.6402261817120594;194;1.2566370614359177
274;-0.7050872944149611;0.190937483504283;-2.4737130225137545;1.528891970857828;-0.7796053966698946;0.3268995923492612;65;1.2566370614359177
275;-1.5895729392196372;0.8587498421264441;-0.4322770245198416;1.919139522619264;0.3069004310881472;1.8776630590274137;105;1.2566370614359172
276;-0.2058627874833286;-1.0074989164074164;0.2946933398535591;-0.7563057043624029;1.00117169406531;-2.464086636123753;35;1.2566370614359172
277;-0.3930622143450913;0.906719175959074;-0.9754575011387238;1.1796339615573723;1.7771365661007397;2.554678518883585;270;1.2566370614359172
278;1.2419447795106229;-1.2769059013276325;-0.3641705853130033;-2.3438243176535933;-1.675840443256258;2.334882099893133;145;1.256637061435917
279;2.664883175457639;-0.1771194771502015;2.075879799441711;-1.403946327188353;2.0815270459853035;-2.8127533686150894;133;1.2566370614359177
280;2.415767550053821;0.4451705784976972;-1.9116059956711131;1.622952507202711;0.5213576130369925;2.878608711419526;217;1.2566370614359172
281;2.0610022519265243;1.0096951004058023;-2.0638983480949955;1.7758380849973638;1.441565183563687;-1.46398580023607;98;1.2566370614359177
282;-1.0210731951281575;0.4907499707101697;0.3401653085645117;-0.7870297260231401;2.7016157550517086;2.025624064377972;60;0.9539261837090974
283;-2.072678333303569;-0.2700257713362721;1.746154361124132;-0.97668727068714;-2.2513169938910966;-2.003495161883474;252;1.143110358118978
284;2.08648709979252;0.9145093590532176;-0.3401574824119253;2.702080149680736;-0.732606605210303;1.5555417824621527;62;1.2566370614359172
285;2.1484417488215843;-0.4101197001872855;-1.7724180449130345;-1.3612157350889609;-2.346473879454687;-2.564427277903809;117;1.2566370614359177
286;0.4207438182698017;-0.5474414519455841;-0.2027396482796975;1.4619476275626042;2.2938812782866087;2.834000009150134;270;1.2566370614359177
287;-1.3065552089455097;-0.4600156570213394;2.0750267613607654;0.8068647349923749;2.708160172966611;2.16739690538055;203;1.2566370614359177
288;0.6212685868004147;0.9378436437879032;-2.1117898380784155;1.9511259909775096;1.914413203092402;-0.1015521813319884;98;1.2566370614359177
289;-1.4685301012498804;1.0967818597355616;-2.063943085307132;2.012182678313148;-0.6534310164828265;-1.7203827731550765;221;1.2566370614359177
290;0.2077390265941437;0.072693032396836;-0.0693797681448049;-1.001345428221522;-2.245125939596246;-2.8218882278102986;116;1.256637061435917
291;-0.5238247231830364;0.5128787667062129;-0.9936559571279364;-2.184753993162514;1.0713167947637594;1.7240127662729765;268;0.9771413579839462
292;-2.4892303390400383;0.1335518755997594;2.273317235374209;0.1122500823517181;2.818441091282413;-1.4267458149707108;154;1.2566370614359172
293;2.295722943505847;-0.2426053527146308;1.0165222963095912;1.377202697064919;-1.221308563867247;1.364703041701423;259;1.2566370614359177
294;-2.5519119087659923;-0.948465611768088;1.998329589805836;-2.0449108943549272;-0.5997584089223316;2.7768627343755554;265;1.2566370614359172
295;-1.3918621056186151;-1.6325152117826611;2.681430282799817;-0.4750373709137455;-2.576134515310735;0.3748957761544828;246;1.256637061435917
296;1.7332872328985645;-0.1154252256996649;-0.4503634580609645;-0.0629507648679023;3.1952899314184875;-0.1612469277106701;24;1.256637061435917
297;-0.5522065158956394;-1.2089818265460497;1.7860500370093992;0.8264628504109259;-0.525005359264283;-2.9680029209687384;182;1.2566370614359172
298;1.0347480490774663;0.381074810729012;-0.4235255913119904;0.0224246871652113;-0.5123136513274817;3.098571524252482;190;1.256637061435917
299;-1.1784204576206136;0.6533615726254736;-2.6360821157751086;0.8367512917204138;-2.090410596021274;1.040226196224474;65;1.2216660318604795
300;1.3196510294661137;-0.6677036539266876;0.33847535843467;2.400655839228394;-0.3378107998067075;0.6315100395207334;10;1.256637061435917
301;-1.0983939180639672;0.9779536246430278;-0.5925541059928919;2.835724514320456;0.5234704253146859;2.5187176427626228;275;1.256637061435917
302;-3.043011860613197;0.4209259808628137;2.1459717598214514;0.6156096197592816;2.9349243994967185;-3.335240685662419;212;0.7076204657330364
303;-1.086587522145415;0.9907783621563628;0.5440769177944429;2.7405466888093923;0.1293287733009205;2.8687123494946314;301;1.2566370614359172
304;3.0008825278030997;-0.2476669739945761;0.5977672324759755;1.8155151579611295;-0.8941994816173857;2.144053461143478;293;1.256637061435917
305;-0.1716451059363935;1.4831777988003767;-2.5839214047365004;1.5921215320463096;1.4077762556440645;-0.3126489011888746;288;1.2566370614359177
306;1.6148767568717273;0.7836169497430336;-0.1321610861097822;0.0826180218633783;0.4715386775957694;3.253701454710007;298;1.2566370614359172
307;1.9152988928534016;-0.363772171449021;0.5441026324594003;-1.0773847878657596;-1.7660589739917532;-2.220252724622936;260;1.256637061435917
308;1.6229223405611262;-0.4286056961409332;0.3006262425493267;2.9638938466579834;-1.3525760785523206;0.3458928077410799;300;1.2566370614359172
309;1.228893100803273;-0.5399993871813342;0.1125332339640802;-3.019212476673434;-2.0545811659760886;1.877613124822596;278;1.2566370614359172
310;2.443941296906017;0.4963825839865361;-2.398739244254356;-0.2283496314897342;-0.2417205268563645;-2.246174134419604;171;1.2566370614359177
311;0.3991333724258373;0.6881594485043131;1.930486245431839;-1.3065208563838482;1.1369646430617162;-1.045313712352495;232;1.256637061435917
312;-0.98407101594294;-1.5452443935094926;2.41867806651174;1.065852998768682;-2.421579763399326;1.70299115839784;246;1.2566370614359172
313;-1.789435371522632;0.2127876285416921;1.4485496781892713;1.693798965985676;2.675057486231324;-0.0259631253162762;142;1.2566370614359172
314;0.6220910963066084;0.4482255451977027;0.1322696487135646;2.0323925554246847;2.8761224876809006;-2.8037440437724164;210;1.2566370614359172
315;1.934495532479056;-0.9481359807762;-1.230609945429354;-2.312585901666621;-2.4763770720658296;-1.0175237307240417;129;1.256637061435917
316;1.2452649791363744;-0.5929994713004327;1.0568293365090975;-0.3722651156144865;-2.249525116879929;-2.5097767600424308;307;1.2566370614359172
317;1.308566831861832;-0.6214785473672377;-2.2201053327588305;2.9956892005516567;1.5613062322464364;-1.4424621448564616;183;1.256637061435917
318;-2.87491116567969;-0.7060760025000968;0.8506559197794937;-0.4359632551806939;2.7767939258395944;-2.173877735934526;87;1.2566370614359172
319;-2.429676652118958;0.5240284123639752;2.009575758828145;-1.669098189574977;-0.8757213710407025;3.019578135426208;265;1.2566370614359172
320;-0.9585076389928257;0.5271412928010321;1.266999594046725;1.1465740915215183;-1.3547799040509456;0.5689840085124649;214;0.9085588516918826
321;2.518024085375825;0.1077185438700021;-1.4734329072758436;-1.547386475235489;2.674327930342054;2.466920926570353;130;1.2566370614359177
322;2.1356719824782258;0.2978306046238584;-1.590233906363594;-2.1246129960602773;0.3168991540364526;3.176778482667684;168;1.1186434130094782
323;0.1755786482786929;1.220852501987308;1.3013896512500274;0.5059026404656166;-1.2286486601927178;1.2465985854043933;262;0.9265612586895188
324;-2.524987920732269;-0.1803507182716581;0.6558168865111343;0.2876225989411659;-1.037962298413865;-2.4708007695869627;141;1.2566370614359172
325;-2.23593901726825;-1.159473496560439;2.157499329407455;0.3684590688965684;2.5995032770919053;2.043567998646865;287;1.2566370614359177
326;2.7468449165615416;-1.2004747013668684;-0.9741652837416404;0.2890090916002352;2.1322603313400155;1.6269559863684169;110;1.2566370614359172
327;1.633847104173701;0.9521418601425176;-1.4225034380002315;1.0052451816684511;-1.144478600593239;3.2969726127928745;235;1.2566370614359177
328;2.794512382770685;-0.4074410597269041;-0.826660111075312;-0.4986767861096801;3.310026902997309;-0.313048537802587;296;1.2566370614359172
329;0.6367393194464475;0.6576728865074262;0.0270998804217334;-0.5231914074683789;-1.0087284894351007;-0.0613611923890275;1;0.6400715731129808
330;3.11895020316878;-0.1207786766188737;2.26732885859655;0.1034509607515744;-0.3482969181781025;2.6056068898548195;150;1.2566370614359172
331;0.1041300756848032;0.6870637554741467;-1.234833038136559;-0.0476561917073471;-2.8081828157373683;1.0464007219633276;64;1.256637061435917
332;2.580042240341488;0.9577112120454084;-0.0299254798073733;-1.2608376636472325;-0.8600940795789115;2.776138869159987;188;1.2566370614359177
333;2.85044025000784;-0.6198562782825189;2.4000672902625184;-0.7060689535727765;-1.0434500935970057;2.924637823341909;330;1.2566370614359172
334;1.630238033639818;-1.0348467936282215;-0.7555796647842612;-0.7204822459586709;-1.970092212585441;-1.798051683764044;219;1.256637061435917
335;-0.2960872199190033;-0.0211196339132053;0.6814723794923281;-2.425856865949329;-2.5405298489238715;-0.0735410593097676;191;1.256637061435917
336;2.8149362805553726;0.0579842351109712;-1.6737654670949256;0.0187450951975547;-0.7335619901727344;-2.894830828998354;310;1.2566370614359177
337;-0.3785511703343362;-0.7253052152572145;2.1357013015775204;-2.348404977514284;0.0515306270106081;-0.5215181397964764;107;1.2566370614359172
338;0.8602202092513045;1.1713916411561935;-0.9642670340416656;2.5950380622458686;2.2240848189997697;-0.6515160600208189;98;1.256637061435917
339;-2.290360252767772;-0.470714916180822;0.6376234276050637;-1.1668239384433252;0.6508754345154018;-0.8334585647390418;30;0.8846937998097185
340;-1.956949249216318;1.3062535781000553;-0.9294192897595224;1.653941313005706;1.2503451488295758;1.6870238720455712;275;1.2566370614359177
341;-2.665340275281612;-1.0553409578067714;-0.199431626353352;2.798881304123193;0.6240715109764626;-2.897041523554367;222;1.256637061435917
342;2.3341860175465388;-0.8984778470992897;-1.1161137422376006;-1.0191034725055252;3.3692723851880757;-1.1893942729065;328;1.2566370614359172
343;-0.231909589865739;0.0625475271684222;0.645296919491299;2.705632279640151;0.3840092349847042;-0.8279572579259127;56;1.2566370614359172
344;2.930215289076205;0.893860622017714;1.3885169891649851;-0.225051546292397;1.2626874500803626;-2.1363039264901094;133;1.2566370614359177
345;-2.615505346237687;0.926214435988699;0.0619863627220893;-1.02433035884791;-1.4412756841395624;0.6441647720842547;13;1.2566370614359177
346;3.201210369494236;0.5546850132962481;-0.2284833419115127;-1.5668022313086951;1.4506421402823957;-0.6972233378117545;204;1.2566370614359172
347;3.256641710432514;-0.011864434375223;-2.537933141559418;1.477214174897106;0.7399966522808056;2.429322652289363;280;1.256637061435917
348;3.239320453799792;1.4135503050489238;-1.410668731956621;-2.6725675823811783;0.6420373687465231;-1.7362358314725872;204;1.2566370614359172
349;-3.2592137627309845;-0.592513420268051;-0.9157670474547426;-1.9778402138950344;-1.5656342099278997;2.197662314874799;184;1.256637061435917
350;-3.142382314298432;0.5525787924788215;0.049695789382066;-0.8026609634914104;-2.426594963604288;2.937865218749495;184;1.2566370614359177
351;2.807497139898253;1.2798635049447622;0.1238792385765602;-2.196948344322213;-1.5728430386606975;2.901233619163734;332;1.2566370614359177
352;2.51610332254122;-0.1157919071194716;-1.8493177674862575;-0.476443278407646;0.5850463068459814;-2.63632016423966;310;1.2566370614359172
353;-2.382950615997069;-0.7793111756886325;2.235456509167552;-0.4192288801678813;-1.5034420330035942;-2.34113814688005;283;1.2566370614359172
354;-1.143707200397006;0.7533962223846153;-0.1497456136256903;0.6659871593634727;-1.1920339402522948;-0.890420269012525;127;1.2566370614359172
355;-1.5047524021025194;-0.2353252399125166;1.7640034352797511;1.1094270623985505;-1.0715012615096404;2.322316381910784;57;1.1526975777356925
356;-2.749271241764942;1.537212658084694;-2.2266858198624875;-1.571469352361786;-2.3318610843686094;2.611270693582465;250;1.256637061435917
357;-2.905089898928844;1.230591724969944;-1.2797731884345958;-2.773231105221731;-0.2538310651100677;2.785335569188555;216;1.2566370614359177
358;0.3800452362152788;0.8894726303464048;1.747611642962055;-0.8142739705885318;-0.9675733616401312;2.6474703720490123;161;1.2239796717366287
359;1.7035704307948585;-0.7151637204811263;-0.4664679083806086;-1.5901080560007903;3.00382495597956;1.5588198950089538;196;1.2566370614359172
360;-0.0633085978945105;0.0637012647100592;-0.8716866696520397;1.710111764699266;-2.3516016220558016;-0.1990040068067402;66;0.9656109428805538
361;2.922761983199768;-1.4635491852496638;1.8991027142604344;-1.222115587729756;0.6525135087862728;-1.8581054802242531;131;1.2566370614359177
362;-1.4016542053591552;1.4980304806669926;-1.6036629853298503;-2.923266997216224;-0.7564241597031494;-0.4985945479943707;126;1.2566370614359172
363;-0.7336458943285724;0.4277548286196674;-1.8453130462848732;-1.704176851550802;-2.417307062490399;1.6993049808042788;43;1.256637061435917
364;-1.383173872405568;1.078406225877885;-2.346627950759049;2.01814250277547;-0.4403372929010958;1.5796791152770584;227;1.2566370614359172
365;1.6970154143438778;0.9168742428034942;-0.3363887215710921;2.62570362186508;0.4522850208403373;1.688309153033984;284;1.2566370614359177
366;2.250622908725074;0.0527120511570674;-2.1356626959278;-1.3519882228081934;0.5353869714594878;2.426004646958793;322;1.2566370614359177
367;2.4015767857866237;-0.3033778305947352;0.8403802970190624;-0.3234972407360476;-1.983116280769701;1.3974327006078304;259;1.2566370614359177
368;1.7849949450208875;-0.1250567952535412;-1.6908579711387477;0.7415748298340593;2.830942200862681;-2.9126425065374977;94;1.2566370614359177
369;2.239792366512111;-0.7314829589204525;-0.1263988408027501;-2.200945401881221;-0.3432400040268553;2.676635741040326;138;1.2566370614359172
370;-1.5308435599373178;0.3202091697508395;-0.6722136725599344;-0.7586764623658455;0.1779564064024332;-1.6844096210224784;35;1.2566370614359172
371;-0.967229742624638;1.08905477482612;-2.1543872149198853;-3.3354954204967533;-0.8052444205117846;-1.363197401621843;362;1.2566370614359172
372;-0.2639981781274971;0.7561209339136927;2.2344895181681754;-0.5158470417149368;-1.3404370254577318;-0.5348930341992277;97;1.0456025256022454
373;2.7775410933172617;1.6862666868433478;1.0375450129451216;2.945084146742877;0.5725746402716542;-1.1340750376816395;253;1.2566370614359172
374;2.8151878152411625;0.5348539000018433;-2.097614409722504;1.1888977158589986;-1.6677726363379717;0.1466441379108492;115;1.256637061435917
375;0.6645490424714069;-0.6816418006597225;-1.7694102343175502;-2.632929761735552;-1.1297682754541705;-2.0551196375966296;151;1.256637061435917
376;2.528088911636373;-1.2666530402256837;-1.407236393372429;2.966783735814489;-1.182681074161777;-2.576366838024278;231;1.2566370614359172
377;0.4622121590501472;-0.3571696782678856;-1.6266297497124576;-0.8426507467261484;-2.7014681774972016;-2.304201956565175;116;1.2566370614359172
378;-1.1040947245024249;-0.7256310005950241;1.5879331775103531;2.515567317090826;2.28474509142525;1.2349166824045277;142;1.2566370614359177
379;2.89744246488284;-1.159193016510329;1.960443364212552;-0.8348758198874372;0.3406079058782547;-0.746862693765654;361;1.2566370614359172
380;-1.4074882498285342;-0.1859626101702905;-2.2143095105876256;2.095261601376514;1.5834027062211926;-2.9802962481604616;163;1.256637061435917
381;-3.109267400576605;0.0220669484098402;1.5663189349956723;1.798715160927626;0.9492196975732834;-2.3037290408815085;249;1.2566370614359172
382;-0.1719072310733067;1.1552411303362184;0.698912106585118;-1.756271222006919;-1.416746768390847;2.7217310140232254;161;1.2566370614359172
383;2.141988559578549;-0.1265044994866189;-1.9136805051235772;0.7257145629135874;2.1667147226764154;-1.8523510240570649;94;1.1552716366271183
384;1.2461194667487283;0.0158676011210782;-0.6491785946475594;-2.920946147930701;-2.200313371284748;2.6892489981861525;309;1.256637061435917
385;2.438426405234144;0.1311296400712426;2.0173766201047654;0.8787286545014875;0.2934038221278382;0.4070840794742805;38;1.256637061435917
386;-3.284787890944809;0.5607693875417767;-1.1265020257818568;0.8388027740500908;2.396677458216596;2.595291925679598;166;1.256637061435917
387;2.8259466437091127;-0.8053574205969904;-1.4248229860558592;-2.0618016485182884;-2.9114409811611464;-2.7463068888967546;285;1.2566370614359177
388;1.0104133010660383;0.1631603264004136;0.7082421705728131;-0.2673254516847514;-1.6108026357081018;-3.1514246389817973;316;1.256637061435917
389;-1.464391509779377;0.8634975718962594;-2.495116670482919;1.2752406662816946;-1.0299764570791905;2.664246033098961;227;1.1179457781637263
390;-3.1795591797825207;-1.0313987308974284;-0.8493763795423825;0.4313725711195529;2.230533479253733;2.742449928626763;166;1.256637061435917
391;0.9059840096206404;-1.461089583730495;0.8256929657591707;-0.2701085814648787;-1.5001257683042293;-2.469851274334887;316;1.2230067158368132
392;1.5334355001025304;1.37185443398745;-1.9481806168840496;-0.8636505206395722;-1.686769477969681;3.0315496225862466;244;1.2566370614359172
393;0.4433841998371178;0.7780747571859985;-0.6029545557356218;1.669441259694895;2.1380998005072085;-2.262377388150293;34;1.2299502380488698
394;-2.677612602861531;-0.7599122298397918;0.830582398029621;1.036931592075661;2.007398134094515;0.7606397234716732;142;1.2566370614359172
395;-2.647572750964684;1.1287366072783291;1.886844830682159;-1.2186083432998425;-0.0879059144467114;1.1232548612895237;234;1.0423154493666411
396;0.1966128808560036;-0.8540473740777095;-0.2518479980520679;-2.3049509639754078;0.0679866489463476;3.023328407197176;145;1.2566370614359172
397;2.0142563840904577;-0.6260833590107033;0.5237321709786029;-2.349255301465175;1.1808593931236615;0.097430943169829;140;1.256637061435917
398;-1.733987713552097;-0.0334610352852266;0.4289335441879554;-2.7510433202497406;-0.4610617032424344;0.8912340402655067;158;1.1133548353973977
399;2.973210654579421;-0.3972307330720779;-0.187301255597142;-0.6940364347474332;-2.081733877594363;1.19641290399535;367;1.2566370614359168
400;-2.7419249508175123;-0.9660623876118766;1.0339584183457808;1.0050128291187304;0.8939770292436637;1.2610551196472963;394;1.2566370614359177
401;3.034443325949689;-0.3064548094602179;1.2473179046504947;1.3389912315726684;-2.177631472029644;1.3537237638096824;293;1.2325523659092192
402;0.2162204501099726;1.5700435615098578;0.7244191533155502;2.0484766834196457;1.6051230752939003;-0.9782823205873324;179;1.2566370614359172
403;-1.2012014612273858;-1.7552628521160374;2.453804719165623;-1.581056834375799;-2.0901077353213404;0.2468186197069936;295;1.2566370614359177
404;2.398853634250377;-1.0662853597707331;-2.1808082382357608;1.5609533594666842;1.747241599072634;-0.8316603840409458;183;1.2566370614359172
405;-2.418465178966238;1.3175547785787334;1.597208896750194;1.4110616165552683;0.17988901594826;2.4814707163972844;199;1.2566370614359172
406;0.5715549395911443;-1.672528956350851;-1.706748315151237;2.92837119284812;1.2973156220526936;0.2173536036153213;242;1.0915295346687854
407;2.3753354731851277;1.6698203638275104;1.1407323698784135;2.412548462636929;0.1787628566903669;-2.1178266605027334;373;1.2566370614359172
408;0.8113726547647291;-1.199115244378492;0.6901208657044239;0.4717899398874035;-1.107565662178077;3.0468431320573157;223;1.2566370614359172
409;-0.3712326362124203;0.7373329717314046;-0.3118706972201664;2.1485386049121944;-0.6367781157162316;-2.491186274661456;59;1.2566370614359172
410;-3.309635536143643;1.2462140760976654;-1.9831901625169317;1.6107743044800775;-1.4940023491873644;0.6867046543542459;85;1.2566370614359172
411;1.2543486980491392;0.0763868708729941;2.185019899298304;0.1819442061124248;0.4457073376516404;1.8521274010673143;93;1.2566370614359177
412;-1.6755151542955509;0.483445608920835;0.9616293813458194;2.1768129674202017;-0.746710313193583;-2.7202753826672037;59;1.2566370614359172
413;1.1533137627589616;-1.0492433342813732;-1.7981409619062485;2.8930330038428256;0.8554102530742871;0.1146620688145655;406;0.9707500218629278
414;1.2643062708529271;-0.0117267873788475;-2.2363884669734366;2.9984918571219;1.0003672955367773;0.6305901574400471;413;1.2566370614359172
415;-1.791864762332263;0.3830281806460013;-1.066231703467969;-0.964279213087528;-2.71605810602769;-1.935637311612154;156;1.256637061435917
416;-1.4546356023965838;0.4916964156890724;1.1534900078755224;-0.3532939433421025;1.4058529514841729;-3.2342713807215504;241;1.0691903061493475
417;1.4174858129878358;0.0720488174933688;1.908468339721876;-1.003041992152301;0.4423214937386267;-2.6790276660531163;230;1.2566370614359172
418;2.108070456303359;-0.1380002118829119;-2.595823966918044;-2.9859986245846364;0.8802932039915076;-0.8592422902888559;104;1.1892762503322782
419;0.7343987773283606;-1.1537461295862792;1.5519373070172742;-0.13049632615402;0.3290210383187002;-0.2123283462163755;67;1.2566370614359172
420;-3.019916475413856;1.4180635515418132;-0.53850192914628;-2.50026429598264;-1.8197297077960275;-0.1800659064559937;125;1.2566370614359177
421;-0.8264131623575515;1.3920364598515331;-0.3765975583563464;1.6408126812992412;-0.3412703900430193;1.417621978696363;275;1.2566370614359172
422;-0.2517245449167113;-0.6688699938041247;-0.0482898061189616;1.0502977697009217;-0.102988537465495;3.135736705659231;264;1.256637061435917
423;0.1198174619054296;0.988050848564674;1.1533272550566658;0.0820695428557809;-0.5676752365405338;1.3683582712205786;323;0.8429556188807806
424;0.116156501487808;-0.318048051682039;-1.610390362247639;-0.3844387139070439;-3.127374077213894;1.5072624062204245;331;1.2566370614359172
425;-1.413243738323644;-0.0176244508702756;0.2396057728370223;-2.3810297824899216;0.9698149244358684;-0.8435744472350375;30;1.256637061435917
426;-0.6592846283774144;1.3111211978305175;-0.5495201488780531;-1.0500794209019446;-0.063718900360272;1.8196508831910616;32;1.2566370614359172
427;1.2553872821406211;-1.651236259377995;0.6998416037218094;-0.6303718361078445;-0.5253982330998244;-1.8996089107660512;391;1.2566370614359172
428;-0.9515007388929696;-0.3201839290812781;-0.6773522901809259;-1.1092928299982583;3.273201321102434;0.0283620538027162;80;1.2351431798879586
429;2.601209625549008;-0.3744580053682781;-1.6793318713400076;1.4824304788569873;2.732513146970149;2.927389522042727;267;1.2566370614359172
430;2.3739671318041307;0.8393123754677926;1.655920470166923;0.0800421549388513;2.172665855977267;-2.659851147972981;344;1.2566370614359172
431;-2.470802663466193;-1.2159427739761373;1.636811023290386;1.2216302682966012;-2.5180833230298867;0.2539016374976143;169;1.2566370614359177
432;-2.57739767121466;-0.469963239307862;2.003943241885385;-0.1658051086900534;0.2814023743508942;0.2602516712932613;49;1.256637061435917
433;0.7346208590635566;0.1566947172177222;2.2929363675973438;0.8822239655077877;-0.5060718840639774;-2.789297094199545;209;1.2566370614359172
434;-2.4997855781240874;1.4181646077350103;0.5556938267584675;-0.122902565073451;3.346144824308956;2.9380672819839475;78;1.2385626684507067
435;-1.487962636985301;0.7051258355956668;-0.7711710777104638;-2.2621261310909;-2.0281751762007416;-0.0110810640019257;99;1.2566370614359172
436;-1.2552240010038045;-0.0778859413302942;2.550437381374248;-1.00329109802048;-2.722409227478748;-2.070432234316339;283;1.2566370614359172
437;1.5853533295807098;-1.298756274392264;1.571301791721064;-0.6541732841133558;2.5214996706981725;-1.5387113525717104;55;1.2566370614359172
438;-2.524830338558563;-0.2405895183924114;-0.8076920186772958;-0.3603574220123442;0.4935342294897896;-1.689888387113319;370;1.2566370614359172
439;-2.413480183378691;-0.9511489596260472;0.2480048747974389;-0.9800469028110972;2.751238684957634;-1.5302218025677443;318;1.160663876526398
440;2.635799731327917;-0.3416568962531556;-1.93679816582429;1.5524669498803378;-0.6726324929491092;-0.5396270921866224;115;1.2566370614359177
441;0.47043353862348;-0.670761702005688;0.610455306993729;0.7954417029776117;2.8322315828789897;2.55639997078908;286;1.2206866784419017
442;-0.8037727192161566;0.604416425750384;-1.06956501950666;-1.2759912587674986;-2.306658658545089;2.5628086811389004;363;1.256637061435917
443;1.989014811672539;-0.4585291270129317;-0.4995877195070735;0.8378013035348382;-0.9019017274689451;2.1587324798133523;159;1.2566370614359172
444;-1.052214175500708;0.4107059318042518;-1.4230899220902091;-0.9309107156157196;-3.2564060187564525;-2.717206594563298;415;1.256637061435917
445;2.392241763263143;0.5870073802327344;1.9981911511891088;1.716737919798527;0.895951326505263;1.6722767895974602;144;1.219153756866889
446;2.490847624439587;0.1212362376255472;-0.3187075057214529;1.158090397230947;1.573706709948236;-0.2791083736230845;233;1.256637061435917
447;-2.376802833645353;-0.9219455699361874;0.8069650838224914;-2.0303820328552256;0.0284803004729024;-1.9337028568286267;30;1.2566370614359172
448;-2.60256214756172;0.5379202517415401;0.6401635168395748;-2.319660677837589;-0.6246422723978647;2.4810881904053472;79;1.1352328007333077
449;-0.3991626325477475;0.7473457684245224;-0.244465202764791;2.220310517465857;1.0089558713032796;3.0677494631866247;301;1.256637061435917
450;2.740704835336667;-0.7688549633523998;2.4694448965100304;-0.0637940160577851;0.801115080915974;2.7679094542302534;150;1.2566370614359172
451;-1.0122587356714228;0.6572292227775818;-1.2251538522985468;-1.904531418344494;1.1430851666410435;-2.720149817934902;195;1.256637061435917
452;0.3909315404187993;-0.7397487021225853;0.4957463889412242;-2.4038231375926755;0.4313365034832708;2.130354176893173;396;1.2445573891242223
453;1.3256655590213084;-0.3855768613283573;1.8607030812708203;-0.1168719121177002;0.8075506522806027;1.345564945474133;93;1.041083357735953
454;-0.7936932960916165;-0.4331573675692328;0.7251417535310607;-2.295155787037727;-0.9947639811947432;-2.548838384738703;122;1.256637061435917
455;2.5586873015290013;-0.1763113450896464;0.2207970493283259;-0.4058483727336521;-2.323669885945045;2.413141925987139;367;1.256637061435917
456;2.599916919395971;-1.3834585823386871;2.024372141869827;-0.3782097121301638;-0.6829554870504799;2.5679170156107767;333;1.0731705552629411
457;3.075913006420632;-1.4894504257938783;0.1300171141107132;-0.0962429713498542;2.565580397002961;2.133483296697909;110;1.2566370614359172
458;-1.0323493958176508;0.5961654886983045;1.0771286423657902;1.6609114682816195;2.044294675923448;2.610569633572776;135;1.2566370614359172
459;3.10839052987568;0.6189388455222777;-0.8709149946140153;1.558346184837767;0.879110915966953;-0.2294248261011197;446;1.2566370614359172
460;-2.9354333832891526;0.7241163445648753;-1.8255715152747547;-0.8326465125447139;-1.4980170671166015;-1.0302516753558235;22;1.256637061435917
461;-0.2784303779792303;-0.107998945810726;2.1931121936922557;0.919869681027603;2.144129775552363;1.2455820368782993;203;1.2566370614359172
462;-2.94401171918268;0.57240466430703;2.1846413392320083;-0.5186684017838162;1.9980842359671345;-1.109236898481078;292;1.2566370614359172
463;3.139328045400049;1.0312110573720084;0.1508850006918279;-1.070549627802953;2.3346821231931765;-0.2770846295072473;346;1.2566370614359172
464;2.03705705778829;-0.6309314362164422;0.5802776381122536;2.070265659140963;-1.377491474528563;-0.9700047725368208;120;1.107919584706005
465;0.91688524984217;0.8741456521015428;1.792032313524576;1.6377536252349458;-1.267557654044011;1.7157260799157608;262;1.2566370614359177
466;-3.3534417409043105;-0.4120218720879107;-1.8660093690039148;-1.2088857574010907;2.7859895793492058;2.0454588196016874;211;1.256637061435917
467;-1.2970589037019524;-0.1514846716890104;2.5731548092848224;0.1395330529647462;1.4358114663773789;1.288227151163149;203;1.256637061435917
468;2.7301886479569566;-1.0433012313950616;0.9709384053923468;1.805603260465636;-1.4432461457447652;2.80133608425303;304;1.256637061435917
469;-2.751820682898465;0.4253044225582463;2.207274772586953;-1.4401098831532897;-0.1865357734244511;-0.4361158279007245;175;1.256637061435917
470;-2.1117567178221552;-0.229809004685196;0.6119051029584369;2.5527816855510204;1.748303857931669;1.5768177475844474;142;1.256637061435917
471;-0.4254286482764682;1.4590484957940284;-2.8218919842347816;1.0164785945002617;0.3668868399151496;-0.5192955331918604;305;1.256637061435917
472;-1.4440771046347405;0.1232722973429821;-1.7226957613370195;-0.6359857666416326;-2.377176834631696;-1.0770657257435945;415;1.2566370614359172
473;-0.1146391011904328;-1.2919696859892684;1.1911423442483282;0.808208280222531;-1.701736433470963;-0.5084177105928384;148;1.2566370614359177
474;-2.3303161579361094;-0.7741882879861277;1.7144401384652592;2.3523264019679764;0.2078967458218173;-1.7216175811704166;249;1.256637061435917
475;-2.269640910704207;-0.571765264306912;1.2403137327197036;1.268531532590158;2.555813343630655;-0.0866247141042508;313;1.04318464057378
476;2.712006409100539;-0.8786829568359894;0.2901619493065652;-2.366231681924907;-0.9372164143328676;1.7929885600098758;369;1.256637061435917
477;-1.774753155506342;0.3504685405706089;2.33095087243496;-2.3982221273271622;-0.8372161856776023;2.324090853649487;319;1.2566370614359177
478;2.8084175870894046;0.4121549673505023;-0.4262191043556584;-1.1531258394539932;-1.7219871706094485;0.489580375119332;399;1.2566370614359172
479;1.4803146628977406;0.1329507674329417;-2.1769604329734054;-0.0412370950932903;-0.4865941294931449;-2.857989225311058;310;1.256637061435917
480;2.9743772466363327;1.1068661972986802;-0.1253301877984372;-1.4932115136920374;-2.151904096247625;-0.3337964727954899;478;1.2566370614359172
481;1.5686724780266044;0.381350845605246;1.4553304201280908;-2.7779645904193027;1.9372165769867813;-0.1740339907565063;140;1.2255181187857498
482;2.3309277573615037;-0.2238667454448394;1.5033029890227956;1.4187817730634718;1.1297089381544425;-0.9731041858525122;233;1.2566370614359177
483;-0.8824614515912095;0.4707695489066668;0.7837343016272418;-0.1849285306465412;2.000338254229071;2.635756163059728;60;0.86622967255719
484;2.637836518620771;-0.2472871592848367;-0.8115413196084105;1.8959097506835527;3.032321193237829;-1.0479176874787226;180;1.256637061435917
485;-2.579817148252133;-0.3635033499961325;0.4422267413898755;-3.175439588913026;-1.1914970047182192;1.093611683498135;398;1.2566370614359177
486;0.0858402395574472;0.4904729523035014;-1.972344481517484;-2.741397970361075;-0.2716063864562837;0.8330109463628207;272;1.2566370614359177
487;2.792792178782771;1.7152603599898069;-0.2645843552320613;0.6620509373046264;-0.2316017219554887;2.329002001636118;235;1.256637061435917
488;-2.605999593698152;-0.3420619975104278;-1.556017267800076;0.7774848785135926;3.0454130137202013;-0.8474338324945309;269;1.256637061435917
489;-2.948588690086395;1.113194522132512;1.1010408454712846;-1.2758934628512129;-1.9031054245991648;0.9216998419773392;345;1.2566370614359172
490;-2.9700063941945283;0.1212225357916443;-0.8011736403950172;-1.3321109467211936;0.9057405609290806;-2.0583793088355176;438;1.2566370614359177
491;2.310242424060873;-0.4144118174579043;0.7826530452943623;1.3744314736406993;2.721911920544274;2.5498192663595987;50;1.256637061435917
492;2.019541770496356;-1.512379315267531;2.183522712464506;-0.2179176179630275;3.0511535883284644;1.934782934770256;96;1.256637061435917
493;-0.2898806474508292;1.4279417572651645;1.0089476120014786;-2.7099544353422504;-1.3857597461312758;-1.7057822159926812;193;1.2566370614359172
494;0.2190219175676051;-0.0741240746430604;-1.7435984824290578;-3.147527127931405;-1.0111408400570652;-0.8859944372580671;153;1.0193892373260722
495;-0.5736001369712552;1.281491609433867;0.3465561413489603;0.3478409806215474;-2.3297390722636058;-0.2912928743301838;214;1.2566370614359172
496;-2.1959008584653392;-0.2341096642722623;1.9987712539284304;-2.738966680744088;-0.275319710819518;3.3727774245799065;294;1.2566370614359177
497;-2.0204345373082813;-1.440182683961921;1.988585426025557;-0.0869558577558886;-0.8047377487632368;-2.933952853587513;353;1.256637061435917
498;2.012982535390318;-0.2885956532225096;1.8152258810699304;-0.5370158346235495;-2.572333454943585;1.1061910158428592;367;1.2566370614359177
499;-2.6025480270934183;0.5018079120415647;-1.8414321614783469;2.296142559410064;0.0550760024918503;-2.8045650539597005;221;1.2566370614359177
500;1.6391257875709222;-0.1837407457766647;0.6344711976137561;-0.4777936864015459;2.448952303254268;-0.4138524332730597;45;1.0509016495384722
501;1.953613156957632;0.2336018014488851;1.0155294462054103;0.9339940496339416;-1.9154748896041105;-0.9049927908001384;120;1.256637061435917
502;2.037807126052792;-0.3039374973727973;0.8498902452216138;2.109150636125399;0.6890349097126849;-1.0126369032341511;233;1.245127424727861
503;-0.1480352438158552;0.5043265380704769;-0.4774450828793163;1.360256793340974;-2.610336305988206;-1.1401807608944632;360;1.1966250393848996
504;-0.4756035343436876;0.3727205494974287;-1.9515320629101065;-0.6001818262571217;-2.1300228332968163;2.952647419235636;442;1.256637061435917
505;3.3909598502382257;-0.0678690383114692;-1.0412894966423571;-0.8771237010912423;-0.8568942768573264;-3.011779102223165;336;1.2566370614359172
506;-1.3317494519487938;0.8963084245839386;2.1863114274538806;-0.7189591497079086;1.40545957664428;-1.1760177351210168;162;1.2566370614359172
507;0.8524739069284497;0.8414798816535526;-1.9310562156664968;-2.8977548618434428;-1.665177932292343;0.6925155748843514;272;1.2566370614359177
508;2.0125653101725334;-1.55191654212786;1.696650763227854;-1.5441350076678488;0.2669096082825524;-0.4942151392179848;379;1.2566370614359172
509;2.279941801963961;1.3264450702529094;0.6139999408308472;-2.1727115315862187;-2.236329831864837;-0.1515213574959904;480;1.2566370614359177
510;-2.136750237182388;-0.8914192991165761;-1.1636644284951487;1.0802169719980332;-0.3018404687696012;0.0180953065303303;186;1.256637061435917
511;0.4388504796276836;-1.0570650029195632;0.492279540111798;1.584492835728891;-0.0772990662384984;-2.9546062332353693;114;1.2566370614359177
512;2.616627218827783;0.8511392685524339;-2.3920379732034145;2.3219245373500788;-0.6994206179689746;-0.9833470050905552;115;1.2566370614359172
513;-2.950142197422268;-0.1459551082730418;-2.251928639947058;0.9172550561224948;3.198813519562877;-1.793417238715174;488;1.2566370614359168
514;-0.5963172989023477;0.5859027638697374;2.3805800840610254;-2.607265596707428;-1.067715739504726;2.513046106268144;477;1.2566370614359177
515;2.415338109837496;-0.407107717038199;0.9906945759408696;-1.7005194450328232;-1.4763526812557688;1.582858219607206;476;1.2566370614359172
516;-2.637605564290651;0.3303633644077816;-1.1727821658691815;2.719745276759169;1.4596551815232872;-2.683364385993046;222;1.2566370614359177
517;-0.1727444896047529;1.251180425330258;-1.0919955134716004;2.041980962814145;0.1408603715251849;0.9413518321956732;421;1.2566370614359177
518;-0.2416260742554042;1.1789155953365975;-0.3747142524510312;-3.404889336076598;1.11375675908201;-2.9313761467410133;195;1.2566370614359177
519;-2.039490839902771;-0.5754052389824387;0.6542024564207751;2.199966830387675;2.173031341326359;-0.4971538801725763;475;1.256637061435917
520;2.8048216166959987;-1.613476927915317;0.0862299743870544;-0.2081557612641983;-0.1860380399609704;1.9887159698343453;44;1.1015000234236365
521;-0.5046936133587064;-0.369676830123142;0.5092333409562575;-2.328559558957952;-1.485056100898936;-0.5843933595367844;335;1.2566370614359177
522;-1.6356800389459245;-0.0560757796097162;1.845654341245156;2.357093484916766;2.5250243331036084;-0.471397114247155;313;0.9562956406549386
523;-1.0981315206505042;1.316364649512748;-1.6939534764974544;-2.813620939528465;-2.136169962277596;-2.972795204174001;207;1.2566370614359177
524;-2.914230050838849;-0.8400424467768246;-1.5853044189865069;-1.6360121873585167;-3.362057040907125;0.0685082208506857;208;1.256637061435917
525;1.8373180975775985;-1.1878868712440656;-0.1186125812928638;-0.5677169093000134;1.3195129081575103;2.6985944446556864;205;1.2566370614359172
526;0.4825691189004935;-1.5198165489162048;0.0081394926212836;0.4380933274272749;1.8556365530617205;-0.2106184510926878;5;1.129955661560889
527;2.98850390190182;1.52800856036693;-0.1348916458024787;-1.6457167552550789;-1.0226420156350151;-0.6547234659290029;480;1.2566370614359177
528;0.0432812970297489;-1.4332976816491654;2.472341347901383;1.1193373843374226;2.398242660335917;-0.351248234076483;173;1.2566370614359172
529;0.9346406281595449;-1.3134098221821986;0.0938439700219225;0.7448110203708334;-1.136813121353832;0.3696731278688263;12;1.2566370614359172
530;-1.7979890136512886;1.5329380253140208;0.5511752602791317;-1.6214859573461564;0.23992672937281;-2.503348703399257;170;1.2566370614359172
531;2.718343293400526;0.3862080400590547;0.5900559911628388;1.832690523243685;0.0924316879796713;-0.6387025126122161;502;1.256637061435917
532;-1.4679566885764768;0.9821522620556236;-1.23801848180438;-0.3898297024685381;0.9493034864786518;-1.8186237220731964;370;1.2293478650705092
533;2.232532386544392;-0.0464247705235241;-2.167884318533676;2.2492931477843605;0.8526042641031919;0.8600362407539138;414;1.2566370614359177
534;-0.8029748875810034;-1.035397126677646;2.001559962420317;-2.875141672392149;0.8461601882364257;0.0916397800812342;337;1.256637061435917
535;0.8877771675982784;-0.8144245041685437;-1.8181991114251588;1.0160702273660371;-0.0471245350916862;-0.7150757055566099;53;1.256637061435917
536;-0.3899335121912046;-0.7755114152427445;2.7133695959781274;-0.5077609487307133;-2.970495208299361;-2.170851769281354;436;1.2566370614359172
537;-0.3914232465969342;1.5848760634745689;-2.5163817972310123;1.7183176680507517;-0.6987749922472215;1.971539242917289;364;1.256637061435917
538;2.478416231824868;0.4712115374826456;-1.7677395623763252;0.5549993178877478;0.4193376678689454;2.7665535932286134;217;0.9298067904470932
539;3.0045371205517304;0.3704009805849113;2.2011674791158007;-0.821973161853963;1.151801302479219;1.1997276007557116;213;1.2566370614359177
540;1.449867048763311;-0.0728494454600689;-0.15246204435718;2.938569092417576;1.008127322163641;-2.617542845317206;90;1.0998151080001095
541;-1.7673921868074365;0.3515134044322812;1.588706733803937;-0.2724964780566827;-2.884045842254352;-2.4261130774897857;283;1.2566370614359172
542;1.6561648238747253;-0.9695063899496394;1.3502366220248658;2.820673924031272;0.9828940732538772;-1.39674471698818;502;1.2566370614359172
543;-1.9098816594959815;0.6722365095400127;-1.3184071907239845;-0.6962485728565655;-0.1076676980101262;-2.583575424404099;370;1.2566370614359172
544;-2.6806628657311986;-0.3438244866093934;1.97866785485992;1.9843167804942123;0.4721816429923702;2.1320620181874457;199;1.2566370614359172
545;0.7705273036824803;-1.1426055009218636;0.7551099360235695;-2.943299714018127;0.4127598743780287;-2.8047931727743154;152;1.2566370614359172
546;2.7301090786493623;0.2276646330524593;-1.926729275369664;-0.580440659938529;2.677420146478193;2.6024281454413503;321;1.103721289047256
547;2.639057202927199;0.2938768697150125;2.6292400455439533;-1.0160127351648676;1.87659224322268;0.3669696476143571;539;1.256637061435917
548;-0.541174465121909;-0.3619445766001877;-1.7088039582514056;0.2076980529535329;-1.1239654666337595;-0.5866308349970797;271;0.7047512639767637
549;-3.1376064974747595;1.7993241656243548;-2.7003830242981044;-1.3690619937336694;-2.293933863568664;2.8086966756548875;356;0.7247620202547355
550;-0.4964026141352229;1.2955356574931505;1.0051571281330536;-1.379153003850068;1.4736257684779497;-2.4737436057794877;162;1.2566370614359172
551;2.7436639234957183;-0.8567721829779074;-1.137455998550664;-1.2258823836191874;-1.741239712758922;1.079467476268661;399;1.256637061435917
552;-1.9226970206206968;0.8456274012231857;-0.7273930753191562;-3.009434295375705;0.9573809314929884;3.0562118332995434;216;1.256637061435917
553;2.7554026102688063;-1.3731113465648357;-0.1792705270378857;-1.743718436704716;1.576364098658974;-1.3875714529789078;92;1.2566370614359177
554;0.690002474061429;0.4118437503108729;-0.5894053633481572;-0.8436156012060827;-1.5718524773092573;-3.3549939544069134;290;1.1749065626557609
555;1.6279193491435506;-1.0838371215233322;-0.5778625533906563;-1.2326536634272591;-0.0599897843285485;-2.398095670101874;219;1.2566370614359172
556;0.2955908651755965;-0.1241139282500504;0.9251862645649072;-1.219958054974033;-1.848060484098641;1.762701251108557;82;1.225765293860106
557;-0.1349759129962076;-0.9013410088474374;0.8056677582803256;-0.3432580014149738;-1.7658938665597197;1.767993566515976;556;1.256637061435917
558;-2.19822875706574;0.1612649736288689;-2.3797060699288024;0.122109471673808;-2.415430254668278;-1.043684806618829;472;1.2566370614359172
559;1.1401408801662272;-0.7948833544350569;1.6236548153353243;1.8682130909377368;1.1397858045400608;1.806073468358962;9;1.256637061435917
560;-2.254385814146509;1.442488081392118;0.5349303972754401;-0.1266789426154235;2.3719755274418306;-0.5775226188717678;39;1.256637061435917
561;-0.516135218772077;-1.0887418461860163;-0.2047473246064007;3.482302638764166;-1.1345782774430104;-2.097399711996435;266;1.0794102521832478
562;-2.2317437148629384;-0.8203124727580725;-0.9320536834522068;0.226041726406032;-1.8307151870728364;0.6186032216128938;224;1.2566370614359177
563;2.212745589210678;0.7106431895784703;1.1972154252008365;-1.6374923200547835;0.5135036539948792;-0.1122891240454141;140;1.2566370614359172
564;-2.694062111182601;-0.117250786103704;-2.451015968001653;1.1145110458182612;-2.7771042902268395;-1.411055010602961;558;1.256637061435917
565;-1.6361053145540372;1.1928900756749838;1.1388657777097575;-1.1049623550430363;-1.7085524830717929;-0.9411357669863744;225;1.2566370614359172
566;-3.133031780092462;-1.0221743736555655;0.1402013040647961;-1.5660797112339422;-1.6086670047288651;2.944626942935972;79;1.256637061435917
567;2.8751104786810497;-0.9941937988881158;0.7348684509016759;-0.772010134854292;-1.910390556150494;-2.551900299235031;307;1.2566370614359172
568;-2.6250592591700173;0.4605933907301278;1.239379290629773;2.283618064078859;1.215754164776116;1.2781211613518333;470;1.2566370614359172
569;-2.485728486470651;-0.8236728405565305;0.8276887224125925;-0.489410712568528;-1.5859738020284655;-2.9504826899350745;324;1.2566370614359177
570;1.5189327834016142;1.488170273620098;-1.6521549477106074;2.6253131933952325;-1.448297388181378;1.5825904286391312;62;1.2566370614359172
571;1.060326129869181;-0.5572293557963284;-1.9622825361005736;-3.1490143982755763;-0.4216677331376579;-0.1004476667109454;68;1.2566370614359172
572;0.9160156073928324;-0.555088284258888;0.2111916299829571;2.0267233757028893;1.3782825226950544;2.9057792190675094;286;1.256637061435917
573;-1.376803458386889;0.2153025943918741;-2.5134499355928805;-0.9440805771037066;-3.1937564633132443;-2.2246493225192774;444;1.2566370614359177
574;2.9103783596485977;0.5347866882856703;-1.8348895514365005;1.3623484335084894;0.5641142235507419;-0.7085414958419529;459;1.1587614807670974
575;1.771282181428524;0.4469933167012673;-0.972429552198374;-1.826712841229699;3.0618186716060656;3.120548654317581;321;1.2566370614359172
576;1.2885825152340036;-0.4356231872920994;0.3519079801873163;-2.97043985578374;-2.1522983669289366;0.911459522470655;309;1.0085324435415957
577;-0.3199247139746571;-1.016225509479515;0.9211193311635684;0.0657277500332659;-2.92753852980735;1.7265754245386375;557;1.2566370614359172
578;-1.179019772727677;1.0741998958227192;-2.4060165742016952;-1.3704478151957071;-2.643337443237061;2.396466611100671;363;1.2566370614359172
579;-1.7177935392128578;0.4692654283400282;0.464460897303358;-1.099723667458235;3.196253215464358;3.3524223055660047;78;1.2566370614359177
580;-2.1740222126050552;-0.3170617150875742;0.1958209369303822;-0.7512881363970048;3.087594539510916;3.094778727149922;579;1.0479583235464718
581;-2.64274228669498;-0.3862471945422071;1.5244791654774044;-0.8392464645018088;-0.6989181560931309;0.7125340039177257;49;1.2566370614359172
582;-2.8381724773478885;0.563590605596844;-0.4173761907147346;-0.3655791830881988;-2.1336029686501914;1.1491413779277848;345;1.256637061435917
583;-1.4945553205779167;-0.2317821329519122;0.5146344338637637;-1.493305652729231;0.2052047161146109;-0.4108326867772718;30;1.248216627904034
584;-3.4476885134100117;0.1341514642745531;-1.284567919914813;-0.4432413870577236;-1.4605494897771996;-0.4768182176503442;22;1.0743690152396357
585;0.2392101172940579;-1.527557977348032;2.4290989528343565;0.3457979685659595;-1.9061977064772784;1.8008726580476715;174;1.256637061435917
586;1.7538615257711598;-0.2124930305049562;-0.8609892142357913;0.1935202468341455;2.158849970061965;-2.024538375577251;383;1.2566370614359177
587;-0.3134855085597683;-0.334887806060386;1.848826373348604;-0.3298922856132452;-1.402606591291486;1.8458756221927703;557;1.2566370614359172
588;2.8839773849097567;0.6422760819541804;1.15970223657783;-0.7018381246689221;1.925630552537516;-2.0117371139114435;344;0.8944969562797436
589;-2.128768401383046;-0.2801383217480893;-0.8557709030546803;-3.1543018151962467;1.4254285720761752;2.943133239483454;552;1.2566370614359172
590;2.2101769077881888;-0.3830924496609093;0.4441681246394988;-2.971927238953561;-0.0854930984213706;-2.808737099645144;152;1.256637061435917
591;2.301532785895956;0.4343194281583419;0.9537615848534546;-0.1732666945083499;-1.9171472919645611;-0.471453116539928;501;1.256637061435917
592;2.7643047762348383;1.0416356749774696;-1.8378143834656469;1.113990036046366;-2.3884738949342017;0.9994057310822168;374;1.256637061435917
593;2.1998328072351754;0.8779154537176999;-2.345168275791486;2.6114656268858063;1.4135143201667446;1.3564674992623724;533;1.256637061435917
594;-3.0009521409077244;-1.006982738329736;-0.390753212319582;0.2189993099747714;1.363842970681672;2.0075689587180565;390;1.2566370614359177
595;-0.3346967432422633;-1.566258952591204;-1.5769827926634294;2.36405505358617;0.0975366471728003;0.3022015094235169;242;1.1570429885807194
596;-1.0871832251135192;1.631583426331726;-2.105763238060733;-2.321369680687003;-2.9758126183789115;-2.899119003980979;523;1.1053548282809378
597;-1.0113034942782984;1.3739351752795612;-2.5881296529432536;0.7487585144850166;-2.661717936282392;1.874221438010768;299;1.2566370614359172
598;2.057087780566322;-0.5321997579636881;-2.250669383406781;2.567539212582414;-0.2360427601357045;0.9982110860598143;533;1.256637061435917
599;3.254488515187608;-0.50495939870137;2.2989556056069853;0.2953469629763786;0.0210787739346687;0.2854772677022557;385;1.2566370614359172
600;-2.3549979326961323;0.9490119929171088;0.231006156975598;0.4033881806294006;2.498608435262809;-1.5450546666865053;560;1.256637061435917
601;0.3058242693101775;0.1020965218625089;-0.6402333356284169;-2.4810028268453403;1.4840716696588263;2.3062839171595604;291;1.256637061435917
602;2.3616009061797683;1.0053531816619483;0.9924781383015756;-1.7303353152321248;-2.8679342828418366;-1.0068001709268195;509;1.2566370614359177
603;3.0278966968668204;-0.6637064555184533;1.6070976084055058;-2.6070352809766724;-0.0174844585778979;-1.6575430988691249;131;1.2566370614359172
604;-2.2735487040892712;-0.5606347980629145;1.8427953510464588;-3.1572491565809457;0.0401597753722109;2.529771836731735;496;1.0593027377242714
605;0.842607074445012;-0.7976826487624329;-1.8938451764794235;1.950207354867461;-0.7716913028518584;-1.264154180307516;53;0.958032584582224
606;1.775238803317133;-0.062709116168716;-1.7235376307319754;2.4320107985288657;0.3049167107827545;2.461324453747773;280;1.2566370614359172
607;-2.426947581699666;-0.5839156402086869;2.4681586611508117;-0.0846111772719564;3.052235310052154;-2.711496732101145;87;1.0433144577277755
608;-0.8727940558529909;-1.322076551225415;1.3740502864520148;-0.778472543124558;0.8933526708498186;0.2796337767729127;107;1.2566370614359172
609;0.528667216412662;0.901202509788824;1.265365123479765;-0.8808360845218496;-2.741732983557943;1.6462916492121262;161;1.2566370614359172
610;1.9877332782480777;1.2213037973543162;1.6305494785844272;-0.9336278428547716;0.3442721135065523;0.4542254975739646;563;1.159390586174145
611;-3.2335300234820106;-0.8188983520685154;1.6801878406146034;1.679145626338086;0.8267036044056246;0.598325389542107;400;1.2566370614359172
612;-0.9443129638626322;1.4944935027793396;-2.0027129942455497;-3.197199532459791;-1.966017745129467;-2.521991042633352;523;0.7280324049081719
613;1.0308393537734963;-0.3366779156913322;0.2066973545678496;2.708151149673448;-1.5481859754664868;1.3983345064985069;308;1.2566370614359172
614;-2.5035895800921475;0.2327187838731221;1.62923957338426;1.57810320330343;0.7266524196475421;-0.6941595057363147;185;0.4462608421899825
615;2.3366764440946857;-0.896359656751756;0.7144533934020199;-2.5108414365523606;-0.5433028671019763;-3.247899157918014;590;0.9836425671820196
616;1.854071129725137;-0.7599605667012211;-1.6881822004787883;-1.945716828007645;0.6065002630328188;0.1382863456411381;68;1.2566370614359172
617;1.896444660550519;0.2418553964285763;0.0763718842868139;-2.4477610201656828;1.0573795963838253;-1.9633677002788477;100;0.832955776404339
618;0.5711786820182004;-1.025619598588862;1.0499142689093806;2.690513168248156;1.6638493855789247;3.020685678394416;572;1.2566370614359172
619;-0.5253155550475294;1.247670724539259;-2.2128752007436603;-2.0956845744917234;-1.4752951899129898;-2.815213880688085;523;1.2566370614359177
620;1.9593261797700965;0.9264273132506878;-1.888585910309274;-2.9666826756792046;0.8123187588003815;-0.0665241483360085;68;1.2566370614359172
621;-2.388633582410913;-0.3453167813061427;0.0033802677540375;-0.6153366486095022;2.004558753342229;2.1689594383520148;166;1.2566370614359172
622;-3.0513349124501725;1.1908724727881144;-0.8380208741779502;0.6675022420109993;-2.00810079197121;2.805265361404278;237;1.256637061435917
623;2.628457160476;-1.263853091231692;-1.7567284306750222;-1.5052073683431242;0.9400050314366156;0.481745015045844;616;1.132041456292627
624;0.6049963018887605;0.5960654613261586;-1.4230822185461487;-2.409240300727918;0.3212671992791644;3.084276062164194;168;1.2566370614359172
625;-1.3436476234286032;1.2477417903343546;0.0890289948440079;-1.4454283455553942;-1.9077300180608527;-1.123493158105937;565;1.1745384121403664
626;-1.4586404395845909;0.7003229785428197;1.8249397395353064;1.144031578002446;-0.3391658066229749;2.8856764044153778;199;1.2111257959711954
627;0.1927995948822553;1.6745254224106545;-2.159831305243884;1.2815608087115538;0.0949327334759011;2.372810331546112;537;1.2075713577348963
628;-2.275428065174677;1.1078562288325369;-0.0490465976385493;0.1303259643422962;1.3538087846075206;-3.1658129395822487;241;1.2566370614359172
629;1.7866936129328683;-0.5014112479928399;2.484960919816957;0.2859941788011793;-3.055839691878643;1.4568628922343698;498;1.256637061435917
630;3.2221266433862072;0.8227499180737552;-0.4097290157413527;-1.36440884632191;-2.5594938266359697;0.4321318555312489;478;1.0437305974851314
631;-3.132672940473306;-0.9279241580954032;1.7187064676053336;1.5408789682852737;-3.3513266497386813;0.7590636706575031;431;1.256637061435917
632;-1.6791785124757328;1.4789918345895052;0.1036095989179722;1.5671317022111857;2.257326270272297;-1.1338423695997222;206;1.2197090879697066
633;-0.0207482826690308;0.5835337065680029;0.328035001786131;-1.4131822119866713;1.8300545422423504;-1.9645785527285589;550;1.2566370614359172
634;-0.187430928781738;-0.0377382077425983;-1.7341477375363707;-1.6960850843136526;0.5970516637425141;2.112270506544619;291;1.2566370614359172
635;1.3443664585217223;-0.4972709869132087;2.3530207699993846;-1.1782612932409904;-0.3924400220279144;-2.1093700763180987;689;1.227631532836886
636;1.921233834582203;-0.4259718412900917;0.7592151859184573;0.9880855758599398;2.557968462397337;2.0894859056054216;50;0.8982220272540923
637;1.0775666470712573;1.0667909977870298;-1.988937024967456;-0.4548486242405418;2.3350357219808204;-2.934364225023081;109;1.256637061435917
638;-2.8365021541301187;0.8042440378175932;-2.26219885220404;-2.741730120280831;0.3725169469271279;2.6004146508760604;357;1.2566370614359172
639;-2.953668458025392;1.4774917339798097;1.2190631768004945;-1.0798472286328242;3.445609222062666;3.0006146839114027;434;1.2566370614359172
640;-0.9845615019823414;-0.8277191077761389;1.9472395129407711;0.9928123684698048;-0.3993052540617189;0.8351085737578199;57;1.2566370614359172
641;-0.6430886939459245;0.7294220148116948;-1.3145204061650635;-1.9763465203261767;0.5911288769836613;-0.24968203102958;218;1.0592894726226498
642;1.6901053195691382;0.572155133487317;-1.8554966762827807;-1.4410632987515146;-2.4008424543930507;-1.941557356836816;285;1.2566370614359172
643;-3.4074493368053203;1.343358665073766;1.8433268421068263;-0.3222411947386709;1.719483332938715;-0.60000706586482;462;1.1406827849739778
644;0.4231198629511093;-1.6717849404635372;-0.5637224713611847;-0.1395128785322741;2.513104808245553;-0.8885480613949186;526;1.2566370614359177
645;0.7817314661389301;0.3141219287355559;-2.6035707363523866;-2.830816986383822;-0.423933120011611;-1.693272813363344;104;1.2566370614359177
646;3.0885781017312763;0.4240276891561756;-0.8208075847048739;2.165006407474503;1.8425384145314103;0.2625242462038582;459;1.2566370614359177
647;2.243161202912062;0.0512299223390118;1.5197328110084949;-2.512700350611644;1.5153469301906382;1.8199314516206848;194;1.2566370614359172
648;-2.668965232060559;0.933760058242523;-2.131117144493101;0.2558237790616597;0.1282500164358001;-0.0247198840324298;58;1.2566370614359172
649;2.8287400646127576;0.9319588397624016;0.6359262359466987;-1.969219780197858;1.5036668521893477;-2.3116939230256213;124;1.2566370614359172
650;2.5640997346120087;-0.7042541514497969;-1.7648264821672537;-1.944279144867924;-1.960495238188582;1.8317114796254133;551;1.2566370614359172
651;-2.831353806459145;0.0111138535005164;-0.0860423275900319;2.9375620243013234;2.0442266887197005;2.1064554198883427;470;1.2566370614359172
652;3.164304319902358;0.844831493121884;-0.4932262008877675;-1.7382287362237867;-1.361354896354376;-1.565663352221977;527;1.2566370614359172
653;0.3404823641345194;-0.5427025942441651;-0.466232923794543;2.104596424700175;2.4312610843171663;2.276098638026808;286;0.9049959621470214
654;0.660901980442218;-1.4645764932810523;0.0605942660816846;-2.3515620015449423;0.6005333603821311;-3.410117959609857;545;1.1618371431391472
655;-1.704825065310951;0.6291996317378739;-2.393104184285854;0.7327087417640195;0.0461595046340418;2.724386204638921;389;1.2566370614359172
656;2.6889268975145364;-1.531558347363404;0.6908559297028153;0.2834126988451499;3.374000579734257;-0.564711471159473;45;1.2278747165486985
657;1.3935893513860458;-0.8546295352904403;0.8082154799391257;1.858037533607658;-1.148874409026963;-2.483209948309789;146;1.2566370614359172
658;2.2867622386707263;-0.5560637455367036;-1.518954137022005;-1.7835291423279624;-0.4909694104269625;-0.1633069694726985;616;1.2566370614359172
659;1.738794100498442;-0.5639316685366498;-0.4856037421588758;2.7225781340390003;-1.7791249333715626;1.5573560421611374;613;1.0540179263572118
660;-2.337519944733222;-0.3327143590544334;-2.1280751201604025;-1.238441385751043;-3.4322216889233026;-2.4772562462361245;573;1.2566370614359172
661;-2.1134867734640603;1.4872695772767568;-2.414104432519816;-1.3358730606239075;-1.376298913317322;3.0219896862353326;356;1.256637061435917
662;-1.5235770594688307;0.9502116978407288;-0.7396166738058094;-0.5458544947236048;-1.1074173559496032;1.86766628330012;32;1.0775868364085766
663;-2.2018025606957714;-0.8694213971259629;2.223066859060449;-0.5944037072201322;3.0094441721169733;1.7287917485080555;325;1.1330644155100065
664;-1.026067551868286;-0.5761277365259261;-0.3005202606765763;-3.05842233957066;0.4765937554689398;-0.4922320860779898;425;1.2566370614359172
665;0.408701000757982;-0.9472375650077036;0.7633471130833352;0.0053690106340807;-2.612751791748446;-3.136785389257502;316;1.2566370614359172
666;-0.9294541828306552;0.6739341705644925;0.7535769022317547;-0.9185528497129604;-2.2419360850329264;2.5876605754938686;51;1.1612026034018532
667;-0.7771905066470028;0.6002930082834361;1.4459973820792469;2.3162677003761445;-0.0075869921282432;0.9718286786639267;257;1.2566370614359177
668;-1.2770887348128164;0.6278122986491974;-1.1821020638556594;-0.0075658752309038;2.481194827968978;3.085188597864235;226;1.2566370614359172
669;2.8420214355807327;0.2277292373005218;1.369445808833814;1.448935008282272;0.0127288299623327;1.6974379343603307;445;1.2566370614359172
670;-2.4392047030811663;0.1096740480504382;-2.4634654600788126;-3.016944285637425;-0.0170986993756943;0.3779342451202773;251;1.256637061435917
671;-0.9992576846018476;-1.1063394424174944;-2.103237510438368;2.429808437920714;0.7447998709117234;0.7773354770772795;595;1.2566370614359177
672;-0.0390549046355738;0.2115555020123357;-0.5490083674731707;2.735747908269112;0.1171711332114209;3.160946334314137;449;1.2566370614359172
673;2.290795706398812;-0.414011386528658;-2.339277150543532;2.429377198536383;2.3655380907611576;2.807769792580075;429;1.256637061435917
674;1.0489614372596858;-0.5808378879578618;1.3437325900530257;3.1145677852782416;-1.6525749737106383;1.6225521035368744;613;1.2566370614359172
675;-0.0505091252843798;-1.2547139774756468;-0.6288504771053848;1.2574338669337115;1.0005416003604997;-0.5059688175931638;111;1.2566370614359172
676;-3.374837616966232;-0.9529267069827484;2.4360635481603;1.2356579666684824;0.4565185799665622;-0.199257788829338;611;1.2566370614359172
677;2.137954730689639;0.4207947854432487;-2.6816496996043715;-0.3048988674423136;2.680722896638268;2.717608734308041;546;1.0232554080576046
678;1.181520616853394;-1.0422983577969411;0.6016623047947404;-2.5113022687647044;-0.1339383199774454;-2.305617008892225;545;0.9680912937155718
679;1.3449845625515926;-0.1649218614026788;1.7555127869968028;-0.8832077813834014;-2.3272477645545044;-2.9255640837057326;316;1.058931213810118
680;-2.810644896450024;-0.947440543693681;2.0418619216363854;-3.007018372429452;1.2922947448216733;-0.2982797365245831;113;1.1712081226203594
681;-2.644886303481203;-0.0987322180001149;1.7264547643211332;-2.313732868818146;-0.3286601964197392;0.9082821267033624;63;1.2566370614359172
682;0.5425442590612647;1.526098309874047;-0.0406008444180943;1.632802722965076;1.4108682703537787;-0.1567332209166018;402;1.2566370614359177
683;-0.572611296932225;1.119061574314004;-0.564566049298099;2.121818782311556;2.3852506062424115;2.2799735325717587;277;1.2566370614359177
684;2.561766772511646;-1.406337884918981;-1.7301784114793273;2.1865957163133967;-0.4739873426579671;0.7021166235869455;598;1.256637061435917
685;-1.1371591587797725;-1.5637352770897417;2.319685830324896;-1.1420241543884402;-2.9601527411449746;1.2616494159160383;295;1.256637061435917
686;3.0430775138558115;1.40733160144869;-2.1347902763007744;-2.347967036315724;-0.0975069242790638;-1.1329585705171412;348;1.2566370614359172
687;-0.8788268695492826;-1.3239400588845605;2.2859979048395083;2.4060603565933514;-0.1218040463800478;-0.0081821300831215;84;1.2566370614359172
688;1.5157626914277746;-0.8958543668832301;2.326083323839548;0.317033490682006;1.240149714966014;0.5145282230837014;453;1.256637061435917
689;1.951801491902298;-1.248440678167024;1.7856066747957902;-1.1839827314889917;-0.0417614191037045;-1.7503728858850618;361;1.223517633121351
690;-0.9004118238352106;0.6046379287338874;-1.1541835730742367;2.5251478523678736;-1.1999290056635472;-2.8273911023750538;409;1.2566370614359177
691;-1.1379514658505232;-1.4721863217170328;-1.3861151306808894;2.8583016329702846;0.949909848269124;3.6082248300317592e-16;671;1.2236304084721017
