Komment314/test_diploma/benchmarking/path_finding_for_benckmarking/pre_rrt_star_results/9_3_tree.csv
id;joint_1;joint_2;joint_3;joint_4;joint_5;joint_6;parent_id;cost
0;0.0;0.0;0.0;0.0;0.0;0.0;-1;0.0
1;0.7035340312187778;-0.2377241449017231;-0.0163204741923468;-0.6556089817793993;0.3435831464226236;0.6924773849366804;0;1.2566370614359172
2;1.1951405876289771;-0.6763993175938122;0.2400044479820673;-1.642354238504396;0.2454143537237941;1.00234511716355;1;1.2566370614359172
3;0.6700761173728879;-0.6164717606041901;0.1565855028346919;0.1472103380286191;-0.7763832779348422;-0.3180194520795853;0;1.2566370614359177
4;-0.4641666674565926;0.2592548355955099;-0.4114878125256404;0.9796012265255368;0.4082841262724756;-0.028917617179377;0;1.2566370614359177
5;-0.5866481236587759;-0.6507540348690737;-0.8206229884537957;-0.2846099498376254;-0.238903655388823;0.0;0;1.2566370614359172
6;1.829579568924164;-0.3596757741784074;-0.5131518735463171;-2.0100902625033243;-0.3622659220052927;1.0698768483639842;2;1.2566370614359172
7;-0.3241183973051686;0.1613276030868115;0.1395291809058063;0.2184924321464833;-0.504899284961794;1.0610969559849035;0;1.2566370614359172
8;1.1941855355833713;-0.0437916091762515;0.2398890642919643;-0.2755787290486423;-1.4290504800529555;-0.922021861648974;3;1.2566370614359172
9;0.5850981638527888;-0.295070262350116;-0.3062357623614208;0.7748548142128552;0.6721281829318163;-0.0615935350331707;0;1.2566370614359172
10;1.4863305221504144;-0.3474122664818939;-0.9347436918953818;0.9410608533907115;0.9235971384239942;0.4659422027254027;9;1.2566370614359172
11;1.2995443643609008;-0.2522787874588876;-1.5836804732121483;1.8110701097101531;1.1072618241947954;1.034650816670142;10;1.2566370614359172
12;0.4654653852870004;-0.0519707272656893;-0.2405016450151798;0.2792865348136886;-1.850023778970553;-1.4983616361938277;8;1.2566370614359172
13;0.447614999979422;0.4757189414292832;0.7441878397812913;0.1984830033721323;-2.059673397502896;-2.027763304833374;12;1.256637061435917
14;-0.0921191102072574;0.7025249460621861;0.6197582115106288;-0.4147793435112624;0.6986288570854658;0.1813423540660382;0;1.2566370614359172
15;1.7790517176893108;0.2693464701065073;-0.8451976355736789;2.084941422469184;0.549909671536925;1.4168976916565004;11;1.2566370614359172
16;1.8941823518996472;-0.8078236511769744;-0.808002712038361;0.6660841288461138;1.0522081207780944;1.5112166576840884;10;1.256637061435917
17;0.4660682755255317;0.447344267851482;1.5133492557448087;0.167983632085895;-2.9447746719382115;-2.477260020319025;13;1.2566370614359177
18;-1.10154798857659;0.7238007612446743;0.7108903347347523;-0.1971152564976217;-0.9038573262404882;1.0647085312638935;7;1.2566370614359172
19;1.495199299180894;-1.4071601507959517;-1.2754309315542385;-0.1687320576434529;0.9660112708531878;1.882576167432052;16;1.2566370614359172
20;1.744551339932076;0.3333552789574755;0.1998881857292066;-2.326436121657157;-0.9275702930009204;0.665469871129476;6;1.2566370614359172
21;0.6288304245016066;-1.0406811923471644;0.8459870736048992;-0.0290319715169902;-0.2142773125750678;-1.0764275620485677;3;1.2566370614359172
22;0.5938429843346485;-0.7868137058928735;0.286075539671647;1.3768633646855652;-0.8868730559242642;-0.260690501016777;3;1.256637061435917
23;-0.7438575325418929;-0.5426097827666816;-0.8159548585409161;1.807269320978728;0.5037808744087967;-0.0156826941242327;4;1.2566370614359172
24;0.9315199174867016;-0.7622811351034618;-1.611473514471458;2.3911264610220098;0.3637765603566798;1.5764848823121616;11;1.256637061435917
25;2.3244486526652053;0.0219227358126561;0.0475624440385754;2.035063857323014;0.4750749723514186;2.0613756352239343;15;1.256637061435917
26;-1.4134455503128265;0.6301345961173946;1.7476880905019638;-0.0214862342461976;-0.5855808753982296;1.5804489947588338;18;1.256637061435917
27;-0.3321764602764541;-0.2517502401295274;-0.1252975422199254;1.0435478809584835;-2.3849608015885027;-1.637887002851792;12;1.2566370614359172
28;-0.0504895736575174;-1.0375529906245111;-0.408249057693002;0.2182081191421412;-1.3314236368680186;-1.7002004628787424;12;1.2566370614359172
29;-0.0686662443106311;-0.4976862953805898;-1.8698995645950052;-0.6008062137554986;-0.0540410161181198;-0.2286178864760456;5;1.2566370614359172
30;-1.5967366571149166;0.3579023477237922;1.86226382984437;0.6912729465323532;0.3830953537753899;1.68973664493091;26;1.2566370614359172
31;2.355985670050467;0.8583021990480577;0.1685206318053691;2.25415525534115;0.4194273335792325;2.9629758407543627;25;1.256637061435917
32;1.7927986171316213;0.3286415046917249;-0.3222444692307989;1.8967941233987884;1.4036819144551644;2.490586556991048;401;0.9577866607302306
33;1.153386159464881;-0.5679886498984614;-0.12968923884623;-1.0309546230324318;-1.0538382041864789;-1.5963544667167562;8;1.2566370614359172
34;0.4103981565527431;0.5330684803783134;1.512617478623864;-0.4266965049066729;1.245527289704711;0.6301853353113612;14;1.2566370614359172
35;2.4318612783670406;0.5409643165991715;-1.0586574096319703;-1.891504209629969;-0.1816993053552698;0.822899868375157;6;1.2566370614359172
36;-1.4913011602998727;0.7481759431856427;-0.3279133743229055;1.066527141284641;0.9108977575079424;-0.1628068425016636;4;1.2566370614359172
37;-1.9553774307026104;0.7209302129938466;-0.5268356115995596;0.2008461838966968;1.6411829321704623;-0.3646423617012569;36;1.2566370614359172
38;-1.1557908829041212;0.2186733279627433;-0.0294134898581644;0.324716135311517;-2.687154778278482;-1.3883602026830586;27;1.2566370614359177
39;-2.0789369137880542;0.5771087140343837;1.814824720038501;-0.8546146370952531;-0.0560336280976724;1.9734065692634537;26;1.256637061435917
40;-2.52562438823585;0.7388248246625643;1.1886318305637062;-1.4547716576450034;-0.831351262681864;1.9677953957792256;39;1.2566370614359172
41;1.7826522686619233;-0.5459228625605439;-0.6226968235724505;-0.1311432986462408;-1.8102526553823888;-0.6565473682703993;8;1.256637061435917
42;-1.0124727860878902;0.0346785974139786;2.27206071552247;-0.7996065953415912;-1.0120986383644148;1.542576157732438;26;1.2566370614359177
43;-0.5761568908253678;1.0248922676317778;0.3911331128474591;-0.5890641161233586;-1.4180693714594996;1.896671382838586;18;1.2566370614359172
44;0.1571102053698045;-0.5634154843842908;-1.668791044867302;2.0597000898695086;0.8043457700980418;2.371877104778058;24;1.2566370614359172
45;-1.219270031424865;0.329990448726361;-1.0474760726443009;-0.0868030252579066;2.3652198059179845;-0.2845752032209921;37;1.2566370614359177
46;2.391076271050402;-0.1363595251759608;-1.1336028092435175;0.3789592900665222;0.2304165402870271;1.3786588715349095;16;1.2566370614359172
47;-0.6972730343764434;0.8230887762997313;-1.2681545946725594;1.4488924054191905;-0.0786107223490497;0.0964244481863363;4;1.2566370614359172
48;-1.1317785433939442;0.3212076581866545;0.8978286182136381;-0.1991585182787123;-1.8979532138613775;2.265716151415593;43;1.2566370614359172
49;-0.1092409675076985;-0.256204318932645;-2.303304928435798;-1.269091840579521;-0.6936776149653928;-0.9182525608161038;29;1.2566370614359177
50;1.63512694798487;-0.0845027235824424;0.2098525576605798;-2.424170750231934;0.8703835293347307;1.1825518426463155;2;1.2566370614359172
51;-1.440977703250732;-0.0520742158129475;2.404091847608973;-0.6450021358882376;-1.0777985619924746;2.701171406665879;42;1.2566370614359172
52;-0.6691911251824568;0.0800799740548171;-0.7731860970969019;2.1718981054835247;0.5218282223637604;-1.0407241929538196;23;1.2566370614359172
53;-2.365114540320825;0.9406505060463848;0.4098589049758547;-2.2380795639479247;-0.2906698679847705;1.983440553292888;40;1.2566370614359172
54;0.6537175352099286;0.2519420125838793;1.3552701970996712;-0.8852478991440326;-2.650376061492726;-3.010913680626179;17;1.2566370614359172
55;-2.238976852308818;0.6524260147066796;-1.1598484244067828;1.041617173958422;1.9358703768647596;-0.9119754212619008;37;1.2566370614359172
56;-1.7461303975940925;-0.1251825775555543;0.5801443838539884;0.6985187829994489;-2.1364140909050224;2.4627767029676613;48;1.2566370614359172
57;-1.9746504218833285;-0.3055823930241361;1.9676170479156991;1.2207358177255867;1.122008193494389;1.2913857040060115;30;1.256637061435917
58;-1.1899505554266487;1.5675951003851412;-0.0881967741666362;-0.4205835305529239;-0.9455272386985086;2.54968651379475;43;1.2566370614359177
59;1.6091386160999137;-0.6321702152825708;-0.4661079654909716;-1.7707032094018005;-0.2251860365274136;-1.7386119216056417;33;1.2566370614359172
60;-2.304083324166037;0.9382806795113776;0.6793253058302113;0.5014064174502743;-2.433287031305568;2.455888009754914;56;1.2566370614359172
61;2.8510423796904987;1.1765585546899358;-0.7795046766393947;-0.9885991214834208;0.0113345168141423;0.5601871546860532;35;1.2566370614359172
62;2.0089717783036383;-0.156376162331862;-0.5127820219903292;-2.544284407535625;0.544152450223391;-1.718558969181585;59;1.2566370614359177
63;1.82843742455806;-0.4043359226338183;-1.0492641179069446;1.0022400117974273;-1.8853423128010012;-0.947816522965339;41;1.2566370614359172
64;2.199352961718446;-0.4861892415479241;1.0065125671304238;1.7487730117336024;0.2615464118499627;1.5532735217195954;25;1.256637061435917
65;-0.5074863553376442;-0.7053543714622041;0.1641079425575063;2.407029882483567;0.8030051892285649;0.2792894296414842;23;1.2566370614359172
66;-1.4635276633385186;-0.3716383192822199;0.1307305018632002;2.816232314860923;0.7624466840018161;0.8986032770004819;65;1.256637061435917
67;-2.544664577473758;0.9188746463471807;-1.902889477670758;1.5786887681590351;1.328500925803089;-0.4589375736830219;55;1.2566370614359172
68;1.1488896251252934;-0.2421444116578274;-1.920504413205784;2.272022302664242;0.5490636637346892;2.936399813690008;44;1.2566370614359177
69;-0.494707935465163;0.7035256305349386;-1.5086045450758094;1.8800738466969964;0.4449407615909808;-1.7674252737486331;52;1.2566370614359177
70;2.127701316280483;-0.3501666042845265;-0.8579816597101421;-2.574560543262557;-0.9492119268553278;1.9113813413524785;6;1.2566370614359172
71;-0.8757963253693077;-0.4567826566378057;-2.252771263328609;-1.9339548751826348;-1.293277854848553;-1.3018942741276505;49;1.2566370614359172
72;2.400047238815437;0.3582917005980268;1.1279479868361393;2.371421877766931;0.2475452277879604;0.9028304073888568;64;1.2566370614359172
73;-0.0127596231304526;1.09404781391262;-1.294688147069998;1.0926215985188277;-0.7873393177444544;-0.5417214244408897;47;1.256637061435917
74;1.4182723783857358;-1.4593197764633716;0.0160176589412609;-1.666451223463559;0.149607619050395;-1.049593410717924;59;1.2566370614359172
75;0.3718674852412413;-0.2735119904749672;0.6264666247009789;0.5967896393421136;-1.1060952586399555;1.4660678604123631;7;1.2566370614359172
76;-1.0993490482959134;-0.7871876799125986;1.1072423537671172;2.7732026890130705;0.7093117961400529;1.46036755806695;66;1.2566370614359172
77;-0.6106316473970143;1.384845450703935;-1.1294907490554351;1.9750170977645105;0.8864263939586001;-0.0730686878715459;47;1.2566370614359172
78;-0.3345047575875684;-0.4349593060217715;0.7049609348993808;-0.0808311250735464;-2.3008677069309997;1.8680186119401871;48;1.2566370614359177
79;-2.288360013918064;0.4033628113791002;-0.0125336045299165;1.134490633662717;1.3608568588250614;0.5571870212415642;36;1.2566370614359172
80;2.1538602267006293;-1.0037760450480864;-0.813577069408502;-1.4992592667364302;-1.0388097521812127;-2.275197455832829;59;1.2566370614359172
81;-2.370565583759048;0.2336471037027115;1.033972540273231;1.232621802729159;-1.686368127615801;3.068327082362567;56;1.256637061435917
82;1.4187393960697148;0.2907411338705304;-0.9931144083457925;1.8443154251527736;2.01894738448508;1.7118646055760451;32;1.2566370614359172
83;1.4614958114864678;0.8152856040326356;-0.50589736423356;-2.525627228841206;0.9839626860675678;1.6340806961128784;50;1.2566370614359177
84;1.1507945223429223;0.3608357905706569;1.23977610764819;-0.3186751349989981;1.7733168915955666;-0.1676949391182589;34;1.2566370614359177
85;-3.0170131277607326;0.6851797570180411;1.0328881231284566;0.6007914347907239;-0.955317117155104;3.2223211417062143;81;1.2566370614359172
86;-2.213644242743106;0.8423715981688745;0.107117919889644;1.8599558076087352;2.197518342791064;0.9316291371643836;79;1.2566370614359172
87;0.5404825739174826;0.2495010420346431;1.1639240685750825;-0.7955911852620586;2.3703937912657835;-0.9452277863999672;84;1.2566370614359172
88;0.0447334068159271;-0.3087662919326959;1.196185722823658;-0.5242077709674683;1.4190754056546269;-1.1501926824835411;87;1.2566370614359177
89;-0.2674532746811332;-0.4581025014367629;1.5094357090081618;-1.167346230995908;-2.544172504226979;-2.676560331881752;54;1.2566370614359172
90;-0.5164689938262934;1.3704589895072277;-0.4825764458020234;-1.2646010178492049;-1.5870483363024004;1.4407269664563092;43;1.2566370614359172
91;2.704174828587982;0.2998437166654322;1.4078897606377834;2.604288002479354;0.949830013572986;-0.0231442128814516;72;1.2566370614359172
92;-0.9629522819302018;-0.4504094679644703;-0.1190528438637722;2.170326330268725;1.091768442061105;-1.7179962220346394;52;1.2566370614359172
93;-2.469775145646124;0.2627771432216847;-0.6793485193850155;-0.6533141739056095;1.6519796187802287;-0.957652300378211;37;1.2566370614359172
94;-1.9500653456580757;-0.845785808871831;0.4465452518582971;2.475030012898769;1.2732529678460212;-1.6656523642224923;92;1.2566370614359172
95;0.4890446948905806;-0.2265568996320407;0.0589285095026909;-2.0829252959102296;0.9535040842333852;1.38954619523739;2;1.256637061435917
96;-2.521559986957216;-0.1051712723891864;1.194587511103795;1.1860281551082186;1.599445232859996;1.934142735351956;57;1.256637061435917
97;2.741152236732535;-1.3707361478833209;-0.090302452973181;-1.0443854376999062;-1.590681245232221;-2.0203120578795963;80;1.256637061435917
98;1.007549436625858;-1.0422907941191475;-0.0355995077424782;-1.912462277640208;-0.6916374432767571;-2.5298250367961894;59;1.2566370614359172
99;2.180805933070012;-0.2866738256583344;0.1576918535267654;1.4005855379963328;2.1535648535740264;2.595885249661365;32;1.2566370614359177
100;-2.0018937212178645;0.0323010121354236;0.9233857404010056;0.1268739699946515;1.9004919650089245;1.9989341252192536;96;1.256637061435917
101;-2.9821468167445038;0.9612459542391476;0.1695931982257356;2.794791299532095;2.151428357082278;0.6242782932563118;86;1.256637061435917
102;-1.8511924221122729;0.5768572261731777;-0.7590394509746172;0.9093386340030016;-2.8559780195488083;-1.642562686147728;38;1.256637061435917
103;-2.770040070654256;0.3647153900782063;-0.082752162904559;-2.555758719338871;0.5485788447833976;2.171978744124323;53;1.2566370614359172
104;-0.2373510267661965;-0.3046095044239804;-1.2507575177514028;0.1228789800592475;2.718317881792503;-0.2367575133868634;45;1.2566370614359177
105;-2.343514966141861;-0.5864417594299146;-0.1398981445679004;2.1940955727075035;1.7564916637334391;-2.5027396417713086;94;1.256637061435917
106;-0.7251472015648508;0.8487804112331019;-1.1145456140042478;-2.178394636094502;-1.6743381942043447;1.5870767022354435;90;1.256637061435917
107;2.002427108860205;0.548485708171271;0.8337367564498008;-2.571274413183876;-1.2430608197708106;-0.2859036718684925;20;1.2566370614359172
108;2.397639141275976;-0.4532214208339891;-0.8822814615239837;-0.2396634407572374;-2.6415856394956583;-1.3062080161548228;41;1.256637061435917
109;2.3646008214673637;-0.511362784955195;-0.5701060026898481;1.2316365545598482;1.896429571562676;1.086010973398787;16;1.2566370614359172
110;2.7489945356043903;0.4721382171676662;-1.5605066988333631;-1.5251380098862095;-0.6580329799678445;-0.1049231203510457;35;1.2566370614359172
111;2.7598499658483866;0.8282414175444965;-1.902932007711188;-1.5419428628133396;-0.8646493818315929;0.3612909061369582;110;0.7102891530494182
112;-0.7291752903573756;0.4278290917648051;-1.5344209300636205;-2.8812742045772146;-0.8313907835816705;1.4420761525433476;106;1.256637061435917
113;2.401753382326183;0.478207598373359;-0.395747450336148;0.5522968063985447;1.576244395867498;1.1499242184205654;109;1.2566370614359172
114;0.5243437046097311;0.5774912659050705;1.3269582412811878;0.2782615146998481;2.238319190813015;0.3712396629877527;84;1.1445487992366803
115;0.4716809637930892;-0.8403366496566274;-1.799602101516605;0.814430496318869;2.75303256360173;-0.3301801043176141;104;1.256637061435917
116;3.033072846777391;-0.0201174947174528;-0.2844927357746409;-2.305349687828687;-0.0852452411818823;-1.7988087591910706;62;1.2566370614359172
117;2.929739595126326;0.4512334811265761;0.9901102343532516;2.3427229610541893;1.7075227554549717;-0.8527730967254762;91;1.2566370614359177
118;2.2859329753707094;0.1932384151616175;-0.3142152352618098;-0.0345580284248307;-1.3281231221984633;-1.3217896913577052;41;1.2566370614359172
119;2.469579321060337;0.053169885041175;-0.8852452448526151;0.4635292374838302;-0.5886632685843118;-1.958047861708657;118;1.2566370614359172
120;-0.0144232289481065;1.0444371149078595;0.6488428444634466;0.6077221969996972;0.0318876349237305;1.1266925496432865;7;1.256637061435917
121;-2.601242750776138;0.8881591799121105;1.1333254553773908;1.0425585531286632;-2.35706765637738;1.4641472917361442;60;1.2566370614359172
122;1.0855362561496893;-0.9286890250322564;-2.3841978209868318;2.420715321277113;1.3235253784661227;1.544884729395417;24;1.253597757043064
123;3.200326748755358;0.4330067257547858;0.1097807609375435;-0.8161969612596994;-0.0265745401856076;0.2733429104530035;61;1.256637061435917
124;2.4258499822774606;0.2390856375334052;-0.999062819585406;0.5403654301352184;0.611147265274893;-2.2483170886350266;119;1.2566370614359172
125;-1.1115957925095146;0.2640119267478713;-0.1836791676792976;0.5016533525745553;-1.785371948292112;-1.8593970677531384;27;1.2566370614359172
126;-1.017517497777218;-0.425510895701407;1.5856377718244017;-1.7028502806445731;-1.765761204555992;-2.334533052826255;89;1.2566370614359172
127;-0.0001562683180137;0.8145290309582421;-1.601895880910127;-3.143339589298081;-0.7545428940298192;2.01558591580497;112;1.0435783434956114
128;2.308413480299636;-0.9527952789226746;0.5804707060880472;0.7935073447936141;-0.062196681134014;1.1651143259030512;64;1.256637061435917
129;-0.2934167762047856;1.352311268197956;-1.1025415275637058;-0.3210301990723674;-2.03548875293273;1.6715378688876334;90;1.2566370614359172
130;2.840585034801133;1.047811708307386;-2.2947354928565424;-2.190809877257898;-0.4018875994825761;1.2190324753876942;111;1.2566370614359172
131;-0.6954413130409867;1.249651059565224;-1.8429429359605305;1.6398354324697646;1.3593015688460834;-2.252231925862423;69;1.256637061435917
132;-2.1942608722377224;0.0589169164407806;0.855780250946179;1.880252748624864;0.8746716733530525;-1.8102825854399776;94;1.256637061435917
133;2.5692656456521656;-0.5504392657101156;1.5511284215034489;1.6682488807972078;-0.6029933707245608;2.175891899767401;64;1.2566370614359172
134;-2.345948588446207;0.5406338953167689;-1.460983364415141;0.5387091463333668;2.7246970222809423;-1.6796668052322132;55;1.256637061435917
135;2.147229964875536;-0.7114390365789991;-1.33325363235816;-2.7879097408272733;0.9529600332131984;-1.125030555959745;62;1.256637061435917
136;-0.1567257415228458;-1.4546505138971726;-1.1896345663374546;0.0967827437701073;-0.1655982943400636;0.6790068432726227;5;1.2566370614359172
137;1.684242638138455;-1.283561123593942;0.9724471659652184;-2.081993340299537;-0.6300948958024946;-2.649513300994799;98;1.256637061435917
138;-0.9535106240846528;-0.6619924813297786;1.559575089787852;-1.9883964820296292;-0.650100438140197;-2.7729409014253;126;1.2566370614359172
139;2.455512250343164;0.2907641853302589;-0.7816545665569928;-1.1343881404214826;-2.739139373728352;-1.755761165402937;108;1.2566370614359177
140;-1.1583049471613704;0.8758259724126397;1.502951892506141;1.4998750313612796;0.9448480790705162;1.8317258508260577;30;1.2566370614359177
141;-0.1124093038662607;0.4295334779352191;0.7227213222526028;-0.9317463422829216;0.9456435134109396;-1.7786529757044771;88;1.2566370614359172
142;-0.2043598939702529;0.2249508234663306;-1.111016759813264;0.8885648071969428;0.2793914971451907;-2.079239467868744;69;1.2566370614359172
143;-1.034642269219226;-0.7699031173571333;2.579205635157646;-0.1464649709647986;-0.3603698152006551;3.024964144709481;51;1.2566370614359172
144;-1.194799217013085;0.4866851894134509;-0.0581742237150752;-1.3886709540209603;-1.639211130837114;2.0255110573836927;43;1.2566370614359172
145;3.0213490641773824;-0.4477389783231129;-0.406382246856283;-0.1521828021603371;-0.0655412976720045;-2.3344910610016503;119;1.2566370614359172
146;0.9008121617110636;0.3319193883291219;0.1496325030121194;-0.5946408748604827;-1.133655489614611;-1.5626242226618228;8;0.9136756400381532
147;-2.359954904061489;0.2620692829916574;-0.7333255688067646;1.0686857753466827;1.3925547381385006;1.571667639103943;79;1.256637061435917
148;-1.4168739525014309;-0.0269941166726996;-1.8103105725501567;-2.829320417556766;-0.9862241927404852;-1.2022918256789092;71;1.2566370614359172
149;1.5317508518554843;1.0160283023863403;-0.8572276312414105;-1.4514681944567929;-2.9105550253437817;-2.009057768139092;139;1.256637061435917
150;0.422006238710659;-0.1918510586176107;-2.602831154597113;-0.8433695522504197;-0.5106768662231523;0.4349331953015281;29;1.2566370614359172
151;2.168351148216493;0.0192773855647856;-0.918470900540391;0.0689370986015319;0.0273529847112374;2.5283010205977865;46;1.256637061435917
152;1.6998911755486728;-0.9455410366648648;-1.9960097682633704;0.7315800391033537;2.8717695749472565;-0.3247239896903128;115;1.2566370614359177
153;-0.0482079620385067;0.0222142698323701;2.418253233495346;-1.1059924174495368;-1.475608157834586;2.10745587490572;42;1.2566370614359172
154;0.3182115016366013;-1.11724233709319;-1.1078083249092916;0.7470246961951984;-1.7452864945435296;-2.4048515991391017;28;1.2566370614359177
155;-1.9138535915836328;1.072636195683573;0.4031116102793771;3.044594753539471;1.878851281744526;0.1402869431694665;101;1.2566370614359172
156;2.6620207701555767;0.6573072775629505;-0.537889001145233;0.8115879536134092;-1.9563907520172208;-1.5700266237341696;118;1.2566370614359172
157;2.6548878434721725;0.732000666651125;-0.5071277077281569;1.482001866923606;0.6524455841392687;-1.8567455729741376;124;1.2566370614359172
158;1.5387223579375024;-1.551446537390027;1.2279225303535606;-1.0333455106093248;-1.1951544159455951;-2.60506374000556;137;1.2566370614359177
159;-1.9021835342492412;0.2502378560772313;-1.9222703713008136;0.9569943215506804;-3.0145951002602045;-1.9414268373661132;102;1.2566370614359172
160;-0.0262622894347979;-1.112263043634066;0.9454159238304574;1.0566093531455931;-0.4974147156021928;1.2831164203388832;75;1.2566370614359177
161;-2.5056403336209923;0.3164075340915629;-0.2283453633038986;2.219019682524223;0.7568938369338775;-1.475745419647417;132;1.256637061435917
162;1.1219426422007943;-0.1600030021313583;-0.7227490067764774;0.9885048895577452;-2.821016705436939;-0.7528398314843288;63;1.256637061435917
163;-2.390316546391406;-1.1960418519669416;0.9949729260604824;1.974687357086522;1.8796461276282888;-1.0793009871321684;94;1.2566370614359172
164;2.250499054240293;0.7672595618693331;1.181821837281036;-2.8626180025503154;-1.400133275060488;-1.399015952033795;107;1.2566370614359172
165;-1.3791708018733373;1.0316581857124;1.0260342927239026;2.2614202816840177;0.1626201471746421;1.537125788053699;140;1.256637061435917
166;-1.098758441239489;-0.0763147651236137;0.9226569877128196;1.706952901159664;1.196366793239384;2.171043337124707;140;1.2116679459398554
167;1.597318925707413;0.3441165832614843;-1.498561042936941;-0.4591061753812082;0.7563532531989314;2.555918708973336;151;1.2566370614359172
168;0.4163692531651323;-0.6876362252309818;0.2195768576605301;-2.1322047557923285;0.1785740812043363;2.245412991720824;95;1.2566370614359172
169;-2.175984872118243;0.0969822848712478;-0.0229978152840492;0.2802914926130616;-2.304208260155982;-1.680761460507145;38;1.1356785313968487
170;-0.1804445694247889;-0.1646627679645749;1.4875052866961176;-1.548386942709416;1.075741951226967;-2.2679105584630994;141;1.256637061435917
171;-1.737627320531239;0.5140299684435082;0.7113744998255227;1.659317496303847;-2.567358688015729;3.262307055933386;81;1.2566370614359172
172;2.700573239626873;-0.3301210671454653;-1.835908350921863;1.0104220187437365;3.077266501755636;-0.5558431614416278;152;1.256637061435917
173;2.367139663787331;-0.0587632943057057;-0.8836003684995128;-0.1277067685584329;2.0624666916684204;1.7438799427215927;113;1.2566370614359172
174;2.702399366142147;0.5633956078043264;1.689517145767214;-2.4572710376509463;-2.334719807800209;-1.2044661509035224;164;1.2566370614359172
175;0.9815501679337728;-0.5446293115932218;1.803772720193138;0.3456158433626592;0.1610230490704668;-0.9759620111761348;21;1.2566370614359177
176;-2.528716624817128;-0.6078048276001038;0.2844382120768027;0.869702751181806;-2.727756014290139;-2.2610001167749427;169;1.2566370614359177
177;2.608023163993028;0.5658450975238224;-1.4263855662710108;-0.0700012044281344;0.0563437411637978;3.278923414974994;151;1.1548174521656744
178;1.911042161175244;-0.7992865277789863;0.251690256899072;-2.6240197143578468;1.5186450455965586;1.910671762410132;50;1.256637061435917
179;3.433592130541121;0.5498197561860216;-0.6063411824638447;-1.6838796125289763;0.2642650809183469;1.1820814501151635;35;1.2566370614359177
180;-0.0682083289252708;0.7685643915892142;1.0166088558287243;0.8929529583695864;-2.4057781674239296;-1.2854599303886411;13;1.2566370614359172
181;-0.1498055791243887;-0.1460350646558116;-1.727012395363413;-0.4128021523324724;-0.8988724523477359;-1.5949385416884685;49;1.256637061435917
182;3.094947772800612;-0.4112403574428138;-0.931224645684176;-2.0529455351007173;0.7071772925729938;1.5028461832545286;179;1.2566370614359177
183;-2.193545314574876;-0.2728147500422556;1.2756997563228467;2.2067655980111667;0.5547228375553005;-2.8513301368349317;132;1.256637061435917
184;-1.5249105400847576;0.6805200380674857;-1.4346439117540473;0.8818930968318331;1.7663748487195563;1.3710282063755896;147;1.2566370614359177
185;-1.2386365218726698;-0.0959460122499313;2.5755716754422613;-0.8087994063158047;-1.1036075883053926;1.059067583848417;42;0.6344845652477907
186;-1.8521771660051904;1.2831435132537874;0.2703075485097935;3.0702712014902307;0.8040925129961942;-0.4577237441499636;155;1.2566370614359172
187;0.5680002133763676;0.4681775340734693;1.390956541765726;-1.8522420048642925;0.5182164306761103;-1.8140427380812827;170;1.256637061435917
188;2.382313651930675;-0.9525181718591093;-1.0833361444488494;1.2543804219752352;-0.9943754488829578;-1.2844118415941264;63;1.2566370614359172
189;-0.4659777882857139;-0.0003528896135472;2.3143045354400877;-2.0489734516820066;-1.4814332739645284;-1.7323848577395882;126;1.256637061435917
190;-1.993728939968593;-1.2505905084432216;2.492478582386339;1.591592866923055;1.4561834878668989;0.8900819942813729;57;1.2566370614359177
191;-2.018335124521798;0.2166877554040128;-1.4200968082273575;-0.0663234235084438;2.1168212703984257;1.6846993957951162;184;1.2566370614359172
192;2.3600257830033806;-0.9876138342286056;-1.6845141046263978;-2.408595153922556;0.1678111116542898;-0.3674951964794909;135;1.2566370614359177
193;0.500485048463466;0.8249555846567466;-0.7973990814259542;-0.7655899503819197;-1.8137749906428888;2.246733750906482;129;1.2566370614359177
194;-2.5874324170772955;0.2351893643792613;0.6689258381607852;-3.066683602998922;0.0696602984043952;2.8601554144653414;103;1.2566370614359177
195;-0.3595022145712674;0.2200252240513851;-1.945294795681208;1.4036032851397555;1.702568661098523;-2.7234414736139594;131;1.2566370614359172
196;-0.6946395831709196;0.810680067810962;0.2957200539717173;-2.1767634371465703;-1.2201250636470808;2.5750929986535938;144;1.2566370614359172
197;-1.853944924244906;0.1144639339895719;-0.2064516242682651;0.4838623633484379;-0.8961057427337131;-2.3220636650162225;125;1.256637061435917
198;-0.5023508437917368;-0.5344533165003379;-1.3973837551627957;-2.9159132440904947;-0.9542971535865375;2.1948144305702795;112;1.2566370614359172
199;0.1584323266939771;-0.3971645881362227;1.414132733651726;0.3470287221236634;2.188380710652108;-1.550205710148;88;1.2566370614359177
200;2.7975014581215034;-0.3530176141573395;-1.879051914119602;-1.7984722075224746;1.2204790117256714;0.9922968260922376;182;1.2566370614359172
201;2.727661214544532;0.3898605337097238;-1.9673444820732728;-0.0117566829746283;0.7632126937190096;1.617999298331824;46;1.2566370614359172
202;-2.818208828840912;0.4525737865811343;-2.2915072695150878;0.3706150797490669;-2.9354783106754168;-2.4025760176285598;159;1.2566370614359177
203;-2.2177488579675813;-0.4360029119526492;-0.4463285605315277;0.3749777805555882;-0.6173567544856855;-1.3237291228259278;197;1.256637061435917
204;0.9550171255816602;-0.4806559864803959;-1.6092218932768283;-0.8030784265757367;0.1765755599918317;2.4158101689032554;167;1.2566370614359172
205;1.5013727726760495;-0.8545294965400418;-1.1553381600215222;3.010111986035481;-0.3283499268903836;1.1573750502695537;24;1.2566370614359172
206;1.849586065899841;-1.0837508799623317;2.191141385829643;-0.0843736790090535;-0.1255434745134638;-0.6325490329264374;175;1.256637061435917
207;-1.6085102487560945;-0.0452097467205295;2.0367532061665985;-0.2877010471671501;1.9813272994283917;1.979330042504661;100;1.256637061435917
208;-2.2229763697526184;-0.5528301219609809;0.395185477834291;1.0185207455754068;-1.868323248248228;3.4114217055432827;56;1.2323455672807058
209;-0.2771785633053284;0.9751459092683472;-1.095165742730309;0.3980179460115614;0.905301782537879;-2.6943738561834567;142;1.256637061435917
210;-3.3625097203575045;0.3033203681926453;-0.0506523905619271;3.132355664545525;1.4197579489045182;0.3050744171668594;101;1.173555510336187
211;-2.245718675674735;-0.9972264937879464;1.0032831480716935;0.6087562314217699;-2.754280942035198;2.4477937271002976;56;1.256637061435917
212;0.1071746356816842;-0.9055616477778208;0.2876626461246924;-2.7344925997665936;1.508786738457757;0.9570344251591048;95;1.2566370614359172
213;-1.5901856682695636;0.5892783177689479;0.712278723653969;-0.7503062675649861;-1.0536074491683;0.0678001539826796;18;1.2566370614359172
214;3.0423721471423253;0.8353341081743149;-0.5359849123382742;1.805853436067021;0.8043832903243805;2.4511271292055814;31;1.256637061435917
215;-0.4335837979685473;-0.9758506407460332;0.8706641483556808;3.326465140650719;0.2763347010757437;0.7294371608301369;76;1.2500536306322163
216;2.8336651637542523;1.2744929432984144;1.6507694940587423;-2.2103655692548445;-2.453325020532714;-0.860612587684372;174;0.847145967606634
217;0.8479225385419431;0.4993774510320244;-0.4019279393391982;0.1519659049582158;-2.398088984959504;2.134067173248757;193;1.2566370614359172
218;1.886633223402409;0.0802150781015275;-1.9560657469279012;1.27072286677535;-2.183262542425061;-0.3496262690944404;63;1.256637061435917
219;3.162980977878172;-1.125099502172061;-1.564889988991646;-1.4082192229087087;1.8511487024711135;0.5442883250709399;200;1.256637061435917
220;-0.7825115387117543;0.231108929584312;1.608077160430461;0.0949252188114583;-2.597434562831399;2.873020925824545;48;1.2566370614359172
221;-2.5388706182352965;-0.7243857721655882;-1.1520008777366446;0.1621391694191693;-1.054288022493484;-0.5121441189173752;203;1.2566370614359172
222;-1.3456849517528993;0.1659353558835625;0.5585022040530161;1.3163067242353297;-1.5792841681135863;-2.3670923290102097;125;1.2566370614359172
223;-1.633253951935858;0.5562389227535409;0.2490841979943305;1.533928010148691;0.9925656544125232;1.023899357413256;79;1.0168519883389584
224;2.4043714115554398;0.9617787731189108;1.3307132434058295;2.3776305945516256;2.0289271935904045;-1.7593814549402962;117;1.256637061435917
225;-2.768622765795833;-0.1029688951308614;1.7105144345652914;2.0660421257387585;1.1281277950209592;-1.182819534330113;132;1.2566370614359177
226;2.009769820059202;0.9097668602483768;-1.0445911747901395;1.2720776195671823;2.573439260839346;2.169095059075849;82;1.2566370614359172
227;2.3740784307506213;-0.7473628507387033;1.4416374167731711;0.6297745301522868;-0.1888854392444161;2.6661541979239685;133;1.2566370614359177
228;2.5562951703925787;0.3917312367854666;-1.0197035976112123;1.9816358123978064;1.4232760030005212;-2.445884985241623;157;1.256637061435917
229;-1.0138013261703007;-0.2462121339437967;-0.8891290047982631;1.334540530411799;-1.4420304969792213;-1.8587053073001651;125;1.256637061435917
230;1.839893169030455;0.2370726126509702;0.0979456704104203;2.159615747168417;2.361410128275625;3.059707570456306;32;1.2236747025644452
231;2.300609706529604;1.0807758910535816;-1.832646593786315;-0.5752587282959568;-1.2553830240763224;0.8221275296431183;111;1.2566370614359172
232;-0.4314875853346631;0.3233212841293611;-0.1780671053222436;-1.0318681163670602;1.6623165921149972;-2.140564928696837;141;1.2566370614359172
233;-1.3186495290886913;-0.1813565662943744;-0.5496152376037757;-1.0838571154344054;-2.030775976216112;1.2319310409131563;144;1.2566370614359172
234;0.5880961742044326;-0.1090437402729206;-2.4722333695649046;-0.2884267628545371;0.132217231469322;2.9587533092026144;204;1.2566370614359172
235;2.0286944775305256;1.220377953783922;-1.3374423406671747;-1.2783798657939236;-2.142553346879965;-2.6724073307812226;149;1.256637061435917
236;-2.4514861413492697;0.1346117429130646;2.1354049883716675;2.530209391384885;0.1212643390821306;-1.0716473529212505;225;1.256637061435917
237;0.1871608605229128;0.0650903746837856;-1.7125365934277452;2.4185172618422186;1.5364759655416176;-3.10354387378355;195;1.256637061435917
238;0.9548945417475434;1.2641738480500846;-1.4654795618363496;-2.610449316819111;0.5448233137021165;1.646531926151931;83;1.2566370614359172
239;-3.0814711553883467;1.1855422132872844;0.4192488736718122;-2.6346735797852263;0.1981048191113159;1.2025934003288838;53;1.2566370614359177
240;2.512803700938011;0.1300776669866898;1.6776770242470147;2.5320832393018105;1.3047681833184417;-2.214361296260752;224;1.2566370614359172
241;-0.6486930677663806;0.2369028497281974;-0.1426868855909951;2.160023314714945;1.881211765842092;-1.0982429268315124;92;1.2566370614359172
242;-2.6382644581506893;0.7466762576694187;0.8188158947106001;-0.5198983956815196;2.044219766066856;1.5364084810749463;100;1.2566370614359177
243;0.7860223585879859;-1.0965523067866474;0.844786704208112;-1.0238762203066705;0.939305516778988;0.9283933632476304;2;1.2566370614359172
244;-2.8179508554554995;0.9967288266751062;-1.152973107520162;0.8695494202295492;1.9294498427213007;-2.2378641681065288;134;1.256637061435917
245;-2.926155099299648;0.6303558637745181;1.062899135588574;-2.696519269968761;0.1686455269708546;0.2927564120409662;239;1.256637061435917
246;2.1734277508902147;0.3426269586059093;0.7771371447367634;-1.832636508281816;-1.5796034407383854;1.292298491775575;20;1.256637061435917
247;-3.1662329348278853;0.5801268617217731;0.7894160610761349;2.2403806328658966;2.453105562396113;-0.1614930079444476;101;1.2566370614359177
248;-2.1315762891395504;-0.4026291147671048;1.627025926700206;0.951725311298416;-1.2764965465295397;3.422305188766112;81;1.088978273419065
249;3.134058409610581;-0.8843080618541125;-1.1937357786416218;-1.6002250547803674;-0.1657927276061217;2.066645283064049;182;1.2566370614359172
250;-2.635026964964245;0.248114346960537;-1.5803037318954332;0.542351306020737;-1.3979227347732142;-0.0901906140445667;221;1.256637061435917
251;-2.7310669259095515;-1.1284519155215094;-2.276811831063204;-0.1405452379779111;-1.176677932323245;-0.4276987871855913;221;1.2566370614359172
252;-2.978646531652326;1.0198614338122465;-0.598400281510215;-1.2575859597380994;1.780277690005108;-1.5566953624122857;93;1.256637061435917
253;-1.0908041713219396;-0.0093336141759711;0.042595852018289;-0.2650930333523235;-1.581799306014834;3.061000084469518;48;1.2566370614359177
254;-2.0230087883182737;0.2439004000464345;-2.192837926677313;1.4103954367037672;2.2421437797695187;1.1263464381390265;184;1.256637061435917
255;0.1270647582729498;0.9959937677534874;0.2868937414084966;0.5462016878463165;-1.9192661403374176;-2.415484750065386;13;0.934615774134662
256;3.157733837216023;-0.051503440345006;-0.7316589846184324;-0.8715074411762147;-2.666146024675281;-1.2598618224132527;108;1.0787893382182914
257;2.010209534570701;0.0370892135245489;-2.2678346186302107;0.3366667995610334;-2.8268037676415827;-0.7717635508893924;218;1.2566370614359172
258;-0.45753389572565;-0.2188908656715092;0.7830468485203297;-1.578520352235799;0.5159473260438059;-3.097897177013553;170;1.2566370614359177
259;2.826612582074668;1.0319193991150355;0.6127923008513254;2.279069822733229;0.6815967388476044;-0.672882431344772;117;1.2566370614359177
260;2.689519646473302;-0.0816704180665672;1.9903064000601665;2.753845420009771;0.1954661947326836;-0.7321770475382287;91;1.2566370614359172
261;-2.0561936062764845;0.0037334578414605;0.9400452825286048;-1.4906862216578358;-1.700612728182408;0.0891217408158872;213;1.2566370614359172
262;0.8701289658078684;-1.290298309087594;0.433866671397018;-1.4207981577174318;-0.4253684352599793;2.55081633942566;168;1.2566370614359172
263;0.634287718760506;-0.255652071840895;-0.435838277311565;-2.571110302776163;-1.0899764683806548;-2.791224428839374;98;1.256637061435917
264;-1.0816135435203065;0.2348201099371109;1.7507595570034962;1.1448748438434737;-2.537158495748116;2.9440192974612223;220;1.1049444495425496
265;-1.3340548839841952;-0.3381083031467605;-0.4196489113247302;2.0936337776769705;2.353124373459605;-2.735406543409721;105;1.256637061435917
266;1.4099213822038796;0.4377450635954296;-2.45352370992122;1.02403364875585;-1.9313214313970897;0.5735532992721877;218;1.2566370614359172
267;-2.4072651516505656;1.5692602071641013;1.0870094768251428;-1.2515387163697016;1.6221401928183563;1.283910663051277;242;1.2566370614359172
268;-3.115953876941368;0.9356922140364132;0.2903989214273668;-0.6285841345175238;1.4534426332973798;-1.0460384658762063;252;1.256637061435917
269;-1.1320941802358446;0.4499387147007765;-0.9578511165824828;-0.480694759359371;-2.636580904089709;-1.4972208412598695;38;1.2566370614359172
270;1.746834866282835;0.5732875232398011;-0.8793671617783729;-1.8826985839232984;-0.6441925296226948;0.8244430656511851;6;1.0804303915710414
271;-2.7460348077280896;0.0994090492727684;0.5619558359524046;1.083521884551203;1.1662103359058784;0.9608811207634332;79;0.9139727741418928
272;-2.23619128989184;1.2625420030506795;-0.3027576657441503;1.1757147140102495;2.281422627584159;-2.7169753676002246;244;1.2566370614359172
273;-1.1189642425408055;-0.4518877096739409;-2.275748033986698;-1.0775805666935594;0.205819051245557;-0.3484481426633555;29;1.2566370614359177
274;-0.0152744851729801;-1.0975259135458988;-1.3713754895427457;-0.3261347172549393;-1.8902409192629883;-1.505004541133814;622;0.87617810026945
275;2.697136946992261;-0.6670010123921939;-0.3358593205080097;-0.7871214508911243;2.666680450687648;1.724823971749185;173;1.256637061435917
276;-2.257325688457438;-0.3341924054907916;-1.6211394525649674;-2.971816157402285;-1.1279567548059384;-2.0402822357611834;148;1.2566370614359172
277;2.50448754251066;1.1088857682975275;0.1247868900188786;1.1555797295378665;-1.5705747528918932;-2.3725683293501896;156;1.256637061435917
278;1.932627773565149;-1.1184266124475246;0.0733741397447048;2.2978778573303424;2.104423173846901;2.701116989682364;99;1.2566370614359177
279;2.921570237447132;1.230238288224046;-0.0488769891707622;1.912044417785028;0.7652347315241869;2.3411902311999238;31;1.062414235978924
280;2.074815152795008;-0.5006084908489618;-0.8476681508129615;0.7073447101585767;1.533077629326527;-2.337792377128306;124;1.2566370614359172
281;0.2898047831284148;-1.1286934164634024;2.1315384178031827;1.010758560391854;0.4543432161391268;-0.6243766855139079;175;1.2566370614359172
282;-1.4782910037505324;0.7254008919858086;2.208105683532479;-1.9896772406502992;-1.5010336295816282;-1.62075289218186;189;1.256637061435917
283;-1.87335957085222;0.8610546233600928;1.985221797917731;-1.4103293531978771;0.0192802189424928;0.9185496143050332;39;1.2566370614359177
284;0.2710600730379848;0.2029026945461247;1.4608204484089085;0.9592317371657568;-0.8232823353228259;2.125241502717184;75;1.2566370614359172
285;2.619038476293771;0.3796850109681804;-0.676109544473963;-2.6733409715496923;-1.1870389227838507;2.7514077693724155;70;1.256637061435917
286;1.6622413504003275;-0.84268125706759;-1.0929073353547258;-0.1067493362674468;2.672033265690956;1.971712493314756;173;1.256637061435917
287;-2.577808754234616;1.359772430320178;0.6341760812252434;0.8890997250929419;-2.0685619615528097;0.4640306743083844;121;1.2566370614359177
288;-1.047562393055447;1.5179239986587914;1.0446641160870571;2.706496329089731;0.427838056546014;-0.5132415562434846;186;1.256637061435917
289;3.1427835324657667;-0.07292780935595;-1.8154521233022975;-0.0552270932410751;3.407401272763824;-0.2867280651014566;172;1.256637061435917
290;1.932014519666542;1.1311489058251436;-1.66190942810571;-1.0356747930764605;1.3992486534171822;2.281570161813605;167;1.2566370614359172
291;3.218602192826574;-1.188950084038242;-1.3551235091075002;-0.8202900363664809;-1.0825541972280244;2.1328726681617924;249;1.256637061435917
292;-1.771594481583071;-0.1098796622766399;2.5473757858053903;2.613067949097929;-0.7058929124067084;-0.6285521140301172;236;1.256637061435917
293;-2.268764188401452;-0.1135833544679814;1.999896909505924;1.2231944255971925;0.7859501811909343;-2.798563333530537;183;1.256637061435917
294;2.545608689754878;0.3751956280141583;0.216577912113911;-2.1803321780710267;-0.7603110811462297;2.8542794867970165;285;1.112672411261132
295;-1.229511837518689;1.5340885105369102;-1.1470820134762;2.2470272188576823;1.942157350378933;-2.394974927719509;131;1.2566370614359172
296;-1.402200622177337;0.565399740421134;-1.4740199237509155;-3.2483717365651024;-0.6031601047915194;2.3995466749277194;112;1.2566370614359172
297;2.680902492283787;1.468028292799438;-0.95713744833979;-2.7539512471982506;-1.5956796320278388;2.3794447066230835;285;1.256637061435917
298;-2.219047046348254;1.3324410126600363;-0.5594242238880222;3.1587762748614807;0.098087745419276;-0.9550991131052876;186;1.2566370614359172
299;-0.2046306963535325;-1.4571431937358734;0.4465500230205669;0.8456947369511914;-0.6588659682622271;2.3361883211854195;160;1.256637061435917
300;-2.214698697450578;-0.7666689956460326;1.2541185339809735;0.5423378714805007;1.0927510259523296;-2.6093148695499973;293;1.2566370614359172
301;1.141983958384124;0.4041955509669199;2.0870535163843296;-1.1717475132732016;1.183978121402833;1.0022668050641288;34;1.256637061435917
302;-2.79910402416532;-0.5991133995057961;0.3962554951279124;0.4367015001896407;1.3708365003613596;2.0180521541666794;96;1.2566370614359177
303;-0.6554556115733454;-0.1243293136224957;-0.3687726858339606;-1.9541715344244728;0.7342516837342568;-3.2226488040881547;258;1.2566370614359172
304;3.261337225316205;0.2805027267471013;-0.2585640433978881;-1.4865329583607896;-3.28028810359372;-1.4424385497811556;256;1.064679163731634
305;1.7799539673759834;1.2993770912416562;-2.042872433076957;-1.3158471901232964;-0.4269830720689364;-0.0057477004973042;111;1.256637061435917
306;2.002447770530006;-0.0357577085089281;-1.5974935862984598;0.9857233412653226;-0.5573253664362798;-2.7143879014733545;119;1.2566370614359172
307;0.1890530383981844;0.1426060122177598;-1.76986129825534;0.406004793386316;2.0366054908907603;-3.0904153661833305;195;1.2566370614359172
308;-0.6992385534475558;-0.7086140612311369;-1.361580634683551;-0.517487077864526;2.036377427858776;-0.7981697512752064;104;1.256637061435917
309;-0.5613362731685686;-0.1484394040828516;1.7870702827322122;-2.109428499593375;1.496416151453985;-1.344698005190403;170;1.256637061435917
310;2.849929934196522;0.0186209463379079;1.0368313647116276;-2.342116085589917;-0.9499222683815766;-1.8048793704816777;164;1.256637061435917
311;0.2370852346981454;1.5979202834877633;-2.195515447942312;2.112855669804416;0.9985712330670165;-2.58398121873261;131;1.2566370614359172
312;0.2807270981386662;0.3275568864315751;-0.4310274710031777;-1.475272658633741;-0.1206019316822393;0.8392088881491565;1;1.2566370614359172
313;1.9782043115252197;0.6788556004587863;-1.5956620488851287;1.9706637941502905;-1.8003921021115443;-1.017445903084688;218;1.256637061435917
314;-2.14724988630764;0.5248286566021853;1.4418854618346988;2.7814825578681823;-0.1984454590024562;-2.726515563450938;183;1.256637061435917
315;0.1887561532061336;-0.5129808642436607;-1.1085405544890818;2.933962024091798;0.7586203995200947;-3.200569655747177;237;1.2566370614359177
316;1.7088567350682355;0.0306311907290211;-2.4705269705972217;-0.4457732016883577;-3.1861740213203995;-1.6119051841975238;257;1.2566370614359177
317;-2.9985351339377657;-0.8214826764363075;0.4095089705174776;0.0780729584703501;-0.6348063947186926;-1.3237902026426744;203;1.2566370614359172
318;-2.208080072312372;-0.1709403332582025;-1.0450958755543145;0.4076306221413548;0.8565140011709966;2.311288555826273;147;1.2566370614359172
319;0.3037395630015011;0.8945117447643972;-0.4193990814515476;-2.214053426499438;-0.1060576288138159;-0.0040144156620699;312;1.256637061435917
320;2.596848057488192;0.2667900352760701;0.6032540202174774;1.5817937939120237;-2.2409118440832727;-2.4118108661781776;751;0.973031752028086
321;1.9740104951821535;-0.7935888069128593;-0.0654696765824758;-0.5658281359391975;-2.81878735129341;-1.497588669058871;108;1.066256577316151
322;0.7599161875385831;-1.3082039464551154;-0.2784362484718198;-1.5144313523889503;-0.5187349799278214;0.653819491078782;2;1.256637061435917
323;3.1548682013608063;-0.5857020567013049;-1.4242723197850156;0.9299654228057974;-1.12490866072779;-0.5038859783095351;188;1.2566370614359172
324;-0.4152155304664985;0.381373400268125;-0.967099431823582;-0.8686817910262388;-2.791322198227655;-2.4384732872848343;269;1.256637061435917
325;1.892301211494888;-1.0048382962857445;2.0224756706678977;2.873051489011321;0.1518161507605337;-0.523311734725597;260;1.2444159909525625
326;-2.6697529965831803;-0.7945002295684924;0.0071097307156446;1.5028424495370227;-3.132143616979701;-3.200725595561593;176;1.2566370614359172
327;0.0012970411661592;-0.5962259070631519;-0.970494948602672;-0.8184627757374905;-2.693113984460722;-3.1001191471446194;324;1.2566370614359172
328;-1.4636066583824887;-0.6167338988847617;1.4298996265641812;-2.7351676417178945;1.6592405413692688;-1.33406839029029;309;1.2566370614359172
329;-0.8466339293190406;1.6710597063838588;-0.7640771045042161;-0.6738108226590661;-0.1616606845470508;3.1110958266815154;58;1.2566370614359172
330;0.52975072686853;0.1465842438495835;-0.4301200521619396;0.4607401767008422;1.6170649762732214;0.5500385409553682;9;1.2566370614359172
331;-2.719038318021972;-0.1189488375661425;0.2384811443961489;-2.181446264926449;0.3411380175119917;0.2848239711743625;245;1.2566370614359177
332;2.901424622637918;-0.0178912591116647;0.1696855388868578;2.476218158194035;0.2035106238722591;-0.5853607618630848;259;1.2566370614359172
333;2.957642523363599;0.2732066942122779;-2.2237724729658206;1.1787616095530709;2.636175131132619;0.3249004491895018;172;1.256637061435917
334;1.959184713331518;-1.0274078933975697;-0.8310746839197537;-2.5039914749207246;-1.066331118180873;0.5447559991952897;6;1.2566370614359172
335;1.596072694037609;-0.4179508658787505;-1.348123227009891;1.2525104351005685;-1.8851771313579768;-1.5921946351317524;63;0.7882600873237245
336;-2.4884482417763136;0.8692946930754107;0.227937361830411;-1.744188943369133;0.9388246643346666;0.3131996766287113;331;1.2566370614359177
337;-2.4985968935365803;-0.2817340425817097;-1.5036616382263228;1.526216230506325;-1.205250111369314;0.4282660224446118;250;1.2566370614359172
338;1.768363203988792;0.2735259395768948;-0.2211116116968324;0.687385056853302;-2.6865585380988293;2.661640755503372;217;1.256637061435917
339;-1.4849938156233988;1.013406236898248;1.2213822928344604;1.7719399139601908;-0.6651890891501471;0.7595751099492049;165;1.256637061435917
340;-2.5126120615150005;-0.3907978755546715;-0.8917457187311018;-2.816282833967402;0.9755398900508108;2.365442197753035;103;1.2566370614359172
341;2.717670113285633;1.4552371745652202;0.8559665033733314;2.6974312837350016;1.3935533277263294;-2.470804350491054;224;1.2566370614359172
342;-2.013379667846878;-0.6081106323421611;1.4073465604990028;-0.9377600869187628;-0.9972472994793414;-0.3399816954240424;261;1.2566370614359172
343;-1.2768463240200196;-0.0618849925306319;-0.4330654668259831;1.9270524438932168;0.2634572779106564;-1.2064767928530395;52;0.8119481528141733
344;-0.5056960438822701;1.1138303055022134;-0.9445040046768762;2.311616330487311;-0.8574891655466317;0.0494093493657813;47;1.2566370614359172
345;-1.3308070165295052;-0.3788383138743738;1.0441814234412936;1.173221366454393;-2.0540312172466746;-1.472444624302498;222;1.256637061435917
346;0.2214457715836356;-1.2282719959240618;-1.0566899368762075;1.3627609753154415;1.143560272183576;2.7687462065395145;44;1.2566370614359172
347;-0.1325152783075585;-0.6474374310419492;-0.89417255106288;-2.0120925148669437;1.2088579700701048;1.5819908902510085;95;1.2566370614359172
348;-0.2287043825746794;-0.5363368262276839;-0.4189566209142309;2.142141365634276;2.5515443713358814;-1.6263111793011125;241;1.2566370614359177
349;2.0381455267833872;-1.2613592588518898;0.90542638698278;-1.6267803018187377;0.6188628887655856;-1.427592672411404;74;1.2566370614359172
350;-1.1088061096194526;0.2591783397134864;-1.9084082149504409;0.0963197956087205;1.1468673686679698;1.3153735935209598;184;1.2566370614359177
351;-0.2691535333679886;-0.3745717260264681;-1.333762638971419;3.256226738819114;-0.3264257503261752;-3.3361928564939496;315;1.2566370614359172
352;-1.0285780690411548;-0.2121659098019566;2.712429415139726;-1.4337500644669516;1.318196238791853;-1.4550045414369324;309;1.2566370614359172
353;-0.9483530065525292;-0.0309646975289602;0.6927057322005502;-0.1258809472742578;-3.307492839510425;3.17651352014749;220;1.2566370614359172
354;-2.6957894148341923;-0.1060974298828415;1.0895009087040597;0.6643753934091371;-3.062443064194418;-1.555867233297154;176;1.2566370614359172
355;-0.0031415595345935;0.0707691970739852;-1.1402092237632298;-1.1034674989266544;1.9242764010675564;-0.5114601067484206;308;1.2566370614359172
356;0.9828443036138448;-0.9405768782145584;-0.7891139746327509;2.994661665027317;-1.1732237643947605;1.831682184571848;205;1.2566370614359172
357;2.525617554571725;1.562048777396591;1.7618638122127128;-2.2565396291987243;-1.3230151680955706;-0.5297339648133073;216;1.256637061435917
358;2.3499246090938573;-0.7393253879515149;-1.2196315620946323;2.65611436252882;-1.1593267392382989;0.9965830206406404;205;1.2566370614359177
359;2.592247139932754;1.3265787555929045;-1.9295908498710168;-1.4321412783537473;2.1448583289864875;2.847488847952774;290;1.2566370614359172
360;-1.6724832691372644;-0.3279040337393721;2.02220361514517;-3.0684589910951905;0.9848411197994398;-2.0657533336788902;328;1.2566370614359172
361;-3.3896860491979823;1.14213233652962;-2.53826681809622;0.6258581701645429;-3.2162815759033325;-2.165251777253706;202;1.031159437743295
362;0.1958242649048669;0.482465057276081;-1.066916980285978;0.7906421588121756;-2.6335888437507364;1.6360304764839984;217;1.2566370614359177
363;-0.1375939961736384;-0.9216398378158136;-0.0258322417428905;2.0596157427008084;0.6059885613814495;-1.0707456248896867;92;1.2566370614359172
364;-0.146901508899138;-0.9897565407394098;-2.016163530951706;-2.3975263522429717;-0.8570840735463743;-1.8520225694840395;71;1.2566370614359172
365;-1.8971278592708087;-1.329909966235085;1.47242627743542;1.119532557415465;-1.6497114876566266;-1.536706062215969;345;1.256637061435917
366;-0.5598168018515476;1.1819228669974406;-0.0159281572912706;0.2797587651902036;-2.5387006044666376;-3.140997539665162;255;1.2566370614359177
367;1.8703349749586076;0.4260233525347334;-2.441071536538189;0.4783098292884715;0.4738164187570811;1.0753318485148815;201;1.2566370614359172
368;1.0140796686946651;0.7231274321328692;-1.9262105554368925;-0.6203635783698425;-1.9093378100455989;2.223281626083657;193;1.256637061435917
369;1.914826133674848;0.2972513827970586;-1.885388206327628;-0.5382333561647142;-3.487825861822007;-0.6795364166382143;257;1.1974781591101975
370;-0.751070441706107;-0.3743045006260534;1.0877394190881025;2.2676324555399408;1.94280324466643;2.857097802034107;525;1.1731841400859668
371;1.2847029933120937;-0.1103079790660864;-0.9013750752575432;-0.8897181421116782;3.0988147954166663;1.7102480730341945;286;1.2566370614359172
372;-2.282791570557855;1.3345118618737204;1.262157942072074;2.859140647690319;-0.8764918576151205;-2.088472787330349;314;1.2566370614359172
373;2.8080652241719464;0.5276464105904916;0.5285002533767459;-0.1834347710891591;1.4497882758096594;1.1411337141361793;113;1.2566370614359172
374;1.6386496620122353;-0.4560466672814887;0.9948632096244368;-1.146117511314174;-1.8920696172317852;1.0950132790482747;246;1.2566370614359172
375;1.561599648914692;-0.5949140935842511;-2.500674885457013;2.191855957705785;2.170076309463204;2.2220129681850582;122;1.2566370614359172
376;3.084476002941281;-0.4437539926360588;1.6550380859320586;2.807334982789154;1.824879427199713;0.0932530400251501;91;1.2566370614359177
377;-2.8109447165471884;1.58679406406408;0.6941581878594256;1.065710781917745;-0.6573550870152713;2.889210613863314;85;1.1772869286267418
378;-1.9526767365959965;-0.5300738589235372;0.3243976223197812;2.7890424044945754;1.6082837998281738;1.647656944505748;66;1.2566370614359172
379;2.9329991515402094;0.5785787374850098;-0.3690996718005159;-2.5969390514009403;-1.0658397160380408;-2.194960960436836;116;1.2566370614359172
380;0.2401925050231637;0.7718206547640143;1.9448099610050984;1.0740458458056537;-2.018217725713268;-0.6225421337993491;180;1.2566370614359172
381;-1.6511256888060712;0.9331888350742188;-1.9148412092315188;-0.4385369169708571;2.793068753873193;1.3842088445615597;191;1.2566370614359172
382;2.0288425563546544;0.0527532085338133;1.4380871817750405;-1.2683807979227288;-2.210670494876521;1.85861991090276;246;1.256637061435917
383;2.81153301680828;0.6577245036762316;0.0251602158722134;0.3913740229745141;0.6886785215376459;-2.67008057607392;124;1.2566370614359172
384;-3.182697720432061;0.3279532416313313;-0.6651100532316665;0.6350390776626998;3.0608621766208337;-1.4002858113784336;134;1.256637061435917
385;-1.826404029187674;1.144349686249846;0.6143705031988609;0.8528013635836214;-1.6116168514483613;-2.7815164864678854;222;1.256637061435917
386;-0.7217510719115778;-0.088167496634406;-0.6914795852588567;-0.8945452459042251;-2.27329466722723;3.214228877090401;253;1.256637061435917
387;-1.7027847042742457;-1.506970056243269;1.3625210580834808;-2.659000933050641;0.8465977095027986;-1.5763090546833487;328;1.2566370614359172
388;-0.0772978028189357;0.1728523082941445;2.160169416151092;1.6102628438252866;-0.2990255943987164;2.643994678962014;284;1.2566370614359172
389;0.8581959983339227;1.000812559913345;2.001343695099063;-0.9488104910648462;1.312180688497011;2.036271763947425;301;1.2566370614359172
390;0.2322627011385556;-1.0503672039451508;0.5844642978448714;1.315202846110512;-2.5845327428357168;-1.7111593230295847;27;1.2566370614359172
391;2.308127150764893;1.1460327121127123;-1.439231228389939;2.4739603367582657;1.0971583532566145;-1.7948557763888626;228;1.2566370614359177
392;-2.633777777975195;-0.2858276288325526;-1.1101446886373838;2.6664324013033127;-1.1432497069810823;0.7477241876294393;337;1.2566370614359172
393;-0.4007301031266055;-0.4769132388506511;0.2748122264382427;1.752984892751395;0.4839737280363492;2.216741782426942;166;1.2566370614359172
394;-2.65096846499055;0.9387906702809472;-0.2988389335258272;0.5720637464085023;0.9443740186417025;2.202110188133241;147;1.255538358425982
395;-1.8240382240244133;0.7145170605534249;1.7053316493566624;2.03210254018088;0.6884928327379226;2.6802384575425675;140;1.256637061435917
396;-1.122801467330334;0.0056606775905315;0.606390993409422;-2.1320034743632563;-1.4460064241899682;-2.704402256778679;126;1.256637061435917
397;2.529203023522508;-0.2191427781523542;0.6905809059143552;-0.3170716425972638;-0.2135165296508662;-2.154881488335866;145;1.256637061435917
398;-0.2013750138403297;-1.3870153553097753;-0.9807567555865104;0.5370195738955978;1.9199479774023176;3.059894372572358;346;1.256637061435917
399;-0.536418240147833;-0.6342698030703495;-1.5278988297106304;-0.4859623037837261;-1.955404486476138;2.6860533603812398;386;1.2566370614359172
400;-0.7586018542175776;-0.5744111472806172;1.6844184832125837;-0.7982587287509203;-2.2789098240092134;3.029988648430888;220;1.2566370614359172
401;1.4774233268620942;0.2670650399268819;-0.827015521685308;1.8677494038571285;0.698238480370994;2.243981198319571;15;0.9189975058807976
402;1.4189635474691076;0.5551403540424784;-1.5121124557253764;2.922953417641885;1.488365116715137;-1.5130370045379236;391;1.2566370614359172
403;2.3635565811718324;0.1869348447888558;-1.5318108050591386;-2.1133889961895145;0.2210200917594854;-1.6346611932235675;62;1.2566370614359172
404;0.5235072180600531;0.1836541436967988;-2.350050620624528;-0.6411696749622431;-2.6122326177797284;2.834272248485792;368;1.256637061435917
405;1.3308491188894658;0.0095576423893926;1.983644202939336;-1.7316811635105696;0.454939007116075;-2.459835610429449;187;1.256637061435917
406;3.032442708074636;0.0423837930312217;0.6006468180316838;-0.8980549184552602;2.046584482184274;0.4920891493063599;373;1.2566370614359177
407;-0.9655250742501308;0.107170542188522;2.683972478695814;-2.276109591317728;-1.7820744380035751;-1.2820069624867212;189;0.8617304401885805
408;-1.4579269934167995;-0.4539204234198396;2.4275565384825937;3.126039333259123;-0.9872359795224176;0.374311361873975;292;1.256637061435917
409;-2.392383571794172;1.2221580457360477;1.4478876949079384;-1.967510108173908;-1.5460388690683788;2.6655631865555263;40;1.2566370614359172
410;-0.1323605548547538;-0.9265479356127728;-0.0538028440356331;1.7458495166479586;-0.010857738603358;1.544338770648238;393;1.0388533793238437
411;-2.998819039659844;1.073748690006699;-1.8808442105546808;-0.1844158974014936;-1.3803708850245917;0.2922969640977897;250;1.2566370614359172
412;-2.488500259768858;-0.1448962269329786;2.118673356737784;-0.2318924999163804;-1.3541835639856794;-0.4247825419987354;342;1.2566370614359172
413;-2.8924606638856485;0.1036993886900386;-0.6653459807506273;1.005455240997664;-0.7745255701030844;-2.2665570126710106;197;1.2566370614359172
414;2.93718703080496;0.4226912234734068;1.1024187194100494;1.3639503866917595;-1.0377836229829798;2.058388385707388;133;1.2566370614359172
415;-0.4988296187282608;-1.16828955608671;2.055883672073063;0.6199131104698052;1.9556642023690185;-1.659944461199025;199;1.2566370614359172
416;0.6022101924184965;-1.07137678927266;-0.31645715745266;2.841204240234111;-1.655882657667139;0.8635744914249945;356;1.2566370614359172
417;-3.0072163612198435;0.3184709751798876;-0.645527442313398;1.7421004165951022;1.70584523534773;-1.3158945356628051;161;1.256637061435917
418;-3.1350903712613656;0.0122725561786485;1.0783641364005483;0.3266506032416971;0.4958605065927368;0.5985564854895281;271;1.2566370614359172
419;-0.0571433069699399;-0.5315679161554053;2.235957896744431;-1.8940313577976624;-1.0961311249625638;2.7960358444694404;153;1.256637061435917
420;2.0242593939606275;1.0145221551881325;-1.325569787429307;-2.006392829100206;-0.6209585721187635;-1.5073750626359828;403;1.256637061435917
421;-0.2136043874267779;-0.7658178287783262;0.9613187401479356;2.840384808240115;1.1219428369117834;2.5119239270892697;370;1.2566370614359177
422;-1.8862458513562133;-0.7162604891496018;-1.1977182376418398;-2.7238724372597973;-1.4553508554715884;-0.6757273742677603;148;1.256637061435917
423;2.633893267146445;0.2415947468656197;1.264104856033118;-0.8302855807566647;2.8648075705040235;1.0081819409651775;406;1.2566370614359177
424;-2.2061982463255574;-0.8047637448448124;-0.3082963258356108;0.8850991129814629;-1.171400960146836;-0.0497792331504003;221;1.2566370614359172
425;0.3629781409514689;0.0063677101489875;2.0593376625401083;1.2557247213936653;-2.162239685777979;0.3320656642671999;380;1.2566370614359172
426;-2.140374031047386;0.7502226817432207;2.261379453663214;-1.7755522912320574;-2.510847962866408;-1.352883387313755;282;1.256637061435917
427;0.2175396232527672;0.0556715856352824;0.0362251627493153;-3.0836285902833915;-1.424346790713448;-1.947890028715535;263;1.2566370614359172
428;-2.95830681083095;-0.042908634303232;1.0857294814840082;1.5140164375107237;0.2646358376201728;-0.8684273051855745;225;1.2566370614359177
429;-2.792584884877358;-0.8919387857589247;-0.831104613069628;-2.395041096872405;-1.39700520022286;0.0177303252073772;422;1.2566370614359177
430;-2.204519507173796;1.1481077300797318;1.2127916076748142;1.3519572250377063;-0.9416624121190535;-0.1294570795289689;339;1.2566370614359172
431;0.1286410473305298;0.4954536935630142;1.7377891253897766;-0.0983554365494086;-1.4876098600578094;-1.7550187426291304;13;1.2566370614359172
432;2.828055061275358;-0.2359226087254754;0.7180127846523167;-1.1525819655160576;2.156471362879348;-0.6780706801170444;406;1.2566370614359172
433;-0.5349788635120815;-1.545049064800832;-1.223227641711292;0.2373880240203811;1.00168834865236;2.3882556451063124;398;1.256637061435917
434;-0.7666895156603051;0.2688893721434827;-2.3634596645485866;2.0467123121507065;-0.2979485057726671;-1.6911105957459776;69;1.2566370614359177
435;-2.825611269088525;-0.5545729870088575;1.6856013610431386;-0.0589557798649115;-3.082477722667716;-2.250278884944622;354;1.2566370614359177
436;1.8780746800272092;0.9379743621299376;-0.7387239880312706;-0.4541184458009005;-0.9453238254088064;0.5524420892004542;231;1.256637061435917
437;0.5981364730020806;-1.1712960305303604;0.9701428833986232;2.9015308408004614;0.452406369317319;3.063018404785784;421;1.2566370614359172
438;-1.9167176968435724;-0.5874393045762591;-0.1135921952081515;0.6103295056006565;0.3907542644547517;-0.7915710510123435;203;1.2566370614359172
439;-2.5113125208587035;0.5799916448943798;0.1904626168166369;0.1174654554426777;3.2578340848988745;-1.562058121884672;384;1.256637061435917
440;0.118692378867138;0.8951635401186363;2.1649220267425444;-2.061376111537068;0.5518201442839852;-1.0717131154828994;187;1.2566370614359172
441;-2.6596292019548184;-1.1008771962331496;-1.6718885664068863;-2.749316667543419;0.9254436034893414;3.027025945122576;340;1.2566370614359172
442;2.3117503166703632;-0.9793597982243696;2.3368595469901083;2.2916648809855182;-0.8308396988878273;-0.5138317586150546;325;1.2566370614359172
443;2.5318951203357845;0.9422582392826786;0.5603410280525811;2.002525190405267;-0.8628576535091346;-2.7503689140844387;277;1.2566370614359172
444;-1.277417596076397;0.5106905028653755;-2.672239214728833;-0.24616925389117;0.4077460018312019;1.805691411299676;350;1.2566370614359172
445;-1.9847951637599457;1.139076287862291;1.9098932083759197;-0.69738684651961;-2.3240161737646146;-1.6406947300695984;426;1.2566370614359172
446;1.861481243828236;-0.612981840558773;1.8897898297891564;-2.540175228255152;0.8811519010791801;-2.7165107304953704;405;1.2566370614359177
447;0.1308562393665354;-1.3484982508300836;0.1992405829562063;-0.7182803529871713;-0.7764248787131174;1.1571692717953996;322;1.2566370614359177
448;0.4704509892754723;0.0517800480115889;0.1738598733662794;2.135447958164873;0.884567374313667;-1.443087007180948;363;1.2566370614359177
449;-2.7744234803147263;0.8955611711311072;-1.4750525745394012;-0.6603845947908412;3.063769369371949;1.3879069633236896;381;1.256637061435917
450;-2.7025087515974007;-0.3201877916527232;-1.972626336605089;0.2418837582293994;2.128851172309563;-1.60174724075486;134;1.2566370614359172
451;-1.2169578319060437;0.9519576327807918;-0.7162652895756182;-3.030642943717662;-1.0489089256525288;0.8698084228901907;112;1.2566370614359172
452;-1.3521791467924809;-0.5219483136150357;0.7392791239840507;-2.282368512237892;-1.8883416871530023;0.4129256297658201;261;1.2566370614359172
453;2.967617721819413;0.144494265239312;1.4738902665637943;-0.3315736305456213;2.9618964356221724;2.083443031822049;423;1.256637061435917
454;-1.110260394106776;1.4439672987682066;-0.0441911323438727;-2.9862900927485323;-1.6818030523094976;2.429066484383501;196;1.2566370614359172
455;-0.2713189043253317;0.0830685410763282;-1.166110192556118;-2.051336751751444;-0.3818892248657889;2.320500125091533;198;1.2566370614359172
456;2.7052616089905204;-1.2114697895070976;-1.4184637999164786;0.629634724442622;0.9615155336083904;-2.471285597696605;280;1.2566370614359172
457;1.6493373158212732;-0.6438485760586368;0.0162272166995972;1.0929067634075946;-3.148167676634051;3.199723434514865;338;1.2566370614359172
458;1.6014870583019762;-0.2334693646883965;1.4352246449997017;-0.948800633734218;-2.5287590425001016;0.1516207725919298;374;1.2566370614359172
459;-2.424889791130905;0.6735930351202217;0.7948899757455922;0.8498606264327644;0.562468111364054;1.6170090457146813;271;1.1561512859098926
460;-2.1793502758960885;1.25205090620496;-0.5565084123389621;-2.400641627376816;0.7474843144865185;-0.1909792643641089;336;1.2566370614359172
461;1.0974140078641763;-0.8154729328073347;-1.764371959703854;1.591945732688077;-2.082570491507717;-0.2868314098285948;218;1.2566370614359172
462;-2.6212930438843336;-0.5096644946074176;1.536831130121655;1.6846029050519924;-1.4131743328227464;-1.4865408611522968;365;1.2566370614359177
463;-1.2509681588501311;1.6337920795364833;-0.1246271396928946;2.5952313620506136;-0.8801193923233304;0.0353293870014009;344;1.2566370614359177
464;0.9069306792419674;0.1028874832051653;2.202656262773475;-0.1609330179930564;1.636708596459182;1.973852486911065;389;1.256637061435917
465;1.2889278300757847;0.7806002707589409;-1.3817300326775392;-0.9039714480724164;1.187942657114116;1.3317305019144543;290;1.2566370614359172
466;-2.0680478981730968;-0.960745876069851;-1.3227869664870335;0.1218359303583545;1.1735624048172828;1.48883839877436;318;1.2566370614359172
467;-0.0266763328199543;-0.6579214159866436;-1.1642305739534118;1.0823014650577285;-1.2098066856668586;-2.0743056766882595;154;0.9173421070744916
468;-2.1400184670837987;0.9023595476239746;-0.1861548820343321;-0.3699691742825138;1.1219349232618807;2.8226647652170107;394;1.2566370614359172
469;1.1145378488969195;0.6695476098243003;2.00729530949128;-0.9081347626148238;2.187255622777272;2.2785372439496427;389;1.0007928114813165
470;0.0114668098744762;-1.1919376485069713;0.818299804372556;0.234950137793675;-0.6988578422924205;-0.938173012191968;21;0.8534647605181791
471;-2.5605191716965896;0.802404888790618;1.7402221868078245;-1.004193901346419;2.478576744634738;1.6297783173251654;242;1.1358105532913756
472;-3.2593694100481474;-0.2136941647176967;-0.156333665103823;1.0228517590101378;2.091728418349138;2.2419548760053063;302;1.2566370614359177
473;1.5610967342349524;0.9349790226761554;-1.878597658756189;-0.93482056905117;-1.0258059137413684;2.0748840535775384;368;1.11709865483733
474;-0.604669813580699;-1.060376805439769;0.9458287117084614;1.1594665912337407;-0.1642659545973505;-0.7787323376263627;470;1.2566370614359172
475;-1.1256488541462266;-0.3901762775392185;1.3134993949460652;0.3593600555613762;-1.7696797395596042;-0.8054038681519113;345;1.141455192894255
476;2.15333124395165;1.5821555860203371;-1.0986963319038638;-0.8341617156248782;-1.082716982591152;-2.4375950978485186;235;1.2566370614359172
477;0.4827283709978642;0.29014832334344;0.935094189110424;1.1088758725752337;0.2021479587415658;2.545280406993222;284;1.2566370614359172
478;-2.340515380790458;-0.9491041599232066;-1.6294412958734965;0.7862760359762007;-1.928651296773543;0.5770032981304004;337;1.2566370614359172
479;2.85941562619658;0.5794181786849805;1.6110009643498433;3.228693044136118;0.6404286134397134;1.346236635405534;72;1.2566370614359177
480;-1.0022641066459017;-0.9167684314592964;0.8950787567246125;2.6730397535278367;1.86965430677652;-1.383364809870296;94;1.256637061435917
481;-1.431657186474157;0.6530889628013945;-2.192098937806907;-2.5673533855917947;-1.6561738985096135;-0.5291027918715145;148;1.256637061435917
482;-1.0839930628522143;-0.2281189385116565;-1.5225978500760458;-0.1356177591979062;2.3041776874216;1.0722643243343832;191;1.2232478879813111
483;0.2540629944868893;-1.4077571130083704;-0.1038387061080908;-0.7952120615390976;-2.406336695613453;-2.949161116456917;327;1.2566370614359172
484;1.9889796498622476;0.0155595365896993;-2.136784212186625;1.3907788160089831;3.195574847767169;-1.3949389518778617;172;1.256637061435917
485;2.0160456526748383;0.1742726471510138;-2.521981392708593;-0.5295999890279455;-1.4378981913539983;2.288232602115411;473;1.2566370614359177
486;-1.9351295183930253;-1.1186487251374502;2.09576843165709;-0.5915281365986699;-2.9555447911822474;-2.2463792133189866;435;1.2566370614359172
487;-0.5439679244282731;-1.02937890444136;0.6747933306677444;2.673287978743309;1.297833708526981;-0.0507278584357093;65;0.8898215642755168
488;1.6028633472140874;-1.4675540448020563;0.6577601633602166;1.4853661118163617;-0.47360673105515;1.5681759637946089;128;1.2566370614359172
489;2.7251956295724056;0.1783096719480294;1.1399024194373877;1.6761320050793915;2.004682997706673;2.6570215821908616;99;1.2566370614359177
490;-0.4190576270230328;1.0763243366496926;-1.793896277711309;-2.00446163611428;-0.1127125521544816;2.639849733260173;455;1.2566370614359177
491;-2.002690837529209;0.0223884601732284;1.667431217424204;-1.5255844772234275;-2.5517777049007453;0.6558104954963362;261;1.2566370614359172
492;-1.431811389528824;1.36935558629088;-0.4140616840611806;-3.200550187566248;-1.0253213476920422;-0.2428468412525409;451;1.2566370614359172
493;2.583385909278882;-0.3116898969426289;-0.8548396719709024;1.157384738221927;0.6998394237035691;-0.0547130609719278;10;1.2566370614359168
494;-1.5221589137607618;0.1799545803714357;-1.2720517968082847;-0.782181373075804;-2.7117348484908765;-2.8928201766692414;324;1.2566370614359172
495;-0.8305923416841348;-1.1138091758030777;-1.375155875790358;1.4098754991721467;2.322439268772317;2.889151085564883;398;1.2566370614359172
496;1.67943836357207;1.1849892670361668;-1.6176531687777465;2.4105161486727167;2.047241182045464;1.704082107872655;82;1.2566370614359177
497;2.565259037154683;0.3095294746358069;-1.2950548477716883;-3.052216008389657;1.4917039182925098;-1.1038226780705984;135;1.2566370614359177
498;1.1300351752646494;0.1560599700525321;-0.3189627214111936;-2.6958085155602527;1.0524638053353033;-1.0939911947424077;62;1.2566370614359177
499;1.029236755873023;0.8829244218752634;1.835413799031229;0.6351636585610797;-2.8442458536499258;-0.8619043376474926;380;1.2566370614359177
500;1.1672897783339775;-1.0844702849715948;-1.0049050511579904;-0.8715610719447116;-0.7844353428815283;0.1089150891012959;322;1.234733413608485
501;2.620992299287781;0.1331426140870295;2.329243034888812;1.6386465079344674;0.718965449359869;-2.252964860439628;240;1.2566370614359177
502;0.106183590628256;-0.1466090973097067;0.9599363489455692;0.5168933111419309;0.7456831848000228;1.910367883537244;477;1.17564788796359
503;2.3711172961000746;-0.8840194957618507;2.4439944628831074;2.8798864143105423;-1.7459846796812593;0.0957170042513709;442;1.256637061435917
504;-2.1988403504940384;-1.395780734144881;0.4674419238197728;2.0633698541171968;2.065175870967677;1.5324219744294691;378;1.2566370614359172
505;2.359505158092277;0.5995969038805893;0.3651438691151552;1.4954635392820586;-2.944460660630293;2.9069279201866816;338;1.2566370614359177
506;2.838788699329561;-0.4609882555561331;0.9726695689042554;0.0917462735482941;2.2081459177645915;0.1125605134341705;406;1.2566370614359172
507;-1.262111364952825;1.221119864651911;-0.308985343621778;2.798951070778812;1.55432730956192;0.0281905042114436;155;1.0640111092971516
508;3.0468069707241594;-1.5150314137879384;1.924083863575658;1.826918159069562;-0.9763819694414186;-1.1006268735548967;442;1.256637061435917
509;0.2583571579709601;-1.5854465931080048;0.6553933792563483;-0.6982804249994284;0.4059848717059136;-1.6019485369213229;21;1.2566370614359172
510;2.064587964819088;1.226885522639462;1.2704160704731031;2.413381757272289;1.2858960221539324;-1.13441854732172;224;1.0645760807205225
511;2.347300206089364;-1.0386288454150896;1.5959489908088211;0.6262940570494581;2.337093215097393;0.672079179815413;506;1.2566370614359172
512;-2.3333358324440474;-0.5108235459314078;-1.1814086102364572;0.7006121392403194;3.123751956912473;-2.13770109288335;134;1.2566370614359172
513;2.358091622959253;-1.6488688781657452;0.7390219602298194;-2.9005199939041746;1.991950270387684;1.564939375542469;178;1.256637061435917
514;0.413531667448982;1.2325845284128327;0.934280086899266;1.2662983739742308;-1.7394029572965637;-0.1743038539200775;380;1.256637061435917
515;0.3843349888283758;-0.8568125290027488;0.7663209875605408;-2.396522368536067;-0.7780590659379718;-2.0087886463668414;98;1.2566370614359172
516;-2.614797815260037;-1.4456690617683223;2.6669349433342715;0.988457445877222;1.4537705937473953;0.0176478510374585;190;1.2566370614359177
517;0.6745334056286464;1.3701766985120472;-1.6223919529666049;-0.0082413605754784;0.6329301505848933;-2.6829151882776574;209;1.2566370614359172
518;-2.186306097060594;1.0135086127074198;-1.1299705884141775;-2.4932193347015565;-0.8577038901190717;2.500026091605452;296;1.256637061435917
519;1.712988334900615;0.7230376586992062;-0.057261288715056;0.3489488142733551;0.6490519874317981;-3.268333877653294;383;1.256637061435917
520;2.605145836986585;0.3359964038583816;-2.1537196503044664;-1.5302107944487235;2.71119377779953;2.3815170221224937;359;1.2566370614359172
521;0.7302827293607191;1.3575975313671875;-2.062777227457711;-1.105030155604246;0.5832841016273854;-3.1030590928690454;517;1.2566370614359172
522;2.700101336752805;0.4155839150190166;2.3262108008347;0.5460665446037175;0.3462296638844375;-1.8524236772832217;501;1.2566370614359177
523;2.979647635062974;0.1303604933479716;1.6875650558357842;0.3923427439206245;1.2570502211354322;-1.454246971544482;522;1.2566370614359177
524;2.8809345073124843;0.1279372549793062;-0.543697599173826;-2.7435817581809294;1.1742578456467905;-2.266533026872344;62;1.2566370614359172
525;-1.265498761807664;0.4165115128344365;1.4264030053720678;1.9004149703981696;1.8362844308178776;2.382285629581746;140;1.219232176724899
526;-0.2410731734604966;0.091321893732315;0.9828440884837288;-2.131583685594421;-1.2666766517314385;-2.4630317805934685;396;1.0084238252039874
527;-0.3750890332010094;-0.770176392931926;2.0498738002856904;-2.7767785713890247;-0.3170204518813346;2.780875396296221;419;1.2566370614359172
528;-1.9068138937511387;-0.1985526879191512;2.681734392713104;-3.419959297496395;0.0826643841664551;-2.4332283907915757;360;1.2566370614359172
529;-1.069257340652591;0.52488781931447;-1.6729735596818824;-1.2337235614084563;3.3786708767623463;1.5844701848100418;381;1.2566370614359172
530;-1.4966963601283036;-0.0261682133138035;-1.7239537330718215;-3.2870307896778264;-1.2397339069506712;0.7966078245504488;112;1.2566370614359172
531;-2.239726700368209;0.0856488668024604;1.3330670318781075;1.1992271836358768;-1.4077758860848126;0.3110243704083928;846;0.9416150467237336
532;1.8499527490401315;-1.2924286148485886;-1.9874525477104683;0.8308376134099393;-0.5836827897275306;-1.4056802314420214;188;1.256637061435917
533;3.014592120039292;-1.1627836261066922;0.7436231968793606;-0.499991390495065;1.8667342832400649;-1.0961512431697695;432;1.2566370614359172
534;1.5187718590163457;1.4807837436116107;-2.121070847502708;2.079671376412009;1.0012662637689616;1.7983023491534085;496;1.256637061435917
535;-3.386525086020517;0.3267288148632297;-0.4336437378861433;0.8774474337408541;2.8634256397466977;-0.2228861521031047;384;1.2566370614359177
536;-3.1039579341473003;0.6610657078551163;1.4008677714336364;-0.9922818314777028;1.4004362515302775;-1.413932914756601;268;1.2566370614359172
537;-2.4286207624940777;-0.2432033874718285;1.6160359953326708;1.3243504291148944;1.4795994034287332;-0.8145283136135846;225;0.9764581599769516
538;0.5410980092002832;0.3202415931712676;1.184597413773914;-0.7691577416128058;2.6788942294909965;2.7149244591120354;469;1.2566370614359172
539;0.5385363004131668;0.6851658693886499;-0.9237001437115148;1.0033012807934043;2.0959045279946884;-2.7965467118441416;307;1.2566370614359177
540;0.181632273549399;1.1923683482268037;1.0664857330738804;-0.824702005009079;-1.2125063749599243;-1.9466670890138469;431;1.256637061435917
541;1.5357450124509302;1.15333504120428;-1.4313754475574765;1.8252625083329064;-0.7695785752364814;-0.799437681530812;313;1.2566370614359177
542;0.593178921174822;0.5550986926111847;-0.1672413371021274;0.2538317805787026;2.742963934659429;0.380731879001765;330;1.2566370614359177
543;-2.858260993554484;1.238026731041053;-1.2138542247418602;1.4986067622138315;1.1987257971371903;0.4796313621740784;67;1.2566370614359172
544;-2.0506908886486888;1.2669653459966668;0.5061593695034837;0.5337921519845656;1.9404556450713244;-0.2982957182430997;37;1.2566370614359172
545;1.3269734240273527;-1.029336901528279;-2.092351964311977;1.8351324722177815;2.77116903536032;-0.7672361905039712;152;1.2566370614359177
546;-2.0437309823802363;-0.3936475728680448;1.4613202621904908;-0.6709132305239582;1.6737566238901442;1.292732217737938;207;1.1639660431379828
547;2.570972961870253;-0.8192896992036824;-1.1722185213054463;3.158911969237236;-0.8947032412179063;-0.0983146975878554;358;1.2566370614359172
548;1.5136633557111523;-0.1831838806456928;1.4052016076033569;-2.5172850742095565;-1.581671075103014;1.227818224257876;246;1.2566370614359177
549;-0.3355167199187589;-0.1025370743799788;-2.2240259937298723;-0.8348403169145664;-0.9185968351912036;-0.4752744893898188;29;1.1026449185921312
550;-1.1853181599424858;-0.5832399690505875;1.564608325119034;-1.2322564765062638;1.4514511842807785;-0.9206816742414788;309;1.2566370614359172
551;-1.284364780332243;-0.2122176225198819;2.116641980788518;-0.8777756116498571;-1.6558203620583145;-3.0328413968830654;126;1.2566370614359172
552;0.619800932786802;0.9961606291182876;-1.9563211139899697;-0.0577636746069204;1.8218043706788585;-2.6374689178806388;307;1.18964183417335
553;0.8084926123350964;-0.9355131654244954;1.2941646877073028;1.159563934873855;2.59768805655668;-1.7070522310530345;199;1.2566370614359177
554;0.176938117851106;0.1633769426770666;1.3475322675900254;2.819593158361302;2.0932662767906622;3.041606385743669;370;1.2566370614359177
555;1.0965194107640024;-1.2431590803548744;-1.5031237316332997;-2.93791106815222;-1.000071347642991;0.9243218197485968;334;1.256637061435917
556;1.13768293702832;0.5313445641143285;1.8975154355728423;0.7460767807434792;-2.2974490987906213;-2.946523976911883;17;1.256637061435917
557;0.8859046367389061;-0.8471260717796513;1.4259716917074132;-1.0681342259205124;1.9949817745376657;1.1580880867940624;243;1.2566370614359172
558;-0.0349894726384753;1.0208238609260487;-1.737584648528819;1.0572194271148303;-1.8096443416511288;1.8265256667801768;362;1.2566370614359172
559;-2.1692340575478344;1.4329990786468418;-0.6357095642276793;-0.6599907599401681;1.5808074554199596;1.928277316531899;468;1.2566370614359172
560;-0.986909062240532;-0.7180666527670226;1.7675272930462371;-0.7571361737041459;-2.753596501557505;2.2016751132300603;400;0.9963884677855646
561;-2.5983884890521995;1.5771497178876073;0.0376880459953548;-0.0620425321437054;1.8629467854089787;2.1786615752041314;559;1.0762222056665982
562;2.0512210518149256;-0.4175693005636207;-2.1123450702835918;1.9041107997956808;-0.6102998659763859;-3.2797761815345843;306;1.2566370614359172
563;-0.8173252498450148;-0.882901850264966;1.9966658192188005;-0.3920362558676367;-2.73463883064065;1.0453682400574746;560;1.2566370614359177
564;-0.2672745510342329;-1.5634753684949154;-1.234814366010311;3.0034271150243903;0.6403127904616314;-2.7180068797203254;315;1.256637061435917
565;3.271904487685936;-0.1778598323831694;-0.8630362138475179;0.135646925386153;3.385235398312989;-1.0661082496590928;823;1.1507527252944865
566;-2.696691363310328;-1.7408349503576397;0.8929130967425931;-2.667434520646867;1.4035135244002417;-1.499918734867684;387;1.256637061435917
567;2.447270248279467;0.3628761105751927;-0.3070591687521244;1.8173099090438825;2.696762357582349;3.3136519844579606;230;0.9180874283802608
568;-1.4743646472856724;1.1098658950502238;-0.6009635167171847;-2.8552538965299163;1.339990384382398;0.5176838261074684;460;1.2566370614359177
569;-0.881393717242728;0.9173114241017868;-2.335713825539448;1.6486496009509306;-0.8761321194566114;-2.4985809964946086;434;1.2566370614359172
570;2.479466104939472;0.9118791147677076;-0.9984524340629366;0.8386132827229127;-2.698335371153433;2.4648993822633947;338;1.256637061435917
571;-2.0081174771709867;-0.437329433007702;-0.3575959126020676;-0.8759227083247093;2.500126253888726;-0.899106002296639;93;1.2566370614359172
572;-0.1620289869774155;-0.5604791995338764;0.28906236538371;0.2779659701789049;1.4048775198782204;0.4794301718456512;330;1.2566370614359172
573;0.6380501061282731;-0.2366193699779729;-1.2297324383994486;0.8574308677421072;-1.8218746826689476;0.0869817165363275;461;1.2566370614359172
574;0.2584152401271296;1.0547735102702391;1.839790892716664;2.3632575304698014;-0.1857674373290572;2.565396689550563;388;1.2566370614359172
575;-0.6502301638303517;-1.7410533831438786;-0.8960133580632414;-0.0022388553720546;-2.174712477397915;-0.9133639125335044;274;1.2566370614359172
576;-1.6390470896180815;0.2115195292711397;-2.5460491373195757;1.8050285508714452;-0.5666103870224144;-3.0837791257508145;569;1.256637061435917
577;-0.1920593711893566;-1.5699955060962023;-0.5893711128424021;-1.9028342214379088;-0.3180682912430983;0.0912005964926627;322;1.2566370614359177
578;0.0340921226347514;0.6354868688093405;-2.712253556334716;0.4597941777038078;0.4017167495005774;3.125534995823668;234;1.2566370614359172
579;-0.7442608695791266;-0.593264233381055;-1.6309520172572118;-0.453172221374814;0.638835908540028;1.602716157140499;350;1.2566370614359177
580;1.4486308454883163;-0.3606693408536932;-1.5446027622459568;-2.718827538173728;-0.2543172731927073;-0.6153356391330039;192;1.2566370614359177
581;-2.1057317280756407;1.3743212753391885;-0.6839840918038534;2.761382732794868;-1.1867078464155898;-0.55348967570856;463;1.2566370614359172
582;2.5667237506596474;-0.2463016969160044;1.7667053042234566;0.048500554542898;0.7266562674535106;2.570253091852021;227;1.256637061435917
583;2.1308061285379654;0.8298451885846603;1.5215964060481553;1.3274479328002968;0.4270868784392041;0.8179342552817022;72;1.2566370614359172
584;-1.8051144459830823;-0.2339032952740663;2.062456638899616;0.4942859631324271;2.3591230919654147;2.845346339667185;207;1.256637061435917
585;-0.7797205073470465;0.7837725048263956;1.0004006246405446;-1.8373871326279885;-2.165839348809599;-3.013873298558189;396;1.256637061435917
586;-0.1295047546322879;0.7834301856796471;0.9180426044949794;-2.669352371381496;-1.7536852449804288;1.988236038614963;196;1.2566370614359172
587;-0.8856956329165624;-1.195341303088249;1.855318092617824;2.5303894621341634;1.7442419492418757;-2.111244403653068;480;1.2566370614359172
588;-2.3766604467638563;-0.3427158742620512;-1.7024437778792392;-1.0604225763448825;-2.534898715371807;-2.361921893022016;494;1.2566370614359172
589;0.3579452234019548;-1.6869591574939533;1.717621054061223;0.7564875309069119;-1.059020194388988;0.967726054559406;160;1.2566370614359172
590;-1.8013508768454165;0.2113517655547817;0.9217029451295476;-3.2492345998659;0.994351581887822;-1.8988370898165523;360;1.2566370614359172
591;-1.2731189865294792;-0.0422719236698787;-0.5606860352271597;-1.4393530251085542;-1.4345813040107736;1.0915369800532395;144;1.2063156096021008
592;-1.396302466875004;-1.157549314686737;1.757807765775738;-1.6430372076943351;0.5501376172501458;-1.8709071349327664;387;1.2566370614359172
593;0.3704715001625311;1.4094240619352354;0.8861683327145717;-2.100859846425956;-2.164113197458465;2.6550503241540246;586;1.256637061435917
594;0.0157201812041633;1.2140482684468858;0.4299120258601221;1.3932471688785188;0.5957821709619833;2.417120346834438;477;1.2566370614359172
595;-0.4928381748458569;-0.4438827367277891;-1.362495639519166;2.9975074344468524;1.188474703616843;2.518714433207004;44;1.2566370614359177
596;1.5922742523499198;-0.1753593632536738;-0.9168874046714044;3.124146794925803;-1.0541041755240903;-0.4371775138965603;547;1.256637061435917
597;-2.4381255154592867;-0.9594451622547;-0.3711602532939272;1.569046694642904;-1.987173668747644;-0.6532681105794864;424;1.2566370614359172
598;0.7762144572511939;-0.691478618497537;0.2609769983823296;1.6113832393054646;0.6296444396285581;-2.208588826141629;448;1.2566370614359172
599;-3.142722594895744;-1.2697256742788643;0.1928686186765151;-2.272491876589694;-1.5748613576640564;-0.4498646401157267;429;1.2566370614359172
600;-0.9230259189695744;1.6041216161631893;-1.2004056302896788;-0.7781312033771965;-2.5535726640570013;0.8763077572380238;129;1.2566370614359177
601;-1.9868878552211415;1.6479191988355837;-0.8340952474914991;-1.5647254595204163;1.3602787197943016;2.698446927347673;789;1.1942735428436957
602;-1.2809298789714445;-0.8516725689992096;1.328884355216568;-1.812183580172416;-0.7705236896943969;0.0614597517595802;342;1.2566370614359172
603;-3.11099936648439;-1.641161800438518;0.8069367357359609;-2.586281683695677;1.1471577113895124;-2.647897317160865;566;1.2566370614359172
604;2.514200316472846;-1.220409623702429;1.3557730261929275;-3.0192918236241413;1.1384254351885426;-2.2657228925813264;446;1.2566370614359172
605;1.995061807744597;1.455158942300692;-2.2262271642449702;-1.832498541489252;0.5269527968607994;-0.5516928604961614;305;1.2566370614359172
606;-3.142545272319316;-0.5593322295965137;-0.3160372232347228;1.000189816132037;-3.483648478841407;-2.5804938832272564;176;1.1959023825341026
607;2.625882172221109;1.3931554120078358;-1.0705903773369885;0.9923134257379324;-2.7153552786160424;-1.949366344619051;156;1.2566370614359172
608;-1.719912161352119;1.258809164169555;0.3726466961783214;1.0980997115718227;2.7645078042927698;1.3669885266842243;86;1.2566370614359172
609;-0.1007251917533729;-1.04601468227547;0.4707082693553237;0.4493686738294949;-1.557814988927065;-0.3622153897213467;3;1.2574590855759311
610;0.2945209248912288;-0.9088546573807575;2.028699238520125;-1.316960788204707;2.80943550269603;0.7878698239285531;557;1.256637061435917
611;2.870596049242122;-0.8803222816677297;0.0179608208937339;-2.466020254740132;-1.075966007530905;0.4781529160735907;334;1.256637061435917
612;2.2794850036712107;1.540403075697284;-0.9095472947902572;-1.9929758388486696;-2.2939854515810563;1.7931144393153304;297;1.2566370614359172
613;-2.020185615475522;0.2504848915242199;0.1952973415366944;-0.9033387999836302;-2.026250852974223;-1.6072326885638708;169;1.2566370614359172
614;0.2848941834020443;0.2989695981627104;1.3421201105964704;-0.1212741413043826;-2.788082393876387;1.7591865589149998;78;1.256637061435917
615;2.7470389611716928;0.0511435219853769;0.8685763699012927;2.9017624967966764;0.8184284892801257;-2.9145091574362003;240;1.256637061435917
616;-0.109031867509818;0.7997147024686839;0.8021232335692516;0.9875819651660293;-2.4917531220337388;0.5020900617028077;514;1.256637061435917
617;2.258884620482684;-0.5787070521175288;1.7527209344493606;2.4487579159339816;1.683396163716862;-2.4608725912625418;240;0.8851849193992065
618;-1.639099344765902;0.61089916486848;-0.8657334786155052;-0.2089433392673287;-0.4290271372982774;-1.9299725863229409;197;1.2566370614359172
619;2.342668885110214;-1.3278393436262297;-0.269645136117322;-2.7017074833897845;-1.3502051239198132;2.143717110886194;70;1.256637061435917
620;-0.7693847715043758;0.9720156346664168;0.3627028189927406;1.4178100818476236;-2.915067339719517;3.3426118437274384;171;1.2060234002191168
621;0.768479164165961;-0.4509409744279553;-1.2685602842419983;2.704559452449883;0.5567150264201777;-3.126875691936776;315;0.6814368284290918
622;0.3319360179425631;-0.5301315914949833;-1.017413006861471;-0.1449579304945462;-2.295615098673577;-1.5574823524724657;12;1.109995233243107
623;1.5634715126252972;-0.3100540659766416;-0.4249296473339852;0.2802580092645024;2.392011006809509;-2.7649644240079105;280;1.2566370614359172
624;1.7240708127693958;-0.8383487572076501;-1.5718316826997354;-1.815372605352198;-1.5136317287085028;0.3731402036453644;334;1.1590809287717578
625;0.2673390497793886;-0.6326937172080058;1.4688805149230335;-2.349097406967614;-1.0250556485180549;-3.1372207559883045;526;1.2566370614359172
626;2.802637512036774;1.0931931812406277;0.9154151370559832;1.8074316869848577;2.7689604714863263;-2.3577145619954027;224;1.256637061435917
627;-2.938530355003749;-0.6577989151754007;1.9738865506293557;1.2581666996602845;-1.439078547378923;0.6617267700988457;531;1.2566370614359172
628;-2.1793528450697828;0.3251172388960551;0.6368762107867121;-3.212946547015627;0.0609533491688631;-0.1709878953378899;245;1.1514049147720795
629;1.147055136735822;0.2525519187812822;-1.4893582192902963;0.9567782346314988;0.2011895958178648;0.9897312115283668;10;1.2566370614359177
630;2.780459651791796;0.9723468614418896;2.1314922641737994;0.6321696983820383;-0.0789471903751382;-0.8350403751329516;522;1.2560317033449364
631;-0.7488170506935008;-1.7850992814731477;1.861258727577928;-2.731209290337931;0.4868567773448565;-1.7630040919367471;387;1.1855935370290784
632;2.743467159585098;-1.2540394218027875;2.327623554288662;1.736183387104349;1.549262430666683;-2.282056155637051;617;1.2566370614359172
633;-1.419706880849957;-0.2155652034382305;-2.575048602539705;2.391674841044777;0.5616188488861664;-1.815141748754479;434;1.2566370614359172
634;0.0613092576938948;0.2336620360977697;-1.4007227398325497;0.4440075141974487;-1.8092497879463627;1.811245889701616;362;1.01084836272288
635;-2.097924350476127;0.1690116214153214;-1.6123873084895672;1.086696859560766;3.2255268355260025;0.7273851490292698;254;1.2566370614359172
636;-0.1757865807452612;-0.7399107541530866;2.541718519859722;0.8624936833226626;2.464171448313872;-0.8009851786884937;415;1.2566370614359172
637;-2.614342537804617;-1.6233803876059674;0.0932672946944937;-1.8658183155683872;-1.482540754219292;0.5456516381997356;599;1.256637061435917
638;1.2919629194480613;-1.3773767662171916;1.475601875874864;-1.497786365004304;0.6435357572549387;0.1974350064753505;243;1.256637061435917
639;2.2636904451196656;1.2463750229439072;1.229691449213852;-2.1247809165569618;-1.3106002265159558;-2.290475336607668;164;1.2566370614359168
640;0.0661506123224461;0.4906311557690582;-2.124738033278104;-1.5574979468408512;-1.639283525859479;-0.3549829525360195;549;1.2566370614359172
641;0.2224737705613093;-1.5424094821143597;-1.8521643380455528;2.6230728637422303;-0.2551524401444046;-2.8237953026928118;564;1.2566370614359177
642;1.801699368389992;-0.8119897415254682;2.5667937371725573;-0.4985530150058372;-0.8543873124015168;-1.44440918131889;206;1.2566370614359172
643;2.303788523577666;0.0647799695988111;-1.7146671646710516;1.392363611679854;1.0107595895978154;-0.6899299970473903;493;1.230688649543851
644;-2.2630774283214152;1.5248577325422752;0.0599692049716659;-3.087995218408077;1.8159784943287065;0.7770780467471078;568;1.2566370614359172
645;-0.0610449430675488;-0.9044182401148432;-0.4550707755350988;-1.0628889517518367;-2.813946606470237;-2.67715283776444;327;0.7859874631734365
646;0.7864110609888113;-0.8277938497652461;-1.1786661377883785;-2.806933463295877;-1.8407998509520431;-2.551417352790437;263;1.2566370614359172
647;0.0026919117512937;-0.8246536854577822;2.082131205863571;1.487445067984228;-3.0012940002815838;0.354603852712378;425;1.256637061435917
648;1.3123128900476797;-1.0266638556943932;1.6322310098670392;1.2062789485887413;2.7451295664618005;0.6120602205395415;511;1.256637061435917
649;-0.3341443798929124;-1.1556812388309678;-1.4097944410226635;-0.0463999319169591;0.3600101813120015;3.31567209173725;433;1.256637061435917
650;-2.276645169884205;1.5117969369284476;1.3994700399375903;1.6250816404810846;-0.824239648445464;-2.032060118200794;372;1.256637061435917
651;-1.8901895964759896;0.4877171462304198;-2.723806121612492;2.921813756352984;0.1224920064098147;-1.209197690009867;633;1.2566370614359172
652;2.8336979186686047;0.7837206181794862;1.4309237667561956;-2.0066869889368;-1.9259172813953789;-3.069656564971793;639;1.256637061435917
653;-1.7624644842123998;1.2554191504288872;-1.0672124383598955;1.2309372677619277;-1.902112124900941;-1.6931725250999927;102;1.2566370614359172
654;0.397983009405023;0.4076134231425594;-0.3361929566836922;-3.3134483976971287;0.4898953386757863;-1.2476438182486087;498;1.1493684468893637
655;1.2800551425709028;0.3585399568451771;0.055551259045127;2.1083883132609422;1.4626933241215114;-0.7649622841363706;448;1.2483478814622266
656;0.9606806080728648;-0.6321202999656461;-0.3301872904657967;2.395337281643654;-0.9323812788003696;2.7567181261888583;356;1.2566370614359172
657;-1.8558858330269357;-0.1246874168217968;-0.2272624873376237;1.5090677457971295;-0.8334767059603645;-2.756113328423979;197;1.1406129100167173
658;-2.6501801108646896;-0.7624963106769739;0.0221218279387389;-1.285201067983816;2.891807577047376;-0.1270631387343583;571;1.2566370614359172
659;-3.331515528111035;1.5871873815754656;-0.9427112561835452;1.881599772203559;1.8993207261676772;-0.2430153565837849;543;1.2566370614359172
660;1.032281881524378;-0.0071328278207201;-1.5640093171663516;2.9423478049403973;1.394798618425876;-1.1545261866717889;402;0.7784779794160032
661;-0.8578436488119594;1.0432151143417103;1.2069747822138823;-2.890510217800436;-0.8889732170410438;1.6703501115556114;586;1.2566370614359172
662;-0.5432472837839907;0.95854718904611;-1.9433429098861816;-0.1945238402654809;-2.566836267434799;0.5221760407591101;600;1.256637061435917
663;2.4359144170260105;0.7363212374756278;0.0860834472727935;-0.5412457999066109;-2.681685451698317;-2.277434906810093;139;1.256637061435917
664;0.3914703938083205;1.0245923575383191;0.4001492117934473;-0.2291038178398135;0.2875340337472484;1.0132137342913503;14;1.131944648175237
665;1.4417999010935214;0.293322793411889;2.085519504313082;-2.884374932714253;-1.0210191345991206;0.5682761600557713;548;1.256637061435917
666;0.7391490533608525;-0.11520734686606;-0.292104717824657;0.2046205885198029;-1.401457058546132;2.5600738713852933;217;1.2566370614359177
667;-2.067124717580296;0.2136009788216394;-1.394872130615336;-1.5298189489958331;-2.578388623184756;-3.433184685668542;494;1.0871713780149077
668;1.4915432743870989;-0.8462717033854705;-0.4455471092148787;-0.0515103136619048;-2.0995908582854543;0.4760349917317596;41;1.2566370614359172
669;0.1957413093449334;-0.4021412305179403;-1.868481621206624;-2.0011888259459467;-0.4404087536049783;1.5291102306406263;455;1.2566370614359172
670;2.8865974389240523;0.9751445996190032;2.1194791595935087;-0.4502509157141973;0.5452683997376785;-0.7547917394059955;630;1.2566370614359177
671;-2.167059743073793;1.706890266412077;0.3325070433643316;-3.354866629620735;-1.3557731863269709;2.524657805408705;454;1.2566370614359177
672;-0.7307320345302853;-1.1252118222672405;0.9732758086036816;1.5706190168660623;2.6603334783934875;2.824204648582584;370;1.2566370614359172
673;0.9409672248680444;0.1876852388255639;-2.1213629183513247;2.6791539432472145;2.1937873336192704;-1.5993065531164676;402;1.139820597795177
674;2.640555396986466;0.6330541523673876;-0.8787520274696624;-1.705917186602005;-2.041993280752574;-1.794359611422905;139;0.987410385900506
675;2.105887825803317;0.5503051653864183;1.863468629414982;-2.678122976483153;-2.2555776928035;1.2085030208967396;548;1.2566370614359177
676;-2.2683526668476786;-0.5211427829629562;0.6793561726584318;-0.1534410216091425;-2.8559630663585933;-0.9689298406852636;755;1.1754714736678975
677;1.246972903526055;1.0385430966400369;-2.0084559522555008;2.4081484154206945;-0.0143620577941909;-0.3101113027785547;541;1.2566370614359177
678;-2.7117781800685896;0.6273081509941614;-1.599140862989729;1.6326527222777916;-1.068256851371301;1.2456524494904135;337;1.256637061435917
679;0.7006275841413049;0.2978887075746586;-2.659866340471729;0.8861557279772218;-2.787591352713777;0.0619934967931055;266;1.2566370614359172
680;-0.5644449811246571;0.3766006667109596;-2.614293105497121;2.4027473635434786;-1.2107703630541644;-1.6900778634605624;434;1.0370283300431546
681;-0.5353893539655998;0.2792403210925768;0.8232072290289789;-0.3416550006363394;-2.050744969419932;-1.5022516950942115;13;1.256637061435917
682;1.1884804712389916;0.3526279498641903;2.356559035885466;-0.1226665725481959;1.0506390524321674;1.6551853894213904;389;1.245613778995589
683;1.519550993775749;0.6754662452644979;-1.0797407383550042;2.0064259323283395;1.8630778154239065;3.2569550810955783;32;1.2566370614359172
684;-1.6369059389562803;1.7120196096099074;-1.585057693943716;-0.8938556824337288;1.448541469928311;1.4338462724561607;559;1.256637061435917
685;1.3446810672283922;-1.4322054519677938;1.484943305099213;-1.1956816369080754;-0.8466770686987857;2.521509897384412;262;1.2566370614359172
686;1.352511996544412;-0.5922629356216348;1.5548648137702563;0.3349475513045827;2.220420231743499;-2.231524485895674;553;1.2566370614359177
687;-3.130814172572866;-0.7577970856272752;0.297708784743997;-0.4905125577817631;1.925488188225687;1.5014781409811482;302;1.2566370614359172
688;1.080623282097512;1.6561660893647028;-1.6268325065210836;-1.9185110882471603;0.0253658460184303;2.443414430115588;238;1.2566370614359172
689;-1.784365543301674;-0.2782710358540127;1.790431710992912;-0.4462908128425146;-0.1807727298567497;0.2624866214119994;342;1.2566370614359172
690;3.377025028142304;0.525467731092341;-1.4739170547024747;1.3518509389340707;3.329569082985476;-0.2761120553014849;172;1.256637061435917
691;-2.9388977395238824;-0.3886277468524082;2.068135833098097;1.8629021587085703;1.863983730460291;1.751406238668549;96;1.256637061435917
692;-2.80555858013252;1.417651906702247;-0.7477693710752829;-1.008837450171323;2.918590860242028;-1.4518326644357968;252;1.2566370614359172
693;1.2770919024127965;-0.1937532126165344;1.8275121707110091;-0.0177058146195409;-0.1878657262090096;-1.8975557410653243;175;1.1463348214238602
694;0.7573755894690717;-0.9639173158793696;-1.3524111361343796;0.7330919293255044;1.1992846720390506;1.060868334433663;10;1.2486359179308952
695;-3.1084597587765628;-0.9160950389880604;-0.8877610945487515;1.1755962482720268;2.347343589134517;2.9047820888381013;472;1.2566370614359172
696;-1.6437138739930526;1.3242560013753484;1.298973521124472;2.820083205824461;2.012027920735456;0.730762425103808;155;1.164327833531095
697;-1.5092334564178569;0.6082402817896205;-0.7713800640051887;-1.7330270267035888;-0.932689476346344;0.244371864990098;591;1.2566370614359172
698;3.253049192264283;1.0172861758755734;1.9731553215809792;-1.266747490374772;-2.183001269118835;-2.405494953282005;652;1.256637061435917
699;-1.3153026996107129;-0.5519210783710917;-1.010405364682688;-2.5575865782533858;1.100372598518683;-2.9966906810346634;303;1.2566370614359172
700;1.850473262697156;-1.2775242179855342;-1.408716587235955;0.0588263942343243;2.080074322063748;-0.4729022131928603;152;1.256637061435917
701;-2.2331614219414324;0.7666917650404805;-0.6121814723304357;-1.7413907392984291;-3.079859794171263;-2.8528240436276286;667;1.2566370614359172
702;1.375626483356835;1.2386323054704222;-2.3043588631332987;0.2237324371547963;-0.0721668004115148;-2.4500013555088045;517;1.2566370614359177
703;0.5117955449035323;0.2795467885453394;-1.1087212006369822;-2.7358774772227354;1.6913254883285602;-1.478957741456608;498;1.2566370614359177
704;3.146363774363964;1.50651800671213;1.0731615536489791;2.1342996527835005;-0.7105932637002141;-1.989026647137678;443;1.256637061435917
705;1.9488572809621172;-0.2970705437736564;1.2634064534773688;2.56591733264626;-0.1517720535981435;-1.279793565613602;260;1.2566370614359172
706;-1.5400477578584006;1.3756624639384074;1.0581331298622587;0.2834024360408307;-0.7084461423370563;-2.4547544145929523;385;1.2566370614359172
707;-2.780669849016689;0.6549455335758789;0.3453272277918622;1.6848624218923645;-0.62374993244722;0.0695149549845842;430;1.2566370614359172
