Komment314/test_diploma/benchmarking/path_finding_for_benckmarking/pre_rrt_star_results/9_4_tree.csv
id;joint_1;joint_2;joint_3;joint_4;joint_5;joint_6;parent_id;cost
0;0.0;0.0;0.0;0.0;0.0;0.0;-1;0.0
1;0.9513537162482684;0.293391067178722;0.0624830462230771;0.559615787028971;0.2696152477007122;0.4452169701443908;0;1.2566370614359172
2;0.310804708934846;0.0800019308442101;-0.1196687066654461;1.142914067721052;0.7274056702841778;1.1802751539303074;1;1.256637061435917
3;-0.8056187355760243;-0.3245102298741598;0.3772419798873928;-0.824443473662056;-0.0419475053003533;0.0320955123960366;0;1.2566370614359172
4;1.7350044157152484;-0.1128222864116657;0.6542761187094995;1.1207244495364794;-0.0938958828373715;0.4982894013596738;1;1.2566370614359172
5;-0.4057877100326347;0.3944922731193255;-0.5413508523220919;-0.1329532783037404;-0.5415028873996709;-0.8092503867321701;0;1.2566370614359172
6;0.2009775655055199;-0.1237094149020806;-0.7033243063798479;0.9523963878368776;-0.2092228289573865;1.7011903095331709;2;1.256637061435917
7;-0.5379844560406619;0.4433567026731998;-0.692019536578273;-0.4587804457941083;-1.2853933443587875;0.1272513936176754;5;1.256637061435917
8;0.0770679989804004;-0.1506329377479925;-0.9053025141194156;0.1164492942518865;0.1523020647274726;-1.419822090962011;5;1.2566370614359172
9;-0.6438224528924138;0.1743254050855537;-0.3475968904461965;0.939511309253206;1.4593569170064422;1.3530472627638015;2;1.2566370614359172
10;-1.0413126087641889;0.3020434452902419;-0.0459480080174409;0.6212223567156758;-0.9686584714514058;-1.2215988581867367;5;1.256637061435917
11;-1.0621498263677518;0.1842956490119606;-0.4598456996383356;-0.965815575127568;-1.775717876615695;0.9554224383478817;7;1.2566370614359172
12;-0.8196165695812881;-0.49281605485856;-0.7337782699783232;1.6855067192676254;1.1384206263988592;0.8103594216924933;9;1.2566370614359172
13;0.1189005208296977;0.7667279988938024;-0.025105127306714;-1.2251753639610603;-1.3818919046183602;0.086979019729368;7;1.2566370614359172
14;1.5087978378137596;-0.4221941483676139;1.1023498270253038;1.8286608995407;-0.1842463470547346;1.348082945466452;4;1.2566370614359172
15;-1.589869786129837;-0.143448769071342;-0.0238843971360375;-1.8873333741443457;-1.7083456984230132;0.5688533978394794;11;1.2566370614359172
16;0.1641281685417533;0.3799320639555127;-0.430293444994386;0.3347040210698701;2.148710255398335;1.1626797282393946;9;1.2566370614359177
17;1.234013014140562;-0.1167458029539092;1.5458578885782412;1.0936932770865566;-0.4341227793086051;2.129758245717749;14;1.2566370614359172
18;-1.8728489871822929;-0.6632479001405611;0.8502196709532723;-1.8646915390195224;-2.1419617346703963;0.0432348119364456;15;1.2566370614359172
19;-2.149823210632148;-1.2469149145206282;1.001415876621928;-2.215050306507385;-1.5856003299054628;0.8838329494356211;18;1.2566370614359172
20;0.1625238819331607;-0.2316019236673993;-0.512552037045669;1.073225044733777;0.8537231779565808;-1.4799358791211572;8;1.2566370614359172
21;-1.4138300038128016;0.374939451437236;0.7045365946732772;0.9699190499805964;-1.5933017441896404;-0.6215505885438343;10;1.2566370614359172
22;2.107181065210124;0.0995699019685425;1.250539960161006;0.8308142006362516;-0.1335346535597349;-0.4786246434138944;4;1.256637061435917
23;0.7085648207594754;1.1082539638226914;0.6358622695249694;-1.9956136870087;-1.0944944110374104;0.0452381017892008;13;1.2566370614359172
24;0.8781834859475761;-0.4694454700889078;-1.2487604846657376;1.5656125287077156;-0.2215173538395081;2.2733000981984754;6;1.2566370614359172
25;1.5826767058370244;-0.5373777013141928;-1.684716521099045;1.3467891521114137;0.6506002215161358;2.555578007665364;24;1.2566370614359172
26;1.0471455952154871;0.521101621237262;-0.7442650213785305;-1.5156660607230874;-1.165992276533923;-0.0077681232274053;13;1.256637061435917
27;-0.4312307082498298;-0.5820573081952092;-1.6068201854919444;-0.6712087636987065;0.2664598660185375;-1.5150999891785168;8;1.2566370614359172
28;-0.8347019960147382;-0.3587049307702497;-1.54183735791625;-0.1253263996742341;-1.1804301035929914;0.1855036858872126;7;1.256637061435917
29;-1.3209110051962654;-0.2373097130481854;0.4270593821433447;0.7079942911957915;1.3883437319139988;1.8938882590491275;9;1.2566370614359177
30;0.1054509869009895;0.2870381057395076;-0.9132333213680818;0.4178055552171476;-1.7739857471956082;0.4181653660109975;7;1.2566370614359172
31;0.7909899823587676;0.0868320646189691;-0.7266103893311268;-0.452373755933983;0.8787434373493037;-1.7801759070004388;8;1.2566370614359172
32;0.3770215220201596;-0.7202401462888071;-1.918769829617956;1.720733160279015;-0.3406213798422235;1.3913053596631122;24;1.2566370614359177
33;0.9787532871493636;0.126908952146468;-1.425357654123001;0.5639850468830075;-0.2444247309502148;-1.6666683906949122;8;1.256637061435917
34;-1.998379185338357;0.4762703923027177;1.3824555225577326;1.8346232005912764;-1.7336962722249285;-0.6347048504319429;21;1.2566370614359172
35;-2.038362973058053;-0.6901082340246123;1.356309134730454;-1.8154505376228407;-1.676795181541126;1.8650230121966096;19;1.2566370614359172
36;0.2133295185445647;-0.2283089358918338;-1.3320437163281924;1.7893646620293695;1.21342840429364;-0.967359802849004;20;1.256637061435917
37;1.902899522706735;0.161787440086326;-0.9772467672277872;-1.7799851080389937;-1.6838219730742203;0.5626901063472585;26;1.256637061435917
38;-2.6158608933926475;-0.4040143689202237;0.8861634079414824;1.5508241836956314;-1.937584412360344;-0.8682292920697142;34;1.256637061435917
39;1.6487950826190467;0.9433756024783034;-1.2936473536501067;-1.966186560842372;-0.5306614958456972;-0.3688836370431005;26;1.256637061435917
40;-1.4954684624095114;-0.0692184890147142;1.368932507294876;-2.081289360906133;-2.279923689971368;-0.8221197849034592;18;1.2566370614359172
41;1.2612670697067954;-0.3982714889025028;-0.025262215574129;-1.234467964077487;0.9456809357303626;-1.6593062759213797;31;1.2566370614359172
42;2.2291575864742863;0.7152793474482398;-0.608317666667527;-1.411221849485461;-2.3196235264958425;-0.1373102158335553;37;1.256637061435917
43;-2.166884650788578;-0.5762586240648819;0.2124307614165759;1.3603396877994922;1.0550422920433642;2.3011585866365807;29;1.256637061435917
44;1.322503950060701;0.4768840298567932;-1.3292485206670683;0.7503835783232847;-1.339720462929867;-1.9746221410445064;33;1.256637061435917
45;2.2245445815326743;-0.4260598691267894;0.737120272500195;0.3320894471701126;0.0480704433556542;1.2679689375648973;4;1.2566370614359172
46;-1.0300203748407573;-0.3395816874767322;1.4175249730018438;-1.4741420828454317;0.1103516308688861;-0.0004843006706557;3;1.2566370614359172
47;1.7620528505551154;-0.0393583319121484;0.2622033481483286;2.4874982954371867;-0.1921005459796838;0.8701071807118479;14;1.2566370614359172
48;-1.269932226378402;0.1393741762010127;-1.4073218473120246;-1.2038238189719022;0.4447090356295919;-1.5137105728481106;27;1.2566370614359172
49;-0.996032178591156;0.298967244195553;-0.1822944221670982;2.358176544353711;0.7810553149135381;0.6186191009982241;12;1.2566370614359172
50;-0.049949649447524;0.1418561016585513;0.2047559172480761;1.2235487688440965;0.4535252772838378;-2.314941581455109;20;1.2566370614359177
51;-2.2340920801420383;0.4172607089294366;-1.6499648915378966;-1.720331405358119;0.2843970028630722;-1.0436511362472591;48;1.256637061435917
52;1.3001086518573957;-0.5717728803605231;-0.8063101350187938;-1.5280438080945888;-0.6084939592677934;0.0694623202186808;26;1.256637061435917
53;1.8742170074125668;0.2859219485474961;-1.9997190257297808;0.3879154611873369;-2.1370212845656718;-2.121864987198479;44;1.2566370614359172
54;0.9644343383944124;0.0400634403416374;-1.2992469488245986;2.3937455293880223;-0.9161263822309672;1.8974499783150125;24;1.2566370614359177
55;1.9153061472523456;-0.4842466011563722;-1.152641475042457;-1.2887893066363807;0.3846608730611643;-0.102186337666528;52;1.2566370614359172
56;-0.654825841145151;-0.5693215209314244;0.8116289742037488;1.0633906398790256;2.137513696168611;2.3295250879505254;29;1.256637061435917
57;0.1727631424430682;-0.0705518947849365;1.6459707225339382;1.5839032537167947;-0.881067952377354;2.1555099137125078;17;1.2566370614359172
58;2.089571763755985;0.1221847883451345;-1.5442893210141753;1.9111417868541;1.2601600913402025;2.134395746759942;25;1.256637061435917
59;-1.792915741035997;-0.0108880521656085;1.5785991251472788;-2.194398508223587;0.6577388059181071;0.2110362381000046;46;1.2566370614359172
60;-2.5921201272209027;-1.0641535839939908;0.511662741457904;-1.4308548988037988;-2.6267595744969747;-0.5594229628680882;18;1.2566370614359172
61;-0.1638650507431386;-0.4828518582739985;0.3247535323487928;1.7213806014381756;0.4824504463912981;1.8472708185513536;2;1.2566370614359172
62;-2.2488536726524484;0.6438877565373728;1.2686856382365803;-1.988753152406897;-2.211548421391458;-1.5147519742531377;40;1.2566370614359172
63;2.643539524201488;0.2165630394367885;1.947076611381924;-0.0324361620421156;-0.2599354171405744;-0.3013472753269389;22;1.2566370614359172
64;-0.1492150659612167;-0.7716474480947749;1.3901363300870018;1.283211208811926;-1.7259866306035123;2.4934111530902787;57;1.2566370614359172
65;2.6106101693746737;-0.2897289373084236;0.5796871152822206;0.0924574419832361;0.7171102806575155;0.3289902677913806;45;1.2566370614359177
66;2.00684501921315;0.1192488875146713;1.5115274821353446;1.7628945783364227;-0.6513068087716036;-1.0817049015413849;22;1.256637061435917
67;2.517536364006705;0.5415912955897594;0.2844061523329859;-1.5282652750465484;-2.6365287537815334;-0.8821074647046051;42;1.2566370614359172
68;-0.5129793221193387;-0.6066919774778147;1.58288832554648;-2.147415866872133;0.8272561331765449;-0.4963296948200159;46;1.2566370614359172
69;2.128709589115428;-0.2411272620756099;0.4084269579072013;1.6363303918797083;-0.8435182800040447;1.805140330730012;358;0.9934960947278004
70;0.1631528951989174;-0.038563101813462;-0.4603883957497809;0.9181068480468492;-2.6893358963921514;-0.0020194048858947;30;1.2566370614359172
71;1.829170301600906;-0.0434724889344878;2.132756296626403;1.193101738346159;0.4959328003529443;2.114913583016746;17;1.256637061435917
72;-0.1615545958668183;0.3684520197042774;1.4411479926458828;-1.7647346140112352;1.4033549127814755;-0.5757430664152321;68;1.256637061435917
73;1.8407396048684448;0.4660634269944829;-1.4079819722975433;1.7674654737096869;-1.1132858844181417;-1.5071563474940477;44;1.2566370614359177
74;0.0851513628704829;-0.8091605319634398;0.1738917177923541;1.5422829794553787;0.1242715399853529;-1.3524361354704142;20;1.256637061435917
75;2.1443360201203503;-0.67388577745411;-0.5717197195875432;-1.6000087150738471;0.0861102306267706;0.6291972750226796;52;1.2566370614359172
76;1.7748295966119356;0.1628283841211684;0.6983009552430554;-1.712291094407986;0.5765071007519624;-1.9945811499447896;41;1.2566370614359172
77;-2.3525695836713867;-0.5655719796612093;-1.5644630837352906;-2.2366312298562243;0.440264947095182;-0.4950448952911415;51;1.256637061435917
78;-2.0891766632585096;0.2641918667130429;-0.3883477226928819;-1.2427651874724204;-2.4785889588329617;0.7174539211601627;15;1.2566370614359172
79;0.3162843183446113;0.4059734835619354;-1.9078631438191067;0.6664601024980842;-1.148244525182835;-1.7134834715347915;33;1.2566370614359177
80;1.2883473532915164;-0.111929123235696;1.9346842783233824;0.3269301505073601;0.0145708620647966;-0.8250757812832646;22;1.2566370614359172
81;0.5707999461686881;0.2462762753273379;-2.0962047549205733;1.341858520768158;0.8287906776065441;-0.425169379952697;36;1.2566370614359172
82;1.967677886736593;-0.6819470067965419;0.558594647247265;-0.409883516228936;0.0557572352402777;2.1981429073132555;45;1.2566370614359172
83;-0.2173738419736907;0.7097322341886048;0.4928700214751325;1.1465090457566878;1.4755266971466103;-2.6234716186386864;50;1.2566370614359177
84;1.0943856811697816;-0.5436884322803044;-0.9702599966810675;1.2561138026934522;-2.402061197118808;0.0047702460408212;70;1.2566370614359172
85;-0.1049363176930932;-1.1660981739071996;0.8801895870417396;1.3077391041565982;0.8351255415251915;-0.7554286174404535;74;1.2566370614359172
86;2.265390956311811;0.0812465136214239;-1.5307595606158948;-1.6061842055751816;1.2552934675775864;-0.4697199342730319;55;1.256637061435917
87;2.1896185881763337;0.4108859486938008;0.979526270167094;0.3070863331539656;1.5420449612535403;0.1721864531304476;65;1.2566370614359177
88;-2.170033829219534;-1.170621707916285;0.1546955964955982;-2.690148896192045;-1.5591967999554197;1.6772789353762207;19;1.256637061435917
89;1.3431556499471375;1.415416775205084;-1.3226101815137634;-2.271732346288889;-0.7908523955990425;0.680402785200403;39;1.2566370614359172
90;1.5961265061331142;0.0224547570076765;0.0071200869278727;-1.990324817079251;-2.336564837195279;0.724922287132423;37;1.256637061435917
91;1.89898663970534;-0.536552058997948;2.0701311972615537;0.1324031376449972;0.8994896784003769;-1.2571449775923762;80;1.2566370614359172
92;-0.1357056636192794;-0.0385300549896096;1.3387958366387844;1.4460450358996395;2.6840727287276707;1.7773880565645257;56;1.2566370614359172
93;2.3159077759711018;0.8676579757900804;1.2128570621125414;-0.5224701652989125;2.2377152593405545;-0.1855601810214735;87;1.2566370614359177
94;1.7384931868019804;-0.4086208353616686;-1.3318923457523333;-1.2066635160492076;-1.4631867038629114;1.413331396175383;37;1.2566370614359172
95;-0.3035439385449638;-0.7861148874381477;0.0662571252614605;-0.2162519607436576;-0.4897761362694249;0.155501387385049;0;1.0125866882348156
96;1.614147765345396;0.0048041158723395;-1.9365953698845144;-2.1667343672087003;1.227738110489164;-1.2879479493911892;86;1.2566370614359172
97;0.9159849929323076;-1.2434485564683897;-0.2402893013513687;2.191657416283334;-0.1548841869190055;-1.522979676585641;74;1.2566370614359172
98;1.5206440893811546;-1.1931007242547027;-1.2831424075248763;0.8247872782221739;-2.515956514753677;0.828659820880135;84;1.2566370614359172
99;-2.7220593407234706;0.1213864736979554;-1.3633306582224334;-1.2172414902976396;-2.757765482283101;1.0766476370404514;78;1.2566370614359177
100;1.5046052677655095;0.6180933990595371;-0.9975066097058214;-1.3707384453719804;-2.5559260549534724;-0.2955904037173331;42;0.8765954673247802
101;1.8041756472178112;-0.99445752973344;2.200673434111555;0.8295993329961311;1.228601603059431;2.139185230764524;71;1.2566370614359172
102;-2.42382462437186;-1.0429803321917177;-1.241048749962899;-1.87580096629176;-0.5255521262139385;-0.917588098755995;77;1.256637061435917
103;0.1745584936735705;0.3476014475764978;-1.4685845360592928;-0.0379366763240455;1.5931726976826577;0.9336574879114864;16;1.2566370614359172
104;0.9231171458310738;0.250422161784425;-0.085568602632223;-0.319262636106741;2.774199510639624;1.383032190682118;16;1.256637061435917
105;-2.385478262220899;-0.1102743647240178;-1.8316213679393671;-2.0240593761694083;-0.5881706976371575;-0.0517418525222162;77;1.2566370614359177
106;2.3106330532025448;-1.1000979057735452;-0.1718161558458514;-1.3530787754378155;-0.4698188376385796;1.2204020604283436;75;1.043450508720668
107;1.6747681419015603;0.6610044097069236;-1.3144177414875893;2.88443532599085;-1.5849464023839366;1.871603208004148;54;1.2566370614359172
108;-0.5045281109975865;-0.8255867647768178;-0.7214447500037603;1.5821590937881842;-0.6210964200043013;1.5522025280110412;6;1.2566370614359172
109;-2.636471284790716;-0.311484587558283;0.2209401568854266;-0.5605416739957315;-2.298480872265845;0.9987053318684992;78;1.2566370614359172
110;2.399614901934372;0.8833524883766175;0.9026881523848976;1.1481673810418025;1.7348096449786865;0.9214086982022356;87;1.2566370614359172
111;-0.5417826226878416;0.923422185099974;-0.8617987428388024;0.5097368643106825;0.993959495468266;1.9377473678553971;9;1.2566370614359172
112;1.2044605895303573;-0.1236276056585008;1.0781398751004538;-0.677329593157906;0.5654458266228164;2.48741509694982;82;1.2566370614359177
113;1.7448915744504587;0.0439703208821602;-1.038307672335442;-1.4991854298133829;1.9099247486751345;0.0767916219345977;86;1.1195908701881208
114;-2.2112038851404066;-1.0885136764344987;0.3866442998195756;0.6067477153265955;1.5682647076620413;2.974299586079204;43;1.2566370614359177
115;0.2352227627461255;-1.1639965763888591;-0.5074691705803156;1.1677199262338838;-0.1334257829376544;-2.224071729859432;74;1.256637061435917
116;2.6357316600707854;-0.1802331429589933;1.4077764889774205;1.1744751772296818;1.574744415120496;-0.1341909933656547;87;1.2566370614359172
117;0.8656047123376083;0.1737723853749705;2.209480604628484;-0.1423793360933611;0.9874943448819612;-0.5485699168067407;80;1.256637061435917
118;2.2164888847137303;0.6277089217527034;0.3661867524867129;1.4651584436741312;-0.3016739297444671;2.5064789182856493;69;1.256637061435917
119;-1.7275286075332932;0.2045181913766861;-1.8531367898042133;-2.4835931849552453;-1.0059084818798951;-0.8647643070184423;105;1.2566370614359172
120;2.749806395788352;-0.5014587888838853;1.285753645592022;0.3243812077019385;0.300397536264518;1.7241913957112742;45;0.9243651111841464
121;-0.8102307519027628;0.9354096216826726;-1.6127286044987814;-1.6359466652422552;0.9518017100473496;-1.0156405401608273;48;1.2566370614359172
122;1.547864285283126;0.045311037866406;1.2117819334330442;-1.6988803100345506;1.1586511808249518;2.6265254182094724;112;1.2566370614359172
123;0.1761042812655699;0.8786260701449454;-1.4428571976615006;-0.0420984722298701;-2.112700840731064;1.203930863567091;30;1.2566370614359172
124;0.7807405525501409;-0.7381321832271686;-0.7563580526374234;-2.3714321582891227;-0.8672382576057784;0.7772548973523223;52;1.2566370614359172
125;1.6328844758691123;-0.2119797479581758;-0.3803183026861161;1.5555515441910637;-1.2740037709527825;1.1245873261539372;69;1.2344256068318455
126;-0.5868386462784256;-0.1613798893049811;-2.069191799449794;1.7390699722865404;1.7850157958238928;-1.2158736183171672;36;1.2566370614359172
127;-0.4011975195964025;1.3106621746408156;0.0682297428758871;-0.3607432237629404;-0.9290783304406236;-1.2167511358474827;5;1.256637061435917
128;2.6057227402985657;-0.8974001727095383;1.0766645609971883;2.076137769431836;1.9010866160093784;0.0522972079734436;116;1.256637061435917
129;2.3829958681956613;-0.6857642519242646;2.052365614338469;0.8508399941449691;2.1991234887323223;2.5686653939093813;101;1.2566370614359177
130;-1.9403986072566968;0.1659280060659497;1.2536081115421656;1.0064199763263593;1.4975452037049195;1.3952847052174426;29;1.256637061435917
131;-2.2473906748619585;0.0732085260429204;1.246996786274325;-3.1230547376881286;0.1402404098193199;-0.1430116549846326;59;1.2566370614359172
132;2.9021955333557434;-0.4663904418748831;-1.6714714620683164;-1.2379427791013295;1.0953867592870017;-1.3020291659091756;86;1.256637061435917
133;-3.0308001472507096;0.0264010268484871;-0.9298593885135968;-2.015659962476738;0.3338251679678534;0.0579726349807652;77;1.256637061435917
134;-1.1364430953632902;-0.8741487575874212;0.8015215932989351;-0.9365175525069486;0.4563461113459726;0.8845737338790179;3;1.2566370614359172
135;2.3605772151420275;-0.4160467457420913;1.938404045444582;1.7074870649928189;-1.61460908217025;-0.8488445142247617;66;1.256637061435917
136;-2.003373001282538;0.7539362059045999;-1.201939819203595;-2.9181657736110425;-1.4407164664180254;-0.2329276135801143;119;1.2566370614359177
137;-1.3650873499599214;-0.4054566867057743;1.2597924404151604;0.6117602732235425;-1.159760250155887;-1.2073813958538373;21;1.2566370614359172
138;-0.1951803734281602;0.4968344009059891;-0.9465203917879224;0.169279277268445;0.0228630033468799;-2.451596863921404;8;1.2566370614359172
139;-2.6785465404107462;-0.0216879255134901;0.7210724380134289;1.632288011983157;1.7234009176162668;0.8730216009986312;130;1.256637061435917
140;2.67393836217978;0.1209634191434763;1.392783300826512;0.7387227946731563;1.8224344233578087;3.0728140698119377;129;1.2566370614359172
141;1.2857934905992436;0.762264861039791;-2.323365709298412;1.4032533573895427;1.3656108759443235;-1.10202192261643;81;1.2566370614359172
142;1.3236218980834642;-0.7398972178372643;1.805759834239629;1.544207096409105;-1.974739949745232;-0.3744689566389858;135;1.256637061435917
143;1.6638980073898464;1.318925311878463;-1.4446119455041748;1.9109937081471355;1.0920105802054831;-1.24843660094675;141;1.256637061435917
144;2.439720031449341;0.9507646823774883;-0.0867704253993779;-2.479300710212909;-2.387954294477897;-1.431314847656624;67;1.2566370614359177
145;-2.1027938757898887;-0.8047603520080748;1.4184072793342113;-0.9825042275270576;-2.3541657645708853;2.501696879235206;35;1.2566370614359172
146;-2.604127978989858;-0.5156133530537093;1.661320130186129;1.904400416343418;1.3519406024924163;0.3897591412887587;139;1.2566370614359172
147;0.5338548136473953;-0.1232048797017827;-1.255920882074043;1.1837038662281203;0.7753013556730928;-0.2817303997421276;36;1.071655729248665
148;-1.894631041904374;0.8778641862126073;1.1395548199028918;-2.021329215633329;0.8341638152147861;-0.5135819334984675;59;1.2566370614359172
149;-0.5436313424210181;-0.69960944495047;-0.5164821510849835;1.1428334403719531;-0.4738502545041866;-2.2724482070258105;115;0.9701540085789488
150;-2.748584561048202;-1.361822351162895;1.0267243296319422;1.1936261147775882;-1.9674597926657191;-1.5724200544891995;38;1.2566370614359172
151;1.17243549437948;1.0889709256185498;-1.3286706283297325;-2.9461266173547607;-0.4920257293974224;0.135393703638609;39;1.2105428362222188
152;1.416210584441933;0.4132176284965004;-2.3195552213804165;0.2400108111906927;-1.3539666564334532;-2.906605136789458;53;1.256637061435917
153;2.883274394557313;-1.0622046772984088;0.246038259846347;0.3491297288885027;-0.4269822549070711;0.7450879375627684;45;1.256637061435917
154;0.3627782975174844;-0.5645455914575166;-1.7963906268921137;1.533594599534604;-2.752218702328147;-0.3969194725578303;84;1.2566370614359177
155;3.2840764238806104;0.6416679739362251;0.6926138585059581;-0.6843374867225824;-2.923381143193094;-1.0249562051206356;67;1.2566370614359177
156;-2.734123536415158;-0.088410245699932;-0.6635078147242619;0.951276388732103;1.260083005502033;2.0944272524297785;43;1.256637061435917
157;-2.871350856106782;0.6296737119944911;0.905113026905228;-1.8477131029329463;-2.3266425635212813;-0.5017821223399941;62;1.2566370614359172
158;2.855552217914586;-0.1848895802410471;0.7816082196446866;0.8588158596078117;-1.3187398850057872;2.0845059413733136;69;1.256637061435917
159;1.0226501414420968;1.2064451442662234;-2.193797561977619;1.4418422227453815;1.777196738591452;-2.0570551760074207;141;1.1688922058752491
160;-0.2791777689544881;1.243554278132744;-1.6355068578448535;1.0091427086340932;1.5370389237009416;2.452261826389181;111;1.2566370614359177
161;2.4868966188343093;0.8218250854868094;-0.9368649498228326;2.525822331603367;1.1310473984639142;-1.3801796600879994;143;1.2566370614359172
162;-2.1443765235581043;-0.8939362875480018;0.8965920198392268;-2.6885445692041867;-0.1557456649388906;-0.0427331096016732;131;1.1641422317723658
163;2.5358667333463507;-0.2778151430595162;-0.821780787206316;2.3565017295984174;1.203280168031274;-1.946217287877639;161;1.256637061435917
164;-0.945308961032266;0.1180018759699852;-2.610675349698099;1.8258932309299876;2.697983508913861;-0.7276843023026494;126;1.2566370614359177
165;-2.7754375173160684;-0.8965293249580122;-0.931557422579646;-1.7367064856437235;0.9889146049362604;-1.0775188239914235;77;1.2566370614359172
166;-2.6225580356087197;0.6021538770994297;-1.2322037999037323;0.5194784324195312;1.7026926621360492;1.474715118672654;156;1.2566370614359172
167;2.624507770336564;0.0524236476307792;0.7951082954556793;0.288184193545874;-2.384676700317289;2.1706079430850345;158;1.2566370614359168
168;-1.3690689736418988;1.33150456569279;-2.0550992024097137;-1.4764745886282973;1.132678123879414;-0.0903805900760049;121;1.2566370614359172
169;1.6317032327948235;0.1666357512037506;-0.1642972738340222;-1.7598423636829053;-0.253182236009268;-2.346597951473968;76;1.2566370614359172
170;1.7641155613900674;-1.1890016250640283;0.1229938395735333;-1.8175057108368051;1.1597784704854823;-1.1177572717400543;41;1.2566370614359177
171;2.6211434841959544;0.8972480285039779;-0.7499215723577954;-1.667132790890654;-2.139547713325028;1.0629517367041692;37;1.2566370614359172
172;2.264964926474785;0.6326415897533099;-0.8403440574177996;-1.5646754225377677;0.3223111128729926;-0.4619344685859463;39;1.256637061435917
173;2.019773747564129;0.3240261599177816;-1.1434836777490966;2.484926218380916;1.985154035497493;1.4146492321930244;58;1.256637061435917
174;-2.844752312213769;0.1362505538410582;2.509353131877184;1.4082937564392084;1.0946154408198727;0.644341254828737;146;1.256637061435917
175;0.7492522468311729;-0.6356586431259922;-0.6971790606186836;2.033264790800714;0.1964856548533163;3.188297038079925;24;1.2566370614359172
176;-1.5968718632809045;0.194131103076253;-1.7144221243740647;-3.224967684316106;-1.637247078864647;-1.6357969243581136;119;1.256637061435917
177;-0.5296229168231705;-0.0045967032124752;1.3931654560718174;0.2113222715595151;-0.5849415217310718;-1.6676982799039288;137;1.2566370614359172
178;-2.4422003438123063;0.3548532719532286;0.0656491787026788;0.2408540959074233;-2.450308053157844;1.6374442471273376;109;1.2566370614359172
179;-1.6332821316930752;1.5283193867246998;-2.307887865045808;-1.9093136936106492;0.1089178182894578;-0.5042103563425108;168;1.256637061435917
180;-1.650888428613999;0.7422129348267285;-1.98552358145401;-2.67436892689641;-2.2958093944057074;-2.318047542089728;176;1.2566370614359177
181;-2.8639789176912984;-0.4323063063193004;1.642855892144331;2.224201867583886;1.23947847798757;-0.7889742908512452;146;1.2566370614359177
182;2.5081679816258813;1.030226227953951;1.196038577614126;0.1437889893023782;2.6732294116318376;-1.1246488783911186;93;1.2566370614359172
183;-2.7612123647430056;0.4345187056123724;1.7797649569485392;0.5365774475301033;1.9843596023174532;1.0811522024697255;130;1.256637061435917
184;-0.8307900432270595;0.8976757700988924;-0.9651551788725132;2.1880225108805043;0.0966256719067527;0.3303266346341379;49;1.2566370614359172
185;-2.625520533006417;-0.46715037353624;0.0231649765760165;1.9013733559111377;2.064242609905824;2.400461015951248;43;1.2566370614359172
186;-1.86291731999974;1.66113134194664;1.681936341960245;-1.951122006412055;1.127884798608127;0.2133704613269448;148;1.2362652488574482
187;-0.6581532516143981;-0.9342199421679432;1.304121935473849;-2.537225918053003;0.8177675112792071;-1.601333792791573;68;1.256637061435917
188;1.498922779013948;0.2436936790636988;0.6923639569543241;-2.672810008590832;-1.9748224580619715;1.399117164058584;90;1.256637061435917
189;-1.4349717236255966;0.3227141525194822;-1.9136430903563344;-0.4895122393327313;0.1790450476548249;-2.339001753665544;48;1.256637061435917
190;0.1576413054335466;-0.5035212319428688;-1.3315064834731616;-2.6784924943682284;-0.6103200443157335;-0.0257102314973241;124;1.2566370614359172
191;-1.56496758844742;-0.3365256665859517;-2.253910161644401;1.664442600845986;2.096232893265671;-1.890542599170917;126;1.2566370614359177
192;2.763713414048177;-0.9962050733983474;1.3342207987712724;0.2859457619930308;2.464464898471002;1.9109619520374768;129;1.256637061435917
193;3.1892896818183365;0.1367205665643074;1.1091229262814193;-1.1983540900497012;-2.9963935694390624;-1.9588494576235356;155;1.256637061435917
194;0.0389324731279161;-0.2361148810936296;0.1591102469512154;0.6631403607115879;2.5153581955520607;0.3918029221124761;16;1.2566370614359172
195;2.508472166010814;-0.6616706959800637;-0.0952982503630678;0.7214076339607656;-2.1873072698271403;2.3610827521078104;167;1.256637061435917
196;1.9077630575686928;1.016465387019935;-1.973700576982872;0.9947098886732868;1.6579269464123565;-0.2342370996979138;141;1.2566370614359172
197;-0.2635812594897762;-1.5828630349932291;0.4122374733360499;0.9114062726981496;-0.1277899480713447;-0.6692175241735899;85;1.2286409783636676
198;-2.508754675512013;0.4380512007565262;1.5616694415003565;-2.7534160499854283;0.2551424541756768;0.8357712400217016;59;1.256637061435917
199;-1.1528612098495037;-0.0185303850465375;-1.0082178495049696;-1.4959950346779831;-0.9787249015894098;1.5146805832769;11;1.2566370614359172
200;-2.2262898578700216;-0.5980019610448243;-1.3881780604371936;1.6171212433361064;2.5738233525202263;-2.1964767078739094;191;1.256637061435917
201;0.6110665040618593;-0.2429546829591153;0.5828986986828235;-0.2665907830276769;1.3369170505991477;2.6089664355822477;112;1.1790963753483816
202;-2.809371629498086;-0.3369927502061516;-1.3431274967793934;0.9713918989040152;2.541619348574396;-1.329877892844708;200;1.2566370614359172
203;2.1149512769706384;1.1650584565474376;-2.1421546912971863;-2.616042937786119;-0.4670558717151791;0.8408451447817217;89;1.256637061435917
204;-2.693458264985753;-1.4484672776446157;-0.0565859671929749;0.8199873586315307;-2.321834962061359;-1.9327554154881708;150;1.256637061435917
205;-1.1528317723244867;-0.1812844476060142;1.4290995005215277;-0.8344511335568378;1.2873638205083664;0.9473841386145806;134;1.2566370614359172
206;2.8204253304209463;0.8839638185301004;0.2313963418784564;0.5067114044684203;-0.1043387537709784;2.090545572462291;118;1.2566370614359172
207;-2.8358049959195206;-0.7159821647977097;-1.0116827115605538;2.484208211871817;2.028291870164403;-2.2466316200330088;200;1.256637061435917
208;0.8219482292312649;0.5290985596680571;-0.6161858252877637;-2.3600688345174228;-0.0762571912015566;-2.7896292146514257;169;1.2566370614359177
209;-2.90493152358962;0.4327290842403727;1.0884060091352965;0.9858284183088096;-1.717538119392953;-1.490236215530642;38;1.256637061435917
210;1.459445074953544;-0.960740014721006;-0.9557624472759548;-1.723795223281491;0.8189280013880739;1.201859428929048;75;1.2566370614359172
211;-0.6127529832710968;-0.3526682506069254;2.02578119069417;-2.7048946641054807;1.6630643470023818;-0.511302672344134;68;1.131467673860438
212;2.987474702512608;-0.6588843338041676;1.0190725291568052;-0.2917870081484109;-3.062812141699737;2.4788909563000594;167;1.256637061435917
213;-0.7218750185354597;0.2338524382055758;1.34179225551856;0.3380463531782836;0.428656803060602;-1.0049478910690348;177;1.2566370614359172
214;2.432288907600331;-0.8485907184054681;0.9273640054465055;-1.2744274066976324;1.205881616343097;-1.387443367016046;170;1.2566370614359172
215;-0.0687171299063061;-0.5909934497783084;-1.272115107112979;2.632787744544524;0.6488647163142197;3.304235722412533;175;1.256637061435917
216;-0.0104502476879153;0.8217375984190102;1.6154502290927288;-1.9997889417794112;0.607993044318665;-1.3711071690923673;72;1.2566370614359172
217;2.8800285793508444;-0.8587729946497941;1.3735506574088612;1.555032980127241;-0.8339383524165657;2.317469674942574;158;1.256637061435917
218;-1.0477721741423354;0.8173372852611799;-0.1376262706811113;1.2407876866399286;0.5228430622270867;-2.245053200608393;50;1.2566370614359172
219;1.660233456342588;-1.4257427347979552;-0.932862366892094;-2.663421927241988;-1.2275368482792852;0.482986664006331;124;1.2566370614359172
220;2.483451517381222;0.0650984325897928;-1.607515016034621;3.087576718989397;1.9463791316541288;0.5678435519984866;173;1.256637061435917
221;-2.5614932609328065;-0.172810328578189;1.354229515840769;-1.6135483333707987;-1.8184709872041849;3.0309098824632765;145;1.2566370614359172
222;-0.9914183441913808;0.7158903666246935;-1.843502859957565;0.3718890122732374;1.7443435855946208;3.0009794499345173;160;1.2566370614359177
223;0.7881337132484405;0.9551488631958736;-2.754254695034437;0.6638082832491737;-2.074836892624562;-2.9589965269107337;152;1.2566370614359172
224;-3.109523938625541;-0.6872393354037943;-1.5106663230548152;0.2409713769967933;2.8888955348216543;-2.1570347572844213;202;1.2566370614359172
225;2.475190471141803;1.576288619257224;0.9713842828930508;1.144133926837479;2.4397161114061245;1.0738751920755554;110;1.0053590072236205
226;-0.4521410817346921;0.2016247272523147;1.9366609911642048;1.4068010095262136;0.0098708099507394;2.608183511134627;57;1.2566370614359172
227;-3.2214532607448283;-1.3275010977508237;-0.0002499735591255;-2.329247765117322;-1.5786778251870643;2.2198703781725366;88;1.2566370614359177
228;-0.5447750209725165;-0.3941814651947309;-1.992961853175872;2.9404462583936493;-0.1695798388135888;3.1320574747141285;215;1.2566370614359172
229;-1.9430672615053743;0.0995044267005131;-2.30059173030506;0.3575083094744712;-0.335593678114048;-1.9660044765441935;189;1.2566370614359177
230;2.33767899371641;0.8467291753609154;-0.3726236953788904;-2.3045419740853683;-1.877571206856496;0.8503076013064932;37;1.1912891852353291
231;0.1576457260399015;-0.90191104400289;0.9454530813958638;2.1366504550310057;0.6875598466138129;-1.8996155062321156;74;1.2566370614359172
232;-0.1940621713312813;-0.4681438363647482;-1.9751970793337252;0.6329520211284446;1.8864564566991533;-1.5127525308792025;126;1.2566370614359172
233;0.3678705412933569;0.4959082123220908;-0.609869233084229;-2.355299350878288;-1.2330491368003;-2.606276260977538;208;1.2566370614359172
234;-2.5703637804376243;-1.028483668951411;0.548133923689947;-0.6119360668380267;-2.0946261843675047;3.091955887590815;145;1.256637061435917
235;-2.666312762404534;0.2898757349636036;1.0861733192655538;-1.3333224835859216;-2.792787796526527;-2.2067062948005387;62;1.2566370614359172
236;1.60830013516769;0.0283817397567088;-1.3636315051361163;1.0633784187020945;-2.0123086167728315;-2.0056939973710186;44;0.913959522253008
237;2.287060273371936;-1.3412108662917417;-1.071882982443125;1.274821257485666;-1.9905047718572515;0.1604190995629063;98;1.2566370614359177
238;-3.079323133755713;-0.301112121152617;1.1009254293444133;-1.4765512317218257;-1.8556870701161132;-2.60720925455307;235;1.256637061435917
239;-1.973960947318336;0.5541280771027589;1.6123901864409325;0.2318429777777509;1.2364030988294614;2.1892756846768315;130;1.2566370614359172
240;3.134779089042619;-0.474325191291389;1.022760253123451;-0.2370507820994445;-2.0196430645056043;1.4088016701852766;167;1.2566370614359172
241;0.000370462066148;-0.9677619588741708;-0.4378339737597226;0.0825113365537131;1.9359827303008772;0.5066673334095636;194;1.256637061435917
242;-0.0776038479676708;-0.5006546527778463;-2.208308234899904;2.070104161058623;1.2616545737979052;3.352348455633846;215;1.2566370614359172
243;-0.1251198369337773;1.2855105754077605;-1.7621304860604186;-1.629687465635722;0.8757480804004856;-0.0363322096595977;121;1.256637061435917
244;-2.635514261576107;-1.0248532160611648;-0.3729848553300523;1.5832022367016425;1.868491338948636;-2.691981000833346;1116;1.2193029188185167
245;2.44386397583183;-1.300537488533466;1.9440564292187488;1.4983187149668646;2.448922016688755;-0.0113550514731726;128;1.2566370614359172
246;1.0381277453950408;0.1785820776988349;-1.604546796791909;-0.3204175226964267;1.3188042178048107;1.7281749997388929;103;1.2566370614359172
247;2.5013503105549333;-0.152797788405589;-1.333956332908702;-1.6121321558857424;-2.120523180433896;1.9923304982430372;94;1.2566370614359172
248;0.3511746006001899;-0.1300265998174074;-1.1482137790974214;2.962926600032711;-1.812901132074628;1.74534634614827;54;1.2566370614359177
249;2.02434003945881;0.3376864034210763;-1.4756703068267294;-0.6773896544009137;-2.4445486931477127;2.3272995052213514;247;1.256637061435917
250;3.166837337883936;0.7304284154170891;-0.3584399349800035;-1.359411079104139;-1.9204483650471704;-1.2911936867663685;67;1.2566370614359172
251;-1.4157151023439116;0.0131576256943123;-1.0421210029733183;-2.198083147065442;-1.3458013996749798;2.4528799802775985;199;1.2566370614359172
252;-2.824771069393919;0.5912075612590484;1.1208607837936393;-2.324558927078417;0.3383032291878045;1.870501665365374;198;1.2566370614359177
253;-0.1259344608455977;1.287626631155465;-2.097857460754653;-0.099157026413441;-1.6041320752881951;1.9974701701484208;123;1.256637061435917
254;-2.7543584987920617;-0.3239025706770209;2.5785122677993293;0.4990010269317448;1.1715576565635977;1.366635105062452;174;1.2566370614359172
255;1.4920525824933475;0.7722936734221854;-1.7137846611548193;1.7171469009921696;-0.7222465509487874;2.2095044135693978;54;1.2566370614359172
256;-1.8148898746883773;0.6088344620625603;-2.0243388930248662;-1.455194326961339;2.0089112289276256;0.2078556403370369;168;1.2566370614359172
257;-0.3062882800722099;1.1915313882707448;1.6241414086946315;-2.745456135479224;0.7113009967249646;-2.2588579687895387;216;1.256637061435917
258;-2.8560604264146114;-1.1737602596464916;-1.3486161562868355;-0.835668257549677;3.1898377768669777;-2.1100140155540643;224;1.2566370614359172
259;-0.0118153522115034;-0.3921021954200019;-0.4404064471586442;1.304081602005987;3.269661501664848;-0.0697487014853169;194;1.2566370614359172
260;-2.0696769731101217;0.5534248435601666;-0.9628478340266954;-1.0327757571782163;-2.8643225848853664;-0.2685300454119012;78;1.256637061435917
261;-1.8650728326392607;0.0340846598914463;1.712303956192432;-2.000002353943287;-1.4000985250303484;-1.9670952769209944;62;1.2566370614359172
262;-2.6880117489577264;0.0870261799625628;-1.9144110949329631;-1.444214181865516;-0.9925348051580004;-0.2246720613778175;105;0.8166662674371492
263;-1.9910972385739696;1.3745260706392286;0.993807103305996;-2.2806507828455387;0.939100674802236;-1.6197718507448304;148;1.2566370614359172
264;-0.4795821882139627;0.9798410982410412;-2.172428717769205;-2.525957980851862;0.9919975425373782;-1.6163351478759649;121;1.256637061435917
265;1.4208129219048522;-0.7219738716379716;0.8648436584276251;2.706522760391343;-0.9572773261076428;0.8793524781603448;47;1.2566370614359172
266;2.314841730604108;-0.1186686945968802;1.4703857010137016;0.829564152071034;1.001234873545894;1.796604613568152;120;1.0589796819872397
267;-2.0813141449104275;-0.5766840612702129;0.8364111648574852;-1.971237621756806;-2.8108904588552392;2.459913121162477;145;1.2566370614359172
268;2.98975851804794;0.7406809899049637;-0.1523965115754191;0.0585389852772912;-3.1961021349471146;-0.6475633334205938;155;1.2566370614359172
269;-1.9907705790276309;0.5839762881659226;-1.466747819190469;-1.4825420475794353;-0.8718268138610588;2.377679904595183;251;1.2566370614359172
270;0.2366184578357127;-0.7530862525868829;0.815866123781366;-0.9180142059183632;2.088914588452445;2.9757968494463998;201;1.2566370614359172
271;-0.670968915962686;-0.9623299864177332;-1.5624932029948884;-1.5478451022863218;0.7182544990681934;-2.149513453862492;27;1.256637061435917
272;-2.334205715017489;0.52914160650387;1.790886643876057;0.4535961825888369;1.941463742482712;3.122329867142716;239;1.2566370614359172
273;-2.6461163075643377;0.2939075682418233;-1.930738977071354;2.0497885285475936;2.637607056028151;-2.5453866663082696;200;1.2566370614359172
274;2.2390637379309704;1.0530212219662316;1.1062599394534371;-0.3546079151734807;-3.0253122291005035;-0.8586460166102635;155;1.2566370614359177
275;1.929058671874468;-1.5120956938495866;2.3273643980109964;1.0129629639983766;-2.204930595870053;-0.4694065573500861;142;1.2566370614359172
276;-1.8381895834799025;-1.4843425632301093;1.1172221021910904;1.2545707575228568;-1.9782630159733217;-2.422882094016164;150;1.2566370614359172
277;-0.4521441370951623;0.4777222161728328;-0.9816259674141182;-0.3192323752790575;-0.2321729655296355;-2.714061429397163;138;0.6634777171157187
278;0.0073838388086134;1.041499413218851;1.1173527211165315;-2.775491956960804;-1.1391756722903272;0.5361415328975238;23;1.256637061435917
279;-0.4311182102060427;-0.1130939009643901;1.310957144616874;-2.6070769867130656;-2.395829988738777;-1.2108641132372158;40;1.256637061435917
280;-2.4551853549334623;-0.963869150182984;-1.1917286256212585;-1.9538346433141804;0.9933685536398662;-0.1229098851036717;77;0.9124053833481688
281;1.5399936213070844;0.1988813758760164;0.9038527859551466;1.5097973552333022;0.0803776562045901;2.812779502023772;17;1.228733713353588
282;0.2553937179657302;-0.1257918506839774;2.302363249454031;0.2524322701428017;1.8629792644652217;-0.9799204476399906;117;1.2566370614359172
283;-0.4635211432081403;0.3077794008175838;1.281745977724727;-1.616541825073008;1.169986939549718;1.413911597941656;578;1.2288533210077346
284;-1.1890322378674771;-0.269083044313408;-1.9730410049272813;-0.1820156589535447;1.3343807725765953;3.280716485521042;222;1.2566370614359177
285;-1.7952762137226288;0.6697489121223718;0.5476109093848402;-0.7953189771397078;-2.56911541771389;0.2236310774233297;78;1.2566370614359172
286;-2.075159414317152;-0.092155423998875;-2.236677734840915;-1.396031119867828;1.537275082529059;1.0732924821390486;256;1.2566370614359172
287;2.5214683215538263;-0.739840532851064;2.6637393429820504;-0.1421352141749112;0.7387342703947353;-0.4224337593575507;91;1.2566370614359172
288;1.5889492564251386;-0.4737705318087876;-0.58429541602394;-0.9352878509519216;-0.6180762925544574;-2.768204803822132;169;1.2566370614359172
289;-1.7255051865316116;0.4993602580391467;-0.1392746005954102;-1.5834995135791037;-1.1697947905720942;2.604375237399164;251;1.2566370614359177
290;-2.583425308276988;0.7605952469600266;0.7774700508191326;-2.1179541096698613;0.5701086748604172;-2.420987228774091;263;1.2566370614359172
291;-0.2981013865603774;0.9674660162267886;1.3008143168320443;-1.676675710336124;-1.6278088705478029;0.5134075495859146;1530;1.184103375963246
292;-2.2149535619123344;0.1211679152702016;-2.496008355326722;-0.8865845956656684;2.7015877224231444;-0.1867039326620011;256;1.2566370614359172
293;-0.9745104950939396;-0.4024830339647245;1.1531747888928228;1.0869609699312597;3.1338872941485825;2.911877124719224;56;1.256637061435917
294;0.0657411017145188;0.1184393054037181;-2.5305601564795213;2.334878669202629;0.4677583394088354;-0.374061673597388;81;1.256637061435917
295;0.5784114573837654;-0.0347432280838587;1.977349743370712;-2.637450694540905;-2.073041824157031;-1.142644838143452;279;1.2566370614359177
296;2.6173788860124296;-1.1579661552235905;-0.4163519039349125;1.8549846728840709;0.7615005156550432;-2.3783809954108013;1428;1.21291539520954
297;-2.12391988085559;-0.5182768807649529;2.1785996330126;0.39918884841575;-0.952930074519244;-1.4490619881109117;137;1.2566370614359172
298;0.808516664917551;0.6510468392075472;-1.8882706550939248;-0.4185677629480277;2.149489572512726;2.4513773566704264;246;1.2566370614359172
299;-0.7932526831894169;1.3657917737460288;1.3892420999913084;-2.041947024286144;-2.362219744959935;-0.1899391291107111;291;1.2566370614359177
300;2.3773835827371324;0.2790403991483803;-2.691224173428451;-2.2848899226717;0.8014092494893612;-1.6831954516139134;96;1.2566370614359177
301;-0.4040085868661628;-1.1777940338104316;-1.3712067996318462;2.3296279845372423;1.2976898465599762;2.9751680487884755;215;1.042947684981086
302;-0.9174894894209292;0.103946386514591;-0.0360658724510878;2.807103913433643;1.6412912796664514;1.3749326131782864;49;1.256637061435917
303;-1.2594113859743474;0.7836408477644522;-1.3077905770328462;-1.80477168395982;-1.8750226369369531;-2.140330711642225;180;1.256637061435917
304;-0.5263882433210247;0.3031939545029671;0.5203153138686505;0.4385109185026192;2.244882493199704;-2.1497095497748253;83;1.256637061435917
305;1.1671592248724791;-0.8039345157368286;0.1245085503619973;0.1288777377475233;2.098152432625234;2.513034004140553;201;1.2566370614359177
306;-2.852297303239652;-1.0126080636238315;1.900515263538625;2.5710628209121174;1.108747887108541;-1.8080222556324548;181;1.256637061435917
307;1.0669327027054996;-0.263575147854945;-2.2821701240505217;-1.186315404275337;1.236203608609058;-1.6442484292405255;96;1.256637061435917
308;2.3233513488718054;0.6617446600753549;1.374448479226548;-1.7529771105015668;1.231152087377266;-2.3713466691365626;76;1.256637061435917
309;-0.8080087159907483;-0.1768528995093705;1.5516302333289231;-2.2965683423118683;1.3025658154304491;2.2341224342219435;283;1.2566370614359172
310;2.529238770243296;0.9343191085811688;-1.4792966782778405;1.5285225895750147;2.4634531676723856;-0.3230792284002525;196;1.256637061435917
311;-0.4589109904955928;0.0239225924442693;0.7913469415680845;1.3014926519685164;2.9401523948673822;-1.708126964990142;304;1.256637061435917
312;2.553457154687405;-0.2564403502793523;-1.8850562977330376;2.62163497510939;0.9872459980103055;0.0611074409500253;220;1.2566370614359172
313;3.043788419681817;1.0978169703521836;-1.2698321768040817;3.1800718349092176;0.8596504055190185;-0.6184245871068578;161;1.256637061435917
314;2.220947084605182;0.7996900665960427;1.2412935672526118;0.2334270077924623;1.8343917243537688;-1.9789101292688889;182;1.2566370614359172
315;-1.3009495475532926;-0.1547691707675565;-0.4065418735294959;2.094188972763117;2.391177333407245;0.9782815387938136;302;1.256637061435917
316;0.990556177474462;-0.8926441702270276;-1.423302608378545;-2.8259060919436383;-1.1662265451529357;1.655027396745392;124;1.2566370614359172
317;-0.6018857767447837;0.6908431479719626;-1.5010472958230188;-2.6646615942396803;1.6536223614673116;-2.3732496833564647;264;1.2566370614359172
318;-2.7629094897620305;-0.1599017639774393;1.857020970114231;0.574757866905119;1.0071063215417082;3.291123582573624;272;1.256637061435917
319;0.7852305611033121;0.2181225226399328;-0.0528997364089712;0.385661043247214;-2.3709566595553597;-0.7605427670622531;70;1.256637061435917
320;-2.4115123534384493;-0.837304044474122;0.2357235052038359;-2.7369200891770253;-2.3114184228864016;-0.2593857260907362;18;1.256637061435917
321;2.848877007657262;-1.1907217478476328;2.029509354500873;1.3354343618441042;0.8831453679974837;2.3506323859984275;101;1.256637061435917
322;0.0668677513295651;0.2923363579977657;-0.7491421372202335;-0.5079769797465531;0.8602362001635386;1.3641038360114577;103;1.2147702441983694
323;2.5708673368135164;-1.031346825667794;-0.811715277899509;-1.1610010409901843;0.1325110272031515;2.0555799470107403;106;1.256637061435917
324;2.7339383330929508;1.4284199325048308;1.1287526971317954;0.5369644122286222;1.6126567574345168;-0.9486989871117116;182;1.2346730336098748
325;-1.834831145524564;1.3650661074770607;0.3421543228486834;-1.1304118079921182;-2.824399318646263;-0.7114820842172882;285;1.2566370614359172
326;2.074275582787119;0.4949845053963885;1.1674600887320032;-2.436924348128678;-1.86974062281895;2.3438701500956;188;1.2566370614359172
327;-2.606649898775821;-0.751592807177434;2.734245315930102;2.4023483444894884;0.3538852040037656;-2.2046039591908886;306;1.256637061435917
328;1.696406926922309;0.2142678566631681;-1.6972283757409077;-0.0546096109217819;2.798007339046356;2.3490361392534096;298;1.2566370614359172
329;2.539468501853512;1.1088204950931022;0.6106987724052944;-1.8496118306516705;-2.211711444006173;2.8065519315516445;326;1.2566370614359172
330;-2.551836134444306;-1.5672933295516558;1.3165844205721071;-1.551407505118517;-2.097826946509796;0.6540090055336378;1505;1.169952651571455
331;2.3779377523354217;-0.3921035838671549;2.277261407490184;0.817836795796212;-1.9748273464420625;-1.585188815291178;135;1.2566370614359172
332;0.3087885213363278;0.0667744739679101;-0.25246389987694;1.1071954032544182;2.6538838825512965;-0.9711439589573898;259;1.2566370614359172
333;-1.1410560469790734;1.164393701978776;0.8517439107271307;-0.0505477595410995;-2.582656815424256;0.7326446243427754;285;1.2566370614359172
334;-2.220846847011319;0.4673237379075824;-0.8987049881072826;-1.966811249672225;-1.9900819330331236;2.938143280880508;251;1.2566370614359177
335;2.0719671801126007;1.0399232035311414;-0.5787255370326936;1.3337228679313955;0.6116795283253869;-1.3935409194426;143;1.2566370614359177
336;1.8809712017503384;0.5121858758462572;2.2014714595244027;2.017403871558203;-0.2261455878973123;-1.9107605531387504;66;1.256637061435917
337;1.2418515984159004;0.9370256949317426;-1.1365001204295837;2.836819193385824;1.9599122184060136;2.1029012346244347;173;1.256637061435917
338;-2.272411856177044;0.9783143052022228;1.5390684904163012;-1.4703122503920691;0.0668337534578152;-2.84789230120457;290;1.256637061435917
339;-0.5984729565148663;0.753515423824557;-2.018032660891816;-1.593512844241444;-2.563617895851108;-1.7965982432487937;303;1.2566370614359177
340;-0.1422003803693008;0.9947304071266184;0.4549141309229617;0.3030135630564179;2.9452502019786606;-2.813156570465769;304;1.256637061435917
341;2.523914019494122;-1.2941659201100386;1.4979203192542796;2.139728574604245;1.6090649995881112;2.27063445402019;321;1.256637061435917
342;2.4289826746603023;-0.1779881706627656;1.717211712658936;0.677996475368229;2.1342169894860468;-2.235752258982824;314;1.2566370614359177
343;2.51425742540352;0.9415273204715296;0.2850639684025143;-2.1953396281862405;0.4325630146887861;-1.960076606494037;76;1.2566370614359177
344;1.571296823804909;0.5721178427275015;-1.3243342560472375;2.0682199966477373;0.5934122460435036;-1.775805130672106;143;1.0640493731644014
345;-2.867462128806972;-0.7950502874168113;0.1473845678578955;1.455181361871356;0.0914635883283484;1.986916258448526;43;1.256637061435917
346;0.2542646479272804;1.1014808115800474;-2.5682526300917714;-2.531064110523204;0.3822030779554148;-2.3214999330412645;264;1.2566370614359172
347;-0.2718056935280549;-0.8052674334408947;1.8973683428966055;-0.9645284395715796;2.1229867475900086;2.595077563177388;270;1.2566370614359172
348;1.1432134817630069;-1.1942718627672204;0.9837721514284284;-1.1876045877520591;2.6948527255706054;2.6683151588977028;270;1.256637061435917
349;-0.9106635127635314;0.7569631859258423;0.1629351568059671;0.8102160771892584;3.088992077636477;-1.2846880015190365;311;1.2566370614359172
350;3.1999365933805013;0.1770751777668451;-1.4181454954044024;1.910850588763258;2.4023655994454494;-0.9573007246743804;310;1.2566370614359172
351;2.559477063061804;0.0622130329799696;-1.1875373602388848;0.5635297711224807;3.003364385561582;2.70550946420511;1819;1.157574409451272
352;-0.8100475805177758;-0.7645929399759723;0.6301350390597968;-2.3358765357050366;1.356920527353069;1.6176475927231704;309;1.2566370614359177
353;-1.5454990504666923;0.7769031969327687;-0.6837957311918723;-3.1281461677780755;-1.9750447904538675;-1.409518859675357;176;1.2566370614359172
354;0.1108347106206182;-0.0906463535204389;-2.3452347321214164;2.609295429811445;-0.370686492458352;-1.2230296649498458;294;1.2566370614359172
355;-0.2861758495479963;0.5416216747540966;1.535969337291908;0.3949636379569817;-1.4706957789685506;-2.2864373275022;177;1.2566370614359172
356;0.9612713438347252;-0.8963741004076932;1.26776201616745;-1.3144673070316182;0.2508976119428401;1.8693399011817728;112;1.2566370614359172
357;2.486873627750211;0.8365740971962055;-2.6168114396498785;-1.4088973701162533;0.6977311791549736;-2.370694877365803;300;1.256637061435917
358;1.7998116551133163;-0.5030685928802094;0.5991506948230018;1.043968096554764;-0.206648720959345;1.67332261385821;4;1.2485346455151531
359;1.0658445999689226;-0.7208365761713643;1.1480913566449962;1.640028432838671;0.339894944328579;0.4905691834161272;4;1.2325666048335393
360;-1.2908908597568496;1.0481905928148765;-0.2534271699047746;1.873277347209392;2.887841543053445;-1.3610560430388263;349;1.2566370614359172
361;1.433580438650854;0.0450899303142588;0.4086164985617957;-1.2288016732892248;3.0017385458989274;0.9916903725618836;104;1.2566370614359177
362;-2.782638170857405;0.2377129751077133;-0.693001997463309;1.897147699234003;0.722268529764236;2.6288800811341777;156;1.2566370614359172
363;-2.4593730213132368;-0.700800870120987;-1.8847281174890325;3.067649276344229;1.4928026055915593;-2.465365915382341;207;1.256637061435917
364;-1.2338750584292366;1.0234291793936368;-0.309721088716865;0.90962026674714;2.814536539379661;-1.0264021495708198;349;0.7421538735708704
365;-1.0844335938526524;1.3603376048492877;1.5211029963447014;-1.617285470079699;-1.5210748366376174;1.375395845242244;291;1.256637061435917
366;-2.483602843848378;-1.2305116211718727;0.2626526022031619;-0.6349052651061851;-2.8361110310598368;3.0516808605914414;234;0.8257068355398967
367;1.9386058660750296;0.9748686471877168;-2.5672406974282973;0.9744229553453586;-0.7620855962652432;-3.1059930130310525;152;1.2566370614359177
368;0.8192208065603703;-0.7329777255048548;0.3711095747792365;-2.369424986237162;1.020661652634983;-0.8130885731894846;170;1.2566370614359172
369;-1.105642570179933;-1.3845344272422977;1.4879048646771085;-0.5840978586221555;-2.3503204832629128;2.7934427690779557;145;1.2566370614359172
370;1.430806021464153;0.2920396611152541;0.6477276959308987;-2.9006451366124675;0.4545600877617601;-1.8742695891703836;76;1.2566370614359172
371;-2.5073523090061283;-0.3048375167686663;-1.5655711702569437;-2.6635075271285946;0.9879442138822622;-0.8270759444186135;77;0.8272617180093275
372;2.2803814387098567;0.8903769869515169;1.3379150756556106;-1.8270502946143616;0.6146489208370655;2.614554936986061;122;1.2566370614359172
373;-0.0885105433553672;-1.5202821050477886;1.083897287424025;2.384963581397137;0.7953633467983356;-2.299224813594408;231;0.8337332176370842
374;-0.6602304726039118;1.1941752337067006;-0.4825294382741786;1.6180042391008258;-0.4442057925394525;1.1124948368372307;184;1.2566370614359172
375;0.0173951185302396;-0.2476515418290606;1.8560793313722144;-0.1450073366109131;-2.057950243067689;-2.640163625377485;355;1.256637061435917
376;-3.119199102458202;0.80794495893795;1.1577584601408903;-2.1929168992434005;-2.6303947292873398;0.4535604711868562;157;1.1318787990957395
377;0.2353455616695279;-0.2236567177459662;2.356440647806557;0.4051615394449823;-1.9517313775960607;-2.879882096219986;375;0.818457560938291
378;-3.293724748987681;-0.2688803381752992;0.6689485817041436;-1.761612249811613;-2.8111241333640224;-3.200004329572178;238;1.256637061435917
379;2.259735490325064;-0.3797638180506234;-2.353745003599361;2.4091941505216656;1.7732917137638418;1.7715598528404466;58;1.2566370614359172
380;-0.299387282494121;-1.0399784397897829;2.0868704644995253;-2.7838941059310214;-0.0010158018304258;-0.471010870581179;68;1.2566370614359172
381;-2.5711280707368243;-0.2695619797336862;1.6474820663271734;-2.755722400118036;-1.3944108524966432;2.129229639832616;35;1.2566370614359172
382;0.8640802440761415;-0.7619539792990826;2.424053347181069;1.389537205111739;0.91308664098711;2.5614656337171344;101;1.256637061435917
383;0.1150640312901013;-0.4545769169549499;1.540858925578264;1.3563119706707951;-0.263188044306695;0.4144881543814525;359;1.256637061435917
384;-2.6440395522586364;-0.3370708616476612;2.489183465118548;3.007357279962643;-0.3578093986373719;-2.892579209114078;327;1.256637061435917
385;1.8743122510323948;1.0062176290247933;-1.545732586702103;-1.652462021369142;-2.3200098765423487;2.6994682929227705;249;1.2566370614359172
386;2.675488473314993;-1.3827738151697635;-0.7435823749992517;1.2697601000786167;1.3191724278969004;-1.5039349121354817;296;1.2566370614359172
387;1.8360908878664304;-1.2289281462514932;-0.4979054734588182;2.588506330777985;0.1755600982517107;-1.0835184211214923;97;1.1717424947181767
388;-2.3408238395058087;-0.58005507431801;2.010821209896076;-1.8803681626952624;1.363350292615663;0.625359496055541;59;1.2566370614359172
389;-1.1793700058298269;-0.2142898485259339;2.27225439325204;1.9858324242484688;0.5544349854690103;2.9726549225935943;226;1.2566370614359177
390;-1.079225898909252;1.4192757199280457;-2.2451905428950414;0.6307102423904593;-1.7836204434239624;2.25517409765805;253;1.2566370614359172
391;0.6562961720008451;-0.7537236875430997;0.6917958626126007;2.8228775205950547;0.2449402763127668;-2.659459760099792;231;1.2566370614359177
392;-0.6364236704294902;-0.8995526337707147;0.0172668936962685;-0.9827214278840108;2.1125229173710345;3.3669191290087186;270;1.2566370614359172
393;-1.277197295950135;1.2727770364814948;1.88869610314252;-1.1412626582327356;-0.4496999366733171;1.532702616735406;365;1.2566370614359172
394;2.737571731005158;-0.5852550743440704;-0.5790818238451101;-0.8288250526561804;-1.0921527063386938;-2.8743384778788728;288;1.256637061435917
395;-3.020418179740309;-1.0311977987342198;2.0265577814201112;1.2829221073712327;2.0721979787067357;0.0710000882207868;146;1.2566370614359172
396;-2.497364295955305;0.6972017182150472;-2.1092253651340425;0.5305414601092072;-0.7990191900126133;-1.1701874828360244;229;1.256637061435917
397;-1.2128285173528834;-0.0852276738405073;0.0172801591261489;0.3805984511928839;2.5926897607139163;-2.9110878899474057;304;1.256637061435917
398;-0.657211521675026;-0.7933218663332358;0.6077577798609781;2.2586929866474423;2.1149367208912317;2.088415208275169;56;1.256637061435917
399;-0.68970091808551;-0.3029384433914998;2.3060322264068605;1.3256883518542475;-0.5254450290915904;-0.088790239121883;383;1.2566370614359177
400;-0.3741498138193713;0.9535779550381822;-1.2912911434683698;-1.7115376740906032;-3.01363941227169;-2.6592617677938954;1878;1.1500774812354015
401;-1.9284498399326755;-0.7054752358242349;1.230707645328722;2.812563274308919;0.9123108555477027;-0.8678844254724514;181;1.256637061435917
402;-0.8217656473489852;0.9546085022098956;-0.6634239305138918;-1.9233621858519572;-1.4939388331631311;2.1379145571376728;251;1.256637061435917
403;1.6003120790174812;0.3388334028021583;-0.7242798850362115;-0.7173485244035924;-1.620735435438155;2.72034290804378;249;1.256637061435917
404;-1.5221418966854938;-0.5890483924164315;1.501013985536442;-2.320001462622101;-1.9844420706708767;-2.731778228133356;261;1.2566370614359172
405;2.0392762014442907;1.3802680126250535;-2.4439393825227977;1.5289098272953618;0.9781342980881896;0.4446417506060607;196;1.2566370614359172
406;2.565919689064084;0.2999071502324853;1.1685843565959817;-2.067070996563928;-2.844016037994173;-2.5773096889809146;193;1.256637061435917
407;-2.0447375586805867;0.0785385160038282;-1.2983370135242127;0.2950211426931465;1.625766241528578;2.096912469497403;156;1.212655920015579
408;2.244780590922893;-0.3090127898468494;0.1791575530670032;2.8776045397169985;1.656371967846953;-1.8249144029348037;163;1.2566370614359172
409;-2.945869987503631;1.2066519990800657;0.4576209508576931;0.5322816300439545;-2.6715625279928705;1.0785461327903034;178;1.256637061435917
410;-0.0757136619906426;-0.6148566308957376;2.1025054045385634;-0.0378844238043534;-1.9719219936623211;-2.129917313090444;375;0.695314396031881
411;2.070341458786164;-1.182719969913961;-1.130925154435701;2.0581978302531265;-0.6501510155571731;-0.685538128974843;387;1.2566370614359177
412;2.8498608505205425;-1.414301144247887;0.7681821262484675;-2.111508319373621;0.9771078086421306;-1.940942518444342;214;1.256637061435917
413;-2.6745061765290896;-0.2663907590976323;0.776599151853193;-0.8230417435482669;-1.3579381804083592;-1.81094408532636;238;1.2566370614359172
414;-0.2257040884669809;0.3399315734432461;-1.173480023437195;-0.3826311320928031;-2.734073023313524;1.9474798086250389;123;1.2566370614359172
415;0.2311385331156732;1.4507046136954571;-2.144824709772953;-2.4888603248028143;1.6104097219881806;-0.0125202537216818;243;1.256637061435917
416;1.3023294529372664;-0.9324204740644212;-0.2214214641964839;0.5807943891420507;-2.8274616989314154;0.4372080411654729;84;1.256637061435917
417;-0.4999905754074502;0.7290689699922808;-1.7990396878732773;-0.1364109121313554;-1.1298338192558568;-2.7933605199639238;277;1.2566370614359172
418;-1.0602166792672472;1.5394633735061347;-1.00562210819612;1.3730035181364844;2.463177407437965;-0.3479976420323252;364;1.2566370614359177
419;-3.1268659051571324;0.6618715451573504;-0.9777993720392744;1.8796562070282867;-0.1994991546212666;2.905305161925245;362;1.1427533468515343
420;-2.965958827541618;-0.415043724090879;0.9597714922078622;-1.2997610970946103;-0.7829150272793373;3.2053563886088567;221;1.2566370614359172
421;0.2721663198832853;0.5694410439602827;-1.802788597923896;2.0329431512007994;-0.0131189110752058;-1.8256150206401696;354;1.2566370614359172
422;-1.718920412855182;0.1781762759152681;-0.9766762316811602;0.6583249605916612;2.2738167223985197;-3.205816105970629;397;1.2566370614359172
423;0.8257642093447319;-1.0622979440490754;-0.1426140384769667;0.8000948132864732;0.6832354924052991;-2.7577867872329414;115;1.2566370614359172
424;0.6430785883317514;-0.5528483255534037;2.090265117311338;-0.098174491019845;-2.335946330422334;-2.0515145000482566;375;0.9825735576922392
425;-1.62845522871084;-0.1301256433792262;-2.571101976087167;1.1013481980668285;-0.6798138393390787;-2.7921188218877364;229;1.256637061435917
426;-1.6910376466328616;-0.8771417725495222;0.6265965154758162;1.749151309426029;-2.8149963304687744;-2.480711007253645;276;1.2566370614359172
427;2.6039326712683044;0.9832833020796528;0.6766021274508526;-0.4983085747673574;0.0822270302566931;1.9484150444252144;206;1.1489189093315972
428;0.1499710321366256;0.0017766136864976;-0.9691383129138308;0.0983110020842369;-0.744342255617428;-2.5799201974366865;138;0.9873350794920894
429;2.3646810557633398;1.6659309094544918;0.3077665216913416;1.0116003690998814;0.1596510574470196;-1.3063123095629674;335;1.2566370614359172
430;0.9023123798834652;0.1999702337429431;-1.7040852180979265;-0.3786218842390266;-1.768850278335064;1.7438044252851246;123;1.256637061435917
431;-0.2645392371733859;0.6666579981221318;2.061904395660759;0.3920190639159567;-0.1468490320430238;-0.4305103222744048;213;1.2566370614359172
432;-2.604787133272553;1.0453669220531971;0.7633613543245668;-2.84635357297283;-0.3165206716756238;2.574499684772469;252;1.2566370614359172
433;-0.7889210170248186;0.7592276259113429;0.3690892974581671;0.2711262841226974;2.4320305058635303;-3.1507990300357425;304;1.168324277213216
434;-0.4047207418292098;0.2361547041118139;-0.4472876052647999;0.851062620968653;1.8229970599744547;-0.1343842069506989;194;1.2566370614359172
435;-1.469517382958752;0.1942630383063958;-1.9775611089418048;0.6136046382380469;-0.3407917916344255;-1.5175177102187996;229;0.7773867723615384
436;1.7544740110214003;-0.8296740756714575;-1.0500027200651338;-1.7100122445946884;-2.3100435265513024;2.6534075448128958;247;1.256637061435917
437;2.033963938330611;1.3996067999473116;-1.4859750590175738;2.2646914027449707;-0.0726691953592351;1.8655653335598408;255;1.256637061435917
438;-1.5780244785636346;0.4095630713517497;-1.5332696073126983;2.710416554462908;-0.3322210160298853;0.2758805712613418;184;1.2566370614359177
439;-1.2365545558415478;-0.8190318115831452;1.1875844131081963;-1.3981690330340906;-2.873100291840766;0.5761284843827874;18;1.256637061435917
440;-1.49420676602091;0.0862944497576826;0.2255586480451774;2.452128155831929;2.1250703783158817;0.0374349823114164;315;1.2566370614359172
441;2.746128277632183;-1.1174719665712305;0.4402886788272992;-1.2930597401945767;0.2019245553929989;-0.9839274311562308;1568;1.1544035066084817
442;-0.0218097374204351;0.3211333008968994;0.0822216654427708;0.3912275214775853;0.6657643415325369;-2.934284985045588;50;1.081358933223873
443;-2.556024996735877;0.6531104623817165;-0.5124827547588298;-0.2771353332573919;2.3250941910213707;1.6539857177116084;166;1.256637061435917
444;-2.3750573345563737;-1.0336728512146118;0.8883155438655596;2.00207647882069;2.217430990859941;1.1056974190967084;139;1.2566370614359172
445;2.825121307976578;-0.421055314174018;-2.4388282721581707;2.60341209823477;0.8841827118346367;2.421402912822338;379;1.2566370614359177
446;-1.65113023284224;-0.2816847793378834;2.077913236609387;-2.704341441923493;-1.8947959959230285;1.702048226963246;381;1.2113311811719265
447;-2.02017754657501;0.1127923430688224;1.040508383635786;-0.5970548815380463;-3.0600018279472465;-2.9241384188337247;235;1.2566370614359172
448;-1.5533107570949067;0.1987089642262921;0.6478353738963789;2.260997155245951;2.18276827187723;1.7016392620632887;302;1.2566370614359177
449;2.521943239876752;0.1353208308794379;0.2723121789720731;2.275727086899755;1.7847770888608252;-1.7608168616681417;408;0.8159547309251627
450;0.7298879684842381;1.2153737858004894;-2.4345159909539045;-2.607035898132976;0.3242263556854114;-1.175668771807551;1444;1.1750227359488163
451;-2.973212073338234;0.6047716629987793;-1.059570955776925;0.8608020788412656;-0.2596431532580883;2.1954465981279085;419;1.256637061435917
452;1.209079919055562;-0.963188208256516;2.125339769941548;-0.1235108304919016;0.3455683707452712;-1.995913044351564;91;1.256637061435917
453;-1.483538589076645;-0.7804891431539357;1.4095507223494803;-2.6718216024452186;0.6676408239549009;2.6749036028537643;309;1.256637061435917
454;-2.8413408544277736;-0.1374454958013864;0.8748127837283004;1.9347553447421428;-0.3188484425342746;2.454368228475366;345;1.2566370614359172
455;2.3885808657949155;0.869611010459388;1.4468682997555289;2.464424098020497;-0.9357764818558748;-0.5402959430822233;66;1.256637061435917
456;1.0829294270615546;0.780152400212972;-0.9655806103069138;2.4735788689064724;-1.545025803747352;-1.3474876104812483;73;1.256637061435917
457;2.78590599621532;0.8994455165351616;-1.7255381016855644;-1.9009057603399269;-1.8420997392152885;0.3869099635798749;171;1.2566370614359172
458;0.1262701703066585;0.4509339475043801;-2.1111341091307056;2.59948524385176;0.357866148537823;3.210776148266278;228;1.2566370614359172
459;-0.3619186856974525;-1.2765301807275118;1.428556493214488;2.753558494016504;1.819642197727792;-2.674951242075488;373;1.2566370614359177
460;2.0498271014384306;-1.135489951282015;-0.7047870766312886;0.9788042999995368;-1.0934786295799;1.4108001139512658;856;1.0405729468856932
461;2.132358797523948;-1.5319329046856291;-0.5313362624335565;-1.604486662071965;-1.2878755922260434;1.9269401283498708;106;1.2566370614359172
462;-2.62978443034725;0.4764215329796281;1.642987859091107;2.5262164590388347;-0.7721222731372862;2.56469271776429;454;1.2566370614359172
463;0.7399435285871382;-0.048004523600044;1.0013400002457482;0.2041669382111712;-1.7350817083539571;-2.8860405830831004;375;1.256637061435917
464;1.8267748972306423;0.0006666575580357;1.6140685005348805;1.2261191754632608;-2.740074284930841;-0.1423552504520353;142;1.2566370614359172
465;-0.2010771144416092;-0.2097292803314461;-0.4439994711833819;-0.1810857509091191;2.518789704369849;-2.99024529203606;397;1.2566370614359177
466;0.5091733005103041;-1.3193346764733644;0.8983528659025969;-1.49811203778054;1.0044539370280343;-1.132084407001438;368;1.256637061435917
467;3.008332426894144;0.918404624725676;-0.8883369294326735;0.7777196653857747;0.99950766403975;-1.0299743844003766;335;1.2566370614359172
468;2.204837400113777;-1.3058551984959583;-1.3180546112515117;0.9318034770393464;-1.229395324766153;2.473487603108898;460;1.2566370614359177
469;-1.0058207999750957;1.2707336920599768;-2.538406457089673;-0.397029653337614;-0.1303521247872086;-2.379204217697035;189;1.2566370614359172
470;1.053562879616624;-0.9959645105766554;-0.6747607393159452;0.7275847281037793;0.8126260126426901;-0.2938112666057539;147;1.2566370614359172
471;1.5367923464833693;-1.0731549693324285;0.1740876438892746;-0.7115680448881884;-0.2642804064354924;0.5831031978907932;106;1.2566370614359172
472;0.5359072154204529;0.905401297656582;0.5611146696449034;0.3181614865571358;-2.9512465455865016;-0.1893018143476107;319;1.256637061435917
473;0.5239305160450628;-1.1661251723969266;-1.4080421233483724;0.1802782934006466;0.4450106961466931;-1.344148332912625;8;1.2566370614359172
474;2.20464237854956;0.0099080707204328;0.5202679135754417;-2.0846344751204784;-2.021688006682439;-0.0503544498579745;90;1.1588207053831965
475;-1.361818958506191;1.1780017621184635;-0.2095133611676024;-0.330603961660818;-0.196481535665914;-1.3716598171814656;127;1.2566370614359172
476;1.815855500781392;0.6325823554344281;-0.4189736450883837;-0.4232878284610515;1.059018332084774;-2.1010475295231306;31;1.2566370614359177
477;0.4235487452465304;0.6973337487547079;2.270138368047028;-0.259432611712157;-0.4801248545492422;0.294684261368546;431;1.256637061435917
478;2.102951370460691;-0.2041490490796973;1.4889363589563511;-1.597501603831547;1.9433934209644128;-2.857372196333501;308;1.256637061435917
479;-0.1591194972086089;0.7867526598458656;0.0691422205159708;-1.6916304806310558;-1.6416471582339616;-2.991454718661235;233;1.2566370614359172
480;1.9497948581909204;-0.5949090399554409;0.1203655665596322;3.0499482503489124;-1.0185008050489612;0.100101342127071;265;1.2566370614359172
481;2.038704263517001;0.7812685559654987;-2.206687973747657;0.9960990615566826;-0.7999799488386217;2.9245722088339945;255;1.256637061435917
482;1.699325434726157;0.5184281627301236;-1.356734745756988;0.8721064078586946;-1.5154637922630798;2.2404123792661426;255;1.2566370614359172
483;0.7722156570810988;-1.1732258423715638;-2.1998923378526025;-2.41679105718856;-0.3411121238208614;1.693204860095212;316;1.2566370614359172
484;2.2624750399856914;0.9008479467953456;2.226570110993221;-0.4017883478149522;2.228744158468837;-1.7855271971563995;314;1.2566370614359177
485;-1.0537511129041572;-0.2967229023120113;-2.245609186024431;1.9602592055064003;0.0105968391081956;2.628548883102308;228;1.2566370614359177
486;-0.0463175644051684;0.6888744436439677;-0.9916119405004024;-0.4612543251962598;1.9234084184192244;-3.112084575005647;465;1.2566370614359172
487;-0.1416112871762177;1.300468958068036;-1.731857286155539;-0.5722757307981551;2.476712884447725;2.135975845700405;298;1.256637061435917
488;2.051060708565592;-0.3178727615252156;-1.2044922909599007;-0.6166176427524211;-0.7964052673019655;0.5983340680142031;94;1.2566370614359172
489;-0.5856693026172494;1.138671892532755;-1.5363015481696674;2.206172032602149;0.6672447724887457;3.3466162078694874;458;1.2566370614359172
490;0.1095998888642102;-1.224533303631918;1.6188074702324933;2.3111049229300984;-0.4869449378443893;0.5505076575190802;383;1.2566370614359172
491;-1.6353097789179545;-0.9168182064445308;1.854774554231242;-1.1404679410163887;-2.816578809410606;3.3222031406211467;145;1.154782934564303
492;0.3320052633436854;0.0735053280108118;-1.6427394767662982;-2.1170431691292326;-1.603411495085015;-2.978661766170332;233;1.256637061435917
493;2.1232044037922684;-1.2979463719248814;0.4599383261993046;-2.150473700206148;0.1736981785417454;-0.5648539327627885;912;1.2411120865966805
494;-1.1238915431663363;-1.2494836947732813;1.8515861232240127;0.8244049535537603;2.922920718966175;2.423829035143552;293;1.2566370614359172
495;-0.797253688144402;0.6238473003331604;0.2567964016989192;-0.4343627324096698;0.9409150540295824;-3.2479792590848944;442;1.256637061435917
496;-2.1257360315692213;0.4155112428740472;-1.1989383953571475;-0.8176263070166685;1.4293721368546874;0.0612507870671614;256;1.2566370614359172
497;-3.141690766281135;-1.1646501445800033;-0.1692235886305616;1.7559620840311951;1.0378810680439046;1.4569016448206056;1761;1.0955056770976137
498;-2.3058818421467397;-0.5734147745492021;2.775897105186285;-0.1037160502483892;0.2317068275315725;1.1928512659106123;254;1.2566370614359177
499;-2.681483162128566;-0.7846258688548602;-1.9690620459982524;-3.22548871467554;1.2034670013032374;-0.2176192308637796;371;1.0756550173567097
500;2.885202807343114;0.1893193990942578;-1.002197129767278;0.7892281211739776;2.5380366675620767;0.0199349880356879;310;1.2566370614359177
501;2.5300539393879973;-0.1727737415941605;-1.7588965868816806;1.6470459411425735;2.935046717306978;-1.6911578605671642;350;1.256637061435917
502;1.2722266691671278;1.0530110378845816;-2.1260703629606583;3.3964928403121304;1.891290230864892;2.620171595587024;337;1.2566370614359177
503;2.9915538525006453;0.6403016104620254;1.5814767881906593;1.1988716025666066;-0.3669113860250809;-0.025656032817353;22;1.2566370614359177
504;0.5843806513184319;0.0013166591603593;2.350948528722563;2.4247839656925216;-0.7040108738376233;1.7442686785925372;57;1.2566370614359177
505;1.638890004581908;0.6125176365247338;-2.6073534811678973;1.1186518725594548;1.878087395836664;-2.8060383702979963;159;1.2566370614359177
506;-0.9763791035228946;0.5962237723844027;-0.8539821308466847;-0.0605882325952726;2.374368233906712;3.039340021976395;222;1.2566370614359172
507;0.8417093759903043;-0.4929716381892582;-1.266777546585231;3.202054267124394;-0.1308898205715303;1.8029240163612683;54;1.2566370614359172
508;2.3993911582699226;0.1049933506072554;-1.9964063442696336;0.8658720256286021;-1.8231090778139256;2.884036570725101;482;1.2566370614359177
509;-1.514884476859132;-0.636028066884956;0.552048880792279;0.6975364348972284;-2.7684041961067254;-1.867238167804236;1865;1.2065950164760837
510;-3.0688729016768157;-1.4084628898631963;0.6299930067491593;-2.325588753562379;0.2306088067624172;-0.3707937607582116;162;1.2566370614359177
511;-2.066070656841372;0.2654764729277153;-0.320140412626963;1.515409735233915;0.1758477744226109;-2.337357787575045;218;1.256637061435917
512;3.073127808546241;-1.0433760178132914;0.2989484340970076;1.0745522371742344;-2.6818730304837337;3.129109383293862;195;1.256637061435917
513;0.0099650491646047;0.8898150272889822;-0.1954637052450693;2.158089930799321;-0.305791946667162;1.9150419378468515;374;1.256637061435917
514;-2.5392513590294694;-0.8201640511654273;0.7264076220306277;-1.4032940556744264;-1.0174010434530207;0.4503148505620877;1256;0.9691238186650122
515;-1.0671901645718609;-0.6086318479230469;2.327290953303281;-1.9675700015040716;-1.4337636302717756;-3.2432308720050904;404;1.256637061435917
516;0.657864887177416;0.3887019927450607;-1.1584263632442953;0.5124297270941212;-0.5718742944097639;-2.553664323637335;138;1.125240163683508
517;0.0499132111518055;-0.0293961963078154;0.609193473124871;1.7009479529853382;-0.7196680774964161;0.860543008965061;383;1.256637061435917
518;2.382700657994689;-0.9499403068660062;0.7025854911278684;2.160574283940444;1.594738739938529;2.5536875132427745;341;0.9229023755298322
519;-3.209747105850319;0.1555888782610858;2.3531511895830985;-2.3822112044033426;-0.9087901428162845;2.4716360965472144;381;1.256637061435917
520;-0.8294368466319265;-1.4364663411111147;1.27001225753839;-1.8771007149686327;1.1422566698459138;-2.4704282762037137;187;1.256637061435917
521;2.4019628433191387;-0.4592626226439458;0.2898808263750396;-0.8313458467168262;-1.6133834112928782;-2.937052175936252;394;1.076672801258881
522;2.06297606267624;-0.6455362893126643;1.5784252794351596;1.572121867422537;2.4109422406637964;-2.8113179507179598;342;1.256637061435917
523;-0.7278338303738197;-0.0826022653974338;2.4972876197647285;1.027939821946885;0.6343369384580796;2.39778093183306;226;1.0241370426767218
524;-2.5879220712645243;1.3546931698936509;0.3945109188245474;-1.5906875959393436;0.5369746025178594;-0.7191405037761982;148;1.2566370614359172
525;-3.221779270990465;-0.1999795242187076;1.440366472814606;-2.8786962221668784;0.3720697196338237;0.413065569152955;198;1.0668874735020286
526;-2.944921135987875;1.548039380937878;0.022588337023647;-2.7628902107267623;-1.0885055907517696;2.331406179778106;432;1.2566370614359172
527;-1.40413787671122;-0.6510704366581214;2.431231179515557;-1.5602322881904178;-1.4874684447538828;-1.543597227090555;261;1.2566370614359172
528;2.61940467334451;-0.6998391674924368;-1.4952971632467769;-1.5726133596025225;-3.08349529368712;1.4990293881591517;247;1.2294083853277271
529;0.2300669031753459;-0.8239006248651326;0.1642470275839078;3.0150640518124923;1.2321865243462822;-2.97983753969928;391;1.256637061435917
530;-0.9877491691971482;-0.2137135448878376;1.6713818182927422;-2.513431301531523;0.0883357914321809;-2.134116232013236;187;1.2566370614359172
531;-1.807291672425252;1.2424691288204333;-1.557651724779986;2.8991305077451948;0.3538871094769347;-0.2949862728651962;438;1.2566370614359172
532;-0.4819400619232424;-0.59778905033193;1.2365502381170876;-0.3187474587025942;-0.537017255973303;-2.06808633443012;177;0.9067857465925108
533;-3.283278806787755;0.7793293746903894;0.2701472077287568;0.6995317124634105;-0.9681993419936952;-1.543494106583884;209;1.256637061435917
534;1.794470909238691;0.8966414462817713;-2.672553113408497;-2.250454917370808;0.4273243442937058;-1.304510393407623;450;1.2024841654757266
535;-3.137153533280561;0.1510294820296805;-1.518936955529422;0.6933336828045626;-1.2482584244278394;2.5559393099903343;451;1.2566370614359172
536;0.7154942452715476;-0.1882104707912634;0.9528307062277308;0.4964443810518782;-0.9141208705473772;1.929721137725927;1884;1.22964707823485
537;2.861822352851249;0.8749641100200802;-0.3792156976281394;1.0910675899723803;0.795928296703437;2.319766032844631;206;1.2566370614359172
538;-0.5234267503784168;-0.647544354964966;2.468038458438786;-0.4677771873869446;3.080608850340557;2.633557420811852;347;1.256637061435917
539;2.528421710106789;-0.2844292367820736;0.107010709636938;0.5750278069280305;0.1456348731229066;-0.5595323214083859;65;1.2566370614359172
540;2.4087179028377776;1.5780677977112367;-1.3781330112333905;-1.5008845454382491;-0.7732554772465466;-0.5624551060997276;39;1.140299268043205
541;2.3877674163057265;-1.1071670895415469;1.7967775512830493;-1.5087582091889171;0.3705080599226718;-1.428100270864106;214;1.2566370614359172
542;3.018476844503756;0.9605512738201378;0.6961772025174672;1.5763684383763574;2.794163945993335;0.3550947912367899;225;1.2566370614359172
543;-1.0884288983126962;1.556438896537851;-2.132997219486009;0.9921293944757748;1.5512999318812046;1.6917599919183903;160;1.2566370614359172
544;-2.3309211297151835;-0.1422962314324638;-0.8574470697412904;2.5212458982839;-0.0137573319283861;-2.417091254442698;511;1.256637061435917
545;1.8594709223591317;0.857815452064871;2.027924856193847;-2.7281050020485846;0.3431203662243548;2.812468930547974;372;1.256637061435917
546;-3.111902369517028;-1.0269332374616282;1.5637672229672228;1.911521028221508;0.1144832170774485;2.226837245683973;454;1.256637061435917
547;-1.7768086150238371;1.1805858353041974;-1.7213347003501445;-1.5549447864098058;-2.755241837476124;0.2215439168750171;260;1.256637061435917
548;-1.209263576445806;0.3278586341794358;-1.0011648622372038;-0.3719953261763194;-1.5693061622168616;-2.620564145994604;417;1.256637061435917
549;-2.2447965189287684;0.3242633699433319;-1.8973643175470536;0.8897319708176671;2.5007479158656105;2.121908514705846;407;1.2566370614359172
550;2.565215728687577;1.1954148556491848;-1.022795136479366;-2.2001033161344594;-2.6998872878345;-2.103727064908909;144;1.256637061435917
551;0.6599270725885303;-0.7624982517802441;-1.6699072771420251;-1.7762511157273375;-2.1988282618267982;-2.429750510486824;492;1.2566370614359172
552;-3.047196617362788;-0.2876903787344186;2.184158555300073;3.0273428555039383;-1.2732877651255197;2.403830917908936;462;1.256637061435917
553;1.6080304045563318;-0.1065588284467786;-2.65893831485702;-0.4268928348868576;0.5101424612957253;-1.5183351315813574;307;1.2566370614359172
554;1.7771899771311004;-0.6191795984664648;-1.3777444618041947;2.009357153532229;0.5305579153899478;-0.0033345994544257;312;1.2566370614359172
555;-2.192448386475468;0.4455915141119196;-1.0805750037781892;0.5260728268072222;-2.657764090817965;1.6425638501019746;178;1.2283538934850629
556;-1.84277195568568;-0.4276109440439265;-1.940613150321299;0.6091389416042152;3.175276170971732;2.6845866590954004;549;1.256637061435917
557;-2.369796697488571;0.565354626224883;-0.7168871942120936;1.383298757802146;-3.0498237800518506;2.358472474308197;555;1.256637061435917
558;2.693343937447927;0.516212736371714;-0.0205933466766046;-1.149903731315308;-2.591667772289879;3.2210240337533262;329;1.256637061435917
559;2.8369223993548154;-0.9141685379677088;2.499502113011004;1.380072671136108;-2.67693363655272;-2.072492240635395;331;1.2566370614359172
560;-3.061041456633508;-0.4845409365638257;-0.4428523059066853;3.062165489997231;1.7530673858298078;-1.3855340435057;207;1.2566370614359172
561;1.8388608618357445;0.0427959039379464;1.3649834388938071;0.8473694579437419;-2.935919329126301;2.0274693003494626;167;1.2566370614359172
562;-2.9645945221121406;-0.2364851674040784;-1.403314408487275;0.4266617487408044;-0.078044531760909;1.4662457064286087;451;1.2566370614359172
563;-1.2877826866577955;-0.5488535099103931;1.8564577066646568;-1.4931419259245335;-1.3243460272217784;2.5844402758161893;35;1.2566370614359172
564;2.2072857064094893;1.6114402032827793;0.9558415663756752;2.7362978900758472;-1.1990820198556902;-1.322348243117897;455;1.2566370614359172
565;-0.7704360289642384;0.7698931921744536;-1.6914218719397427;-2.8467025473523546;-1.4176301262214512;-0.7384837758364964;119;1.2566370614359172
566;-2.851109250995833;-0.3395881196248205;1.8256648148286316;1.5617759935929276;2.714538207727288;-0.6648183668881125;395;1.2566370614359172
567;0.0733397562929463;-1.0563385988026517;1.9099594091380308;-0.0351157942195445;-1.2246387890472112;-1.2800062343091083;410;1.2389454809952816
568;-0.0495724758298732;-0.7873189631953642;-1.3113286821026828;0.3617479789302774;1.9412814273864207;-1.7761372630991474;232;0.8422589920075663
569;-2.417725457408523;-0.3298364947169565;-2.024971301933552;2.4580435104411738;-0.3274170311563572;0.423669149595934;438;1.2566370614359177
570;0.7532455306857794;0.6664697713410189;-1.668210342518604;0.6010518762518677;-2.163353410989308;-0.09208344595193;30;1.2566370614359177
571;-2.2555420010114133;1.0734569231798237;-2.604805885285347;2.333694000797988;2.5092285166200705;-3.062534280773715;273;1.256637061435917
572;-2.284349058533135;-1.27066264462585;2.436192951799592;-1.4576862778581927;-0.8502555580523098;-1.6059663620679996;527;1.2566370614359172
573;-0.6137772951025918;0.4812966417982867;-0.4942894863841441;1.389448099155091;-0.490303042387298;-0.0630557312052323;184;1.256637061435917
574;-1.064046138773999;0.1500458782778815;1.675747362522466;-3.3256219789425305;1.5325327286924617;2.0303847901000105;309;1.1580881790407591
575;-2.1487609271909185;1.0740493713490291;-2.47581216537182;-2.8898196837401504;0.2080826550887709;-0.1761359188748338;179;1.256637061435917
576;2.12003979691982;-0.3068292113392478;0.3062141261218364;-2.1952222165482995;-1.671520591379781;-1.1865721712002546;474;1.2566370614359172
577;3.0724674083778685;-1.4068125566493377;1.4233100974799036;1.416417653904304;-2.4889181345626112;3.29868958609973;512;1.2566370614359172
578;-1.1225577370785496;-0.4016962046732704;1.522037688335192;-1.160086605709307;0.6996642103842546;1.122191398670683;134;0.9529935123737914
579;-1.9237917614582607;1.5778386904035684;0.9982807655579764;-3.081029250775362;0.3736301277958277;-2.376665509363873;263;1.2566370614359177
580;-2.9634428716171364;-0.0327847216952555;2.302142930474114;0.2015952994601277;-0.0788422448279796;3.213045580803998;318;1.2566370614359177
581;-2.511281356302866;-1.6247248906435;-0.9645998030660206;-1.36517624396776;3.31594660476448;-3.011759154094708;258;1.2566370614359177
582;-2.906980995294287;0.2119548915235289;0.9862447797114944;-1.4866261964936576;0.28748236069779;3.2394311150552397;420;1.2566370614359177
583;2.5081051595794706;-0.3990076283133992;-1.578197033705651;0.1133710884634197;-2.15628642470802;-2.7962294594824337;53;1.2566370614359172
584;1.4801585821973162;-0.6985897670664051;0.0840792178937033;-0.1272985708584641;0.8544833926468589;-0.3112897354423498;470;1.256637061435917
585;2.4696130382805386;0.7144526938764172;-0.4518771681283259;-0.1191028146359275;2.8322978299572554;3.0359601475701323;1819;1.0938540312014478
586;0.4571107585421334;0.9056643919308748;-2.847383088865241;0.2348503972042487;-1.9695778605710887;-3.213584460897752;223;0.6169255669342272
587;-1.1638086485738903;-0.2768436969619671;-0.7778916543206309;-0.7642453671340844;-2.853017187023042;1.996647969567806;414;1.2566370614359177
588;3.3291755139232757;-0.0535389614974758;-0.3459092033432351;0.8982532221860524;-1.2571303391467068;2.3313218885048403;158;1.256637061435917
589;-0.9241705103696712;0.6999976884033761;-0.9442766701982594;-1.3284290950589404;-1.7894615146773498;0.4234919262986916;7;1.1733583733354949
590;-3.151815223701204;-1.353717397693664;0.1979834963117714;-2.928895199699776;1.0748368202271357;0.1823141696683402;510;1.256637061435917
591;0.130449127414793;-0.8008449111865973;-0.4954291262605092;-0.0954100577275199;-1.5620137937636176;-2.6434756880887185;428;1.256637061435917
592;2.328321646259405;-1.411325157757954;-1.1354498012472;1.936545503385941;-3.053743721900391;0.1494006396011211;237;1.2566370614359172
593;-2.0865225775739624;0.8659354825961515;0.7703044256027465;-1.7135551265185476;0.883368843313605;3.081044248531032;582;1.2566370614359172
594;2.7450716774888893;-0.3299558454009079;-0.3879838224311206;2.292205352666685;-0.0981024420740179;1.1122753896127215;47;1.256637061435917
595;1.524860551170529;0.0055097566699201;1.2043030211966943;-1.9338358421022144;-1.2048935046199465;1.0515868233979084;188;1.2566370614359172
596;-2.3781401156508046;1.2975816376196851;-2.0039877971854168;0.9443231639366632;-1.439966377866607;-0.7150576357466645;396;1.083935963169974
597;-3.3242048549847496;1.685894334725238;-1.6438811217473068;0.8077040057445039;-1.9851576051243245;-0.4188543675828717;596;1.256637061435917
598;2.669877968213483;-1.2902875815181656;0.6029443340018569;2.840575563537961;-0.4972341306856779;0.269298174834934;480;1.256637061435917
599;-2.264730814009912;-0.6720332291780595;2.148847330879881;0.9338761081166456;1.7049262035984942;1.1292841423227644;254;1.0370515926542128
600;-1.8930978611262232;-0.7252203001607517;1.910171358238446;-2.6911527463849523;-0.3731462572621065;0.0972389711857637;162;1.0889495531722595
601;3.064235264595081;-1.2682876874337683;-1.709077655386997;1.342359215913254;1.685874316929706;-0.9182869636984212;386;1.2566370614359172
602;-0.8165448239667803;1.2503091404434237;-0.5265291503387123;-0.3521422776612267;0.7641790172904204;2.1312850636504304;111;1.0620012296094856
603;-1.5156210383554318;0.95178497835572;0.4634805702754581;2.5267363682451207;2.49214754595639;-2.0105172574775;360;1.2566370614359177
604;2.55424735832984;-0.7099528236002436;-1.7829449525202126;2.573475476986396;1.5191290330247604;-2.5131222328195406;163;1.256637061435917
605;0.4886931668322259;0.0157542948223162;0.7991397732949476;-2.695031078620734;-0.7334071288078441;0.4323542219839781;278;1.2517847526823371
606;-2.5499101751134057;-1.1738240605777486;0.7921703969121614;2.9575332004358734;0.2116815766948321;-1.386883992146101;401;1.2566370614359172
607;-2.5086235020393604;0.3208077074443518;-2.429665112940709;0.965583234939763;-0.2093714615286365;-0.2770413236995874;396;1.2566370614359172
608;1.8947944681310465;0.3190256977095994;0.365918522923403;-1.8204566162831648;2.79650543033244;0.0443898932478703;361;1.2566370614359172
609;3.277783343805597;0.3394131564890741;1.6796395082165334;1.3197041825691556;2.5940239667617733;0.5467011921318414;542;1.2501584269493642
610;-1.849432221005432;0.4735988026496655;-1.7529330097866709;-1.037197093046546;-2.200668709132425;-2.6317756691649827;303;1.2566370614359177
611;0.5999837040877628;-1.4698073325938632;-1.4116378494143984;0.01834943013849;1.863934225105771;0.40692074791649;241;1.2566370614359177
612;1.9246170472536892;-0.2671364137049666;-0.4830530093423876;-0.2017080874118438;2.702286351679289;1.7453626263812632;104;1.256637061435917
613;-1.2621498592169584;0.7901059167105368;-0.917903004433819;-2.102418120341724;-1.766401162794516;3.2339725087616187;251;1.199509290542865
614;-2.489189058865037;0.4964666559472961;-1.3135445015700218;-0.0292838395394227;2.10099021154606;-2.687782270204617;422;1.256637061435917
615;-1.5019073352225;0.6424071960146285;-0.55984778667442;2.791615277201064;-0.6936798292557376;-0.3831571751129983;438;1.2566370614359172
616;-2.30592535510373;0.2742480277876932;0.2853625121981273;0.3463173804271125;-3.097441757439027;-3.0232277515206527;447;1.2566370614359172
617;-0.3668250102741918;-1.703970246827263;1.5140034196442738;-0.6198366866138547;-1.8533546485107115;-1.4310936327466832;567;1.2369165189195754
618;2.420891356423941;-1.7887809720975918;-1.517380293383662;1.1544657938474885;-1.9539093369296203;-0.9103817354349052;237;1.2566370614359172
619;2.286968238754883;-0.2368959394137517;0.0905246666647205;-0.5093823751890777;2.661732530314472;1.209178424289639;612;0.9192419708871864
620;-2.403134525013765;-1.4779157176838056;1.7155902158123348;1.3903445665503855;0.8358339557891653;1.985222602690762;546;1.2566370614359172
621;1.8919957968804728;-0.6371268529184393;0.2553652414701097;2.45781510127389;2.3493792244932274;2.335296309723942;518;1.115427519647998
622;-0.6655996505220249;-0.6920470941537328;1.1261766855711866;-3.167656442675752;1.780272409587525;-1.4885586810082942;187;1.194547697087176
623;-0.2023347892515229;-0.4504459182231771;2.600453730474797;2.916293906666024;-1.307969892465896;2.040114465209952;504;1.2566370614359172
624;-2.786091206718121;0.2572655521862245;-0.1675509861694048;-2.629519507516568;0.9167399962161582;-0.0134891016411011;133;1.1899642905355725
625;2.717246860764396;0.3202138066547071;-1.8302767734527816;-2.864797576689152;-1.4260134067835395;0.741491117249004;457;1.2566370614359177
626;-1.344527150155555;1.0271920340261378;1.92188154244232;-1.128824656723721;-0.1862091815988251;-2.2245245865146157;338;1.2566370614359172
627;-1.342512105356367;1.6902194731596203;0.1883394295825126;-3.0431402827611715;-0.3767314236362771;-2.2864533940078875;579;1.2566370614359172
628;-1.7243248858420548;-0.572175710591137;-2.1497802640135903;-3.385170790526596;-1.722936347633763;-0.7679709609477097;176;1.2566370614359177
629;-3.1644442487236386;0.744169954078695;-0.503087560343682;2.709202650366571;0.7735922169123397;1.9369788644981425;362;1.256637061435917
630;2.602507622101641;-0.0054024597813642;1.2799736827902402;0.3661019422503512;-0.0253681825754651;2.8212194548644733;120;1.256637061435917
631;-2.4012294441878663;0.4458280862659081;1.5737584676111334;-0.9688049063938072;-0.862239834567373;-1.503090023095028;413;1.2566370614359172
632;2.6231080952271237;0.4873975979664445;-0.1384547973712665;-2.496788474062995;0.3891970654705966;-0.2093135018137396;172;1.2566370614359177
633;0.7431919784910803;0.7301533863975007;0.028566750435487;-0.2243922400397651;1.4606520186814833;-1.3306160657088186;31;1.2566370614359172
634;-1.789112191819232;0.034942386382727;1.5518874248267864;-0.1321093970853319;-2.1785118880001297;2.563318427556817;145;1.256637061435917
635;2.0960609039183997;0.6999985925660279;0.6047089569872875;0.6620765504706634;0.07550333280036;0.7181680545875402;4;1.0396620047969074
636;-3.308383094791796;1.5229938967538674;0.4789793713650123;0.7129181909995653;-0.1092251220478414;-1.0496897155402023;533;1.2566370614359172
637;-2.702358802550562;0.7536629741816164;-2.060361732728819;0.8326319258316088;0.4324440839924642;2.2428397053747133;451;1.2566370614359172
638;-0.829222122731897;-0.0779727562658478;-1.892820235977701;-1.4892832187300145;2.146380254253315;-0.1060467157577371;256;1.2566370614359172
639;2.743997293628233;0.8244037575434148;-1.5430243666613013;0.8553809716282043;-2.2960022369175306;-1.83851477812628;53;1.256637061435917
640;0.7666065674675065;0.1447689857578396;-2.008859550032641;-1.5207076084026752;-2.845347643022863;-2.407406702883093;551;1.197159988627879
641;-2.299257098784012;-0.2515680632699558;1.994097229169606;-3.3312454915689744;0.7632363173100548;-0.836798641567784;131;1.2566370614359172
642;2.38015811587408;0.3846533578853359;-2.0849769006428343;-0.7453542072425491;3.046032038884734;1.7216634197997136;328;1.2566370614359177
643;-3.233607216244831;-1.0097581706150889;0.5175128328609123;0.7789753132870092;0.2041267926085079;1.0969542066075149;345;1.2566370614359177
644;-0.9233558983450832;1.4227248997126916;-1.1941186386426152;-1.1221494472200506;1.5830456711077197;-0.7889271706556882;121;1.0674095999231448
645;2.78571623392728;1.2933892017426416;1.1755001281613535;2.66079345044036;-0.252938687479028;0.274175166038145;455;1.2566370614359172
646;0.9878446386332984;-0.727069635055168;-1.343843720380834;-2.4958193816547896;1.5639775070150237;1.181840817039061;210;1.2566370614359172
647;-1.7670446494323775;0.877517944190579;-2.6777500661774263;1.471126370799372;2.574967018732803;-1.153748740157348;164;1.2566370614359177
648;-0.4898488531217892;0.9194262576065544;0.1895623319007524;-3.259975515590795;-0.9573322327724458;0.9702015950193008;278;1.256637061435917
649;3.0916352977470507;-0.0498418471206227;-1.0156784081577328;1.3030884765953548;1.9397320597398364;-0.904372325811704;350;0.9007809143126794
650;1.4762964388925277;-0.4344913123212406;2.0186256223493246;-1.41562046082302;1.590935523306219;2.12307108668385;122;1.1861286393508603
651;-1.5527548366579826;1.3885906177408565;0.6643807196164697;0.141463003512486;-1.4492042594178027;0.6807913844745374;333;1.2566370614359172
652;3.0127152855628148;-0.8891858754895712;0.5701308059257645;-1.6875107647034118;-1.6734028545023274;-2.4830440221130097;521;1.2566370614359172
653;1.7957298130545745;-0.1910778651835111;1.5154507986653198;1.1931045699310785;-1.6422844458027746;-2.1918132404938984;331;1.2566370614359172
654;-2.327149386538452;0.5986841317029062;-0.8294546171564777;2.61759193400837;-0.773024372384334;3.1055826342945174;419;1.256637061435917
655;2.607397771860376;-1.0839324489175794;0.8412102795659733;-0.6467154325728193;-0.7152478025088329;-2.8921002582448647;521;1.2566370614359177
656;-2.475527166885353;1.0969301378752971;-1.6611636723277554;0.3549521469029141;1.7307541075320407;-2.7752245338700576;1182;1.1976870935464818
657;-0.9503314572259112;-0.0281016814128515;0.4202406182074304;2.276714438120333;2.544133300748447;2.562983381867597;398;1.056595164764025
658;-2.885491154594689;-1.299098627151568;2.3840538946712284;0.2298136188272247;-1.0408413039617794;-0.8915357615838528;297;1.2566370614359177
659;3.202255748820445;0.5554942874499995;-2.123281003999078;-1.2749249086635135;-1.6425701803211503;-0.4483287159674501;457;1.2566370614359177
660;-2.1297144244434625;-0.3328376049336544;-1.7615821069496582;-0.8242475900619404;-0.8100482437645012;2.415603949054058;269;1.177024545906905
661;-1.0375413427579296;0.4772107844238474;1.261603335747691;-2.892997566400976;-0.5485555417142612;-1.5163286549524315;530;1.2566370614359172
662;-0.4745012508258613;1.0492541663688584;0.1104295215628857;2.890313238392176;2.0378907396063664;0.8239194535026438;302;1.2566370614359177
663;2.162070396894027;-0.6737485487561865;-1.508826282399912;1.0091054850137264;2.458644307851096;0.0226987388843988;500;1.2566370614359177
664;-0.179212285687368;1.4474140125035295;-1.8608107398584888;-0.6216869938687767;1.6797580864737935;-2.730662575818488;486;1.256637061435917
665;2.710259078254873;-0.3895937189501866;2.2660213638553444;0.0862081094805956;-0.4037645869888988;1.95126715392566;120;1.2566370614359177
666;-2.932166912397645;0.5301034809284468;-1.9855901387306825;1.0034870859368925;-0.113808008184353;-1.978694730858623;396;1.2566370614359172
667;-0.0882695851916435;-0.0022927075463229;-2.538714713476075;1.1425263335355738;0.8270150321249821;2.9374054241395355;242;1.2566370614359177
668;-0.71624175940192;1.5287454835741612;0.8309352155417461;-0.537116443015182;-1.2461621989917482;-2.0646627888545304;127;1.2566370614359172
669;-2.909575883115375;-0.8170590457311994;2.8030496929112108;2.816295878787109;-0.9997709206158406;-2.184242396076856;384;1.1617961543391588
670;-0.1069509193389308;0.5690729861410327;0.6963450418969193;2.8604651192670403;1.2882249850687728;0.8537303651766416;662;1.1281589219547057
671;2.671703568217179;0.9371092757320648;-1.4450515790994798;-0.5682440092889016;-3.1966054469821863;2.798796850532707;249;1.2566370614359172
672;-3.049367702637433;0.2208349507705475;1.9072096463749693;-0.2295591985740619;2.6335923797462764;3.237883644345431;272;1.2566370614359172
673;-2.702951134374676;0.9149250245106992;-2.7287530393477017;0.1698798460745787;-0.2538895606732657;1.8000194544208363;637;1.2566370614359177
674;2.196262452337284;0.3049182883541924;-2.708268035394285;2.56126424710234;1.2634577188724363;3.0835296483943155;445;1.256637061435917
675;-3.313082209406581;1.7338642685788257;-0.4708147279893218;0.704238725089983;0.2509226141379473;-0.3406355902394573;636;1.2566370614359172
676;-1.957044247831683;-0.1321351812825002;0.6757338671148712;0.1938816152166931;-0.5204769067884265;-0.7282270293504756;137;1.2566370614359172
677;-0.0756071006793089;-0.8364592148441831;2.0168321500370694;-2.1231862006586293;-1.9189709321086696;-2.8096789988262247;515;1.256637061435917
678;0.5996911233888393;0.5266758245503367;-1.5900524592106056;1.029941824883461;2.0292158045615825;0.7884721646704627;103;1.2566370614359172
679;0.3038589616933471;0.602923031211331;1.992520364524975;1.0251939387006703;-0.030766558967116;3.215464571547478;226;1.118821836848303
680;0.3411873984217777;1.5603793536870532;0.8875624420772614;-3.256067711076761;-1.2742619459479547;1.4829628286169547;278;1.2566370614359177
681;-0.0538533808256784;-1.6286941882137582;2.091195390497381;-1.260075906428294;-1.0275675004353149;-1.2062876394950344;617;1.2566370614359177
682;2.982402811420408;1.4065061871018365;-0.2395769741314409;-0.6365025448251901;-1.2145922686087909;-1.5215878598307182;250;1.2566370614359172
683;0.0421062608498833;0.0846984784479105;-1.6862964197029604;1.3409135770574538;-3.3968029259564663;0.3712294417396615;154;1.256637061435917
684;-2.1538458282925736;0.7274516015965784;0.8217436366568789;-3.3311857679575225;-0.902982599840596;1.7424479127743355;432;1.256637061435917
685;1.6678956221166534;-1.622990802023648;-0.0110666431697531;0.8914752236987061;-0.7489601966435839;0.6439620529494348;460;1.2566370614359172
686;1.6954939539519676;0.7296416779261122;-1.0134722829081104;0.6254065009515173;-1.869408091233216;-0.5063719900752194;570;1.256637061435917
687;-0.117289410340021;0.0491376743675516;2.266264576820749;0.3053175481026587;-2.904736232369117;-2.8314478065322604;375;1.1094612873736582
688;-2.7780988851082142;-0.7883052904242572;-0.147756764803332;1.2038097217460568;-0.0309523112935341;1.967641425922957;345;0.4167548004069594
689;-1.4747020069605634;-0.8312538829751396;2.277163021556732;2.0493767623983845;-0.8488913728162886;0.1449123648930632;399;1.2566370614359172
690;-0.332641456393361;-0.7010880231350132;2.67997431498551;-2.452425072085615;0.4179008598945978;-0.8262366427753917;380;0.9376955642124402
691;-1.4504003035236253;0.0515007443177957;2.592457977401041;-2.7885694910982024;0.4595176855112508;0.123543495635851;59;1.244630350185827
692;-0.8519792785574591;-0.1970068586667306;-1.9694019773767064;-1.1500370463590788;0.7743050706863672;2.8229244045351383;284;1.2566370614359172
693;2.4502496577182766;1.287801513730996;1.6008541300896086;0.1221254148972996;-0.0684114696656289;1.5001797973491422;427;1.2566370614359177
694;-2.923375368523628;-0.5476792192701311;-1.9137255678314573;3.026974800828667;0.9523867983862876;-2.39875287973498;363;0.7332981824990101
695;-1.1809135235812818;1.516815980913828;-1.4228089518771758;-2.1413742058962164;-2.5935068578649627;1.0288974597432932;547;1.256637061435917
696;-0.7658210824715898;0.580517063783935;-2.8452862471651192;2.342711554020294;2.7483994800000784;-0.2496302839676503;164;0.8940677068252435
697;-0.8874998782863285;-1.2210226321927964;-1.639965330089129;-0.5647462839331405;0.5172899567364551;-2.4611491780230046;1885;1.087702500577443
698;1.6595155512093764;-0.0648552226501712;1.736057505731562;-2.973695915373363;-1.911438252074116;3.037069161184258;326;1.256637061435917
699;-2.564934230545149;-0.4463838561018163;1.5019236585051212;-2.43978406158825;1.4213354318460008;-0.8605982915623355;641;1.256637061435917
700;1.082457434911249;-0.7019929799633283;-2.15157906609381;-2.8311357358797618;1.0116449814148334;-1.8003311587711033;96;1.256637061435917
701;2.0440063823894934;-1.6336993552318435;2.276498634795337;1.10976062010173;-2.6133951825805504;0.7020608330918718;275;1.2566370614359172
702;-2.50340031958561;-0.5679626254085446;1.5127250968220702;-2.471082254480762;-1.3795668892806552;2.9129553611922825;381;0.8984741490540873
703;0.3279182549281103;0.8527482956301882;0.3351096995889826;0.1378627863271552;1.60669665107379;2.5837544299248405;201;1.256637061435917
704;-0.6750997794251431;0.7705867297690977;-2.6256550074960208;2.39994996075283;-0.68111239994757;-1.2529622138115275;354;1.2566370614359172
705;1.3359520058337675;-0.9664902650680696;1.3227526613322338;-1.4641749598322984;1.4837893019057935;2.9814315388515924;122;1.169496877684839
706;0.5610773560441829;0.3013903908387023;-1.2081089683906172;-0.4634655623941061;2.3200542320806834;2.6769786269309472;298;0.8532935087954928
707;0.0911790749162399;0.3640645924933354;-1.047177863106418;3.267718835692996;-1.8894102571357476;0.6690319334309546;248;1.2566370614359172
