Komment314/test_diploma/benchmarking/path_finding_for_benckmarking/pre_rrt_star_results/9_5_tree.csv
id;joint_1;joint_2;joint_3;joint_4;joint_5;joint_6;parent_id;cost
0;0.0;0.0;0.0;0.0;0.0;0.0;-1;0.0
1;-0.3826941136097583;0.186424516627593;-0.4592448683304298;-0.8023134021623683;-0.3960104134706985;0.6216839448051446;0;1.2566370614359172
2;0.5578065980680682;0.4095390760716423;-0.4108813990335514;-0.1091316224886276;-0.6982493585843432;-0.657252498385663;0;1.256637061435917
3;0.8626037932352576;0.138042597631999;0.5345894008060704;0.1278946990740132;0.7121143054892201;0.0821338889961494;0;1.2566370614359172
4;0.6043176075868023;-0.2778665574361295;0.4730615096991925;0.6457151068921687;1.6729500778802755;0.4620226721480688;3;1.2566370614359172
5;-0.6336160716376874;0.4659476558470324;-0.1931838065507683;-0.0393652622628356;0.5458522972031218;-0.789769474339814;0;1.256637061435917
6;-0.6837436978419653;-0.1325451775955394;0.397242449853172;-0.697420539194346;-0.5288357995448386;1.411967795126283;1;1.256637061435917
7;-1.2850872290965;1.0062982283636206;0.0695606410248052;0.3911802052356006;1.1592680159716038;-0.3080429901113961;5;1.2566370614359172
8;0.9585848294210956;0.4603057832629987;-1.0714216481065877;0.4572297941874378;-0.7764546960248455;0.1506716967835443;2;1.2566370614359172
9;-0.4692958640734757;-0.6761631466522994;0.7426653460592365;-0.0125298440309831;-1.2847780235224808;1.6908718054020406;6;1.2566370614359172
10;0.3595134052264638;-0.9316390449886652;1.1757195504429312;0.7524936943318986;-1.4520795609722696;1.8526036886202288;9;1.2566370614359172
11;1.3568881524755088;-0.4428890298187992;1.0310922578789083;0.2403220830557168;0.7952321040483448;-0.7730120333026962;3;1.2566370614359172
12;-0.3717752086804738;-0.5220327434296099;-0.4439874029943348;0.9659294366617678;0.1955945360813239;0.0;0;1.256637061435917
13;0.1428429541263499;-0.5483040994684701;1.2754349271551906;0.2437920880866338;-0.4580202312217855;1.9546774959278297;904;1.1010064911854112
14;0.2319537761093637;0.6554404112861638;0.1781089412706414;-1.521299720650945;-0.485634368745895;0.3976859353277832;1;1.2566370614359172
15;-1.5256175021402316;-0.8459251224305392;1.1557815700855265;0.4281671287523109;-1.5320889354949434;1.7828535924654805;9;1.2566370614359172
16;1.187965779558669;0.1905335891507732;-0.5809243819693455;-0.9199767538314304;-0.3979274190777425;-1.25516135133811;2;1.2566370614359172
17;1.209915133036064;-0.3041161475909126;1.4953276943596885;-0.8523040586131386;1.034641899454925;-1.0406204165981814;11;1.2566370614359172
18;1.7804598406996628;1.038777792711244;-1.305799719634002;0.4010995048820284;-0.1236197302640809;0.4417921563613437;8;1.2566370614359172
19;1.1303649543260772;-0.9337805212147748;1.033212572465894;-0.1398034913856143;-1.5644172040804276;2.2473159319494185;10;1.2566370614359172
20;0.4262444025949091;-0.3421045897826536;0.9372193805875456;0.0176473442235536;2.400610368472267;1.097553136345396;4;1.2566370614359172
21;1.5759688788111224;-0.5604049892676016;1.5080854112104385;-0.4277618643897523;-2.0397563944387955;1.406606127468737;19;1.2566370614359172
22;1.391208355932644;-0.0651733156578607;-0.197484401046525;0.507992623926644;-1.1394462615390024;-0.8526777727508582;2;1.2566370614359172
23;0.2518243869795722;-0.5467474370368584;-0.548431784478411;1.913444498300876;0.7204115236546078;-0.0743178382676368;12;1.2566370614359172
24;-0.7926232962871718;0.0125618291322077;-1.0585760633563035;-1.6097129206093224;-0.8102109378343045;1.0668946782314663;1;1.256637061435917
25;-0.5481769797276017;-1.000981149462927;-0.9240575383925016;2.347450314662536;1.3544918712622562;-0.0383649652938924;23;1.256637061435917
26;-2.142851866062155;-1.240540636294346;0.6746444118360697;1.1184210846298226;-0.9721891623125348;1.6379198292369974;15;1.256637061435917
27;-0.0467149376778055;-0.9447784027675208;-1.441006161341509;2.3432549703266914;1.2995245066908818;0.988396392067468;25;1.256637061435917
28;0.3606966023891507;-0.5599169962050473;1.4572534850558303;-0.6272073240386661;1.7301958194505354;-1.547194277231574;17;1.2566370614359172
29;0.5660001403398017;-0.6891857224352765;0.6643780583864816;-0.2065098548023965;0.1677078712582422;2.59696175804869;13;1.2566370614359172
30;2.0050393426488653;1.2326147502748397;-0.8758895927189443;1.1023834274109547;0.3541083018671522;1.2074827305852756;18;1.256637061435917
31;1.1167698794542689;0.1953952874136514;-0.0190053972203294;-2.0559944698910644;-0.9952577534734928;0.4089606802055771;14;1.256637061435917
32;1.506647606869874;0.6025035160363512;-2.184882966886741;0.0608171204843341;-0.5023186206067334;0.9726744540627066;18;1.256637061435917
33;1.6356293587135269;-0.3818263245327535;-0.7343724749430369;-0.7505727306862184;-1.0304071721512271;-2.0290240490680134;16;1.2566370614359172
34;-0.0953966268887158;0.5097343757055108;-0.8302503746002188;0.3922354985912676;-1.332258699945478;-1.2169095186317014;2;1.2566370614359172
35;-0.3251303407603055;0.084929812225027;1.348966453871994;1.1220868941528852;-0.1972914116118586;2.292855471806116;13;1.2566370614359177
36;-2.029940714715253;-0.2638448881237421;0.7289316150510592;0.9073252252020522;-2.128946027947586;1.3160070995533442;15;1.2566370614359172
37;-1.643798408410429;1.0997982690742507;0.8146812221075412;1.0675958013978593;1.6452660489189497;-0.7471146349295432;7;1.2566370614359172
38;-2.4906357086374373;-0.2123430960828317;-0.3663725404016291;0.8226669899370694;-2.2513498802489376;1.693370954947035;36;1.256637061435917
39;0.6210423839721613;0.6137769400622173;-0.8130844672785138;-2.56398682339487;-1.5089561675381;0.4854059926131585;31;1.2566370614359177
40;0.4706020754322897;-0.4706892438438136;1.553061547997;-1.4064376779989092;0.4575625962258226;-1.641776405032802;17;1.256637061435917
41;-0.0626859789014004;0.2863850344769802;1.7969591735326584;-1.767082092889057;1.084993565064325;-2.013742836304933;40;1.256637061435917
42;-1.2300498267206348;0.6050596564452492;1.62490207165359;-1.6339712484973374;1.3351526237449152;-2.0840502928845206;41;1.2566370614359172
43;-0.6740597854978226;-0.2575067890578755;-1.134332039520409;1.995177752064803;1.988139634376816;1.142783289605214;27;1.2566370614359177
44;1.9031864978492028;0.1887105554635813;0.914784649554468;-0.9594855255860072;-1.955464542774627;1.9253066891543515;21;1.2566370614359172
45;-2.186975040679878;0.4079421648606445;1.074175233455282;0.9223105326415004;2.053001186597736;-0.0049973344626947;37;1.2566370614359172
46;0.9461787469355272;-0.9311284342158788;-0.3043644032011922;-0.0342793782552809;-1.2925193141224989;-2.2171087824257363;1003;1.23525143439301
47;-2.424574061692216;-0.1070218253988;0.7251801761407186;1.75827013740392;2.0981140688537776;0.6544223461310552;45;1.2566370614359172
48;-0.6069899274926175;-0.7962623537820958;-0.553837930215;-0.4874793602312291;0.1797042471671624;0.0;0;1.2566370614359172
49;1.769039758839988;-0.4039409631670032;1.7314980514498302;0.8558797516782253;0.3713663344799188;-1.371851824874731;11;1.2566370614359172
50;-0.0608493900901711;0.2133201524182984;-1.1660564423447426;1.5680059451145014;2.314799674607717;1.9741933773760303;43;1.256637061435917
51;1.8258170438560757;-0.5945649391031516;0.4154493468485297;0.5581692084317553;1.4510554905367776;-1.4257673582665946;11;1.256637061435917
52;-0.6165737494018964;-0.0701258759092227;1.0070364613068463;-1.6384991536436215;0.0149786436717553;1.279616409231232;6;1.256637061435917
53;1.34181725549049;-0.1037163924950476;1.1705344597075655;0.2286400930049764;2.7709749119511184;0.4282920801352696;20;1.2566370614359172
54;-0.2782042147843233;-0.1022174391507167;-0.1622446123490152;-0.0583440485187716;-1.493670002327952;1.3100470799234871;9;1.172840141746476
55;-0.3319355153468761;0.4152847484567668;-0.9302908035987628;0.3340814745793298;-2.220968776830485;1.4986866486005652;54;1.2566370614359177
56;2.603037672680815;-0.3511297176124883;1.5387200493016084;0.9805756426191145;-0.4867199976532733;-1.674788418080027;49;1.2566370614359177
57;1.1936238964144172;-0.9536350512263708;2.0500517325725403;-1.326980885042887;-2.109308367823252;1.820320182566504;21;1.2566370614359172
58;-0.843284145507314;0.8452608274662687;-0.8732226573037732;0.7774258130010038;-1.2583470359854545;1.4191362720625562;55;1.2566370614359172
59;0.6507467014475365;-0.6847699106584157;-1.3734685592491565;1.5701045493971066;1.4953698351518738;-0.1169687840151459;23;1.2566370614359172
60;2.8245208180891272;-0.7922156748087272;1.5206479842300202;1.9726683919034889;-1.0763760384729577;-1.6177250353824784;56;1.2566370614359177
61;0.736649684186044;-1.4220315042174791;1.529357318545349;-1.7914489856796831;1.1006435810050412;-1.4394041560527038;40;1.256637061435917
62;-2.3789400883791587;-0.1324744988704057;1.11030779780466;0.4084496597612685;2.419811430015144;-0.9271294511565448;45;1.2566370614359172
63;-2.383533918158748;-0.983521890709148;0.9627173858285688;-0.0023927571687887;2.1865627675752792;-0.1461975860360732;62;1.2566370614359177
64;-0.8739948737276448;0.0259090697902209;2.020133044792395;-1.9795021665415764;0.2167305202842385;-1.9484950490916344;41;1.256637061435917
65;-0.4916489779973958;-0.0351368364690769;-0.5009260793586388;2.0986316844110924;1.6321426947335609;2.3508031445957545;768;1.0432132452860368
66;2.200477019500532;0.0420041399931231;-0.8791989866140981;0.5748804068579197;0.3161414058580102;0.3819029688116172;18;1.2566370614359172
67;2.005736147990457;0.1817409817503713;-0.6949494146723336;0.8474655451498402;-2.002079895894039;-1.0361867249906018;22;1.2566370614359172
68;2.3604229420684746;0.2708478293521684;0.9206415738199374;0.2607132040614706;2.512749802929737;0.9489891680453943;53;1.2566370614359177
69;-0.941148989138552;1.2408506891301956;1.0275659693179902;0.39113824321369;2.291215503178345;-0.3658545249125111;37;1.2566370614359177
70;-0.7547379805279374;-0.7236108751763365;0.1218312273541412;0.7086087867147046;-1.0273043604552183;2.4145012689473218;9;1.2566370614359172
71;0.8848577886396044;-0.6783607036051842;0.2133834755466078;0.1350150731400141;1.998340834884181;-1.0167449049081982;51;1.2566370614359172
72;-2.326777603001736;-0.8458028544582978;0.98724379351999;0.0327072109336104;2.354026773717714;-1.8794548568882576;62;1.2566370614359172
73;-0.6669413870735246;-0.0713788546658043;-0.2342504901867142;0.8689916702116194;-1.82220538948095;-1.5205880275539307;34;1.2566370614359172
74;2.550487556224601;-0.6946876988412931;0.3119459411270308;-0.2845291670404971;1.974051300277112;-1.2030867312807985;51;1.2566370614359177
75;2.036111907320227;-0.3341821526692912;0.2145167404666178;-0.9865713316751276;-1.616058268774346;-2.371671353971889;33;1.2566370614359172
76;1.6598068164840638;-1.593558248366583;1.9564975071070856;-2.276979081116631;0.5779221603623501;-1.3614920809620834;61;1.2566370614359172
77;-2.1421536860024086;0.4361502773473537;0.9559440616074262;1.0903666792415714;0.8641256551427843;-1.2567184487469507;37;1.2566370614359172
78;-0.9305695589306762;1.1641723350689102;-1.2241272526110034;0.2071511350763696;-1.1986690177722572;-0.7208324930896768;34;1.256637061435917
79;2.4489303602549755;-0.1966580705343868;0.6465490904711967;-0.9285023545567952;2.6102077155234857;-0.5790405703283283;74;1.2566370614359172
80;-2.283185464333072;-0.567986908253312;1.4701382957562297;2.1693247854293776;2.317166464745568;-0.1036968300607231;264;0.9855083395026878
81;1.2060360093345923;-0.7948627332044975;-1.9443649777005971;1.6360038309125025;0.576472043438919;-0.406850607564975;59;1.2566370614359172
82;0.3347254257428738;-0.4655104789031521;2.380627822516364;-1.643128767175947;-2.0652059345338505;2.4464108021295536;57;1.2566370614359172
83;2.507260610876624;0.0227458511650545;-2.038319352041309;0.0590249034571384;-0.8543177342975219;1.2831642109506505;32;1.2566370614359177
84;1.3696181162073815;-1.2122256817578452;0.094380343924339;0.3346166706786043;0.0600051028420317;2.7714577654325696;29;1.2566370614359177
85;-0.3160850991612996;0.3813034535588447;-0.5249642783156029;1.6126603470745795;-0.0505698098702826;0.5240267369595873;12;1.2566370614359172
86;-0.079445443484518;-0.2234401012107866;1.4060781012830053;-2.1618259659488643;0.715028264350697;1.866088898911393;52;1.2566370614359172
87;1.3118400649357036;-0.0953684511366495;0.6192645036502309;-1.7152670906459142;1.137080759670548;-0.9907527637250442;17;1.2566370614359172
88;-1.474096075286163;0.5115541575307013;0.4910195448792753;-1.9398212648768072;1.3173402114452903;-2.446381295329485;42;1.2566370614359172
89;-1.6660124672488528;-0.3877033413611131;1.2265138528828166;1.2194903308228058;-2.784983092873851;2.1259035443547987;689;1.0961307375548357
90;0.3612375807993195;-0.8476328544994269;0.5323430445326675;2.3234450929775075;0.3738985811509516;0.0684669115104006;23;1.2566370614359172
91;-2.451084734947232;0.688412797016207;0.4255033341016163;1.058980925479235;-0.1808424052399426;-1.0428230205903144;77;1.2566370614359172
92;-2.795458747349769;-0.5258460863488442;-0.982749950148629;0.2510941907394717;-1.8210217220619047;2.397740598373767;38;1.256637061435917
93;0.7303339009247402;-1.392864323607119;1.824408321917657;1.280767450563977;-0.9805773577431968;2.4064226979517107;10;1.2566370614359172
94;-1.0125521515583191;-0.6948214894981775;1.9926617107937696;-1.980116904828144;0.973510660815529;1.660330547498938;86;1.2566370614359172
95;2.900551498002271;-0.3654437226531664;-0.399873224671299;-0.5511645572922986;2.5681715086521537;-1.849175399230523;74;1.2566370614359172
96;-1.760934181277943;0.0554160844744352;0.1118952902544445;-2.510104405519058;0.4202607753446807;-2.323543647136206;88;1.256637061435917
97;-1.9492454455187176;-1.3863246730883232;1.7746693336672743;0.6671978805110973;-1.7244350742264083;0.9888198437308368;15;1.2566370614359172
98;1.5147229170044978;-0.0061165259348378;2.0242055111754684;-0.4995765399979689;3.056858310517317;0.3757191684278918;53;1.1759970489137193
99;1.6484150171082588;0.0748553406871344;-0.0054729437649574;-2.082175668059198;-1.687676836741251;-2.459093388799758;75;1.2566370614359177
100;1.6382528830486751;1.503128821509515;-1.880966606513954;0.0604693267492733;-0.8762723359171689;0.0058816103716764;18;1.1996643329155368
101;1.7622814468512735;0.8122809464977243;-2.0163885617513766;-0.8939457679305167;0.2182612678134082;1.07555088697089;32;1.2566370614359177
102;-2.528911887334696;0.8182585635425276;0.4747258468790526;-1.8853427914356389;1.74053913229113;-2.010374415920979;88;1.2566370614359177
103;1.5903373852845086;-0.2936198598063292;0.0168598274361441;-0.0348300418207865;2.2486374898179537;-1.9609863157573697;51;1.2566370614359177
104;-2.037031454627845;0.4463498063577554;1.0102097685077356;1.8914380880504933;-0.728718813239458;-1.161427377129075;91;1.2566370614359177
105;1.6510206871765152;1.1244284550341688;-1.2703290167018475;1.8297757398222785;-0.2536656575818071;1.830404876718016;30;1.2566370614359172
106;1.5196602479414147;-0.0594573946499063;-2.304346592305192;2.4277090075711194;0.1492262648236831;-0.3747145808647359;81;1.256637061435917
107;-2.767231857545197;0.1965448594649329;-0.0316573279667077;-2.1214170889830863;-0.1580084965320719;-2.122288026712442;96;1.2566370614359172
108;-2.838541608539525;-0.097145860967014;0.8019617559372891;0.1782459696837665;-1.976838682841573;0.7350715383370139;36;1.2566370614359172
109;2.533971847160073;0.980633281082016;0.3093501986041625;0.9073639651332938;2.8176337112017102;0.5484476040382325;68;1.256637061435917
110;2.5626980025258748;0.219032814594593;0.0083650838976868;-0.2893202917144586;-2.2852601608389604;-2.510625655561949;75;1.2566370614359177
111;-0.1869488795319815;0.0114026678663328;0.8865635735866988;-0.0174645584569321;0.7402644352766605;2.9262865806589984;29;1.2566370614359172
112;-2.635040007472299;-0.1659460823634244;1.4196882846401642;0.0668525446218368;1.4930094607579516;-2.183396970902994;72;1.2566370614359172
113;1.0897858196110204;0.2775971691065239;-0.4709871489320417;-0.6765722970572481;1.821841582184765;-2.3736767552832854;103;1.2566370614359177
114;0.2318202718390944;0.0197612994295506;-1.1813960014397047;-0.6733824911562987;1.4780103855583402;-2.765648288640155;113;1.2566370614359177
115;0.0082974556187258;-1.2731354023808132;1.822949446807656;-1.3055729978091428;-1.7628178653058917;2.997714579456806;82;1.256637061435917
116;0.0520555406235632;-0.8190517612571688;-0.5975577161529889;-0.6498269331797096;-2.067194003043021;1.6065845517477235;54;1.256637061435917
117;2.7216412541388566;0.5194738575138768;0.3687930219181971;0.0367543858905123;-2.356935703600818;-1.4050766745758292;110;1.256637061435917
118;-0.4921557044163551;-0.6843481966300862;-1.2644815324521854;-2.034335881647417;-0.385028157483554;1.8412913649821927;24;1.2566370614359172
119;-2.662440980254502;0.1952402245953711;-0.1299733322592764;1.7187144000827692;1.3859386585667912;1.0916267514839997;47;1.2566370614359172
120;1.0620465742200302;-0.541909470931165;1.425350038781457;0.2528574449856279;0.8314328710821209;2.8811391654897074;29;1.256637061435917
121;1.089582172748664;1.1184919151233486;-1.1247246935844195;-2.8190315850392262;-0.8199755583458266;-0.1987052728396405;39;1.256637061435917
122;-3.044084272046169;-0.2454405953861598;-0.7244375738103418;2.044205448768312;2.089737300953455;0.5581280817363415;119;1.2566370614359177
123;0.0087528691462293;0.270913186409223;-1.6282902360227398;0.3075929734158085;2.0295151417589623;-2.776397827643227;114;1.2566370614359172
124;2.274169799284224;0.7359353100952779;0.922106233809037;-0.161849722545111;-2.01334536407614;-2.04326563270614;110;1.2222812264895149
125;-0.7282530924645073;0.5747227214811901;-1.1268875877107314;0.8327675978201533;-0.2604576895876795;2.0733451988205336;58;1.2560271046133793
126;-2.202893250062122;0.6275281826317066;0.2737853691492307;-2.6876929259041997;-0.8684741831515018;-2.5174929847591487;107;1.2566370614359172
127;0.8406734156804446;-0.1577872404912679;1.6545903643737765;-0.5511835819670365;1.49573170774275;2.3889454062394018;120;1.2566370614359172
128;1.4500461442556765;-0.0649377463461753;0.1449318639314461;-1.0556615075388245;-1.285462996915926;2.433871198945687;44;1.256637061435917
129;-1.8525366131149048;-0.2608881060866962;1.2545767110760435;2.560990005753433;-0.8226170691170049;-0.4347355323599762;104;1.2566370614359177
130;-1.4487965984877649;0.9234776654682798;-1.75275590855816;0.6396951810377457;-0.3521755355861067;-0.9845552503619056;78;1.2566370614359172
131;-0.0436097757548392;-0.4322039719746271;-1.9632515519236924;2.3713548893633685;0.8486120062088138;1.9046619531991047;27;1.256637061435917
132;-3.003173867358412;0.7299285248836951;0.2561126993601517;1.6912130664807157;1.1995170814755087;2.087907070364273;119;1.256637061435917
133;0.1838314670733095;-0.7812504421703532;-2.281585071832943;3.149192863218244;0.0138334820495619;1.9531430733699495;131;1.256637061435917
134;2.284983104966499;0.1735766481720601;-2.2103164510267908;2.822831238198893;0.9934674888473172;-0.6225174755800391;106;1.2566370614359177
135;-2.144441633439228;-0.7225950789108547;0.8616161163554321;2.6509753255860797;-0.1716872012335403;0.398648985637546;129;1.2566370614359172
136;-2.2025006664159266;0.6490278272396478;-2.093657028846093;1.4503919354039383;0.0243601540366034;-1.1278111107866011;130;1.2566370614359172
137;2.3376143306071304;1.335420951145171;-2.068469645954678;-0.5518627726247431;-1.6836090793978309;0.0039495224238553;100;1.2566370614359172
138;-0.3966161087530503;1.0294554170531307;1.0476647066252491;-0.2123884379849355;1.3758437987796677;2.7506877883772214;111;1.256637061435917
139;2.5906087352405303;0.0405451152786538;-1.6350076444019377;2.298953024726791;1.8722292436845531;-0.9231525737546876;134;1.2566370614359172
140;-2.907027576102301;-0.0246934288910602;-0.741392210704131;-3.011086362063379;-0.0525664745083321;-2.574277453321892;107;1.2566370614359177
141;-3.076422446306054;-0.2236024799397158;-2.0471191495623886;-0.0909663077493414;-1.7714471914454;2.7933415274107816;92;1.2566370614359172
142;-0.8627401367250376;1.0809719524157844;-1.7245396939334476;0.7017511563431631;-2.173552899976533;-0.371299670975874;78;1.2566370614359177
143;-2.263592705336392;1.4681378028310113;0.8802596774007749;-2.6439683617603693;-0.5630103891920645;-2.6821338760031948;126;1.0956489556471536
144;-1.9411702314380128;-0.4035566511218231;-0.83449436595612;1.3685727033530333;-2.088779728896927;0.8584568130747194;38;1.2566370614359177
145;-1.0369298859961618;0.8162411104554441;0.9911342371456412;-0.0572654401683169;1.5494444028942354;1.718080107731335;138;1.2566370614359177
146;1.9250948601309097;-0.5626383564527808;1.2088029891633891;-1.6464214694703592;0.8885511971333727;-0.2353377737896322;87;1.256637061435917
147;-3.2727282196443768;-1.4226756059776853;0.7634631977063967;0.4256555947593199;1.8829982845485675;0.0780895440630571;63;1.161424223350214
148;1.7922281662375634;-0.2735252987420751;-0.6577044361977809;-0.1458679170748327;-2.796373763155962;-2.642667833168044;110;1.256637061435917
149;0.0785094040673826;-0.6089182204185458;-0.5444370120856418;1.2536465765624196;-1.737607837435248;-2.215684733968377;73;1.2566370614359177
150;-2.7734480085806887;-0.0745398768659954;1.5580358316655545;2.531006459961801;1.989095343839444;-1.025173415879964;80;1.2566370614359177
151;0.7578587701535237;-1.57830491402832;1.4176216377843376;-0.9999846270881227;0.2589860487357747;-0.9844564608927618;61;1.2566370614359172
152;-2.820752918889442;-0.3099769828714914;1.7904746021072244;2.7753490734393007;-0.9950201744457472;0.0910258026056103;129;1.2566370614359172
153;2.6023231948452468;-0.5837164426722516;0.2941611641984124;-2.4470242339858834;-1.5833105272772428;-2.5002236394522197;99;1.2566370614359177
154;-1.2240047749823324;-1.059798027550895;1.8361045103588085;-2.606163748523473;0.0020513160343469;1.862910291848798;94;1.2566370614359172
155;-3.048773330004829;-0.2044057160338087;1.2469603091380774;-0.7512573356155228;-2.222290008806038;1.36846572099444;108;1.256637061435917
156;-2.677649832567511;-1.2615947180839189;0.9062642776327736;2.0886959617117564;2.337970714323212;-0.889543532783602;80;1.256637061435917
157;-2.601533864427584;0.0905414181532141;-0.4040093006326128;-1.4810124662201514;1.712946734164995;-2.33881116345128;102;1.2566370614359172
158;0.855101240408908;-0.7265317696578074;2.389198487523224;-0.3271931939326566;2.467311326902795;0.7141512707442268;98;1.2566370614359172
159;0.0335614460824842;-1.0489283916842649;-0.9973097734429632;1.445414879952034;-0.7945661718823779;-2.717990448943759;149;1.2566370614359172
160;-3.081736626606871;-0.5631014557666107;-1.4697613484404315;1.9381964406012064;2.292204664599692;-0.3741122896107725;122;1.2566370614359172
161;-0.5959243665427563;0.2470123440837308;0.3910931501637207;2.821937156380504;2.0366815608626787;2.2724808514487798;65;1.2566370614359172
162;1.9216787832570568;-0.7669428523100347;2.3562464415701205;-1.904832836470635;-1.3574950973039503;1.966359689093795;57;1.2566370614359177
163;0.124457611044551;-0.1400244389514719;2.6970753066517554;-1.3592791123006391;-2.369849167463981;1.3714848270436932;82;1.2566370614359172
164;1.1392640410020618;0.4040557586141297;-1.534610052309688;-0.4148902130048692;0.9098904135753884;-3.07169003817742;114;1.2566370614359172
165;1.884500799899902;0.1998664897374295;-2.553140526523119;-0.1808836764376224;-0.6682839951563326;2.1791160405137355;83;1.256637061435917
166;-0.7983675497378031;0.5206492688133897;1.4621885463586282;3.050926655275317;1.5471327183328534;2.117765992432792;161;1.256637061435917
167;0.5230678282224991;-1.7270971496036105;2.13269335300382;-0.8105540265307352;-0.6414523798385394;-0.6051545832199755;151;1.2566370614359177
168;1.9889828120023283;-0.8125289371741207;1.8438850654898484;-0.1600201549777333;2.9071395187018894;-0.3548173199197122;98;1.256637061435917
169;-2.277109543707204;-0.0177298526851502;1.2705753230516317;2.252592507277013;-0.4317260222089937;1.21787072090673;135;1.256637061435917
170;0.4575475658739708;-0.965314865543868;0.3017472514058256;-0.5487525457337691;2.672118538529944;1.7231851524780204;20;1.2566370614359177
171;-0.4647763689677728;0.4641696735596706;1.5399812129293338;0.4670558739085956;1.982876735168397;3.177810499199471;138;1.256637061435917
172;2.845961460156248;0.2067731854563511;-0.0398970158905046;0.7068770113504769;2.241408961584519;-0.0750394771545051;109;1.2566370614359172
173;-3.1761905559388457;0.0010536618524526;-0.8235274226486736;2.6958918388629507;1.1233497570526931;0.1941138225447364;122;1.2566370614359172
174;2.2947450844663706;0.1094982308173637;-1.2325961706675037;-1.1223731922299878;0.5820724844287566;1.0221895572954645;101;1.2566370614359172
175;-0.425511964094184;-0.8658053620048458;1.4421831274101968;-2.4045881915216585;1.5695349304548667;1.8333685903616244;86;1.150601797776562
176;-0.0658744799158543;0.2614300453311951;2.299586733889099;-0.8913933174142599;1.3468898261002114;2.5552210746937982;127;1.2566370614359172
177;0.3102131136530809;-1.1692273200066623;-1.899253697709114;2.173707747836485;-1.0862354573280528;-2.9611866883160243;159;1.2566370614359172
178;0.5204802621253384;0.2773928504962489;1.9519753546106984;-2.177962684389365;-1.486575052691356;2.8801417480359013;82;1.256637061435917
179;-1.0960633675977047;0.7231945580713135;-0.6320726799998111;-2.8331980942750223;0.296254497157431;-2.18975281791733;96;1.2566370614359177
180;1.418603555328761;0.0516121957534585;0.576492425510025;-1.0268972175828155;-2.50286616915228;0.973001270641145;44;1.256637061435917
181;1.7908878043617054;0.1532902103962972;1.618354614647867;0.0085788674940768;1.1470480741030278;-0.0567754456786692;11;1.2566370614359172
182;1.4221375106352243;-0.3694605623261821;0.844375989404027;-1.1333344756532018;1.5635462404316167;-1.3263146717385093;17;0.9557120156728732
183;1.1051480231888222;-0.5616686701978031;-2.4152154425756773;3.316296266443979;0.6641334685797787;1.491162925329495;133;1.2566370614359172
184;0.6560346204423462;-0.7781056298410169;1.431025854080246;2.118315837394717;0.9540254373490272;0.6172304322265275;90;1.256637061435917
185;-2.3512604768021093;-0.0945382479455816;0.9042211433345024;-2.456035053819672;-1.5348099546816971;-2.1424917253677966;126;1.2566370614359172
186;1.0996938281142334;-0.8104562952757319;1.008843183583496;1.801240166191071;-0.3512203169610743;0.1514680798484083;90;1.256637061435917
187;0.8938196478632142;-0.1910793639416722;-0.3760732749311657;-0.6573761734822413;-2.9917790793098447;-2.0213293898289386;148;1.256637061435917
188;-3.031496849755911;0.0637069656719382;-0.8197515620221634;0.9254412329876792;1.6692546036345193;1.5818197976814354;119;1.2566370614359172
189;0.8938615851033278;-0.5690930929555211;-1.8827409663268877;2.749880655243997;1.2708417127063232;2.2741647730079446;131;1.1671183113105963
190;-0.7769744119867942;0.3028661338429708;-0.9654368107250028;-0.5927750944639906;1.3381238917546696;-0.83048904262331;5;1.2566370614359172
191;1.5821678089537647;0.1589354863990661;-0.6697160726259427;-1.0489126331704148;-0.525751899564873;2.954163026933698;128;1.2566370614359172
192;0.7752553059482687;-0.8113781321499743;-0.80410476357476;-1.3849411004414176;-1.3339467036593995;-1.63537906908799;33;1.2566370614359172
193;1.8443843554673205;-0.0264887403872408;-0.0083147067470448;1.456665818547908;-2.69803888338119;-0.6086454070547819;67;1.256637061435917
194;0.6892242503949862;0.816654682540378;-0.6456932121339488;-1.041181036069286;-2.6618122541462834;-1.5821593427186986;187;1.256637061435917
195;1.3452856400409985;0.8435897226258074;-2.4330543807709204;-0.6843604972344719;-1.358026606435672;2.5401557248928985;165;1.256637061435917
196;2.4067588728252822;-0.7255650987106881;0.5399790461292888;-2.093439144069945;0.143910716951276;0.1095559008417773;146;1.2566370614359172
197;2.638588567169947;0.7087357651289793;-0.9787700159259872;-1.991822962147928;1.1115716462013274;0.9892842463314994;174;1.2566370614359172
198;1.9973901099684053;-1.390533526760897;-0.2029829939389182;-0.1437088267476315;-0.1274092869890889;1.876527069386797;84;1.256637061435917
199;-2.7233295323610105;-0.7035404403141463;1.3456711099776109;-2.794308035525768;-1.57599470855462;-1.2713919695378546;185;1.2566370614359172
200;-1.9228257815311056;-0.0752047306421778;-2.260249849277428;1.8858836878101368;0.4874292506179081;-1.8657586987636827;136;1.2566370614359172
201;-1.8281722744468267;0.5512567244347987;1.4991958507169394;-0.213734517168787;1.9620753218813904;-1.8537790631398277;428;0.963178764424912
202;-1.4287704740381144;1.4000361743760332;0.9039110460863258;-0.437761184758248;1.0218012610988;3.1745508137819707;138;1.256637061435917
203;2.900662392667651;-0.179371214177935;-0.8079704155037735;2.562138797323892;1.727412411390783;-1.7358093265919563;139;1.2566370614359177
204;2.838365214942167;0.186197161577833;-0.332616237764294;-1.414923683941871;2.939505682249975;-2.467616589303184;95;1.256637061435917
205;-2.822140610636924;0.6270011783757956;-0.4103023271915566;-1.105557294834545;-0.3159165425240143;-2.558809484058382;107;1.256637061435917
206;3.137573085519155;0.6085740987782162;-0.5665850010093763;2.1527376563365075;2.400448976814695;-2.2083532722809527;203;1.2566370614359172
207;2.1208514308080426;-0.4615159337822165;-2.188336443184402;0.864255443632735;-1.243296852030094;1.893990756603491;83;1.2566370614359177
208;-0.5109366700888885;-0.378257942172741;1.6896386355885828;-2.2256702899799468;1.3303741668500368;-2.822708387800197;41;1.2566370614359172
209;2.901474262916293;1.2915437227008686;-0.9782963517601532;-2.80664443417214;0.7411257578973778;0.3816673539178722;197;1.2566370614359172
210;0.9493838148451064;0.0515381286108507;1.9075848986981592;1.4372252561176446;0.3097319644093675;-1.9437536221455547;49;1.2566370614359172
211;0.1744342201203666;-1.087708778442409;0.8149402896804363;-2.6545121680068924;0.6187769978866723;2.2738554520247;572;1.1844256723133728
212;0.5424618594488823;0.6182669026340716;0.3355327787840618;1.4476638375962372;1.8167703263838435;0.7612470193435835;4;1.256637061435917
213;-1.2306764309116307;0.5153371242422151;1.2479413526541594;1.951910963067112;1.1802388712579062;2.179967839680328;166;1.2566370614359172
214;0.6194702491794897;0.7855330579158982;2.407910501239797;-1.4803314326728672;-2.204687749235751;1.964691594727605;163;1.256637061435917
215;0.1363943089737041;-0.1905752202208566;-1.124292219582312;0.3015631441970415;0.9075108836713714;-3.0472635201786;114;1.1882357594232336
216;-1.942244935306654;-1.3659214036898464;1.1661573394913245;-2.2283393713736395;0.3512625840211574;2.368901668694211;154;1.2566370614359172
217;-3.199698495253925;-0.3867562357516804;-1.1331530134736336;-0.0317706688806918;1.762218898022835;2.1517411605972083;188;1.256637061435917
218;-2.760183608417391;0.5698734042551203;-1.2971142149866115;0.676987069961662;2.425918883210047;0.9595851472922649;188;1.256637061435917
219;-0.3587079697773554;0.5292274505743024;1.9451087622943977;-2.611283008910451;-0.0806146843276744;-2.7015533947077977;64;1.2566370614359177
220;-0.6833299940904669;-0.4845128026167809;0.1243486450867835;-0.3252075207238493;-2.508264728477632;1.150684217473575;54;1.2322448743046364
221;-1.892551403499925;0.7955978631597674;-1.8136646916640684;0.4866901594388082;-2.5489741530504464;-0.8632869404346833;142;1.2566370614359172
222;-0.1668939230090193;1.4089656714977954;0.5313987904698155;0.9223107514580452;1.825491287232776;-0.8199228030951241;69;1.2566370614359172
223;-2.8646578896585893;-0.5978341934143936;1.4086797334108612;0.61991572272427;-1.5002624758615934;0.0019534838696823;108;1.256637061435917
224;0.805425365172718;-1.046332933015872;-0.5831711865996578;2.4713137695630194;1.123725893646866;0.7444799442461884;27;1.2566370614359172
225;-2.5082652585414675;0.4717127769699111;-0.3672477334615046;2.283953645593485;2.596624234945725;-0.021291960787238;122;1.2566370614359172
226;2.9367284077872933;-0.2489768089459899;-1.5145430763322243;-0.2352895753639319;-1.7712368280170945;1.6283564584103174;83;1.2566370614359172
227;0.1682246486448758;0.2942314001321053;1.870946497167089;-2.6039624381827693;0.0890899697943199;1.1979374099712878;86;1.2566370614359172
228;0.5802948003580213;-0.7012870430914269;2.055571415279557;2.152466897293708;-0.1243985009555011;-2.336467753659364;210;1.2566370614359172
229;0.1299199142670992;1.0458674630999172;1.500384663409292;-1.045454891719911;1.6499129985450134;-2.207107494031715;41;1.2566370614359172
230;-2.9124562011523367;0.4503027730468354;-1.3318035812344686;1.9222972238627265;2.013152101467971;-1.027057346364799;160;1.2566370614359172
231;0.429306095831909;-1.0598352242110978;-2.2910627771745347;2.707086470953086;-0.3410233411476428;3.0113482406582053;133;1.2566370614359177
232;-0.207414935048965;0.0383633244454812;2.3620805946720616;2.10823279065308;-0.6862288184673387;-2.339561586922144;228;1.2566370614359172
233;1.137299012966656;-0.4757789465059823;-1.553556963852328;2.560390258350978;-0.7357493489804738;-3.1106017636549588;177;1.2566370614359172
234;1.2067342298901502;-0.6597328899610397;0.2766557806354878;2.2642573256987557;0.7425520130552716;-0.7037407110402728;90;1.2454959310219431
235;0.7542000985707592;-0.0930314696387904;-0.5030801254451909;-0.5352568161730117;2.740845575510511;1.444611985446823;170;1.256637061435917
236;1.009970098361218;0.7885398617310925;-0.1117571260336225;-2.7154833031163323;-1.5581533743241969;-2.9418231050841026;99;1.2566370614359172
237;-2.518679929100217;-0.7048659083974677;1.7339413505752292;-2.694771808923353;-0.1499437500301631;2.2320830189639804;216;1.256637061435917
238;-2.732719494523133;-0.092890615426336;1.2714658836209476;-1.7800137890328822;1.555539035305098;-1.8451702503823555;102;1.256637061435917
239;2.694124129643095;1.569658058124345;-0.1311314330052718;-2.8362498264169225;-0.103921078739552;0.5433027705468598;209;1.256637061435917
240;2.101718394709883;0.0572137562652635;-1.7595270756670451;2.046394227247797;-0.6027742662037177;-2.908976468876165;233;1.256637061435917
241;-2.804707070744342;0.7481152215656608;0.7862025439700369;0.1900106582917074;-2.528210329165843;-0.0126772012486602;108;1.256637061435917
242;2.7573251088089994;0.4580785251101048;1.4716970733364865;-1.4859673712025392;2.739294229036827;-0.7959497844731687;79;1.2566370614359177
243;-2.921054703649756;0.4080274156323273;-1.6599962563561903;-0.0302254694633183;2.8922088208599512;0.1362967330426086;218;1.2566370614359172
244;-2.606605768592519;1.4844673766579783;0.8393485730540915;0.1887481435891466;-1.902459563603983;0.764038941881453;241;1.2566370614359172
245;0.603823684746639;-1.0644109226247005;-0.1659942999592219;2.3612008251451733;0.9696227522842588;-1.5953533018324288;234;1.256637061435917
246;-2.033821889758841;0.0609763479801097;-1.3473988428144106;-0.7485717345179462;3.094956666452337;0.2653897468259572;243;1.2566370614359177
247;-2.602706996787284;0.0878730155829883;2.091748497859633;2.347430049452837;-0.3033745263964339;-0.4032568172273051;152;1.0965392412045352
248;-1.8118378392248595;0.4694360052549925;1.199198772042409;-1.5198096755300727;-1.5836574765073277;-2.0778610578004164;185;1.2566370614359177
249;-2.801704854795933;-1.265333330476826;0.6834967743626754;2.56445800096243;2.491223407386573;-2.0139419550411484;156;1.2566370614359172
250;-2.199316288955114;-1.0017623540296456;1.4231005605458296;-0.0753967580708007;1.0777476223859974;-1.47770312569646;112;1.256637061435917
251;-3.361372304838842;0.8480524704706659;-0.7806418878826801;-1.0918103572971634;1.5576580007069252;-2.671248038898031;157;1.2566370614359177
252;1.83071790970625;-1.2145339118289478;1.5778844986498202;1.0519198536058976;-0.8811248256573327;2.86843349589575;93;1.2566370614359172
253;-1.2550722837055484;1.155682097306658;1.2473999049342344;-0.9362631658352558;2.309528948820996;1.7351916175974895;145;1.2566370614359172
254;-1.7964980084683089;-0.3017819441613238;1.4449926404523787;0.6409730428693052;2.6212115272401943;-2.4719685556937665;72;1.256637061435917
255;-2.033585132619569;-1.4126799424517742;1.9131403281614645;-0.0623490440094652;1.6507279872949685;0.1339425233662393;63;1.2566370614359177
256;1.859240853499392;-0.7582934692257657;1.2265719225017768;2.651832336216396;1.0219368807024705;-0.5895187652100687;234;1.2566370614359172
257;2.413040993710803;-1.6001165473728334;-0.0027396301536591;0.6088008377540308;-0.993384667631934;1.9550410471339337;198;1.2566370614359177
258;3.1310329900728893;-0.2145812472287968;1.1782510747309662;-1.253007255260856;2.50688424576379;-1.1945039559879256;79;1.1149289605193775
259;1.6295827645986276;-0.2874034203857075;1.630953753185368;-0.3539630476968178;0.3678791333212849;0.7307567093908173;181;1.2566370614359177
260;-3.264872271056288;-0.134148704213371;-0.8880878730759382;-0.3271319132461801;-1.5744536873537784;2.4772635015559192;92;0.8855517598914481
261;-0.5911325918222685;0.2184358751050009;2.747848602435073;-2.237722475345352;-1.9803828599892768;1.483952131989931;163;1.256637061435917
262;1.0261777498600388;-0.6340506350615783;-0.7184122824635142;-0.0448003120825987;0.5781031781914284;2.539327805460913;1827;1.0985426886883
263;2.4330958927665485;0.5995535456548703;1.0997563885432984;-0.5628284923784546;2.8892522393485653;1.7324116410592916;68;1.256637061435917
264;-2.0105218069215725;-0.3689506261874076;1.637995400281821;1.3359259097515124;2.1288833167335346;-0.4184753843358595;45;1.140346968509682
265;-2.5849509232996204;0.5940250247221247;-1.757006681250993;2.1486614475366568;0.4665462847327675;-2.4741307887801653;200;1.2566370614359172
266;1.7313737558446605;-0.7981741200650089;2.5502897332283263;-0.708656545681126;-2.624398612418745;2.4268782471528967;57;1.2566370614359172
267;2.8421059375628674;0.871815725149462;-2.186129402909769;1.982543083593422;2.19268256476614;-1.4873637576409553;139;1.256637061435917
268;-0.3256951733809752;0.1912669254402799;-1.7202512480914418;0.0277848949971845;0.0480289321704557;-3.273041446283155;215;1.256637061435917
269;2.5551361097687644;-0.4311405166846732;1.6083776957852374;-2.3506853889498904;-1.616668179857165;2.456096827625518;162;1.2566370614359172
270;2.3257667622048306;-0.1330606614114456;-2.208011878415135;0.3265843465821282;0.2324970062618509;2.471582407921906;165;1.2566370614359172
271;0.997648266959298;-1.0850906772391309;-1.1532095572593388;1.1606797611640762;2.528250232628504;0.0077496636793336;59;1.2566370614359172
272;0.9163710929901648;0.8475980731507204;-0.7098775912357287;-2.055977574076388;-2.305644904570621;1.216027190741949;39;1.256637061435917
273;-2.583555299542616;-1.6404927198797123;1.837695325990656;0.6415051014002567;1.7721488933540035;0.975919491767576;255;1.2566370614359177
274;-2.6042470493933387;1.299395659368195;-0.7131960368094111;-0.6548843359827468;2.3362915703685028;-2.649710842141988;251;1.2566370614359172
275;-0.3295821754587766;-1.7461739614729157;2.3781446000023934;-1.0015186363934334;-1.3427502009030263;-1.1182123966704254;167;1.2566370614359172
276;-3.090786988608237;0.6409268943476052;-1.1358483506788832;2.3828525477326825;0.542876392868918;0.9877874927605784;173;1.256637061435917
277;-1.64213524532746;0.3169901223390444;2.3760712484736715;-1.8513592901449567;-0.1143904991821203;-1.141268213935387;64;1.2566370614359172
278;-2.7179277671916577;0.4995671119169239;-0.2503336670177875;-2.615265928705381;-0.0058682714058197;-1.040608471802429;107;1.2566370614359177
279;-0.4402264549108599;-0.2457707323937137;-0.3603654583296817;-2.8580635300174677;0.6378386403580505;-2.327586351272779;179;1.2566370614359177
280;1.26544541983151;-0.547349113424292;-1.2658058469051987;-1.387787596530751;-1.1589002437232576;2.62408786738351;191;1.256637061435917
281;2.5044654666137465;1.116862060923137;0.8474160528097154;-0.4629005527000618;-0.8804175227836049;-2.0787579028057106;124;1.2566370614359172
282;-0.3105869610787242;-0.9819417209953518;0.0971174194084405;-2.836348193623854;1.3261601494076052;1.7409581343657172;211;1.256637061435917
283;1.5977061205630214;-1.4460669251967462;0.1986894627329296;-0.40510765159448;-0.970320423586076;-2.7435427901874743;46;1.2087891702069378
284;0.5184142559028087;-1.18897040255882;2.007201511482262;-2.2638979332904365;-2.665143080072442;2.8169168219792904;82;1.256637061435917
285;2.6461620508371624;0.9429811908150956;-0.6308025510353922;0.1152134136722204;2.473795926987992;-0.5689785493930362;172;1.2566370614359172
286;1.2886940997020773;0.3261450036111605;1.0453820415645272;1.041312904500408;2.773785388360804;0.7493095252689626;53;0.9832411783037004
287;3.1627719534946834;1.2428488983619728;-0.5303821854129854;-0.411428840307168;2.141886536754767;-1.4660611943041697;285;1.248664831805238
288;1.8634094328844493;1.3499174190206902;-1.4058876214293805;-0.4053543015888734;0.5209758586684414;1.8350163011905145;101;1.2566370614359172
289;-2.415608163933628;-0.8044210414641716;1.5541204494180032;1.1664522559436052;-0.5153826671119959;2.2124484507998554;26;1.2566370614359172
290;-0.5029370585214368;1.082919546460506;0.0542978825494461;3.014499786970813;1.8017205698469192;1.4563735500174433;161;1.2566370614359172
291;0.3790683922306689;-1.0853449498143897;0.8884947766965965;0.5283631339749211;2.7280184218981693;-1.1381955825454142;71;1.2566370614359177
292;0.3435899358414154;0.0120480760923639;2.335138168482865;0.9514780436510972;0.411096360992683;-1.0596924691302585;210;1.256637061435917
293;-2.31082770002378;-0.5094535160620408;-0.1998353493569236;-2.575420286786041;-1.6984438276551073;-2.5237758684046296;185;1.2566370614359172
294;-0.1878496194788797;0.95152836226579;1.8280994183484032;1.7454310602019143;-0.9696700833366716;-2.8373402258636764;232;1.2566370614359172
295;-0.3641486955251003;-0.0893063269881541;0.6908776145139743;-1.693406637712091;1.1925789194643934;-2.6816959108841587;208;1.193624717817917
296;0.9171114414881614;-0.8319374641330676;-0.8823047863807637;1.5009381372151844;-2.344345745360463;-2.747386817987554;149;1.256637061435917
297;-1.0310272683632664;0.0450052513315635;-0.540439661635352;1.83555788274392;-1.2054049847925743;-1.3637820201888573;73;1.2566370614359172
298;2.4558810676914518;-0.9085451517789822;1.096317379506518;0.593288440212651;2.0303852769440365;-1.9578714987650496;51;1.2566370614359177
299;-0.2909271273816015;-0.9632881737528536;-0.0321646101929958;1.26881386710835;-0.3151953325330127;3.0941535855740083;70;1.256637061435917
300;-0.5676643854279678;-0.148475146087187;1.4943154062093604;1.037027054973645;0.3911890723317544;-0.9686610995595072;292;1.2566370614359172
301;1.0847928819438677;0.2474434844678076;-0.2624410508093311;-0.5548611033174999;-2.164543662113949;2.8321276147413195;128;1.256637061435917
302;0.1777695664425106;0.7349464460676556;-0.4024521168276127;-0.819028216784435;2.4705886760048057;0.8140359620735065;235;1.2566370614359172
303;2.0500522172870506;-0.1896363548707658;-0.2677952066983988;-2.3081214555983105;-1.639459826150089;0.2696383207629585;31;1.2566370614359172
304;-2.5719182023779035;0.5970560120982157;1.1062753414948845;-1.3169664675406367;-2.238990676326649;-2.7891176541277707;248;1.256637061435917
305;-2.3805370578224063;-1.2753612761966533;1.1835784105632283;1.1436673898672651;1.315086871276845;1.296419696683378;273;1.07990710434754
306;-1.4521220696001156;1.3762919400212683;1.024600253587262;-0.4082607431358827;2.0112017375008717;-1.7435563434478876;428;1.1669507042588123
307;1.5612256508889162;-0.3363785669193353;-1.3415630498990718;-1.3496821561692702;-1.8439485251702767;-2.455724485761044;33;1.2566370614359172
308;1.3226346221534089;-1.2501089032051795;-1.832663064027864;3.0492739335380104;-0.958940337206035;3.2006966093745097;231;1.256637061435917
309;-2.504442658477604;0.2158499483578406;0.1494209718912659;0.5498665272426773;2.1217270345747696;-1.255598401363382;62;1.1301014097484283
310;-0.4192490330711371;1.4126074667865791;-0.7814515695829716;-2.2844449880657502;0.8205694241586041;-2.407511250926801;179;1.256637061435917
311;-0.3564877752949816;-1.5237806958244653;2.434994874475048;-0.8808304246125414;-1.90793804513736;2.099282806450343;115;1.2566370614359177
312;1.9042033800763936;-1.2451247581201568;0.4963275916546589;1.0554440549010262;0.8410851533488377;2.803601155114934;84;1.2566370614359172
313;-1.5797926766611647;-1.0388314212544676;1.2161075813081106;0.7202372283581756;1.0861323763773791;-2.1974275481843795;250;1.256637061435917
314;-0.960146174522484;1.273305055255746;-1.4534371506145989;-0.9907036943047396;1.7593987708191443;-0.6576622988690326;190;1.2566370614359172
315;1.116824389403959;1.2731671827175843;-1.132126271049347;0.0232203546584963;1.5024998979147073;-2.7279482250407776;164;1.256637061435917
316;-1.364364816612885;0.351211760063743;0.7610192928979032;2.2686057479965545;-0.2068827669492358;1.7650979063954355;169;1.2566370614359177
317;2.530955529303897;-1.233178877341089;1.1933589080944849;0.0833894293013173;2.5590263364675785;0.3557040456230868;168;1.2566370614359172
318;0.3273618468162251;1.0868171648296163;1.2461689574125585;-1.9742093168913148;0.2755013331253282;1.5203264569228667;227;1.256637061435917
319;1.249671186157257;-0.0939914231368961;-2.0494238082823504;2.12855930923479;0.5072610284222071;1.79464856985434;189;1.256637061435917
320;0.4934676205542316;-0.5975645941580228;-0.6180099735738986;-0.8817064277956674;0.2895064954946794;-1.2726232789296876;16;1.2566370614359177
321;-0.6657327539112832;-1.456293851155989;1.2676374338436287;-0.2382682665590221;-0.8099862529843119;1.074459133041385;904;1.237080666270122
322;2.9256530916969794;-0.9211129512955044;0.3376777184675051;-1.5437027543122188;1.076990240546711;0.3501244116544624;196;1.2566370614359172
323;-0.2902209046005678;-0.6363406454016248;0.3495594209740737;2.817473118824505;0.6492667529331448;-1.7366643159949062;245;1.256637061435917
324;-2.352474458545017;-0.7914106932047555;0.651659863721383;1.0348826414271302;0.5729505453904462;-2.687247921322474;313;1.256637061435917
325;-2.2456207265483323;0.2154584949522695;-1.638605256373289;0.7216562750640066;-0.4346149109315247;-1.4489851465853665;130;1.1740780248004634
326;2.660539516381958;0.3286457878700115;-2.1694997347705574;1.1043792549519154;-0.9717594394644028;-2.948479165469457;240;1.2566370614359177
327;-0.7603367557948371;1.4853779693098454;-1.661751097688234;-0.7274582716647167;-1.3686070871797575;-0.1266135796750687;78;1.2566370614359172
328;-2.4986416368373465;0.5580513817127281;-0.7757326115363;-2.767344819714092;0.9524804217357802;-2.619638761209653;140;1.2566370614359177
329;1.510397188098335;-0.4508340967762781;-1.2369035862128668;2.334083727602332;1.942832165776811;2.652940681204188;189;1.2566370614359172
330;0.518591007205037;-1.367061929456876;2.0878340873211285;0.4769572078860499;-2.0694967643976723;1.5784492694121317;10;1.2566370614359172
331;2.8577054256517984;-0.1722989176636573;-0.3623388302709483;-0.4169048478022494;-3.0785358044341264;-3.256267219685931;110;1.256637061435917
332;-2.273321926208317;-0.3179577572470884;0.2444854905587254;2.5391475788085107;1.6004778383966491;1.6438892135099716;119;1.2566370614359177
333;1.2438649633652177;-0.7916881221208356;-1.3587553105979984;-2.3719242126489006;-0.4496724347458275;2.8210672315057512;280;1.2566370614359177
334;1.8992666374753504;-0.0612671243435802;-1.8753857143850416;-1.967052313735705;-1.0160868844405375;-2.261530652281163;307;1.2566370614359172
335;1.7447057452653667;-0.5875125576651578;-0.2582318682015897;-1.1962024525971608;-2.274250907257016;0.4448556141880821;180;1.2535767907197186
336;0.3080013602142079;-1.045201809739412;0.4032825665462153;0.2607900905466302;2.3193173172046437;2.595110212760764;170;1.2566370614359172
337;1.6794711422410036;-0.8812610742346643;0.6288371390222154;1.869409758004214;1.1818577618902375;2.028997754465844;312;1.256637061435917
338;-1.457375163099513;-0.4110593298194868;0.0831804602767798;2.3661004925865754;0.3951297654075557;1.3675570056034672;316;1.256637061435917
339;0.0363900861678334;-0.2036483789344421;1.745640842738379;2.7350133022963585;1.0200746371002414;-0.0004388733947185;184;1.2566370614359172
340;-1.5462678085591128;1.287679353916885;1.6001679701460192;-1.8485809151797945;1.1984773210024091;-1.1104877537688609;42;1.256637061435917
341;-2.197874755749617;1.416452820322997;-1.38948337526181;1.7126877323408272;0.6740036986945951;-1.1867842445598071;503;1.0274049956946203
342;0.7277178560274866;-0.4901731739468231;1.511383870130346;1.1128366008162458;2.13012488279814;-1.0106257094509523;686;1.2537242417118015
343;0.2564301475454178;-0.3353506597320389;-1.564767114671557;0.0791690287138499;0.8502264326479018;2.236561075835721;262;1.2566370614359172
344;2.488277832420086;0.7531413959860124;-2.116915060195061;-1.5883938245320954;-1.9145644241723256;-0.2915226116775117;137;1.256637061435917
345;-1.6869076991542786;-0.2132856298226862;-1.6032483733888467;-0.0428861541186086;-2.512189361461216;-0.4240577874234165;221;1.2566370614359172
346;-2.725532957993962;0.5950673040364716;-2.030012051267489;0.394510709448757;0.0301650667198028;-2.302492134566254;325;1.2566370614359177
347;-3.434067803819038;-1.018574028237624;-1.3726539407822171;0.0927716157153049;-1.3579604429597305;2.399256551862164;92;1.0208435520272083
348;-0.981600230765706;-0.3271131574807648;-0.9676020920042916;0.9149128967334828;-2.045684937603334;-2.428811592135736;73;1.2566370614359172
349;2.6291766093419477;0.9218669652414138;-1.0116545557389276;-2.714160956931303;1.6257176739167614;0.2355539005372673;197;1.1835635331762078
350;1.4924774638701577;-0.989638957034477;0.9120413804124534;1.7946026246598306;2.384609978187991;2.032262657785819;337;1.2566370614359172
351;1.2686179510910542;1.5949125880299424;-2.2590424695272904;0.0982579599450078;0.728068974524722;2.210450850862144;288;1.2566370614359172
352;2.12743242125563;0.9256578835513946;-0.6680297777368754;-1.4478372848043333;0.1061327513865555;2.5860081151494314;191;1.2566370614359177
353;2.484312649890114;-1.1960218205041515;1.1597581396624106;1.1089938047691443;-1.7983288582234318;3.2321058716903623;252;1.2566370614359172
354;1.2360010472031866;0.4732283447752528;-0.5314240941877402;2.430076696921275;-0.1077578663701303;2.065358088791532;105;1.2566370614359172
355;1.596559734259731;-1.3688815804028938;0.3061426481544043;2.5848224617731907;1.0313852034172606;-2.0688244458437084;245;1.2566370614359172
356;-0.9526935403495522;0.5212032807013254;0.895593179603155;-1.410209621889107;-1.9294786534071573;-2.8617916115909603;248;1.2566370614359172
357;2.413174142348028;1.1226032405752628;-0.6529988526388686;1.3691616434021785;-0.1992579813821512;2.4644659234826176;105;1.2566370614359172
358;-1.7801053959505946;-0.5323498430461535;-0.3334035447647877;1.4045400342062109;-2.547500660611297;-2.503928549722181;348;1.2566370614359172
359;-0.3257225095140476;0.3218633049881291;-1.4267454922645912;0.1383321212219389;0.797587832900998;1.5547892673701176;343;1.1229273228100474
360;1.092771740981911;-0.7907127130670091;1.428572928372143;0.7188300382733037;3.134033865324785;-0.0717821422696515;53;1.105777408915488
361;3.101139177059612;-0.4493950984561456;1.3109792412844965;1.4783903568992591;1.68492857499524;-1.9018853017435935;298;1.256637061435917
362;0.0444881626949089;-0.5708454458452932;-1.1031803066329162;2.451452018692908;0.7591272594320537;-1.8985073163598003;245;1.2566370614359172
363;-2.33125561675828;-0.9454246936450816;1.6150845473847006;0.5883806723787657;-3.0183449397227515;2.596850263464143;89;1.2566370614359172
364;0.9009519904906866;-0.5407354814693954;0.4299409870528898;0.1815465680516336;-0.7259727015266546;-2.936778343837334;46;1.2566370614359172
365;2.4431982994043104;-0.2504871861412513;1.7436931135807032;0.5847476991938483;0.4739407494846415;0.8340357547620846;1122;0.8862626574058495
366;-0.0188347502572284;-0.7797190831924731;-0.7049268729905297;-1.139327509970574;-3.0357330976935386;-2.2608042303748555;187;1.2566370614359172
367;0.683153700411806;-1.4015644769792062;-0.6899682383987075;0.387587804094008;-0.4133085496583283;3.251061432468327;84;1.256637061435917
368;2.1915106288777264;-0.5283600292535413;-1.2780991656082836;-1.6201263073241958;-1.315695740874343;1.822550521212985;280;1.256637061435917
369;-0.2462680555833817;-0.0269593615851909;2.3662931233240774;-0.562134495641591;2.4865517639507004;2.782676488608;176;1.256637061435917
370;-0.1376435908556803;1.0354965555954805;-1.532740944320028;-2.2354375875491583;0.0337603119830187;-2.821898039867796;310;1.2566370614359177
371;-3.0916898076139208;0.2812411111081977;-2.2168287951507315;-1.1189574383286307;-2.100112689692736;3.1545179695235888;141;1.2566370614359172
372;0.2716297232759125;0.529495118058104;-0.9292876053861808;-1.590444915367192;2.9558437035569995;0.1659580884110321;302;1.2566370614359172
373;0.1780746594443817;0.826496006611025;-1.603091524027726;0.2895305718718575;-0.6699894890348249;-2.7037884088305755;268;1.2566370614359172
374;-0.0968543739580441;0.9948545346739134;1.0101816122462004;-1.9755245807244777;1.044068637275566;-1.371949925117173;41;1.256637061435917
375;-1.833101297500257;0.7470170592385131;-2.1641344915988734;1.0911132978208968;-2.7542861594043924;-1.8845277855492024;221;1.256637061435917
376;2.543352013000701;0.8587266962415703;-0.1591072689807647;1.0876074759132257;-1.3985228146614483;-0.685872400529963;67;1.2566370614359172
377;-0.4107367591702064;-0.358535298521788;-1.8992559123320876;0.7678908084490641;-2.64619508962513;-2.474170956863455;348;1.2566370614359172
378;1.985164219794224;-0.3777304347951297;-2.541862324920549;1.4431889271280944;-1.585614105848265;1.0106571026235511;207;1.1760250860240098
379;0.4206979479777352;1.4595965978520884;-2.412625871401566;-0.5644026988654482;-1.3030044964570189;3.1119731813965257;195;1.256637061435917
380;2.29066643952999;1.3279219570222969;-2.1177640271954257;2.91193166177224;1.8154807218294395;-1.724640189824315;267;1.256637061435917
381;2.218640553617838;-1.2193638587011069;2.4083100911105024;-0.5231960662158628;2.0716148204643385;-0.8155835286427746;168;1.256637061435917
382;0.2752676811849098;-1.3121300557153583;0.8147516324961795;1.4155020779649177;-2.275784408861341;2.27556742456074;10;1.2566370614359177
383;2.581383801075819;-0.2162606905540076;-1.2670613754745148;0.6437753287869988;0.8843827249630446;-0.561105019239578;66;1.256637061435917
384;-2.231701089940011;1.173330002847644;-2.3915538437978645;0.5873614112334572;-2.971437264497644;-0.8434582348915793;221;0.8835513060114688
385;-2.772182578848774;0.773711909529407;0.0952962070369776;-3.098998216668768;1.5077174872380346;-3.149571980167792;328;1.256637061435917
386;-0.6509099749415285;-0.0531805973068148;-0.1367644469018869;1.104244082412246;-1.0560624667459972;1.207400670229904;58;1.2566370614359172
387;2.7627268438922763;-0.2709786811682608;-0.7944386219799277;-0.8592057544230114;3.408395345437877;-2.2890886460526687;95;1.0853526025485232
388;-0.2196845339660125;-1.4346063639536908;1.0012619553234188;0.9102796999251792;2.906679005075692;2.4381435285793494;336;1.2566370614359172
389;2.8961525707906564;-0.471163842771613;2.4860130943183227;-1.0285610882801026;-2.711018499966379;2.387918173128216;266;1.256637061435917
390;-1.0227866417258458;-0.2901208955414485;-0.4383993827290789;1.2138716046693847;-1.7280180120580906;-1.1909029621721854;73;0.6727974209406918
391;0.5683455950101401;0.7896179390191356;-0.3281724559595411;-0.6474157364483999;0.3136069935533159;-1.6931695797544055;16;1.256637061435917
392;-0.7415468948819236;-1.479452757274146;1.5869903794667266;-0.8347431279820932;-0.9602765831439276;3.227656628483174;115;1.2566370614359172
393;2.999775201994743;0.3339533460890866;-1.919272769196052;-3.072691732076002;1.2833846787788907;0.3987836344347648;349;1.2566370614359172
394;0.9138972211398078;0.0722687018304709;-1.5925256352270565;-2.441152874331491;-1.1794621317180318;1.170211471178034;39;1.256637061435917
395;1.2573862275934953;-0.2436503820188872;1.669849424608988;1.1861627838891686;0.9043701185068944;-2.904997559030085;210;1.256637061435917
396;0.1616997938348781;-0.5831670562994603;1.9330936655130848;-1.3660331743649616;2.2525207353032277;-0.8444243455351241;28;1.2566370614359177
397;2.741798144673791;-0.8294029216905549;2.2409126568881508;0.8277041829725795;1.391117686832337;0.7482293094723668;1122;0.9380619907686224
398;-2.4693264812823865;-0.2553605775152341;-2.4705219988271887;0.4434767331980484;-1.055623334685597;3.2752745995022643;141;1.256637061435917
399;1.3467759558101176;-1.1739928577658771;1.5518293638300156;-0.7608256938091768;-0.7986668784222637;1.7639987456770734;19;1.2566370614359172
400;2.77140739288882;0.3750067408788425;-2.2309634789290613;-2.6277440079479035;-1.2422537451495317;-2.380155317182417;334;1.2566370614359177
401;0.0912011027885013;-0.7644892420543667;-0.4238725328526017;1.5243591724755867;-0.4978044608844018;-0.7162080274839993;12;1.256637061435917
402;-0.5186280568835129;-0.90905885643818;0.9985835673777268;-0.96266842816536;-2.324813259647897;3.2342161795159483;115;1.2566370614359172
403;0.859889489370363;-0.6906093980735126;0.3320893393405588;0.7738458027630256;-1.7604044514407793;-0.4416408641760158;22;1.2566370614359172
404;0.4490675084716768;-0.9254379620046308;2.295332002393081;1.3736661361217433;-1.0197311904877433;-2.5510279501281934;228;1.2566370614359177
405;-0.9141639449427692;-1.2701222235941063;1.778626548541245;0.2822390474890814;0.4572587847813772;-2.620307757333283;313;1.2566370614359177
406;0.005693150556937;0.8550663238143856;-1.4434228559728155;-0.9008073166527816;-3.109359448476235;-2.086213534873078;194;1.2566370614359172
407;-0.6887707098670464;-0.7327840592048043;-0.2891262599180583;-3.2532855153095297;1.685978307217244;-2.185079247173616;279;1.256637061435917
408;2.1458298198268686;0.925533153704284;0.0953034007325108;-2.734482708201888;-0.6540323272503067;-0.1633523755361337;239;1.2566370614359172
409;-2.862754908662669;0.5738382853805677;1.314557444712193;-1.1190136729089224;-2.7274461941503447;2.105943352797136;155;1.2566370614359172
410;-1.906964208925884;1.4149055055008084;-1.834942289322666;-0.4519086368039291;-1.432729541890411;0.2598852436289631;327;1.256637061435917
411;1.1122631902420013;-0.2348260803657645;1.5918583509786892;2.4182577930101163;-0.6481057883341372;0.8139408345048152;186;1.256637061435917
412;2.870516682272877;-1.113335458275864;1.912945978824257;0.4677377195970984;-1.209168819109745;-1.634118880815974;56;1.2566370614359177
413;-2.4234404734885198;-0.942656854594116;0.8388844492428471;-2.1545857524109446;-1.8654271134728264;-0.4454511962764266;199;1.256637061435917
414;0.8168283457333235;-1.0523755691761314;1.5757561362285866;1.61245994134658;1.6343323234182796;-2.8179263548977245;395;1.2566370614359172
415;0.8341404243976983;-0.657833782051741;2.293704906612909;-1.323132049269245;-0.8262260867979307;-0.7326070148213625;167;1.2566370614359172
416;0.8344967386991912;-1.0647640829294602;2.621196449848741;-1.560067795164993;-1.1038195468145735;-1.8157030030993224;415;1.256637061435917
417;-3.156401242218959;-0.9301761355759046;-1.5518324655289502;2.5088499586860604;2.1640969346228114;0.9959096023929008;122;1.2566370614359177
418;1.7779833108983394;0.4791599066822437;1.8213235402345904;0.8918017389776596;-0.3783214080307551;-1.0689346158767492;49;1.2012895936603951
419;2.668870834075717;-1.252539947224612;1.7224800527994404;-2.9985940442310346;-1.7712517183032852;1.7967008552789714;269;1.256637061435917
420;1.6730883677406694;-0.9974501306463036;-0.936278247945544;2.552178588650322;2.758237053611749;2.28626221972272;329;1.1236265821262037
421;2.4134127884378973;1.282357714437509;-0.9438439524231228;2.30352356708346;0.0062337358671868;1.072528804140224;105;1.2566370614359172
422;-2.719111622128496;0.1943190109576195;1.6470318124742067;-1.299594940823552;-3.266792752762793;-3.004006625682316;304;1.2566370614359177
423;1.4788892368877034;0.4334379227092133;-0.3821837287693448;0.5837038082454813;-2.8587107442429853;-3.250192286357896;148;1.2566370614359172
424;-2.9803387943217805;-1.3610466410511306;1.9022193085693169;-2.2665346516654967;-0.8757604757811799;2.675839922062816;237;1.2566370614359172
425;-3.265424164924132;-0.3958560587759806;1.6104669949243542;-1.4763170463727822;-2.752171654928308;2.6166757114164416;409;1.2566370614359177
426;-2.9246914928962373;0.4452222692346865;-2.3712899829539604;-0.4688174309930776;1.9818054828467653;0.3612503031906759;243;1.256637061435917
427;-3.028295683226017;-1.3699297526818497;0.375130865698334;1.109580371950453;-0.4579507785324914;0.9866466380893364;26;1.256637061435917
428;-2.0049885418040163;0.6506358241813767;0.7480712028757666;0.2115144344796861;2.0127987313471056;-1.4809850682444528;62;1.1813194963156504
429;-1.4758238587707138;-0.4308062377410186;2.0794610085241825;1.0201881706460507;-1.978239392976439;0.5887242515544974;97;1.256637061435917
430;2.920952891513578;-1.4765475250681357;2.2919878854836693;1.423943626817324;0.5327923852973079;0.5654407251713544;397;1.2566370614359177
431;2.0074018349647784;-0.044627728864163;-2.4383069167104114;0.9984282382972004;-1.9349262226006896;-2.90329527605655;326;1.2566370614359172
432;-2.416158268006593;1.059122093413283;-2.6183828490143237;0.4708344921007476;0.1778243203238146;-0.8008728828410298;136;1.2566370614359172
433;-1.902304436199227;-1.0400643775892506;1.644766894808413;-2.4611309250771747;1.030156567301881;1.1011607387772602;94;1.2566370614359172
434;-2.1266870205484363;-1.487218738116626;1.9670213782145436;-2.84627127863674;1.2636935604870827;0.0901604585225524;433;1.2566370614359172
435;-1.3356739304611558;0.5740949222222573;-0.0291571138297238;1.5987656618928168;-2.685993190784937;-2.5929661371022306;358;1.2566370614359177
436;-2.175109017808297;-0.7217899395702086;-1.944511922420684;0.5306704968751698;-0.5313847408050578;-0.7031223446481458;325;1.2566370614359172
437;-2.0456193394291566;-0.0664383339835361;0.1106137876416841;1.600802700808432;0.9427171143510806;-3.145143141694574;324;1.256637061435917
438;-1.913898453658165;0.8038506763275286;0.1432413516200918;-1.652175901863877;-2.0624323129623834;-1.769486403709215;248;1.256637061435917
439;2.733341729428578;-1.469965678882152;-0.8097764652408674;-1.6737812401839194;-1.2449298977496737;2.2369437585913;368;1.256637061435917
440;-3.3906332034673112;0.0271215910165277;-2.484067395114953;-0.5247770137042275;-2.4360949063279107;2.020894984463972;141;1.256637061435917
441;2.120214903531102;0.3326493907108345;0.5005633017557863;0.4952897070243939;0.6605043732185669;-0.947333889556428;11;1.2566370614359177
442;2.6403185291131512;-0.3946735636003685;-1.7994236367181118;-0.073623579635141;-1.436926974303351;2.746835084728672;1481;0.9618830413296152
443;-2.692982544246293;-0.8759223766515177;0.5567177958820142;2.5007872474744444;-0.2260940129301991;-0.2134264924740726;135;0.9041694131966842
444;1.4560834146064887;1.3639472177483325;1.504676537241506;1.06197611156623;-0.0824817637885142;-1.758806225976948;418;1.2566370614359172
445;1.7148155493179824;-0.0254805691142002;0.3210419275045788;1.4306230200374324;-3.160350640424903;-3.3506123800993493;423;1.256637061435917
446;2.526155621453948;1.1161941505224962;0.6041841041400052;0.7926307242722941;-2.9059035005190785;-1.9117553902640827;117;1.2566370614359172
447;-2.9202446315281807;-1.365008263764504;1.8156137287627727;0.9857204902296388;1.8849856517600363;2.024853200941637;273;1.1921481799534457
448;-1.090664904757768;-1.0069918735086285;1.3923514005911604;0.0757809169734483;0.1077375992989771;0.5842555304389033;321;1.256637061435917
449;-2.30918798581066;-0.9004173705998633;-0.9935864923815824;-2.2606638840166027;-2.08233311270786;-1.7822923374743058;293;1.2566370614359177
450;-0.3550720467681225;-1.277133492348948;-1.4628850134061313;-2.130910045990152;-1.1842656230210886;2.5634266233428256;118;1.256637061435917
451;-2.185845028399028;0.7790359764550832;-1.3728045600381953;0.1409754999327364;2.576677923183728;-2.7336177693974806;274;1.2566370614359177
452;-3.062675797389479;-0.1849451299290794;2.060166894089412;0.3686891523884409;-0.6185099678901717;0.3250795245423655;223;1.2566370614359172
453;-2.305165570584637;0.9575983154397316;1.6577045210063592;-1.607894165206399;-0.3504753417156796;-1.4544559528850345;277;1.256637061435917
454;-2.621164982248881;-0.5935929340912709;-2.233603776281341;1.3447332619132126;-0.306937940005744;3.1623265945148056;398;1.256637061435917
455;-0.3156805185355181;-0.1430102446381175;2.361987554953473;0.7221191017437354;-0.1147948351985419;2.8708685029659144;35;1.2566370614359172
456;-3.060089743321453;-0.7901573167646269;-1.9144741810515464;0.7503958288464375;0.2809271425036839;-0.9898968871009626;436;1.2566370614359172
457;-1.5271851460001022;0.2345565203240244;-0.8307215568256396;2.2559690235373324;2.152043517041285;2.524728651514597;65;1.2566370614359177
458;-0.4482481599283858;-0.6006625423775607;0.4350630391385646;-0.21372537734125;-0.578726493771328;-0.6689783718048291;0;1.2566370614359172
459;-1.46523212682612;1.1376146720036169;-1.4857353411149037;-2.9363730677268385;0.1803122199048634;-2.909669114974842;179;1.256637061435917
460;-1.8542715025947785;-0.1028410436588358;2.446318561735744;0.0016916260467346;-1.6495248883963691;0.8086788270888731;429;1.2566370614359172
461;-0.5598979848016575;0.51414207671528;0.4933075900073281;0.1876118758501439;-0.7694111515005667;-0.8484952820190327;458;1.2199614749639651
462;1.2777791716531366;1.056014602557391;-1.1386144104527047;2.080430609702299;-1.0981448490980987;2.48729560545863;105;1.1699644523763215
463;-2.5539170694286937;-0.8788436299612516;-2.306107743556836;2.3757552750285003;-0.4237491235763994;2.5209699125544844;454;1.256637061435917
464;-2.6505949666954427;0.8987709184021231;1.5433566795579403;-2.6683837400713286;0.1382142177071948;-1.1719253862120338;453;1.2566370614359172
465;0.4531238671185598;-0.6941050343711466;1.3921348115918424;3.0811485246917054;-0.7896142517471576;0.1548531015418112;667;0.8718083855902324
466;1.3345877186615585;-0.035486725010007;-0.9853430571906006;1.5567254847088097;2.739263361469173;-0.3588320270791583;271;1.2566370614359172
467;-0.0551773489182033;0.9301384039574004;-1.3137146449138657;1.2413892196129408;2.801916437446104;2.810561690729789;50;1.256637061435917
468;-0.8074254719364473;-0.7514993327621486;-0.0220774835233679;2.5473043351366864;2.126194644093468;-0.0128516722757374;25;1.2566370614359172
469;0.2349730152479434;0.2105295722447226;-0.3066333111319628;-1.2799913198288932;2.864107960847309;2.2249812483862783;235;1.256637061435917
470;2.3824874974399477;-1.1633680623289546;0.4727635095787399;-1.840802730196474;-1.3393123536136051;-3.358054946858715;153;1.2566370614359172
471;2.061135916634155;-1.6759402822021718;0.4942404823765302;0.4980636115756923;-0.3818614775525173;-2.4941934348020744;283;1.2566370614359172
472;-0.5156270116802918;0.9214209168326852;1.692601227952064;-0.9252197413391212;1.9522072148500351;-1.5850273301558009;229;0.9808093591769178
473;-2.6969114703306105;-0.0358714833758151;-0.9392261018248536;0.7466425333848578;2.70011440170872;-3.023124641422368;451;1.2566370614359172
474;-3.237798358527869;0.0290684263954361;0.958243429272412;-0.4574754922104422;1.5152952317708248;-3.013722518767928;112;1.2566370614359172
475;3.0500302358329803;1.0720872667978905;0.2287243517985029;0.8331663809638874;-1.5665884547562785;0.330735416358108;376;1.2566370614359172
476;-2.835918483885894;0.99321500663131;-2.1136860395857537;-1.992815640135436;-2.099931197450532;2.672289508733103;371;1.2566370614359172
477;-2.0536080667633976;0.0791016885836622;-0.1038195927352488;-1.1559977476712755;-2.8679408044144195;-1.4896989268281802;438;1.2566370614359172
478;0.3723543429201895;0.8704248000872694;-0.0086089113108461;-1.2256777800444194;-2.542237873567492;-1.5033574154793286;194;0.7508135553679223
479;-0.176766532167178;-0.9433215219001714;0.3201633515302919;-2.93114289966369;0.0307039878832582;-2.758951542019674;279;1.2566370614359177
480;-0.8342242787971057;-0.3597093547391046;1.693019169861515;3.245177082018252;0.8668007571278482;1.6188149821936793;166;1.2566370614359172
481;-2.26642582874713;0.568542048236074;-2.1531829031452707;0.2281703553342569;-2.639139607074087;-2.660068911119561;375;1.2566370614359177
482;-3.076309126314055;-1.3439669101329128;-1.2194500356406417;-0.2213492589195261;0.9859287145634322;2.111172380900209;217;1.256637061435917
483;-2.582187889434232;-0.0400298979313675;-0.9859293810016064;-0.1225126443525667;-2.1102252987893;1.1994765362640631;38;1.2566370614359172
484;1.0754754219863127;-0.3953038609396321;-1.4703783865911275;-2.632550277129261;-0.0578071167441978;1.0129149392166146;394;1.2566370614359172
485;-0.1959270354141064;0.3448163134016613;-0.3327221110552089;-0.2412276527090603;-1.556969962659152;1.074780994781755;54;0.5731271379098866
486;-2.509370082922779;0.1190920794345023;-0.923449929292414;-0.5854075580992878;1.9113921455502092;2.289346718668583;217;1.060241939774645
487;-0.1340968301624529;0.7013451361112981;0.2723260629200473;-2.59167994037158;-0.4856850668550347;-0.1393855037840627;14;1.2566370614359172
488;1.539436004827302;-1.1627848172554394;2.393546890035659;0.2506424461844942;0.3050777314214357;-1.7480961416426792;49;1.2566370614359177
489;3.428019465277106;-1.0141471522836425;1.9068986212886647;0.0159538882309712;-0.6228399351315583;-1.657279576503065;412;0.9322611500711068
490;-2.612483484962914;0.4069320051644428;-0.1211111860836017;-2.2991106312669785;-1.200524313476667;-0.9157835384638306;278;1.2566370614359172
491;2.906529338761546;1.20578057280975;0.8353671436006687;1.8153610510019864;2.427892825317459;0.9180363270185776;109;1.2566370614359172
492;2.922460470509219;0.1207206216989503;-1.7325328343130386;-1.891075838381844;-2.3676948382267544;-1.0304223585871368;344;1.256637061435917
493;-0.3662525095975538;0.8480597073217063;1.6458428175065578;-3.187306237399639;0.1655370515498715;1.243692934306025;227;0.9956359804290784
494;0.874757832006447;0.5384192316539125;1.896018244396628;-3.2673537478270305;-0.3603190511764892;1.812457366985971;227;1.2566370614359172
495;-1.093178040334037;0.5348579161383349;1.426956455415201;-0.4790642000730639;2.115858905863947;-0.0340668106413644;69;1.2566370614359177
496;0.6874069343648812;-0.7698433621487345;2.131032774873556;0.7363483138371296;2.22406277123618;-3.060571412709153;414;1.2566370614359177
497;-1.944081134901411;-0.7373284957631986;0.879831036094399;3.0175655784715096;-0.8199651075501275;-1.432161345325352;129;1.256637061435917
498;1.9198152576483285;0.3655813006253717;-0.679139855593917;-0.707420286163168;-0.6060094807044656;-0.5206674662839226;16;1.0972015779392277
499;-1.2383662380626186;1.5502113479433213;-1.933370131521352;2.1617671013282083;0.8915987403804381;-0.8773394522327356;341;1.2566370614359177
500;0.9184075967948908;-0.3325681206537434;1.5189177966395466;-0.2834990474935918;-0.7774088263722709;-2.575233374878572;364;1.2566370614359172
501;2.379709358225336;0.7919110275149784;-0.0936830069244637;-1.790486075657879;-0.6001207123429041;0.5961410255741266;1372;1.1323991023622233
502;-2.9565244103644077;-0.0540941782514103;2.2473649613151285;-0.4479277043380381;-2.9652526004658317;-2.4707155936595138;422;1.256637061435917
503;-1.5389040572499213;1.3671431869893589;-1.5124082927259772;1.0180183423449307;0.4798446806896311;-1.4757710656331782;130;1.1573264264644485
504;2.726037346628161;-0.3340433029832406;1.1062118388907594;2.679324954504112;-1.3480865331153118;-2.4016691525171856;60;1.256637061435917
505;2.473840576113001;1.5651312860330129;1.3860129842641642;0.4000270136990402;-3.375339901430903;-2.535526728746187;446;1.2566370614359177
506;1.2639857226678752;-0.906722699798806;2.001799276047577;2.691576894213694;1.6878306811974488;-2.9133412218334724;414;1.2566370614359177
507;2.6416770804751364;-0.5759247995101681;-1.8601256732260407;3.1806384688143408;0.2440844835304426;-0.9016575983450128;134;1.256637061435917
508;-1.7232644902789498;-0.7328676148142187;0.4064316823152062;2.619877914165986;0.6627082124566642;-0.2627937577303111;135;1.2326304547776423
509;0.3898349837813691;0.4513595655097678;1.6772372006380458;0.0774897220443422;1.7965674626763062;0.9182478758423204;20;1.256637061435917
510;0.2165911478085587;0.7656939050825446;1.8993754952880963;2.1341816375717197;1.00232249430674;0.4708271307584173;339;1.2566370614359177
511;1.2837005648731674;-1.423167549493071;1.0181024315328393;-1.843746353925562;-1.29137709336251;-3.290178488716116;470;1.2566370614359172
512;0.7911337687591559;-1.5197768139894412;2.239259269471888;-0.6108675232409267;-0.9336523561739912;2.158140489595193;399;1.04733991903586
513;1.5790459920292867;-1.6114336933326732;-1.2616908048796325;1.6434937262432148;0.9931943258152484;-0.0415363063639934;81;1.2566370614359172
514;-2.4988337990527745;-0.2800564042355509;1.849962204156132;-1.9080674028359563;1.535092763203863;1.3078788253650295;433;1.256637061435917
515;1.6775849795757092;-0.4584460871637;-0.6191986732918084;-1.151671781927104;2.887440505910892;1.0226780780321985;235;1.256637061435917
516;-1.9825257441577449;-0.6259042579339097;2.3237396495542217;1.9451998744876384;-0.5843256373324258;-1.0281499177002194;247;1.2566370614359172
517;0.7023322925211105;1.7081174570428863;-1.4619560964996905;0.6214303040745207;1.2725381696170306;2.010103096766095;351;1.256637061435917
518;-2.5111913576893428;0.7706402749087995;0.5469266526152081;1.310711948639417;-2.930240921074241;-0.1454360846995259;241;1.2566370614359172
519;2.4914575313402056;-1.5267963368516118;0.3157652654860705;0.0098104807891469;0.6795520380011371;2.857314425703465;312;1.2566370614359172
520;-1.9545079873371596;-1.071667495805427;0.6171497753048973;2.0584515144521585;-0.7631722102693732;2.402442047017032;26;1.2566370614359172
521;1.500031351411519;-1.2313348243015685;0.0147683302188417;2.3175695517466437;1.931475483272745;0.5747590602915346;224;1.2566370614359172
522;2.9261823622333853;1.3572665885634976;-1.0501929087025343;-0.6626625305968747;1.4519651580948951;-2.303173849646765;287;1.2566370614359177
523;-1.7244261004664871;-0.5878542372725015;0.2018647072490925;2.7783530451488434;-1.3359552539863857;1.8796386006274608;520;1.2566370614359177
524;-1.820431812101003;-1.53763940204168;1.9484157416442252;-0.7302186272762626;1.6219103109701507;-1.8618362995540212;250;1.256637061435917
525;0.4129353011688187;0.6141568297901118;-1.1473071276488764;2.0168832927525737;2.604335318437365;-0.1319540158235426;466;1.256637061435917
526;-0.2377539482238762;-0.6545199331031557;-1.4404336317511617;-1.3464545279097455;-2.518204219218861;1.8691419967817475;116;1.256637061435917
527;-0.08893201840863;-0.7304337638261202;-0.467936229467655;-0.1332962442377056;2.3590158889120105;3.232761738277695;336;1.2566370614359177
528;2.552872747086853;-0.5682807939000172;1.3371834208039652;2.2145614144180894;0.9369497912613988;2.2226098667724576;337;1.256637061435917
529;0.7069875015541616;0.6146946370386053;-0.6513208012408251;-2.793261832899194;-1.7494353242144105;2.006384788299148;272;1.2566370614359177
530;0.1663010097114043;0.1259972077350554;2.1972141704776056;-1.771692936261326;-0.6367041980679218;0.7416973223201191;227;1.2499447003916009
531;-2.446160062606729;0.1083981630072066;-2.141320730809864;2.809148324185148;-0.9865237354411774;2.273625586796701;463;1.2566370614359172
532;-2.864726874313853;-0.2224811975387844;-1.1697842716460678;-2.270092419189591;0.2494299673422803;-1.12136494772813;278;1.2566370614359172
533;-0.0386369234473964;-1.1496180134511755;-0.8935545583588609;-2.354370478439527;0.5597768366182954;-2.5659803384397373;279;1.2566370614359172
534;-0.2948178662587353;0.4871817731543115;0.2464073861248972;-0.782848557942448;-2.429951120922799;-0.65872531624552;478;1.2566370614359172
535;-3.173624920891739;1.2410215713818706;0.3073391400918755;0.8342456581296771;-1.8211306353070411;1.2846921714874633;244;1.1654062970897914
536;2.4927194663624705;0.2897280431014166;-0.4576665006772138;2.739457688330005;0.7399016102602836;-1.9874693267349488;203;1.2566370614359172
537;3.033281122321505;-0.1779123291323298;0.8217683212256442;-2.311639517702399;-1.7362334059250748;-1.5469916372668724;153;1.256637061435917
538;-0.8874464481169946;1.2733424484628468;-0.1226538719881734;1.0693191774596742;-2.044802069396685;-3.027822949720189;435;1.2566370614359172
539;0.3879306092924489;-1.5681219970480818;2.383467004670407;1.347882748903359;-0.7971261584886118;1.3669632127319356;93;1.2566370614359177
540;-0.4063877607210326;-0.1714521887168199;-0.8497921407970507;-0.4906205349783659;-1.6665697362014282;1.1183168786805449;54;0.8645599022967818
541;3.26346982126935;1.5052913662172152;-1.8253513757391595;-2.168913727564973;0.3519973801165574;0.0255995196417529;209;1.2566370614359177
542;2.235057805003582;-0.2313277149642126;-1.653917707746286;-2.1733590391383;-1.988809793739557;-2.322251967842437;307;1.1313240885806184
543;-2.564213553495106;-0.5774197234584924;-1.7199390842855555;2.218118306395641;-1.1208813687754209;1.5320576826394934;531;1.256637061435917
544;2.453806838248972;-1.3867992962815912;0.6561969169097264;1.2085520393959974;-2.642550687153257;2.480032862746026;353;1.256637061435917
545;-2.1098360629517363;1.0010292216004897;-2.2819429471568973;-0.3346403604226995;3.2215422623971923;-2.9691708863628152;451;1.256637061435917
546;1.1104607936264108;0.1982115398871055;-0.2062894603703025;0.6107805375647769;-2.3299530336196983;3.264354848806303;301;1.256637061435917
547;-1.8136263967578248;0.3758498974964244;-0.9113592633333516;1.6341495808617137;0.9444151889148036;1.2072662641442924;1649;1.1253272940858603
548;0.9125799433806254;-0.9320421242360172;-1.5822281193041423;-0.8643093404438493;0.6608394176126205;-1.7455914772790493;320;1.256637061435917
549;2.705835378107141;0.1079390180671751;-2.5918031514364763;0.0739585783764904;-0.6263599831579174;-2.5374246922066224;326;1.2566370614359177
550;2.9226612007889767;-0.2897059326869605;0.2304028774327398;-1.3078716673703594;3.297796182021512;-3.4103383909274925;204;1.256637061435917
551;2.877797490207848;0.3449046720707484;0.8950551629452159;-2.400179644764115;-1.6842046895240634;-3.017394594531364;153;1.2566370614359172
552;2.72391882137467;-0.4247385903136662;1.0065328529856383;0.521507686466671;-2.464621834030205;-1.5902798413766115;117;1.256637061435917
553;0.2262714667511597;1.104899518711293;2.0075965993328286;-0.9419122771766087;1.9070586619832504;3.172268211327631;176;1.2566370614359177
554;2.0885217539091365;0.5971553806302083;0.4633406331897851;-0.4415112247306597;2.9483930387764987;-1.1928175543125128;79;1.2336333965401691
555;-2.434000992158993;0.8098262174914294;-0.1115371921370402;-0.4978092510774667;2.423946303638619;2.697703221901428;486;1.256637061435917
556;1.1316598393496575;0.7852949877560748;-1.0182221220210264;0.309712597352286;0.8754750770666734;0.3732439655565435;18;1.256637061435917
557;-2.331927823029213;0.1810241193834211;-0.0539093307053279;-0.3595198489025169;-2.270141974646138;-1.285484423303954;477;1.0600873315123411
558;-0.9187879281155956;1.3631195514244792;-1.8317537023388712;1.384211086237325;-1.3800684226477689;1.4780599254028244;58;1.256637061435917
559;1.761245578216444;0.7334488000021818;-2.2310716859651025;-0.84934060660453;-1.5659543726598153;1.964130990329504;195;0.7925954764492861
560;3.030710503313781;0.3495800117876124;0.7322975897409061;2.352848397789455;1.86670243001702;1.3829940683060835;491;1.2566370614359172
561;1.865891389957003;-0.1984401748553641;2.251483007804155;1.8331772818083163;-1.0080719641725504;0.4932263720607213;411;1.2566370614359172
562;0.8496614258801717;-0.9270384366527492;0.0334281304548944;1.1175105152244602;0.0611799603518553;-1.2550392552836147;401;1.2566370614359172
563;2.306841097244549;-0.8964586423807569;2.099830570734896;-0.1768064602163415;-1.7210824575331398;0.7605903227407182;21;1.2566370614359177
564;-2.779416256920334;-0.4692925630989146;1.393235300139462;-1.001219187875675;0.7242315632825668;-2.913712442514748;474;1.2566370614359172
565;-0.1827015315429483;-1.3376857934446655;-1.191132181766713;-2.240511365259138;-2.3345712984496334;2.9331472352576244;450;1.2566370614359177
566;-0.1948224162131239;0.8722139518711752;1.972900531433792;0.0792488141508821;1.3943929587617303;-1.3109502105254691;472;1.2566370614359172
567;3.263744802683278;0.093332835034181;1.30103261125532;0.4013477454977818;-2.7900383310855186;-0.689023941686493;552;1.256637061435917
568;-0.1472322732894682;-0.5996597673307885;-0.0626865614713589;1.375299533877209;0.1486968994100874;2.71067287666734;299;0.726221779312195
569;-0.8095734254850603;1.302516141011933;-2.1522736895098515;1.4845512120096351;2.483440310404404;2.8978658456448136;467;1.2566370614359177
570;-0.9638851196544028;1.387339166479192;2.0983341331232417;-0.1346898329630964;2.5316116278838074;-1.767062060489896;472;1.255554853435188
571;2.6216919668786907;1.118860743748843;-1.3316049100295158;1.404041392290242;-1.2017575982655495;2.20194972420404;357;1.256637061435917
572;-0.1130703641922417;-0.3962153944925147;1.1110874592305888;-2.1618208107920123;0.0022536895678771;1.9112354332990595;52;1.021590287776009
573;0.5121608741976112;0.1528188240631631;0.3187367482519133;-0.7786274264549219;-3.1618705021992044;-2.9094810627664547;187;1.256637061435917
574;-2.3135841165235425;1.028317126845528;-1.0564410568235465;2.617680010231627;2.1844463610062053;2.909206723707152;457;1.256637061435917
575;1.077363306245028;0.6035600835682697;-2.263052523514444;-1.2104861377036318;1.0174046620176198;0.559035286052795;101;1.256637061435917
576;-2.747497822586061;0.7073485224300055;-0.963985051160438;-2.726902140621863;-0.2248112894402246;-0.0580647249912922;278;1.2566370614359172
577;-1.094316165183308;1.1983401803850924;0.035220661534098;3.1128856961819444;2.0993531058184445;2.731276735886652;161;1.2566370614359172
578;2.788654992527533;0.4407394062280646;0.6301026140701531;2.3599346699554973;2.2977597091787527;0.1278934445915702;1230;1.171686558058256
579;1.993704743750516;-0.5335015131089889;-1.7705523835644708;1.492891442026567;2.8951738034844743;0.1429111194488551;466;1.2566370614359172
580;1.8341378815896732;-0.9722982017129436;1.327137816655295;1.6344886820114206;2.86440570083458;-0.3458632967114913;360;1.2566370614359172
581;-0.5583843415889518;-1.3661709079499915;1.011655853847454;1.19442422929168;2.7562454354222696;-1.5405052385985956;291;1.2566370614359172
582;0.8653106807115352;0.5853382529609398;1.3360643185442378;0.7347096351416322;-0.5514356118143913;-0.9089191515510948;1258;1.108164381785045
583;-0.1787846047405566;0.8280247464551866;0.9832941713842326;0.2379634013031535;-1.2888764689352554;-1.755633983258957;461;1.2566370614359172
584;-2.889406002983627;-0.9910664843911428;1.5398004482671803;1.4829435351009144;1.3704598634504344;1.3323266150599231;305;0.7655906542776963
585;-0.5528248152405822;0.8614779696148053;-1.5690783151665828;0.5927479488824464;2.8903552391681324;-3.074953283962645;123;1.2566370614359172
586;-3.224061158583987;0.7405755052681674;-2.7381271069879505;-0.1368981120315125;-2.6228458537123287;1.6290438485646703;440;0.969630002893872
587;2.435661877610072;-0.5427846341060041;-1.6581870817629851;0.5698676909713769;-2.49559994112204;1.4089658138300023;226;1.256637061435917
588;-0.0147685736671232;0.4548017496562045;0.8418935683281376;-1.2798656415213856;2.4982282293171165;-2.181698532201586;229;1.2566370614359172
589;-2.475214434372872;1.219660938101076;-0.0784644566299971;-1.419938364596558;1.7036462950983768;2.4996485627754823;555;1.2566370614359172
590;-3.132083347879647;-0.2933789394057087;2.166578265373208;-2.766247988644792;-1.7858983566918465;-1.9960222891725103;199;1.2566370614359177
591;-0.7170918631530262;1.0282677747559172;-1.9798169400222516;1.41595576515839;1.290109619766651;2.7058062314144915;569;1.2566370614359177
592;1.853566301257664;-1.3090455927437847;0.9176135030922372;3.3362113273429173;0.179729073960664;-0.64082864647391;256;1.256637061435917
593;0.330319743183871;-0.5993124162464118;1.408410750877824;-2.8607536442639865;0.5014385884541287;2.644728871007031;86;1.2039906984605075
594;-2.993770863583468;-1.1841259378289688;-0.8795426846315474;-2.8056459268751133;-1.415423190700862;-2.7736475853035136;293;1.2566370614359172
595;0.3018464163453656;0.6585898026743522;-1.1912129335604182;1.511107355966644;-1.4030458020561811;-1.107375438933209;34;1.2566370614359172
596;-1.4090832804858189;-0.1570114074783611;0.5381666141868655;-0.070192019486587;-2.3742950141666213;0.3194588534061341;220;1.256637061435917
597;-0.5968605104529219;0.3177212668274459;-1.102363507759874;-1.204997762761583;-2.128248201347044;2.336645054824928;526;1.2566370614359172
598;1.432063101213992;0.4648601161021964;-1.688344391198286;-1.224513999148031;1.2298293455067155;-2.230130532012756;164;1.2566370614359172
599;-1.0390068064532825;0.3120701153625297;-2.2563124462339896;0.8023923042641126;0.5788524703730684;2.767220953349774;591;1.256637061435917
600;-3.347932034935817;-0.2119215831917104;1.0613386155546776;-0.101234198962692;-1.2438811316301934;1.642901256102273;155;1.2566370614359177
601;-2.2348850902487;0.7311830207101296;0.743846868635121;-0.1467558762171555;3.041136667812994;-2.0588622681903974;428;1.256637061435917
602;-3.1658581362388447;0.593573267199496;1.5742613536051309;1.5306407614800714;-0.3612975343555925;-0.6639712080018353;247;1.2566370614359177
603;2.704695211934337;0.5689781768057808;-0.7748781428831214;-1.662488610641924;-2.9473485348292123;-0.870963511440576;492;1.2566370614359172
604;-1.5884065407192414;-0.4202402616592453;2.4177362725218026;0.0729025049204126;2.121210365569472;-2.525511069182238;1103;1.1789722795750608
605;0.0859617415798475;0.9694833518819446;-0.4458364005264152;0.9579730167111168;0.1530472506389795;1.74189158094114;125;1.256637061435917
606;2.8510365666293245;-0.1195396576151575;-0.8867022502990579;-0.6687282623765519;-3.142268904784777;-0.6574081501004019;603;1.2566370614359172
607;-2.2899269555595123;-1.787349592204806;1.3715550729297477;1.0532946726999135;-1.5774509700140844;1.622886353637681;97;1.006032496026374
608;1.296329926020927;-0.4034716768766968;-0.6995014957692691;-1.3038749918801107;-2.705933428534706;3.0881583138691977;301;1.2566370614359172
609;0.1391615781451753;0.0359238651680104;-0.434202540991575;1.0403195356884458;-0.8472323762681859;-2.041918318790287;1772;1.1209191556093168
610;-2.552953477850215;-1.351610341524604;1.3621532121134143;-2.778979261950793;0.1516618324212639;0.7754605959835879;433;1.2566370614359172
611;1.1510102484618363;-1.25222092262158;-1.526209032332719;3.225300042749468;-1.8104158633490368;2.364175550693724;308;1.2566370614359177
612;-1.5596931344925695;0.025869475457749;0.9616247950186014;-1.253763302163925;2.5855565029947187;-0.2892589983192606;495;1.2566370614359172
613;-0.3291210558844482;0.6429496794124403;-1.1006848522961543;-1.6768842912256183;3.074775846374733;2.7164327670966117;469;1.2566370614359172
614;-1.792037905772288;-0.3754282837534073;-0.3354720751887636;-2.2992287844797388;-0.7494578732062469;-1.1267494025482168;490;1.2566370614359172
615;-2.749892243019321;0.1148331019995656;-0.1245939027110371;0.4488075401561553;0.931202822645654;-1.3333276288824654;309;1.2566370614359172
616;-0.6006994539541286;-0.7097667432321838;0.4654451352254773;-2.050401377370703;0.1298336400465305;2.2377461262947422;572;0.9424705589957574
617;1.3332798899305205;0.824181372340949;-1.75509667661021;2.983352514970578;-1.1133456205105812;3.0589251295919424;462;1.2566370614359172
618;1.8233356978584383;-0.7579011043897512;-1.7435366614935337;1.3945166385959034;2.022340580367786;3.143991666760268;329;1.2566370614359172
619;0.4398614046441647;-0.6286672035353948;0.0083655343994436;1.4106315457175007;1.3608909151686672;-2.120049789371605;245;1.2566370614359172
620;2.166487680839274;-0.593455738956009;-1.927558660035231;2.1544988265165554;2.6055148295354567;-1.5174084863649386;139;1.256637061435917
621;-1.854293794213726;1.3321677501265656;0.0466152805840478;-0.8370885317765538;0.8569917829510466;3.324626094403958;202;1.0629107829866524
622;-1.4620843537286774;0.1776674402362132;-0.2711767939346506;3.1887195056181223;0.92969178634857;1.7476723295143706;338;1.2566370614359177
623;-2.635454886777188;0.4748039799948954;2.1471244975583894;-0.5469547501984257;-0.3698375369910099;0.5564812328972403;452;1.256637061435917
624;-0.0945109372770729;1.3958171927583811;-1.6262178942848022;1.3652733289365384;-0.5343408997679725;-2.7712371707880403;373;1.2566370614359172
625;-3.1433917380129097;0.8932571896411501;1.1962586215444038;0.821949676175306;-2.049176138815293;2.0688788879468927;535;1.2566370614359177
626;-0.2044005626612687;-0.1717100553764998;1.2956939182429417;-0.065651263374764;-1.8969209421577065;-1.8953383318649528;583;1.2566370614359172
627;-0.9928841968314278;1.7490587458670372;-1.8084739432181487;2.214100994799554;-0.2145892441817297;-1.3645203554894054;499;1.2566370614359177
628;-1.9801598300583043;1.7106936129348636;-1.1638435328172694;2.108095469666836;1.3661120989474376;2.661326469732914;574;1.2566370614359172
629;2.4468102232433844;0.41776130649416;-1.8354939678052733;3.055068972478299;-0.6818029517321593;-2.3606950132584004;240;1.256637061435917
630;-0.4871272416021122;1.257839375855442;0.4012597962278308;-1.3374023779762416;-0.8811934478285697;1.0752500724185168;14;1.256637061435917
631;3.1050594754709246;-0.7108988882760816;-1.6244966436634414;0.0804118735350775;-2.9246066805153554;-0.5479779336035666;606;1.2566370614359172
632;0.6089400126373701;1.5267969414984024;-2.3257413992379794;-2.305469903079336;0.0635535560372583;-3.2036462210964567;370;1.2566370614359177
633;1.9205360884247824;-1.3243727734831263;0.8458878682921775;-0.4880514752711694;-0.3179045136536746;1.7463611613564902;399;1.0751825491556746
634;-0.3593383678215223;-0.7014457856741552;-1.917331279765594;-0.8672490885268915;-2.050459903705408;1.1657407413646257;526;1.0897761684684415
635;-0.9396998522795958;0.8635112381682144;1.3722586525761902;2.438097257559088;-0.6829203450869166;-2.911191503635454;294;1.161155663557978
636;-1.6227054365466544;1.2709852125549976;-2.3847365972626844;2.386100368639659;2.25993798190642;2.911119568391365;569;1.2566370614359172
637;-2.7659961121950003;-0.5138016600083273;1.2381713935614345;0.1601322867396249;-2.280364818146047;3.174573464890253;363;1.2566370614359172
638;3.0000979206202607;-0.3515642776935709;1.60953541962722;1.3103519330616913;1.5764798466951375;2.045434217501067;528;1.256637061435917
639;-1.4435850207102603;1.075733619251444;0.935521095671759;0.1223711524375599;2.0937859047643177;3.2737807460551567;202;1.256637061435917
640;-0.35905315976027;0.6868919869109997;1.227182402835385;1.0381187560515914;-2.1713305907156277;-1.9753295867850744;583;1.2566370614359172
641;1.803496606471708;-0.3814399610488144;-1.4401264432452954;1.2047600804869625;-1.010209153308144;2.7553379405031926;207;1.256637061435917
642;1.479119991914416;-0.8466618272956723;2.109712060891889;-0.9567082378622496;1.014890497396502;2.6958333375380734;127;1.2566370614359177
643;2.263468558002117;0.5928860020713909;0.0278161433419743;-1.2192857088247924;-1.617397053288109;3.0118672265892283;128;1.2566370614359177
644;2.611988018250245;0.9938811721115344;-2.1878989095192507;3.077626502518298;0.1895788368218354;-0.918566189687763;134;1.256637061435917
645;3.2563482910239347;1.0596580934017157;-2.5401956363427307;2.912129701257433;-0.1325602662875775;-0.5681734538856023;644;0.8930720074644452
646;1.8441028972210305;-0.3818101113705267;-0.5955289051257765;-1.2196950635624952;-2.450115358348291;0.409578547426169;335;0.4457434920593433
647;-0.379574457729103;0.4086552449585592;-1.7568445812205276;-1.2243255219641511;1.6985279793769663;-1.3354101616592071;190;1.2566370614359172
648;2.802445167233546;1.1107159993711817;-1.8211254257246487;-2.7317263632457927;-0.3969873203676325;-2.7591676636507323;400;1.2566370614359172
649;0.4053520961022717;-1.078965308792946;1.1808509697305891;-2.562807157884841;-0.3869653429057373;1.185233395996546;572;1.2566370614359177
650;1.06275441815452;-1.1637291777381713;-0.5905198636362483;-1.373931392808019;2.082927653147675;1.101628113200804;515;1.2566370614359172
651;1.2045284786080166;1.443470914607704;-1.7196086357679683;2.767280895059101;-0.5651963225376396;1.513902312052967;105;1.2566370614359177
652;2.5603042331412347;1.2531627707538469;-1.0708420308232645;-2.381190354571254;0.4918340955731688;2.9058956837113343;352;1.2566370614359172
653;0.2817556557896208;-0.654187345523953;2.773973037953373;0.013940890357939;0.4156389708681294;-0.8150069624164713;292;1.256637061435917
654;1.0660606442975602;-0.5795075557155679;1.9502592345196923;-1.2553540340450926;2.288170082086807;-1.9108647963476777;28;1.2566370614359177
655;-2.731417715169336;-1.5419848948123434;-1.4322130202866017;-1.3037037007904158;0.576131897746356;2.301652930799364;482;1.2566370614359172
656;1.4515027330366348;-0.0466836472919926;-1.4534906759770183;0.0116660662482916;0.886139016139044;1.9277876675217585;262;1.2402811914637009
657;-2.462516203465396;0.365657110399613;1.5908731485861245;-3.0100862365551;-0.499331587884058;2.6656718177000003;237;1.256637061435917
658;-2.439168248769829;0.6450228995954488;2.373666295877465;-1.4330367356425573;-0.5287078118227244;-2.397076448457112;453;1.256637061435917
659;-2.7365806921980758;-1.6142835246841316;0.8455503651262359;1.7225117564682075;1.7922619394885606;-1.5532700964642778;156;1.0019831885448354
660;0.5789887025166824;-0.2493924747745022;-0.4106018570084656;1.451391825305265;0.2358682494503989;1.8192590062976568;568;1.2566370614359172
661;-2.7213330456181954;0.8875999932783126;0.6064416549170428;0.753809554753738;3.3895806818185807;-2.664442405307448;601;1.2566370614359177
662;0.0027461461935511;-1.335815557562857;-0.1391469890961584;-0.4275933376811515;-1.3932165233840252;0.8346475997325393;116;1.2566370614359172
663;-0.3376677930741568;-0.8161056759568832;-1.6873414687003736;0.2266613295431803;2.5346740019472063;-2.887289525862802;123;1.2566370614359177
664;-3.2811330999530672;-0.3775621083716663;-1.7970180832794147;0.9734849995482564;2.271639300778036;1.5385223309398568;188;1.256637061435917
665;2.8091520941437502;1.0075102019585334;1.6147276942133737;-1.191518044802671;2.493475367935397;-1.8480859084808776;242;1.256637061435917
666;0.4665637992140775;-0.6777758030459183;1.032783132311466;-1.135994839523707;1.44319289568105;3.050293897030129;127;1.256637061435917
667;0.8637892959640213;-0.8616329111578003;1.5040072391712032;2.490712786200528;-0.3589470811971922;0.0254925043479917;186;0.8914928370430951
668;2.813603378073012;0.9836777930461884;0.943288235257316;-0.4084316172293356;0.309163322506552;-2.2751541321054507;281;1.2566370614359172
669;3.159683758593621;-1.312298218217381;1.2323696379297822;0.6679487968070563;1.2313515790905647;0.4271149423632321;397;1.256637061435917
670;0.5060224265649848;0.8973737562272316;-1.861547437479392;-0.3936973707193646;2.4358279402598053;-2.5486825080570807;123;1.1844371169802863
671;-2.1309213681831616;0.4066588772341741;-1.0927632006240575;0.5975482943504253;3.3805567339526505;0.1583698205317636;243;1.2566370614359177
672;-0.2691904688774889;-0.1702480282144787;-1.5678817811895924;-3.1148141645154115;0.7044157605849288;-2.2021644808377383;279;1.2566370614359177
673;1.7703664017333611;-1.3121381790641151;-1.276018870211877;0.7753729459254517;-2.6926765680110902;1.9724279760137589;587;1.2566370614359177
674;-2.653558041031968;1.81488106656373;-1.1648605486598222;-0.5962337038747683;2.563232998657321;-2.6544907688503985;274;0.7260322075588475
675;0.4183499463982535;-1.1770390003455706;-1.5304365042126715;-1.9901654243778817;-1.0404136749865898;-1.0539743225430966;192;1.256637061435917
676;0.4369999183111793;-1.537581452876766;-0.2871102502172601;1.1743318129845526;2.688332638228874;0.540780119220861;271;1.2566370614359172
677;1.5208286157428357;0.6180206903004478;2.065247863992994;0.3047913881982969;-0.7908081963987357;-2.0278403836586927;418;1.2566370614359177
678;-2.117803538260328;0.0878405309912241;-0.9232449594564552;0.8732987280479333;-0.9680282222044324;-2.301773266361806;325;1.2566370614359177
679;-2.3353307767334366;-0.263100218155214;2.5105848930944266;-1.6965303628523385;1.984348212470426;0.3756153226472868;514;1.2566370614359177
680;-2.732056317786523;-1.22059677084804;-0.7271468037196163;-2.1082466011098235;1.1482056441860349;2.366228085245356;655;1.2566370614359172
681;-2.543163184587621;0.8088941795624949;-1.981957945144824;2.8954613581041064;-0.3888155661233764;3.1036442229380707;531;1.256637061435917
682;1.4790953685247303;-1.5585742328761192;2.771320739337196;-0.1723533155966892;1.1516126685900332;-2.3650131171908866;488;1.2566370614359172
683;-0.3555550468996505;0.925733503436798;-1.9231974031140813;-0.0866911132251361;1.9851915363254744;-0.5951765052305189;314;1.256637061435917
684;0.2718561267247489;1.4173923147060186;-1.3723934717494408;-0.0792390438712419;-1.2834398718522455;2.6247857195758884;379;1.256637061435917
685;0.6665637266365086;-1.2814269561728742;-0.1608825908339488;-0.2778766389885453;2.214487066002094;1.775233140007126;170;0.8019665172196621
686;1.7177169248383584;-0.4189125229038239;1.6203158112389913;0.5359742701732552;1.7346317736828183;-1.303195567700402;298;1.256406141741308
687;1.2006558446540934;0.7976015111841275;1.9974069006299933;2.352999801314566;0.6453866668346234;-1.940091454559292;210;1.256637061435917
688;0.2683089390203699;-1.4974076646385934;0.870167060329973;1.0477245743359855;-2.067962865181933;-0.0965085410258567;403;1.2566370614359172
689;-0.8189359299966554;-0.6311300351802921;1.2602977565260949;0.9222567905800496;-2.217492561408894;2.0111309618596804;15;1.1499881255303537
690;-2.9004730091395;0.4693907654724755;1.1480657125144906;0.578151977679956;3.172662607501066;-0.3373083867286918;62;1.256637061435917
691;-0.7232238917332088;0.4096583295018474;1.4188493357760892;-2.15318621306418;-0.4349939964444538;2.432233945891184;572;1.2566370614359172
692;1.7582486200924683;-1.2308690398818292;2.031171160936849;-1.905949032506328;-3.011436183930322;1.6357077432149802;57;1.2566370614359172
693;-2.7933242858318272;-1.0321696223437875;1.162376000911621;-1.1038262830575036;-1.9127092686230995;2.1439589851980223;155;1.2566370614359172
694;2.5819985040410978;0.0872871354107958;-2.519702057326059;-0.1605435427114369;-1.6301356999320598;-1.8334224689242704;549;1.256637061435917
695;-1.314534718546056;1.1287307709202477;1.1124849569651578;1.1162247051345828;2.414569267422166;-1.209500457534764;37;1.0029614114439611
696;-1.6857484835657706;-1.107473851318329;1.2218679344888133;-3.1047476536158687;0.8398282483971145;-0.5722429214632654;434;1.2566370614359172
697;-1.2021132416744644;1.5024299458847747;0.2421995952653977;-1.594547621115478;-0.026536460276707;0.6436891995894436;630;1.256637061435917
698;-2.4449559106298286;-0.3207506652484058;0.1430365576685735;0.6883486089501;-2.3804390104663518;-3.073578759494921;358;1.2566370614359172
699;1.0474272336897787;0.2271217055181047;-1.3105587806304675;-2.2148685982465746;0.1662654374982421;0.5117883692218066;484;0.9431526529094452
700;-2.7651706299396737;-0.7601593117814349;-0.7760925282618272;-2.4764233465041388;0.1689122432654572;1.84750645671373;680;1.256637061435917
701;2.9203828708741777;0.8914640772049296;-0.8909533922901083;1.9919816473678416;0.6633188451315614;1.3523871437430697;421;1.0098286044016969
702;-3.1093026337984893;0.3676518383035043;0.6426926489330045;1.7671874106689267;-2.8567295433754336;-0.0963679421561747;518;0.8634172556742864
703;-1.1206677879468532;-1.2181765423078148;1.987803753844416;2.642088652602615;0.9489787709999068;1.0685840511336386;480;1.2566370614359177
704;2.577249641351024;-0.7514623004664571;-0.2397072685273776;-2.81186034295929;0.0266866904696278;0.7511302895933515;196;1.2566370614359172
705;-3.0168782889152177;-0.7871184525534671;-1.5995640285378052;1.318149074266063;1.7557689746527312;0.1165160435817221;160;0.992057005346594
706;1.403608039348572;-0.002259978866996;-0.5977593432130303;-1.212818013763996;2.3374445680952456;-3.286285761535395;113;1.256637061435917
707;-3.2717913122622617;1.3225597453471982;1.832650766629204;-1.6550511706408495;-0.7108979486935034;-2.624316195761951;658;1.2566370614359172
